;-- START GCODE --
;Sliced for Type A Machines Series 1
;Sliced at: Wed 07-10-2020 15:34:10
;Basic settings: Layer height: 0.2 Walls: 1 Fill: 20
;Print Speed: 45 Support: 0
;Retraction Speed: 40 Retraction Distance: 0.6
;Print time: 38 minutes
;Filament used: 1.02m 3.0g
;Settings based on: Type A Machines ProMatte
G21        ;metric values
G90        ;absolute positioning
G28     ;move to endstops
G29		;allows for auto-levelling
G1 Z15.0 F12000 ;move the platform down 15mm
G1 X150 Y5 F9000 ;center
M140 S50 ;Prep Heat Bed
M109 S210 ;Heat To temp
M190 S50 ;Heat Bed to temp
G1 X150 Y5 Z0.3 ;move the platform to purge extrusion
G92 E0 ;zero the extruded length
G1 F200 X250 E30 ;extrude 30mm of feed stock
G92 E0 ;zero the extruded length again
G1 X150 Y150  Z25 F12000 ;recenter and begin
G1 F9000

;Layer count: 219
;LAYER:0
M107
G0 F9000 X136.850 Y140.918 Z0.200
;TYPE:SKIRT
G1 F1800 X158.883 Y140.658 E0.91609
G1 X159.440 Y140.658 E0.93925
G1 X164.450 Y141.659 E1.15166
G1 X164.450 Y142.948 E1.20525
G1 X165.050 Y143.245 E1.23308
G1 X165.050 Y144.058 E1.26688
G1 X171.450 Y144.058 E1.53296
G1 X171.450 Y158.874 E2.14894
G1 X165.650 Y159.512 E2.39153
G1 X165.650 Y160.260 E2.42263
G1 X161.197 Y162.483 E2.62955
G1 X157.362 Y162.758 E2.78940
G1 X151.931 Y162.758 E3.01519
G1 X151.513 Y160.980 E3.09113
G1 X150.983 Y160.994 E3.11317
G1 X150.389 Y160.973 E3.13788
G1 X149.970 Y162.758 E3.21411
G1 X145.382 Y162.758 E3.40486
G1 X141.059 Y162.518 E3.58487
G1 X139.592 Y162.030 E3.64914
G1 X136.050 Y160.261 E3.81375
G1 X136.050 Y159.151 E3.85989
G1 X135.850 Y158.951 E3.87165
G1 X135.850 Y158.751 E3.87997
G1 X135.650 Y158.551 E3.89173
G1 X135.650 Y151.665 E4.17801
G1 X135.850 Y151.465 E4.18977
G1 X135.850 Y149.465 E4.27292
G1 X136.050 Y149.265 E4.28468
G1 X136.050 Y148.465 E4.31794
G1 X136.250 Y148.265 E4.32970
G1 X136.250 Y146.865 E4.38791
G1 X136.450 Y146.665 E4.39967
G1 X136.450 Y145.665 E4.44124
G1 X136.650 Y145.465 E4.45300
G1 X136.650 Y144.665 E4.48626
G1 X136.850 Y144.465 E4.49802
G1 X136.850 Y140.918 E4.64549
G0 F9000 X137.350 Y141.412
G1 F1800 X158.886 Y141.158 E5.54091
G1 X159.391 Y141.158 E5.56191
G1 X163.950 Y142.069 E5.75520
G1 X163.950 Y143.258 E5.80463
G1 X164.550 Y143.555 E5.83246
G1 X164.550 Y144.558 E5.87416
G1 X170.950 Y144.558 E6.14024
G1 X170.950 Y158.426 E6.71681
G1 X165.150 Y159.064 E6.95940
G1 X165.150 Y159.951 E6.99628
G1 X161.062 Y161.992 E7.18624
G1 X157.344 Y162.258 E7.34121
G1 X152.327 Y162.258 E7.54980
G1 X151.904 Y160.457 E7.62671
G1 X151.662 Y160.476 E7.63680
G1 X150.985 Y160.494 E7.66496
G1 X150.195 Y160.465 E7.69782
G1 X149.999 Y160.446 E7.70601
G1 X149.574 Y162.258 E7.78339
G1 X145.396 Y162.258 E7.95709
G1 X141.153 Y162.023 E8.13377
G1 X139.784 Y161.567 E8.19376
G1 X136.550 Y159.952 E8.34404
G1 X136.550 Y158.944 E8.38595
G1 X136.350 Y158.744 E8.39771
G1 X136.350 Y158.544 E8.40603
G1 X136.150 Y158.344 E8.41778
G1 X136.150 Y151.872 E8.68686
G1 X136.350 Y151.672 E8.69862
G1 X136.350 Y149.672 E8.78177
G1 X136.550 Y149.472 E8.79353
G1 X136.550 Y148.672 E8.82679
G1 X136.750 Y148.472 E8.83855
G1 X136.750 Y147.072 E8.89675
G1 X136.950 Y146.872 E8.90851
G1 X136.950 Y145.872 E8.95009
G1 X137.150 Y145.672 E8.96185
G1 X137.150 Y144.872 E8.99511
G1 X137.350 Y144.672 E9.00687
G1 X137.350 Y141.412 E9.14240
G1 F2400 E8.54240
G1 Z0.700
G0 F9000 X149.467 Y154.023
;TYPE:WALL-INNER
G1 Z0.200
G1 F2400 E9.14240
G1 F1800 X150.287 Y153.426 E9.18457
G1 X150.325 Y153.402 E9.18644
G1 X150.677 Y153.286 E9.20185
G1 X151.000 Y153.248 E9.21537
G1 X151.321 Y153.286 E9.22881
G1 X151.678 Y153.403 E9.24443
G1 X152.461 Y153.964 E9.28447
G1 X152.529 Y154.017 E9.28806
G1 X152.822 Y154.434 E9.30925
G1 X153.093 Y154.947 E9.33337
G1 X153.282 Y155.453 E9.35582
G1 X153.383 Y155.928 E9.37601
G1 X153.403 Y156.104 E9.38338
G1 X153.370 Y156.121 E9.38492
G1 X152.898 Y156.275 E9.40556
G1 X152.419 Y156.375 E9.42591
G1 X151.454 Y156.479 E9.46626
G1 X151.007 Y156.491 E9.48485
G1 X150.457 Y156.472 E9.50773
G1 X149.900 Y156.418 E9.53100
G1 X149.390 Y156.338 E9.55246
G1 X148.958 Y156.231 E9.57096
G1 X148.627 Y156.120 E9.58548
G1 X148.599 Y156.102 E9.58686
G1 X148.610 Y155.958 E9.59286
G1 X148.719 Y155.450 E9.61446
G1 X148.905 Y154.953 E9.63653
G1 X149.181 Y154.429 E9.66115
G1 X149.467 Y154.023 E9.68180
G0 F9000 X149.547 Y153.335
;TYPE:WALL-OUTER
G1 F1800 X150.014 Y153.007 E9.70552
G1 X150.114 Y152.945 E9.71041
G1 X150.569 Y152.795 E9.73033
G1 X151.000 Y152.744 E9.74838
G1 X151.427 Y152.795 E9.76626
G1 X151.889 Y152.946 E9.78646
G1 X152.106 Y153.080 E9.79707
G1 X152.753 Y153.558 E9.83051
G1 X152.896 Y153.670 E9.83806
G1 X153.247 Y154.168 E9.86339
G1 X153.550 Y154.742 E9.89038
G1 X153.763 Y155.313 E9.91571
G1 X153.878 Y155.855 E9.93875
G1 X153.920 Y156.227 E9.95431
G1 X153.915 Y156.330 E9.95860
G1 X153.873 Y156.390 E9.96165
G1 X153.719 Y156.505 E9.96964
G1 X153.567 Y156.582 E9.97672
G1 X153.028 Y156.758 E10.00029
G1 X152.500 Y156.868 E10.02272
G1 X151.974 Y156.941 E10.04480
G1 X151.002 Y156.992 E10.08526
G1 X150.424 Y156.971 E10.10931
G1 X149.843 Y156.916 E10.13357
G1 X149.291 Y156.829 E10.15681
G1 X148.436 Y156.583 E10.19379
G1 X148.397 Y156.566 E10.19556
G1 X148.153 Y156.414 E10.20751
G1 X148.080 Y156.332 E10.21208
G1 X148.113 Y155.901 E10.23005
G1 X148.113 Y155.889 E10.23055
G1 X148.236 Y155.315 E10.25495
G1 X148.450 Y154.742 E10.28038
G1 X148.752 Y154.169 E10.30731
G1 X149.103 Y153.672 E10.33261
G1 X149.547 Y153.335 E10.35578
G0 F9000 X149.978 Y153.867
;TYPE:SKIN
G1 F1800 X152.318 Y156.207 E10.49337
G0 F9000 X152.904 Y156.086
G1 F1800 X150.386 Y153.568 E10.64142
G0 F9000 X150.953 Y153.428
G1 F1800 X153.136 Y155.611 E10.76977
G1 F2400 E10.16977
G1 Z0.700
G0 F9000 X152.472 Y154.240
G1 Z0.200
G1 F2400 E10.76977
G1 F1800 X152.282 Y154.050 E10.78094
G0 F9000 X151.680 Y156.276
G1 F1800 X149.575 Y154.171 E10.90471
G0 F9000 X149.290 Y154.594
G1 F1800 X151.011 Y156.314 E11.00586
G0 F9000 X150.265 Y156.276
G1 F1800 X149.050 Y155.060 E11.07733
G0 F9000 X148.867 Y155.585
G1 F1800 X149.451 Y156.169 E11.11167
G0 F9000 X148.493 Y156.250
;TYPE:SUPPORT
G1 F1800 X138.575 Y156.250 E11.52401
G1 F2400 E10.92401
G1 Z0.700
G0 F9000 X143.750 Y159.738
G1 Z0.200
G1 F2400 E11.52401
G1 F1800 X143.750 Y143.762 E12.18822
G0 F9000 X144.768 Y143.750
G1 F1800 X159.986 Y143.750 E12.82091
G1 F2400 E12.22091
G1 Z0.700
G0 F9000 X156.250 Y143.614
G1 Z0.200
G1 F2400 E12.82091
G1 F1800 X156.250 Y159.833 E13.49521
G1 F2400 E12.89521
G1 Z0.700
G0 F9000 X153.407 Y156.250
G1 Z0.200
G1 F2400 E13.49521
G1 F1800 X163.125 Y156.250 E13.89924
G0 F9000 X163.175 Y156.250
G1 F1800 X168.525 Y156.250 E14.12167
;LAYER:1
M106 S10
G1 F2400 E13.52167
G1 Z0.700
G0 F9000 X154.823 Y155.934 Z0.400
;TYPE:WALL-INNER
G1 Z0.400
G1 F2400 E14.12167
G1 F960 X154.833 Y156.175 E14.13170
G1 X154.508 Y156.342 E14.14689
G1 X154.076 Y156.486 E14.16582
G1 X153.586 Y156.600 E14.18674
G1 X152.955 Y156.725 E14.21348
G1 X152.226 Y156.813 E14.24401
G1 X151.465 Y156.864 E14.27572
G1 X150.995 Y156.874 E14.29526
G1 X150.060 Y156.839 E14.33416
G1 X149.559 Y156.793 E14.35508
G1 X149.020 Y156.722 E14.37768
G1 X148.204 Y156.557 E14.41229
G1 X147.728 Y156.426 E14.43282
G1 X147.341 Y156.276 E14.45008
G1 X147.170 Y156.180 E14.45823
G1 X147.248 Y155.373 E14.49194
G1 X147.361 Y154.876 E14.51313
G1 X147.559 Y154.367 E14.53583
G1 X147.836 Y153.834 E14.56081
G1 X148.167 Y153.316 E14.58636
G1 X148.379 Y153.035 E14.60100
G1 X148.870 Y152.591 E14.62852
G1 X149.354 Y152.200 E14.65439
G1 X150.006 Y151.890 E14.68440
G1 X150.256 Y151.784 E14.69569
G1 X150.635 Y151.701 E14.71182
G1 X151.001 Y151.673 E14.72708
G1 X151.368 Y151.702 E14.74239
G1 X151.736 Y151.782 E14.75805
G1 X152.635 Y152.196 E14.79920
G1 X153.186 Y152.640 E14.82861
G1 X153.619 Y153.033 E14.85293
G1 X153.835 Y153.318 E14.86779
G1 X154.168 Y153.840 E14.89354
G1 X154.435 Y154.352 E14.91754
G1 X154.628 Y154.853 E14.93986
G1 X154.753 Y155.383 E14.96250
G1 X154.823 Y155.934 E14.98560
G0 F9000 X155.335 Y156.209
;TYPE:WALL-OUTER
G1 F960 X155.346 Y156.262 E14.98785
G1 X155.348 Y156.314 E14.99001
G1 X155.331 Y156.387 E14.99313
G1 X155.267 Y156.479 E14.99778
G1 X155.219 Y156.526 E15.00058
G1 X154.702 Y156.805 E15.02500
G1 X154.219 Y156.966 E15.04617
G1 X153.683 Y157.091 E15.06905
G1 X153.054 Y157.215 E15.09571
G1 X152.554 Y157.282 E15.11668
G1 X151.988 Y157.337 E15.14032
G1 X151.477 Y157.364 E15.16160
G1 X151.004 Y157.374 E15.18127
G1 X150.014 Y157.337 E15.22245
G1 X149.500 Y157.290 E15.24391
G1 X148.955 Y157.218 E15.26677
G1 X148.745 Y157.183 E15.27562
G1 X148.084 Y157.042 E15.30372
G1 X147.572 Y156.901 E15.32580
G1 X147.126 Y156.729 E15.34567
G1 X146.841 Y156.569 E15.35926
G1 X146.780 Y156.525 E15.36239
G1 X146.725 Y156.471 E15.36559
G1 X146.688 Y156.425 E15.36805
G1 X146.669 Y156.393 E15.36959
G1 X146.651 Y156.327 E15.37244
G1 X146.653 Y156.267 E15.37493
G1 X146.664 Y156.218 E15.37702
G1 X146.755 Y155.289 E15.41583
G1 X146.865 Y154.794 E15.43691
G1 X147.069 Y154.245 E15.46126
G1 X147.397 Y153.592 E15.49164
G1 X147.758 Y153.028 E15.51948
G1 X148.009 Y152.696 E15.53679
G1 X148.536 Y152.219 E15.56634
G1 X148.953 Y151.876 E15.58879
G1 X149.093 Y151.771 E15.59606
G1 X149.813 Y151.429 E15.62920
G1 X150.106 Y151.305 E15.64243
G1 X150.563 Y151.205 E15.66188
G1 X151.002 Y151.171 E15.68018
G1 X151.439 Y151.206 E15.69841
G1 X151.892 Y151.304 E15.71768
G1 X152.901 Y151.768 E15.76385
G1 X153.510 Y152.259 E15.79638
G1 X153.990 Y152.695 E15.82334
G1 X154.246 Y153.034 E15.84100
G1 X154.599 Y153.584 E15.86817
G1 X154.895 Y154.153 E15.89483
G1 X155.107 Y154.704 E15.91938
G1 X155.245 Y155.290 E15.94441
G1 X155.321 Y155.887 E15.96943
G1 X155.335 Y156.209 E15.98283
G0 F9000 X154.589 Y155.477
;TYPE:SKIN
G1 F960 X153.664 Y156.401 E16.03718
G0 F9000 X152.790 Y156.568
G1 F960 X154.458 Y154.900 E16.13526
G0 F9000 X154.258 Y154.393
G1 F960 X151.998 Y156.653 E16.26814
G0 F9000 X151.251 Y156.693
G1 F960 X154.015 Y153.929 E16.43065
G0 F9000 X153.741 Y153.496
G1 F960 X150.555 Y156.682 E16.61797
G0 F9000 X149.884 Y156.646
G1 F960 X153.432 Y153.098 E16.82658
G0 F9000 X153.060 Y152.763
G1 F960 X149.248 Y156.575 E17.05071
G0 F9000 X148.648 Y156.467
G1 F960 X152.667 Y152.448 E17.28702
G0 F9000 X152.214 Y152.194
G1 F960 X148.070 Y156.338 E17.53067
G0 F9000 X147.537 Y156.164
G1 F960 X151.730 Y151.971 E17.77720
G0 F9000 X151.136 Y151.858
G1 F960 X147.402 Y155.592 E17.99674
G0 F9000 X147.636 Y154.651
G1 F960 X150.345 Y151.942 E18.15602
G1 F2400 E17.55602
G1 Z0.900
G0 F9000 X156.250 Y155.554
;TYPE:SUPPORT
G1 Z0.400
G1 F2400 E18.15602
G1 F960 X156.250 Y144.366 E18.62117
G1 F2400 E18.02117
G1 Z0.900
G0 F9000 X156.250 Y156.303
G1 Z0.400
G1 F2400 E18.62117
G1 F960 X156.250 Y158.373 E18.70723
G1 F2400 E18.10723
G1 Z0.900
G0 F9000 X143.750 Y158.986
G1 Z0.400
G1 F2400 E18.70723
G1 F960 X143.750 Y144.512 E19.30899
;LAYER:2
M106 S20
G1 F2400 E18.70899
G1 Z0.900
G0 F9000 X148.341 Y151.501 Z0.600
;TYPE:WALL-INNER
G1 Z0.600
G1 F2400 E19.30899
G1 F1140 X148.970 Y151.105 E19.33989
G1 X149.328 Y150.889 E19.35727
G1 X149.960 Y150.664 E19.38516
G1 X150.239 Y150.568 E19.39743
G1 X150.629 Y150.494 E19.41393
G1 X151.000 Y150.472 E19.42938
G1 X151.376 Y150.495 E19.44504
G1 X151.757 Y150.566 E19.46116
G1 X152.530 Y150.832 E19.49514
G1 X152.666 Y150.884 E19.50120
G1 X153.361 Y151.301 E19.53489
G1 X153.653 Y151.495 E19.54947
G1 X154.443 Y152.268 E19.59542
G1 X154.693 Y152.556 E19.61128
G1 X155.136 Y153.262 E19.64593
G1 X155.395 Y153.780 E19.67001
G1 X155.777 Y154.838 E19.71677
G1 X155.863 Y155.274 E19.73525
G1 X155.926 Y155.796 E19.75711
G1 X155.948 Y156.092 E19.76945
G1 X155.943 Y156.181 E19.77315
G1 X155.945 Y156.213 E19.77449
G1 X155.751 Y156.350 E19.78436
G1 X155.413 Y156.506 E19.79984
G1 X155.093 Y156.620 E19.81396
G1 X154.206 Y156.847 E19.85203
G1 X153.677 Y156.945 E19.87440
G1 X153.794 Y156.799 E19.88217
G1 X153.908 Y156.508 E19.89517
G1 X153.911 Y156.090 E19.91255
G1 X153.880 Y156.019 E19.91577
G1 X153.807 Y155.451 E19.93958
G1 X153.690 Y155.050 E19.95694
G1 X153.305 Y154.347 E19.99027
G1 X152.785 Y153.694 E20.02497
G1 X152.441 Y153.358 E20.04496
G1 X152.049 Y153.142 E20.06357
G1 X151.879 Y153.110 E20.07076
G1 X151.708 Y153.032 E20.07858
G1 X150.982 Y152.903 E20.10923
G1 X150.655 Y152.977 E20.12317
G1 X150.347 Y153.018 E20.13609
G1 X149.909 Y153.167 E20.15532
G1 X149.563 Y153.354 E20.17168
G1 X149.217 Y153.692 E20.19179
G1 X148.695 Y154.346 E20.22658
G1 X148.385 Y154.913 E20.25344
G1 X148.301 Y155.064 E20.26063
G1 X148.125 Y155.811 E20.29253
G1 X148.109 Y156.056 E20.30274
G1 X148.092 Y156.100 E20.30470
G1 X148.089 Y156.533 E20.32270
G1 X148.288 Y156.939 E20.34150
G1 X147.414 Y156.764 E20.37856
G1 X146.913 Y156.622 E20.40021
G1 X146.457 Y156.453 E20.42043
G1 X146.145 Y156.288 E20.43510
G1 X146.049 Y156.221 E20.43997
G1 X146.071 Y155.888 E20.45384
G1 X146.067 Y155.860 E20.45502
G1 X146.120 Y155.357 E20.47605
G1 X146.215 Y154.866 E20.49684
G1 X146.366 Y154.377 E20.51812
G1 X146.602 Y153.788 E20.54450
G1 X146.866 Y153.259 E20.56908
G1 X147.184 Y152.730 E20.59474
G1 X147.295 Y152.569 E20.60287
G1 X147.557 Y152.268 E20.61946
G1 X148.051 Y151.766 E20.64874
G1 X148.341 Y151.501 E20.66507
G0 F9000 X147.714 Y151.397
;TYPE:WALL-OUTER
G1 F1140 X148.038 Y151.101 E20.68332
G1 X148.711 Y150.677 E20.71639
G1 X149.110 Y150.436 E20.73577
G1 X149.793 Y150.193 E20.76591
G1 X150.109 Y150.084 E20.77981
G1 X150.568 Y149.997 E20.79923
G1 X151.000 Y149.971 E20.81722
G1 X151.433 Y149.997 E20.83526
G1 X151.891 Y150.083 E20.85463
G1 X152.708 Y150.364 E20.89055
G1 X152.887 Y150.433 E20.89853
G1 X153.623 Y150.875 E20.93422
G1 X153.961 Y151.100 E20.95110
G1 X154.810 Y151.928 E21.00040
G1 X155.097 Y152.259 E21.01862
G1 X155.570 Y153.013 E21.05562
G1 X155.854 Y153.582 E21.08206
G1 X156.034 Y154.017 E21.10163
G1 X156.263 Y154.716 E21.13222
G1 X156.358 Y155.197 E21.15260
G1 X156.422 Y155.725 E21.17471
G1 X156.448 Y156.081 E21.18955
G1 X156.444 Y156.180 E21.19367
G1 X156.451 Y156.319 E21.19946
G1 X156.435 Y156.406 E21.20314
G1 X156.384 Y156.499 E21.20755
G1 X156.352 Y156.537 E21.20961
G1 X156.003 Y156.784 E21.22739
G1 X155.599 Y156.970 E21.24588
G1 X155.246 Y157.096 E21.26146
G1 X154.304 Y157.338 E21.30190
G1 X153.673 Y157.454 E21.32857
G1 X153.029 Y157.544 E21.35560
G1 X152.495 Y157.598 E21.37792
G1 X151.981 Y157.637 E21.39935
G1 X151.474 Y157.661 E21.42045
G1 X151.004 Y157.667 E21.43999
G1 X150.173 Y157.643 E21.47456
G1 X149.507 Y157.600 E21.50230
G1 X148.965 Y157.543 E21.52496
G1 X148.411 Y157.468 E21.54820
G1 X147.855 Y157.372 E21.57166
G1 X147.297 Y157.250 E21.59541
G1 X146.752 Y157.096 E21.61896
G1 X146.251 Y156.909 E21.64119
G1 X145.886 Y156.718 E21.65831
G1 X145.656 Y156.546 E21.67026
G1 X145.582 Y156.443 E21.67553
G1 X145.553 Y156.372 E21.67872
G1 X145.547 Y156.227 E21.68475
G1 X145.569 Y155.905 E21.69817
G1 X145.564 Y155.866 E21.69980
G1 X145.626 Y155.279 E21.72434
G1 X145.729 Y154.745 E21.74695
G1 X145.894 Y154.210 E21.77023
G1 X146.081 Y153.739 E21.79130
G1 X146.435 Y153.004 E21.82522
G1 X146.758 Y152.467 E21.85127
G1 X146.898 Y152.265 E21.86149
G1 X147.190 Y151.928 E21.88003
G1 X147.714 Y151.397 E21.91104
G1 F2400 E21.31104
G1 Z1.100
G0 F9000 X149.588 Y154.028
G1 Z0.600
G1 F2400 E21.91104
G1 F1140 X149.113 Y154.624 E21.94273
G1 X148.822 Y155.157 E21.96798
G1 X148.772 Y155.247 E21.97226
G1 X148.621 Y155.886 E21.99955
G1 X148.603 Y156.164 E22.01114
G1 X148.591 Y156.194 E22.01248
G1 X148.590 Y156.419 E22.02183
G1 X148.694 Y156.631 E22.03165
G1 X148.838 Y156.745 E22.03929
G1 X149.126 Y156.874 E22.05241
G1 X149.796 Y157.045 E22.08116
G1 X150.364 Y157.114 E22.10494
G1 X150.998 Y157.146 E22.13134
G1 X151.503 Y157.129 E22.15234
G1 X152.031 Y157.076 E22.17441
G1 X152.591 Y156.968 E22.19812
G1 X153.047 Y156.802 E22.21829
G1 X153.182 Y156.733 E22.22459
G1 X153.277 Y156.645 E22.22998
G1 X153.356 Y156.546 E22.23524
G1 X153.409 Y156.411 E22.24127
G1 X153.410 Y156.192 E22.25038
G1 X153.394 Y156.154 E22.25209
G1 X153.316 Y155.554 E22.27725
G1 X153.225 Y155.243 E22.29072
G1 X152.887 Y154.625 E22.32001
G1 X152.413 Y154.030 E22.35163
G1 X152.140 Y153.763 E22.36751
G1 X151.878 Y153.619 E22.37994
G1 X151.727 Y153.590 E22.38633
G1 X151.558 Y153.513 E22.39405
G1 X150.994 Y153.413 E22.41787
G1 X150.745 Y153.469 E22.42848
G1 X150.462 Y153.507 E22.44035
G1 X150.110 Y153.627 E22.45581
G1 X149.862 Y153.761 E22.46753
G1 X149.588 Y154.028 E22.48343
G0 F9000 X149.039 Y153.635
;TYPE:SKIN
G1 F1140 X147.736 Y152.332 E22.56005
G0 F9000 X148.087 Y151.976
G1 F1140 X149.389 Y153.278 E22.63660
G0 F9000 X149.828 Y153.010
G1 F1140 X148.454 Y151.636 E22.71738
G0 F9000 X148.888 Y151.363
G1 F1140 X150.362 Y152.837 E22.80405
G0 F9000 X150.959 Y152.727
G1 F1140 X149.326 Y151.094 E22.90006
G0 F9000 X149.834 Y150.895
G1 F1140 X151.837 Y152.897 E23.01780
G1 F2400 E22.41780
G1 Z1.100
G0 F9000 X153.143 Y151.375
G1 Z0.600
G1 F2400 E23.01780
G1 F1140 X154.757 Y152.989 E23.11270
G1 F2400 E22.51270
G1 Z1.100
G0 F9000 X155.415 Y154.355
G1 Z0.600
G1 F2400 E23.11270
G1 F1140 X151.841 Y150.780 E23.32287
G0 F9000 X151.002 Y150.649
G1 F1140 X155.695 Y155.341 E23.59877
G0 F9000 X155.769 Y156.122
G1 F1140 X150.368 Y150.721 E23.91633
G1 F2400 E23.31633
G1 Z1.100
G0 F9000 X147.408 Y152.711
G1 Z0.600
G1 F2400 E23.91633
G1 F1140 X148.725 Y154.028 E23.99376
G0 F9000 X148.438 Y154.449
G1 F1140 X147.136 Y153.146 E24.07034
G0 F9000 X146.887 Y153.605
G1 F1140 X148.188 Y154.905 E24.14681
G0 F9000 X148.029 Y155.453
G1 F1140 X146.668 Y154.092 E24.22683
G0 F9000 X146.477 Y154.608
G1 F1140 X147.922 Y156.054 E24.31182
G0 F9000 X147.829 Y156.667
G1 F1140 X146.332 Y155.171 E24.39981
G0 F9000 X146.249 Y155.795
G1 F1140 X146.874 Y156.420 E24.43656
G1 F2400 E23.83656
G1 Z1.100
G0 F9000 X153.768 Y154.829
G1 Z0.600
G1 F2400 E24.43656
G1 F1140 X155.297 Y156.358 E24.52645
G0 F9000 X154.757 Y156.525
G1 F1140 X154.027 Y155.795 E24.56938
G0 F9000 X154.078 Y156.553
G1 F1140 X154.193 Y156.668 E24.57614
G1 F2400 E23.97614
G1 Z1.100
G0 F9000 X156.250 Y158.574
;TYPE:SUPPORT
G1 Z0.600
G1 F2400 E24.57614
G1 F1140 X156.250 Y158.883 E24.58898
G0 F9000 X156.250 Y152.456
G1 F1140 X156.250 Y144.366 E24.92533
G1 F2400 E24.32533
G1 Z1.100
G0 F9000 X143.750 Y144.512
G1 Z0.600
G1 F2400 E24.92533
G1 F1140 X143.750 Y158.987 E25.52713
;LAYER:3
M106 S30
G1 F2400 E24.92713
G1 Z1.100
G0 F9000 X145.444 Y156.471 Z0.800
;TYPE:WALL-INNER
G1 Z0.800
G1 F2400 E25.52713
G1 F1140 X145.144 Y156.262 E25.54233
G1 X145.130 Y156.246 E25.54321
G1 X145.129 Y156.200 E25.54513
G1 X145.193 Y155.347 E25.58069
G1 X145.289 Y154.815 E25.60316
G1 X145.424 Y154.269 E25.62655
G1 X145.595 Y153.731 E25.65002
G1 X145.813 Y153.218 E25.67319
G1 X146.074 Y152.709 E25.69697
G1 X146.352 Y152.272 E25.71851
G1 X146.941 Y151.532 E25.75783
G1 X147.248 Y151.184 E25.77712
G1 X148.019 Y150.556 E25.81846
G1 X148.340 Y150.319 E25.83505
G1 X148.886 Y150.036 E25.86062
G1 X149.319 Y149.818 E25.88078
G1 X149.937 Y149.637 E25.90755
G1 X150.238 Y149.550 E25.92057
G1 X150.626 Y149.490 E25.93690
G1 X150.999 Y149.470 E25.95243
G1 X151.372 Y149.491 E25.96796
G1 X151.772 Y149.551 E25.98478
G1 X152.645 Y149.805 E26.02258
G1 X153.570 Y150.267 E26.06556
G1 X153.648 Y150.310 E26.06927
G1 X154.227 Y150.741 E26.09927
G1 X154.698 Y151.126 E26.12457
G1 X155.211 Y151.705 E26.15673
G1 X155.795 Y152.487 E26.19731
G1 X156.059 Y152.970 E26.22019
G1 X156.405 Y153.731 E26.25495
G1 X156.576 Y154.269 E26.27842
G1 X156.711 Y154.815 E26.30180
G1 X156.808 Y155.353 E26.32453
G1 X156.862 Y155.916 E26.34804
G1 X156.872 Y156.241 E26.36156
G1 X156.822 Y156.295 E26.36462
G1 X156.636 Y156.427 E26.37410
G1 X156.334 Y156.581 E26.38820
G1 X155.536 Y156.858 E26.42331
G1 X155.497 Y156.868 E26.42499
G1 X155.606 Y156.650 E26.43512
G1 X155.653 Y156.450 E26.44366
G1 X155.653 Y156.242 E26.45231
G1 X155.622 Y156.112 E26.45787
G1 X155.608 Y155.853 E26.46865
G1 X155.515 Y155.196 E26.49624
G1 X155.346 Y154.544 E26.52424
G1 X155.111 Y153.913 E26.55223
G1 X154.809 Y153.278 E26.58147
G1 X154.404 Y152.778 E26.60822
G1 X154.039 Y152.366 E26.63110
G1 X153.646 Y151.973 E26.65421
G1 X153.474 Y151.817 E26.66387
G1 X152.703 Y151.373 E26.70085
G1 X152.233 Y151.136 E26.72274
G1 X151.584 Y150.969 E26.75060
G1 X151.001 Y150.940 E26.77487
G1 X150.418 Y150.967 E26.79913
G1 X149.756 Y151.137 E26.82755
G1 X148.517 Y151.818 E26.88633
G1 X147.739 Y152.598 E26.93213
G1 X147.265 Y153.180 E26.96334
G1 X147.181 Y153.300 E26.96943
G1 X146.890 Y153.911 E26.99756
G1 X146.654 Y154.543 E27.02561
G1 X146.485 Y155.195 E27.05361
G1 X146.392 Y155.852 E27.08120
G1 X146.378 Y156.107 E27.09182
G1 X146.332 Y156.293 E27.09978
G1 X146.390 Y156.670 E27.11564
G1 X146.502 Y156.866 E27.12503
G1 X145.803 Y156.640 E27.15557
G1 X145.444 Y156.471 E27.17207
G0 F9000 X145.190 Y156.904
;TYPE:WALL-OUTER
G1 F1140 X144.807 Y156.637 E27.19148
G1 X144.680 Y156.492 E27.19949
G1 X144.632 Y156.379 E27.20460
G1 X144.628 Y156.180 E27.21287
G1 X144.696 Y155.290 E27.24998
G1 X144.799 Y154.715 E27.27427
G1 X144.946 Y154.121 E27.29971
G1 X145.123 Y153.565 E27.32397
G1 X145.363 Y152.999 E27.34953
G1 X145.639 Y152.461 E27.37466
G1 X145.942 Y151.984 E27.39816
G1 X146.566 Y151.201 E27.43979
G1 X146.894 Y150.828 E27.46044
G1 X147.290 Y150.488 E27.48214
G1 X147.708 Y150.164 E27.50412
G1 X148.076 Y149.892 E27.52315
G1 X148.656 Y149.592 E27.55030
G1 X149.137 Y149.350 E27.57268
G1 X149.799 Y149.156 E27.60136
G1 X150.125 Y149.062 E27.61547
G1 X150.572 Y148.993 E27.63427
G1 X150.999 Y148.970 E27.65205
G1 X151.433 Y148.994 E27.67012
G1 X151.872 Y149.060 E27.68858
G1 X152.794 Y149.328 E27.72850
G1 X152.860 Y149.349 E27.73138
G1 X153.811 Y149.829 E27.77567
G1 X153.921 Y149.890 E27.78090
G1 X154.526 Y150.340 E27.81224
G1 X155.045 Y150.764 E27.84011
G1 X155.597 Y151.386 E27.87468
G1 X156.213 Y152.211 E27.91749
G1 X156.300 Y152.358 E27.92459
G1 X156.689 Y153.116 E27.96001
G1 X156.873 Y153.553 E27.97972
G1 X157.054 Y154.121 E28.00451
G1 X157.201 Y154.715 E28.02995
G1 X157.303 Y155.284 E28.05398
G1 X157.361 Y155.878 E28.07879
G1 X157.372 Y156.335 E28.09780
G1 X157.360 Y156.409 E28.10092
G1 X157.315 Y156.499 E28.10510
G1 X157.158 Y156.669 E28.11472
G1 X156.893 Y156.856 E28.12821
G1 X156.538 Y157.038 E28.14479
G1 X156.045 Y157.225 E28.16671
G1 X155.673 Y157.339 E28.18289
G1 X154.702 Y157.568 E28.22437
G1 X154.139 Y157.667 E28.24813
G1 X153.248 Y157.782 E28.28548
G1 X152.750 Y157.833 E28.30629
G1 X152.041 Y157.883 E28.33584
G1 X151.347 Y157.910 E28.36472
G1 X151.001 Y157.916 E28.37911
G1 X150.431 Y157.904 E28.40281
G1 X149.240 Y157.832 E28.45242
G1 X148.222 Y157.719 E28.49500
G1 X147.594 Y157.620 E28.52143
G1 X147.307 Y157.570 E28.53354
G1 X147.028 Y157.510 E28.54541
G1 X146.511 Y157.387 E28.56750
G1 X145.617 Y157.105 E28.60648
G1 X145.190 Y156.904 E28.62610
G1 F2400 E28.02610
G1 Z1.300
G0 F9000 X146.874 Y156.182
G1 Z0.800
G1 F2400 E28.62610
G1 F1140 X146.841 Y156.316 E28.63183
G1 X146.870 Y156.502 E28.63966
G1 X146.973 Y156.682 E28.64828
G1 X147.071 Y156.778 E28.65399
G1 X147.168 Y156.851 E28.65903
G1 X147.726 Y157.115 E28.68470
G1 X148.342 Y157.275 E28.71116
G1 X148.897 Y157.397 E28.73478
G1 X149.455 Y157.476 E28.75821
G1 X149.992 Y157.528 E28.78064
G1 X150.508 Y157.560 E28.80214
G1 X151.001 Y157.568 E28.82264
G1 X151.579 Y157.554 E28.84667
G1 X152.193 Y157.512 E28.87226
G1 X152.887 Y157.429 E28.90132
G1 X153.541 Y157.303 E28.92901
G1 X154.064 Y157.179 E28.95136
G1 X154.494 Y157.026 E28.97033
G1 X154.925 Y156.784 E28.99088
G1 X155.026 Y156.682 E28.99685
G1 X155.109 Y156.542 E29.00362
G1 X155.129 Y156.495 E29.00574
G1 X155.153 Y156.392 E29.01014
G1 X155.153 Y156.301 E29.01392
G1 X155.126 Y156.188 E29.01875
G1 X155.110 Y155.902 E29.03066
G1 X155.024 Y155.294 E29.05619
G1 X154.869 Y154.694 E29.08195
G1 X154.650 Y154.108 E29.10796
G1 X154.383 Y153.547 E29.13379
G1 X154.023 Y153.101 E29.15762
G1 X153.675 Y152.709 E29.17942
G1 X153.301 Y152.335 E29.20141
G1 X153.177 Y152.223 E29.20835
G1 X152.466 Y151.813 E29.24247
G1 X152.056 Y151.607 E29.26155
G1 X151.509 Y151.466 E29.28504
G1 X151.000 Y151.441 E29.30622
G1 X150.493 Y151.464 E29.32732
G1 X149.941 Y151.606 E29.35102
G1 X148.820 Y152.222 E29.40420
G1 X148.111 Y152.933 E29.44594
G1 X147.664 Y153.482 E29.47538
G1 X147.614 Y153.553 E29.47899
G1 X147.351 Y154.106 E29.50445
G1 X147.131 Y154.694 E29.53055
G1 X146.976 Y155.293 E29.55627
G1 X146.890 Y155.901 E29.58180
G1 X146.874 Y156.182 E29.59350
G0 F9000 X146.202 Y156.086
;TYPE:SKIN
G1 F1140 X145.828 Y156.459 E29.61546
G0 F9000 X145.373 Y156.207
G1 F1140 X146.294 Y155.287 E29.66959
G0 F9000 X145.356 Y155.517
G1 F1140 X146.547 Y154.326 E29.73961
G0 F9000 X145.827 Y153.632
G1 F1140 X149.519 Y149.940 E29.95669
G0 F9000 X150.477 Y149.689
G1 F1140 X148.588 Y151.578 E30.06775
G0 F9000 X147.760 Y150.992
G1 F1140 X146.945 Y151.806 E30.11564
G0 F9000 X147.261 Y152.905
G1 F1140 X145.509 Y154.657 E30.21865
G1 F2400 E29.61865
G1 Z1.300
G0 F9000 X149.973 Y150.900
G1 Z0.800
G1 F2400 E30.21865
G1 F1140 X151.216 Y149.657 E30.29174
G0 F9000 X151.830 Y149.750
G1 F1140 X150.806 Y150.774 E30.35194
G0 F9000 X151.496 Y150.791
G1 F1140 X152.378 Y149.909 E30.40380
G0 F9000 X152.877 Y150.117
G1 F1140 X152.078 Y150.916 E30.45078
G0 F9000 X152.584 Y151.117
G1 F1140 X153.349 Y150.352 E30.49576
G0 F9000 X153.781 Y150.627
G1 F1140 X153.041 Y151.367 E30.53927
G0 F9000 X153.490 Y151.625
G1 F1140 X154.377 Y151.091 E30.57999
G1 X154.046 Y152.130 E30.62124
G1 X155.063 Y151.820 E30.66138
G1 X154.711 Y152.879 E30.70072
G1 X155.660 Y152.637 E30.73916
G1 X155.229 Y153.775 E30.77872
G1 X156.028 Y153.330 E30.81675
G0 F9000 X156.247 Y153.819
G1 F1140 X155.526 Y154.540 E30.85914
G0 F9000 X155.670 Y155.102
G1 F1140 X156.416 Y154.357 E30.90297
G0 F9000 X156.552 Y154.927
G1 F1140 X155.765 Y155.714 E30.94925
G0 F9000 X155.827 Y156.359
G1 F1140 X156.648 Y155.539 E30.99749
G1 F2400 E30.39749
G1 Z1.300
G0 F9000 X156.250 Y150.803
;TYPE:SUPPORT
G1 Z0.800
G1 F2400 E30.99749
G1 F1140 X156.250 Y144.366 E31.26511
G1 F2400 E30.66511
G1 Z1.300
G0 F9000 X143.750 Y144.512
G1 Z0.800
G1 F2400 E31.26511
G1 F1140 X143.750 Y158.989 E31.86699
;LAYER:4
M106 S40
G1 F2400 E31.26699
G1 Z1.300
G0 F9000 X145.141 Y156.619 Z1.000
;TYPE:WALL-INNER
G1 Z1.000
G1 F2400 E31.86699
G1 F1140 X145.225 Y156.792 E31.87499
G1 X144.880 Y156.645 E31.89058
G1 X144.494 Y156.415 E31.90926
G1 X144.350 Y156.282 E31.91741
G1 X144.407 Y155.366 E31.95556
G1 X144.603 Y154.251 E32.00263
G1 X144.827 Y153.576 E32.03220
G1 X144.959 Y153.170 E32.04995
G1 X145.152 Y152.718 E32.07038
G1 X145.464 Y152.138 E32.09776
G1 X145.700 Y151.751 E32.11661
G1 X146.135 Y151.159 E32.14715
G1 X146.474 Y150.789 E32.16801
G1 X147.196 Y150.101 E32.20948
G1 X147.317 Y149.996 E32.21614
G1 X148.355 Y149.321 E32.26762
G1 X148.947 Y149.059 E32.29453
G1 X149.330 Y148.895 E32.31185
G1 X150.075 Y148.702 E32.34385
G1 X150.226 Y148.663 E32.35033
G1 X150.823 Y148.600 E32.37529
G1 X150.992 Y148.591 E32.38233
G1 X151.549 Y148.631 E32.40554
G1 X151.764 Y148.659 E32.41456
G1 X152.328 Y148.801 E32.43874
G1 X152.658 Y148.890 E32.45295
G1 X153.541 Y149.271 E32.49293
G1 X153.631 Y149.313 E32.49706
G1 X154.295 Y149.731 E32.52968
G1 X154.673 Y149.989 E32.54871
G1 X155.105 Y150.382 E32.57299
G1 X155.763 Y151.037 E32.61159
G1 X156.297 Y151.747 E32.64852
G1 X156.829 Y152.679 E32.69314
G1 X157.041 Y153.170 E32.71537
G1 X157.376 Y154.184 E32.75977
G1 X157.569 Y155.194 E32.80252
G1 X157.638 Y155.915 E32.83264
G1 X157.652 Y156.277 E32.84770
G1 X157.611 Y156.328 E32.85042
G1 X157.484 Y156.432 E32.85724
G1 X157.214 Y156.601 E32.87049
G1 X156.774 Y156.795 E32.89048
G1 X156.861 Y156.614 E32.89883
G1 X156.887 Y156.254 E32.91383
G1 X156.859 Y156.124 E32.91936
G1 X156.849 Y155.872 E32.92985
G1 X156.780 Y155.231 E32.95665
G1 X156.650 Y154.594 E32.98368
G1 X156.466 Y153.969 E33.01077
G1 X156.227 Y153.361 E33.03793
G1 X155.939 Y152.745 E33.06620
G1 X155.592 Y152.257 E33.09109
G1 X155.266 Y151.842 E33.11303
G1 X154.611 Y151.103 E33.15409
G1 X153.985 Y150.643 E33.18639
G1 X153.341 Y150.205 E33.21877
G1 X152.296 Y149.786 E33.26557
G1 X152.090 Y149.721 E33.27456
G1 X151.555 Y149.617 E33.29721
G1 X150.990 Y149.581 E33.32075
G1 X150.334 Y149.639 E33.34813
G1 X149.846 Y149.731 E33.36878
G1 X148.660 Y150.204 E33.42186
G1 X147.990 Y150.660 E33.45556
G1 X147.391 Y151.102 E33.48651
G1 X146.978 Y151.545 E33.51169
G1 X146.508 Y152.114 E33.54237
G1 X146.098 Y152.691 E33.57180
G1 X146.051 Y152.766 E33.57548
G1 X145.774 Y153.359 E33.60269
G1 X145.534 Y153.968 E33.62990
G1 X145.350 Y154.594 E33.65703
G1 X145.220 Y155.230 E33.68402
G1 X145.151 Y155.871 E33.71082
G1 X145.141 Y156.118 E33.72110
G1 X145.111 Y156.251 E33.72677
G1 X145.141 Y156.619 E33.74212
G0 F9000 X145.638 Y156.189
;TYPE:WALL-OUTER
G1 F1140 X145.616 Y156.287 E33.74630
G1 X145.632 Y156.485 E33.75455
G1 X145.719 Y156.665 E33.76287
G1 X145.859 Y156.829 E33.77183
G1 X146.348 Y157.125 E33.79560
G1 X146.617 Y157.241 E33.80777
G1 X147.162 Y157.400 E33.83138
G1 X147.765 Y157.553 E33.85724
G1 X148.323 Y157.654 E33.88082
G1 X148.926 Y157.739 E33.90614
G1 X149.472 Y157.796 E33.92896
G1 X150.004 Y157.838 E33.95115
G1 X150.514 Y157.859 E33.97237
G1 X151.000 Y157.867 E33.99258
G1 X151.548 Y157.857 E34.01536
G1 X152.328 Y157.810 E34.04785
G1 X152.961 Y157.752 E34.07428
G1 X153.638 Y157.662 E34.10267
G1 X154.218 Y157.557 E34.12718
G1 X154.837 Y157.402 E34.15371
G1 X155.364 Y157.244 E34.17658
G1 X155.858 Y157.020 E34.19913
G1 X156.074 Y156.879 E34.20985
G1 X156.277 Y156.674 E34.22185
G1 X156.369 Y156.483 E34.23066
G1 X156.383 Y156.289 E34.23875
G1 X156.362 Y156.188 E34.24304
G1 X156.350 Y155.909 E34.25465
G1 X156.285 Y155.308 E34.27978
G1 X156.164 Y154.715 E34.30494
G1 X155.993 Y154.131 E34.33024
G1 X155.768 Y153.559 E34.35580
G1 X155.505 Y152.998 E34.38156
G1 X155.191 Y152.556 E34.40410
G1 X154.877 Y152.155 E34.42527
G1 X154.276 Y151.478 E34.46291
G1 X153.696 Y151.051 E34.49285
G1 X153.105 Y150.649 E34.52257
G1 X152.127 Y150.257 E34.56638
G1 X151.491 Y150.114 E34.59348
G1 X150.997 Y150.082 E34.61406
G1 X150.403 Y150.135 E34.63885
G1 X149.986 Y150.214 E34.65650
G1 X148.896 Y150.648 E34.70527
G1 X148.279 Y151.068 E34.73631
G1 X147.725 Y151.477 E34.76493
G1 X147.354 Y151.875 E34.78756
G1 X146.905 Y152.419 E34.81688
G1 X146.515 Y152.966 E34.84481
G1 X146.233 Y153.557 E34.87204
G1 X146.007 Y154.130 E34.89764
G1 X145.836 Y154.715 E34.92298
G1 X145.715 Y155.307 E34.94811
G1 X145.650 Y155.908 E34.97324
G1 X145.638 Y156.189 E34.98493
G0 F9000 X145.118 Y157.290
G1 F1140 X144.656 Y157.093 E35.00581
G1 X144.193 Y156.817 E35.02822
G1 X143.962 Y156.603 E35.04131
G1 X143.899 Y156.516 E35.04578
G1 X143.850 Y156.388 E35.05148
G1 X143.847 Y156.328 E35.05398
G1 X143.863 Y155.881 E35.07257
G1 X143.912 Y155.291 E35.09719
G1 X144.116 Y154.130 E35.14619
G1 X144.352 Y153.420 E35.17730
G1 X144.490 Y152.996 E35.19584
G1 X144.707 Y152.489 E35.21877
G1 X145.018 Y151.911 E35.24605
G1 X145.289 Y151.465 E35.26775
G1 X145.746 Y150.843 E35.29984
G1 X146.122 Y150.434 E35.32294
G1 X146.483 Y150.084 E35.34384
G1 X146.858 Y149.733 E35.36520
G1 X147.013 Y149.598 E35.37374
G1 X147.445 Y149.303 E35.39549
G1 X148.116 Y148.880 E35.42847
G1 X148.745 Y148.602 E35.45706
G1 X149.171 Y148.419 E35.47634
G1 X150.136 Y148.170 E35.51777
G1 X150.781 Y148.101 E35.54474
G1 X151.003 Y148.090 E35.55398
G1 X151.587 Y148.132 E35.57832
G1 X151.864 Y148.169 E35.58994
G1 X152.458 Y148.318 E35.61540
G1 X152.821 Y148.416 E35.63103
G1 X153.739 Y148.812 E35.67260
G1 X153.871 Y148.873 E35.67865
G1 X154.562 Y149.308 E35.71259
G1 X154.986 Y149.597 E35.73393
G1 X155.442 Y150.012 E35.75956
G1 X156.138 Y150.705 E35.80039
G1 X156.713 Y151.469 E35.84015
G1 X156.982 Y151.911 E35.86166
G1 X157.279 Y152.460 E35.88761
G1 X157.510 Y152.997 E35.91191
G1 X157.861 Y154.056 E35.95830
G1 X158.060 Y155.100 E36.00248
G1 X158.087 Y155.281 E36.01009
G1 X158.136 Y155.881 E36.03512
G1 X158.154 Y156.329 E36.05376
G1 X158.145 Y156.411 E36.05719
G1 X158.091 Y156.531 E36.06266
G1 X157.968 Y156.681 E36.07073
G1 X157.778 Y156.838 E36.08097
G1 X157.450 Y157.043 E36.09706
G1 X156.920 Y157.276 E36.12113
G1 X156.385 Y157.454 E36.14457
G1 X155.806 Y157.608 E36.16948
G1 X155.243 Y157.730 E36.19343
G1 X154.652 Y157.831 E36.21835
G1 X154.107 Y157.918 E36.24130
G1 X153.547 Y157.982 E36.26473
G1 X153.007 Y158.039 E36.28731
G1 X151.972 Y158.110 E36.33044
G1 X151.274 Y158.129 E36.35947
G1 X151.002 Y158.131 E36.37078
G1 X150.269 Y158.118 E36.40126
G1 X149.509 Y158.076 E36.43290
G1 X148.994 Y158.041 E36.45436
G1 X148.454 Y157.982 E36.47695
G1 X147.894 Y157.919 E36.50038
G1 X147.055 Y157.782 E36.53572
G1 X146.498 Y157.677 E36.55928
G1 X145.856 Y157.521 E36.58675
G1 X145.118 Y157.290 E36.61890
G0 F9000 X144.614 Y156.281
;TYPE:SKIN
G1 F1140 X144.752 Y156.066 E36.62377
G1 X144.805 Y155.411 E36.64732
G1 X144.906 Y154.805 E36.66934
G1 X145.034 Y154.227 E36.69168
G1 X145.029 Y153.514 E36.71279
G1 X145.588 Y153.367 E36.73437
G1 X145.453 Y152.524 E36.75574
G1 X146.068 Y152.432 E36.77606
G1 X145.991 Y151.647 E36.79790
G1 X146.680 Y151.630 E36.82025
G1 X146.638 Y150.881 E36.84245
G1 X147.375 Y150.910 E36.86392
G1 X147.372 Y150.200 E36.88683
G1 X148.189 Y150.310 E36.91102
G1 X148.210 Y149.624 E36.93471
G1 X149.123 Y149.829 E36.96085
G1 X149.160 Y149.161 E36.98800
G1 X150.202 Y149.495 E37.01666
G1 X150.270 Y148.855 E37.04823
G1 X151.185 Y149.417 E37.09288
G0 F9000 X151.260 Y148.785
G1 F1140 X152.000 Y149.525 E37.13638
G0 F9000 X152.107 Y148.925
G1 F1140 X153.104 Y149.922 E37.19500
G0 F9000 X153.208 Y149.319
G1 F1140 X156.689 Y152.800 E37.39967
G0 F9000 X156.310 Y153.128
G1 F1140 X157.107 Y153.925 E37.44653
G0 F9000 X156.732 Y154.257
G1 F1140 X157.135 Y155.014 E37.48133
G1 X157.232 Y155.817 E37.51019
G1 X157.361 Y156.301 E37.53101
G1 F2400 E36.93101
G1 Z1.500
G0 F9000 X143.750 Y152.502
;TYPE:SUPPORT
G1 Z1.000
G1 F2400 E37.53101
G1 F1140 X143.750 Y144.511 E37.86324
G1 F2400 E37.26324
G1 Z1.500
G0 F9000 X156.250 Y144.365
G1 Z1.000
G1 F2400 E37.86324
G1 F1140 X156.250 Y149.582 E38.08013
;LAYER:5
M106 S51
G0 F9000 X155.717 Y149.894 Z1.200
;TYPE:WALL-INNER
G1 F1140 X156.332 Y150.560 E38.11782
G1 X156.752 Y151.114 E38.14673
G1 X157.325 Y152.082 E38.19349
G1 X157.660 Y152.838 E38.22787
G1 X157.857 Y153.371 E38.25150
G1 X157.993 Y153.836 E38.27164
G1 X158.155 Y154.563 E38.30261
G1 X158.258 Y155.225 E38.33046
G1 X158.318 Y155.922 E38.35955
G1 X158.329 Y156.200 E38.37111
G1 X158.326 Y156.302 E38.37535
G1 X158.310 Y156.330 E38.37670
G1 X158.141 Y156.495 E38.38652
G1 X157.816 Y156.696 E38.40240
G1 X157.874 Y156.479 E38.41174
G1 X157.878 Y156.247 E38.42139
G1 X157.866 Y155.882 E38.43657
G1 X157.816 Y155.326 E38.45978
G1 X157.705 Y154.631 E38.48904
G1 X157.549 Y154.006 E38.51582
G1 X157.344 Y153.403 E38.54230
G1 X157.108 Y152.821 E38.56841
G1 X156.824 Y152.303 E38.59297
G1 X156.542 Y151.851 E38.61512
G1 X156.240 Y151.418 E38.63707
G1 X155.765 Y150.801 E38.66944
G1 X155.106 Y150.197 E38.70661
G1 X154.689 Y149.847 E38.72924
G1 X154.472 Y149.675 E38.74075
G1 X153.905 Y149.344 E38.76805
G1 X153.242 Y148.993 E38.79924
G1 X152.640 Y148.791 E38.82564
G1 X152.098 Y148.623 E38.84923
G1 X151.535 Y148.529 E38.87296
G1 X150.997 Y148.492 E38.89538
G1 X150.465 Y148.532 E38.91756
G1 X149.908 Y148.621 E38.94101
G1 X149.362 Y148.789 E38.96476
G1 X148.758 Y148.994 E38.99128
G1 X148.102 Y149.342 E39.02215
G1 X147.523 Y149.676 E39.04994
G1 X146.937 Y150.161 E39.08157
G1 X146.229 Y150.808 E39.12144
G1 X145.611 Y151.618 E39.16380
G1 X145.237 Y152.192 E39.19229
G1 X144.922 Y152.758 E39.21922
G1 X144.657 Y153.400 E39.24809
G1 X144.451 Y154.006 E39.27470
G1 X144.297 Y154.627 E39.30130
G1 X144.201 Y155.197 E39.32533
G1 X144.143 Y155.771 E39.34932
G1 X144.120 Y156.364 E39.37399
G1 X144.150 Y156.601 E39.38392
G1 X144.185 Y156.693 E39.38802
G1 X143.841 Y156.483 E39.40477
G1 X143.696 Y156.336 E39.41336
G1 X143.672 Y156.291 E39.41548
G1 X143.671 Y156.195 E39.41947
G1 X143.726 Y155.351 E39.45463
G1 X143.800 Y154.786 E39.47832
G1 X143.907 Y154.227 E39.50199
G1 X144.040 Y153.702 E39.52450
G1 X144.208 Y153.176 E39.54746
G1 X144.422 Y152.669 E39.57034
G1 X144.649 Y152.130 E39.59465
G1 X144.945 Y151.621 E39.61913
G1 X145.212 Y151.164 E39.64114
G1 X145.614 Y150.624 E39.66913
G1 X146.032 Y150.151 E39.69537
G1 X146.453 Y149.744 E39.71972
G1 X147.231 Y149.118 E39.76123
G1 X147.358 Y149.022 E39.76785
G1 X147.845 Y148.735 E39.79135
G1 X148.375 Y148.446 E39.81645
G1 X149.120 Y148.158 E39.84966
G1 X149.353 Y148.071 E39.86000
G1 X150.225 Y147.868 E39.89722
G1 X150.998 Y147.805 E39.92946
G1 X151.454 Y147.840 E39.94848
G1 X151.767 Y147.865 E39.96153
G1 X152.651 Y148.072 E39.99928
G1 X153.208 Y148.279 E40.02398
G1 X153.619 Y148.443 E40.04238
G1 X154.154 Y148.734 E40.06770
G1 X154.638 Y149.019 E40.09105
G1 X155.131 Y149.404 E40.11706
G1 X155.717 Y149.894 E40.14882
G0 F9000 X156.061 Y149.531
;TYPE:WALL-OUTER
G1 F1140 X156.721 Y150.244 E40.18921
G1 X157.166 Y150.831 E40.21984
G1 X157.771 Y151.853 E40.26921
G1 X158.122 Y152.645 E40.30523
G1 X158.333 Y153.216 E40.33054
G1 X158.476 Y153.706 E40.35176
G1 X158.648 Y154.474 E40.38448
G1 X158.755 Y155.164 E40.41351
G1 X158.816 Y155.884 E40.44355
G1 X158.830 Y156.206 E40.45695
G1 X158.824 Y156.390 E40.46460
G1 X158.795 Y156.490 E40.46893
G1 X158.708 Y156.639 E40.47611
G1 X158.452 Y156.891 E40.49104
G1 X158.001 Y157.169 E40.51307
G1 X157.479 Y157.398 E40.53677
G1 X156.968 Y157.572 E40.55921
G1 X156.352 Y157.740 E40.58576
G1 X155.678 Y157.883 E40.61440
G1 X155.187 Y157.979 E40.63520
G1 X154.539 Y158.074 E40.66243
G1 X153.842 Y158.164 E40.69165
G1 X153.320 Y158.217 E40.71346
G1 X152.608 Y158.273 E40.74315
G1 X151.957 Y158.308 E40.77026
G1 X151.433 Y158.324 E40.79205
G1 X150.943 Y158.328 E40.81243
G1 X150.043 Y158.308 E40.84985
G1 X149.527 Y158.281 E40.87134
G1 X149.006 Y158.247 E40.89304
G1 X148.463 Y158.197 E40.91571
G1 X147.905 Y158.136 E40.93905
G1 X146.893 Y157.990 E40.98156
G1 X146.317 Y157.883 E41.00592
G1 X145.819 Y157.781 E41.02705
G1 X145.285 Y157.645 E41.04996
G1 X144.690 Y157.460 E41.07587
G1 X144.146 Y157.240 E41.10026
G1 X143.719 Y157.008 E41.12047
G1 X143.516 Y156.865 E41.13079
G1 X143.288 Y156.634 E41.14428
G1 X143.192 Y156.456 E41.15269
G1 X143.173 Y156.370 E41.15635
G1 X143.171 Y156.179 E41.16430
G1 X143.228 Y155.298 E41.20100
G1 X143.305 Y154.714 E41.22549
G1 X143.418 Y154.123 E41.25051
G1 X143.557 Y153.569 E41.27425
G1 X143.714 Y153.081 E41.29557
G1 X143.738 Y153.000 E41.29908
G1 X144.200 Y151.906 E41.34845
G1 X144.794 Y150.889 E41.39742
G1 X145.230 Y150.303 E41.42778
G1 X145.670 Y149.805 E41.45541
G1 X146.122 Y149.369 E41.48152
G1 X146.517 Y149.044 E41.50279
G1 X146.930 Y148.718 E41.52466
G1 X147.080 Y148.606 E41.53245
G1 X147.598 Y148.301 E41.55744
G1 X148.169 Y147.989 E41.58449
G1 X148.945 Y147.689 E41.61908
G1 X149.204 Y147.592 E41.63058
G1 X150.152 Y147.372 E41.67104
G1 X151.001 Y147.303 E41.70645
G1 X151.848 Y147.371 E41.74178
G1 X152.796 Y147.592 E41.78225
G1 X153.393 Y147.814 E41.80873
G1 X153.828 Y147.987 E41.82819
G1 X154.394 Y148.296 E41.85500
G1 X154.922 Y148.607 E41.88048
G1 X155.452 Y149.021 E41.90844
G1 X156.061 Y149.531 E41.94146
G1 F2400 E41.34146
G1 Z1.700
G0 F9000 X154.776 Y150.573
G1 Z1.200
G1 F2400 E41.94146
G1 F1140 X154.373 Y150.234 E41.96336
G1 X154.189 Y150.089 E41.97310
G1 X153.662 Y149.781 E41.99848
G1 X153.044 Y149.454 E42.02754
G1 X152.486 Y149.267 E42.05201
G1 X151.982 Y149.110 E42.07396
G1 X151.477 Y149.026 E42.09524
G1 X150.999 Y148.993 E42.11516
G1 X150.523 Y149.029 E42.13501
G1 X150.021 Y149.109 E42.15614
G1 X149.516 Y149.265 E42.17812
G1 X148.957 Y149.455 E42.20266
G1 X148.344 Y149.779 E42.23149
G1 X147.810 Y150.088 E42.25714
G1 X147.260 Y150.543 E42.28682
G1 X146.604 Y151.141 E42.32372
G1 X146.020 Y151.907 E42.36377
G1 X145.666 Y152.451 E42.39075
G1 X145.373 Y152.976 E42.41575
G1 X145.125 Y153.576 E42.44274
G1 X144.931 Y154.147 E42.46781
G1 X144.787 Y154.728 E42.49270
G1 X144.697 Y155.264 E42.51529
G1 X144.642 Y155.806 E42.53794
G1 X144.621 Y156.342 E42.56025
G1 X144.639 Y156.478 E42.56595
G1 X144.703 Y156.646 E42.57342
G1 X144.814 Y156.801 E42.58135
G1 X144.901 Y156.883 E42.58632
G1 X145.233 Y157.115 E42.60316
G1 X145.454 Y157.232 E42.61356
G1 X146.011 Y157.446 E42.63836
G1 X146.648 Y157.629 E42.66592
G1 X147.173 Y157.746 E42.68828
G1 X147.690 Y157.841 E42.71013
G1 X148.350 Y157.932 E42.73783
G1 X148.945 Y158.007 E42.76277
G1 X150.013 Y158.087 E42.80729
G1 X150.855 Y158.109 E42.84231
G1 X151.001 Y158.112 E42.84838
G1 X151.986 Y158.087 E42.88935
G1 X152.847 Y158.023 E42.92524
G1 X153.646 Y157.934 E42.95867
G1 X154.181 Y157.863 E42.98110
G1 X154.763 Y157.759 E43.00568
G1 X155.265 Y157.650 E43.02704
G1 X155.773 Y157.514 E43.04891
G1 X156.382 Y157.298 E43.07577
G1 X156.547 Y157.231 E43.08317
G1 X156.950 Y156.999 E43.10251
G1 X157.104 Y156.879 E43.11062
G1 X157.186 Y156.801 E43.11533
G1 X157.287 Y156.663 E43.12244
G1 X157.332 Y156.569 E43.12677
G1 X157.375 Y156.409 E43.13366
G1 X157.378 Y156.251 E43.14023
G1 X157.367 Y155.914 E43.15425
G1 X157.319 Y155.388 E43.17621
G1 X157.214 Y154.731 E43.20387
G1 X157.069 Y154.147 E43.22889
G1 X156.875 Y153.578 E43.25388
G1 X156.655 Y153.036 E43.27820
G1 X156.393 Y152.556 E43.30093
G1 X156.125 Y152.127 E43.32196
G1 X155.837 Y151.714 E43.34290
G1 X155.395 Y151.140 E43.37302
G1 X154.776 Y150.573 E43.40792
G1 F2400 E42.80792
G1 Z1.700
G0 F9000 X156.335 Y151.255
;TYPE:FILL
G1 Z1.200
G1 F2400 E43.40792
G1 F1140 X156.508 Y151.083 E43.41806
G0 F9000 X152.341 Y148.178
G1 F1140 X152.017 Y148.431 E43.43354
G1 X151.560 Y148.025 E43.45896
G1 F2400 E42.85896
G1 Z1.700
G0 F9000 X146.649 Y150.185
G1 Z1.200
G1 F2400 E43.45896
G1 F1140 X146.453 Y149.988 E43.47051
G0 F9000 X147.477 Y149.153
;TYPE:SKIN
G1 F1140 X145.339 Y151.291 E43.59622
G0 F9000 X144.898 Y152.439
G1 F1140 X144.667 Y152.670 E43.60980
G1 F2400 E43.00980
G1 Z1.700
G0 F9000 X148.298 Y149.039
G1 Z1.200
G1 F2400 E43.60980
G1 F1140 X149.192 Y148.498 E43.64586
G1 X150.157 Y148.241 E43.67268
G1 X150.942 Y148.163 E43.69426
G1 X151.609 Y148.203 E43.71248
G1 X152.203 Y148.316 E43.72887
G1 X152.757 Y148.469 E43.74484
G1 X153.273 Y148.661 E43.75953
G1 X153.864 Y148.776 E43.77300
G1 X154.093 Y149.255 E43.78624
G1 X154.736 Y149.318 E43.79913
G1 X154.934 Y149.827 E43.81049
G1 X155.508 Y149.960 E43.82190
G1 X155.684 Y150.492 E43.83327
G1 X156.194 Y150.689 E43.84286
G1 X156.332 Y151.258 E43.85309
G1 X156.783 Y151.514 E43.86301
G1 X156.972 Y152.032 E43.87158
G1 X157.214 Y152.498 E43.87988
G1 X157.285 Y152.781 E43.89201
G1 F2400 E43.29201
G1 Z1.700
G0 F9000 X156.250 Y148.547
;TYPE:SUPPORT
G1 Z1.200
G1 F2400 E43.89201
G1 F1140 X156.250 Y144.365 E44.06587
G1 F2400 E43.46587
G1 Z1.700
G0 F9000 X156.250 Y154.483
G1 Z1.200
G1 F2400 E44.06587
G1 F1140 X156.250 Y156.480 E44.14890
G1 F2400 E43.54890
G1 Z1.700
G0 F9000 X143.750 Y150.944
G1 Z1.200
G1 F2400 E44.14890
G1 F1140 X143.750 Y144.511 E44.41635
;LAYER:6
M106 S63
G1 F2400 E43.81635
G1 Z1.700
G0 F9000 X146.644 Y148.690 Z1.400
;TYPE:WALL-INNER
G1 Z1.400
G1 F2400 E44.41635
G1 F1140 X147.329 Y148.209 E44.45115
G1 X147.794 Y147.960 E44.47308
G1 X148.287 Y147.715 E44.49597
G1 X148.803 Y147.515 E44.51898
G1 X149.335 Y147.332 E44.54237
G1 X149.978 Y147.194 E44.56971
G1 X150.235 Y147.144 E44.58059
G1 X151.000 Y147.087 E44.61249
G1 X151.761 Y147.143 E44.64421
G1 X152.633 Y147.322 E44.68122
G1 X153.579 Y147.651 E44.72286
G1 X154.602 Y148.165 E44.77046
G1 X155.360 Y148.692 E44.80884
G1 X155.667 Y148.921 E44.82476
G1 X156.049 Y149.262 E44.84605
G1 X156.437 Y149.675 E44.86961
G1 X156.762 Y150.028 E44.88956
G1 X157.260 Y150.711 E44.92470
G1 X157.789 Y151.583 E44.96711
G1 X158.036 Y152.104 E44.99108
G1 X158.432 Y153.156 E45.03781
G1 X158.582 Y153.688 E45.06079
G1 X158.713 Y154.252 E45.08486
G1 X158.799 Y154.734 E45.10522
G1 X158.869 Y155.333 E45.13029
G1 X158.903 Y155.896 E45.15374
G1 X158.914 Y156.288 E45.17005
G1 X158.906 Y156.340 E45.17223
G1 X158.753 Y156.521 E45.18209
G1 X158.692 Y156.570 E45.18534
G1 X158.714 Y156.279 E45.19747
G1 X158.651 Y155.263 E45.23979
G1 X158.534 Y154.621 E45.26693
G1 X158.435 Y154.059 E45.29065
G1 X158.249 Y153.401 E45.31908
G1 X158.048 Y152.846 E45.34362
G1 X157.787 Y152.264 E45.37014
G1 X157.488 Y151.688 E45.39712
G1 X157.122 Y151.108 E45.42563
G1 X156.742 Y150.605 E45.45184
G1 X156.193 Y149.993 E45.48602
G1 X155.633 Y149.437 E45.51883
G1 X155.148 Y149.080 E45.54387
G1 X154.699 Y148.767 E45.56663
G1 X154.358 Y148.539 E45.58368
G1 X153.589 Y148.175 E45.61905
G1 X153.162 Y147.983 E45.63852
G1 X152.594 Y147.819 E45.66310
G1 X152.053 Y147.675 E45.68637
G1 X151.119 Y147.577 E45.72541
G1 X150.987 Y147.572 E45.73091
G1 X150.317 Y147.622 E45.75884
G1 X149.951 Y147.672 E45.77420
G1 X149.409 Y147.817 E45.79752
G1 X148.838 Y147.981 E45.82222
G1 X148.042 Y148.343 E45.85858
G1 X147.639 Y148.539 E45.87721
G1 X147.109 Y148.894 E45.90373
G1 X146.381 Y149.421 E45.94110
G1 X145.811 Y149.991 E45.97461
G1 X145.313 Y150.538 E46.00536
G1 X144.960 Y150.999 E46.02950
G1 X144.515 Y151.680 E46.06333
G1 X144.213 Y152.263 E46.09062
G1 X143.953 Y152.846 E46.11716
G1 X143.752 Y153.400 E46.14166
G1 X143.566 Y154.054 E46.16993
G1 X143.379 Y155.063 E46.21260
G1 X143.300 Y155.880 E46.24672
G1 X143.286 Y156.292 E46.26386
G1 X143.310 Y156.569 E46.27542
G1 X143.205 Y156.483 E46.28106
G1 X143.119 Y156.389 E46.28636
G1 X143.093 Y156.348 E46.28838
G1 X143.084 Y156.258 E46.29214
G1 X143.124 Y155.431 E46.32656
G1 X143.194 Y154.774 E46.35403
G1 X143.419 Y153.682 E46.40038
G1 X143.571 Y153.144 E46.42363
G1 X143.735 Y152.660 E46.44487
G1 X143.958 Y152.118 E46.46924
G1 X144.209 Y151.585 E46.49373
G1 X144.488 Y151.094 E46.51721
G1 X144.930 Y150.443 E46.54993
G1 X145.173 Y150.106 E46.56720
G1 X145.812 Y149.406 E46.60660
G1 X146.253 Y148.996 E46.63164
G1 X146.644 Y148.690 E46.65228
G0 F9000 X146.343 Y148.290
;TYPE:WALL-OUTER
G1 F1140 X147.056 Y147.790 E46.68849
G1 X147.139 Y147.736 E46.69260
G1 X148.084 Y147.258 E46.73663
G1 X148.640 Y147.042 E46.76143
G1 X149.199 Y146.849 E46.78602
G1 X149.882 Y146.703 E46.81506
G1 X150.169 Y146.647 E46.82721
G1 X151.000 Y146.585 E46.86186
G1 X151.828 Y146.647 E46.89638
G1 X152.763 Y146.838 E46.93605
G1 X153.780 Y147.191 E46.98081
G1 X154.857 Y147.733 E47.03094
G1 X155.651 Y148.285 E47.07114
G1 X155.982 Y148.532 E47.08831
G1 X156.399 Y148.905 E47.11157
G1 X156.799 Y149.330 E47.13584
G1 X157.153 Y149.715 E47.15758
G1 X157.669 Y150.422 E47.19397
G1 X158.233 Y151.352 E47.23919
G1 X158.490 Y151.895 E47.26417
G1 X158.905 Y152.993 E47.31297
G1 X159.065 Y153.557 E47.33734
G1 X159.200 Y154.139 E47.36218
G1 X159.296 Y154.676 E47.38486
G1 X159.367 Y155.285 E47.41035
G1 X159.403 Y155.882 E47.43522
G1 X159.415 Y156.318 E47.45335
G1 X159.387 Y156.493 E47.46072
G1 X159.340 Y156.600 E47.46558
G1 X159.102 Y156.881 E47.48089
G1 X158.887 Y157.054 E47.49236
G1 X158.468 Y157.299 E47.51254
G1 X157.943 Y157.526 E47.53632
G1 X157.409 Y157.707 E47.55976
G1 X156.869 Y157.857 E47.58306
G1 X156.344 Y157.978 E47.60546
G1 X155.845 Y158.073 E47.62658
G1 X155.342 Y158.162 E47.64782
G1 X154.728 Y158.249 E47.67360
G1 X154.088 Y158.331 E47.70042
G1 X153.518 Y158.387 E47.72424
G1 X152.979 Y158.431 E47.74672
G1 X152.461 Y158.466 E47.76831
G1 X151.951 Y158.487 E47.78953
G1 X151.415 Y158.502 E47.81182
G1 X151.000 Y158.507 E47.82907
G1 X150.491 Y158.500 E47.85024
G1 X149.600 Y158.468 E47.88731
G1 X149.021 Y158.431 E47.91143
G1 X148.482 Y158.387 E47.93391
G1 X147.929 Y158.334 E47.95701
G1 X147.273 Y158.250 E47.98450
G1 X146.659 Y158.163 E48.01028
G1 X146.155 Y158.074 E48.03156
G1 X145.656 Y157.978 E48.05269
G1 X145.132 Y157.858 E48.07504
G1 X144.595 Y157.709 E48.09821
G1 X144.066 Y157.530 E48.12143
G1 X143.558 Y157.313 E48.14439
G1 X143.120 Y157.060 E48.16542
G1 X142.863 Y156.850 E48.17922
G1 X142.724 Y156.697 E48.18781
G1 X142.653 Y156.591 E48.19312
G1 X142.615 Y156.503 E48.19710
G1 X142.586 Y156.381 E48.20232
G1 X142.583 Y156.267 E48.20706
G1 X142.625 Y155.393 E48.24344
G1 X142.699 Y154.700 E48.27241
G1 X142.932 Y153.569 E48.32042
G1 X143.094 Y152.994 E48.34526
G1 X143.269 Y152.478 E48.36791
G1 X143.505 Y151.905 E48.39368
G1 X143.762 Y151.359 E48.41876
G1 X144.056 Y150.840 E48.44356
G1 X144.524 Y150.151 E48.47819
G1 X144.782 Y149.793 E48.49654
G1 X145.462 Y149.048 E48.53847
G1 X145.925 Y148.618 E48.56474
G1 X146.343 Y148.290 E48.58683
G0 F9000 X147.395 Y149.305
G1 F1140 X146.706 Y149.803 E48.62218
G1 X146.173 Y150.336 E48.65352
G1 X145.697 Y150.859 E48.68292
G1 X145.369 Y151.288 E48.70537
G1 X144.948 Y151.933 E48.73739
G1 X144.664 Y152.480 E48.76302
G1 X144.417 Y153.033 E48.78820
G1 X144.228 Y153.554 E48.81124
G1 X144.053 Y154.168 E48.83778
G1 X143.874 Y155.132 E48.87855
G1 X143.799 Y155.913 E48.91117
G1 X143.787 Y156.279 E48.92639
G1 X143.807 Y156.515 E48.93624
G1 X143.909 Y156.727 E48.94602
G1 X144.228 Y157.046 E48.96477
G1 X144.314 Y157.108 E48.96918
G1 X144.614 Y157.279 E48.98354
G1 X145.105 Y157.492 E49.00579
G1 X145.902 Y157.741 E49.04050
G1 X146.693 Y157.922 E49.07424
G1 X147.254 Y158.017 E49.09790
G1 X147.800 Y158.104 E49.12088
G1 X148.534 Y158.188 E49.15160
G1 X149.415 Y158.269 E49.18838
G1 X150.022 Y158.304 E49.21366
G1 X150.677 Y158.323 E49.24090
G1 X150.936 Y158.326 E49.25167
G1 X151.478 Y158.322 E49.27420
G1 X152.444 Y158.280 E49.31440
G1 X153.037 Y158.235 E49.33913
G1 X154.153 Y158.112 E49.38581
G1 X154.744 Y158.018 E49.41069
G1 X155.268 Y157.929 E49.43279
G1 X155.783 Y157.819 E49.45468
G1 X156.445 Y157.644 E49.48315
G1 X157.027 Y157.442 E49.50876
G1 X157.515 Y157.212 E49.53119
G1 X157.777 Y157.045 E49.54411
G1 X158.040 Y156.794 E49.55922
G1 X158.136 Y156.644 E49.56663
G1 X158.195 Y156.511 E49.57267
G1 X158.213 Y156.276 E49.58247
G1 X158.154 Y155.324 E49.62213
G1 X158.042 Y154.710 E49.64808
G1 X157.947 Y154.170 E49.67087
G1 X157.773 Y153.554 E49.69749
G1 X157.584 Y153.034 E49.72049
G1 X157.336 Y152.481 E49.74569
G1 X157.054 Y151.937 E49.77116
G1 X156.711 Y151.393 E49.79790
G1 X156.356 Y150.923 E49.82239
G1 X155.830 Y150.338 E49.85509
G1 X155.307 Y149.818 E49.88575
G1 X154.857 Y149.487 E49.90898
G1 X154.417 Y149.180 E49.93129
G1 X154.111 Y148.975 E49.94660
G1 X153.380 Y148.629 E49.98022
G1 X152.989 Y148.454 E49.99803
G1 X152.460 Y148.301 E50.02093
G1 X151.952 Y148.166 E50.04278
G1 X151.089 Y148.076 E50.07885
G1 X150.996 Y148.073 E50.08272
G1 X150.370 Y148.119 E50.10882
G1 X150.050 Y148.163 E50.12225
G1 X149.542 Y148.299 E50.14411
G1 X149.011 Y148.452 E50.16709
G1 X148.255 Y148.796 E50.20162
G1 X147.889 Y148.974 E50.21854
G1 X147.395 Y149.305 E50.24326
G1 F2400 E49.64326
G1 Z1.900
G0 F9000 X143.750 Y149.735
;TYPE:SUPPORT
G1 Z1.400
G1 F2400 E50.24326
G1 F1140 X143.750 Y144.511 E50.46045
G1 F2400 E49.86045
G1 Z1.900
G0 F9000 X156.250 Y152.304
G1 Z1.400
G1 F2400 E50.46045
G1 F1140 X156.250 Y156.793 E50.64708
G1 F2400 E50.04708
G1 Z1.900
G0 F9000 X156.250 Y147.640
G1 Z1.400
G1 F2400 E50.64708
G1 F1140 X156.250 Y144.365 E50.78324
;LAYER:7
M106 S73
G1 F2400 E50.18324
G1 Z1.900
G0 F9000 X154.353 Y147.292 Z1.600
;TYPE:WALL-INNER
G1 Z1.600
G1 F2400 E50.78324
G1 F1200 X154.544 Y147.384 E50.79205
G1 X155.115 Y147.733 E50.81988
G1 X155.602 Y148.053 E50.84410
G1 X156.130 Y148.488 E50.87255
G1 X156.662 Y148.987 E50.90287
G1 X157.011 Y149.383 E50.92482
G1 X157.402 Y149.866 E50.95065
G1 X157.875 Y150.562 E50.98564
G1 X158.162 Y151.059 E51.00950
G1 X158.408 Y151.564 E51.03285
G1 X158.634 Y152.083 E51.05639
G1 X158.827 Y152.613 E51.07984
G1 X158.987 Y153.134 E51.10250
G1 X159.131 Y153.685 E51.12617
G1 X159.324 Y154.770 E51.17199
G1 X159.385 Y155.333 E51.19553
G1 X159.421 Y155.923 E51.22011
G1 X159.428 Y156.255 E51.23391
G1 X159.386 Y155.420 E51.26867
G1 X159.302 Y154.679 E51.29968
G1 X159.182 Y154.060 E51.32589
G1 X158.996 Y153.402 E51.35432
G1 X158.799 Y152.753 E51.38252
G1 X158.500 Y152.045 E51.41447
G1 X158.369 Y151.744 E51.42812
G1 X158.052 Y151.148 E51.45619
G1 X157.707 Y150.606 E51.48290
G1 X157.304 Y150.054 E51.51131
G1 X156.829 Y149.498 E51.54171
G1 X156.407 Y149.096 E51.56595
G1 X156.009 Y148.749 E51.58790
G1 X155.586 Y148.391 E51.61094
G1 X155.089 Y148.064 E51.63567
G1 X154.605 Y147.773 E51.65915
G1 X154.257 Y147.572 E51.67586
G1 X153.446 Y147.240 E51.71229
G1 X153.089 Y147.100 E51.72824
G1 X152.188 Y146.876 E51.76684
G1 X151.983 Y146.829 E51.77558
G1 X151.311 Y146.768 E51.80363
G1 X151.021 Y146.749 E51.81572
G1 X150.871 Y146.750 E51.82195
G1 X149.988 Y146.831 E51.85882
G1 X148.911 Y147.098 E51.90495
G1 X148.206 Y147.376 E51.93646
G1 X147.740 Y147.572 E51.95747
G1 X147.170 Y147.902 E51.98486
G1 X146.507 Y148.317 E52.01738
G1 X145.747 Y148.955 E52.05863
G1 X145.246 Y149.416 E52.08694
G1 X144.699 Y150.050 E52.12175
G1 X144.295 Y150.603 E52.15022
G1 X143.969 Y151.111 E52.17532
G1 X143.633 Y151.742 E52.20504
G1 X143.350 Y152.390 E52.23444
G1 X143.150 Y152.887 E52.25671
G1 X142.920 Y153.653 E52.28996
G1 X142.741 Y154.449 E52.32388
G1 X142.624 Y155.281 E52.35881
G1 X142.584 Y155.897 E52.38448
G1 X142.573 Y156.325 E52.40228
G1 X142.579 Y155.907 E52.41966
G1 X142.615 Y155.332 E52.44361
G1 X142.675 Y154.772 E52.46702
G1 X142.759 Y154.212 E52.49057
G1 X143.017 Y153.120 E52.53722
G1 X143.172 Y152.612 E52.55930
G1 X143.344 Y152.140 E52.58018
G1 X143.583 Y151.581 E52.60546
G1 X143.816 Y151.101 E52.62764
G1 X144.128 Y150.557 E52.65371
G1 X144.442 Y150.075 E52.67763
G1 X144.816 Y149.589 E52.70313
G1 X145.216 Y149.113 E52.72898
G1 X145.884 Y148.476 E52.76735
G1 X146.391 Y148.058 E52.79467
G1 X146.884 Y147.734 E52.81920
G1 X147.449 Y147.388 E52.84674
G1 X148.054 Y147.106 E52.87449
G1 X148.562 Y146.890 E52.89744
G1 X149.237 Y146.673 E52.92692
G1 X149.561 Y146.593 E52.94080
G1 X152.451 Y146.593 E53.06095
G1 X153.542 Y146.924 E53.10835
G1 X154.353 Y147.292 E53.14537
G0 F9000 X154.560 Y146.837
;TYPE:WALL-OUTER
G1 F1200 X154.787 Y146.945 E53.15583
G1 X155.376 Y147.306 E53.18455
G1 X155.895 Y147.647 E53.21037
G1 X156.463 Y148.115 E53.24096
G1 X157.021 Y148.639 E53.27279
G1 X157.400 Y149.068 E53.29659
G1 X157.803 Y149.567 E53.32325
G1 X157.966 Y149.786 E53.33460
G1 X158.297 Y150.293 E53.35978
G1 X158.604 Y150.825 E53.38531
G1 X158.866 Y151.363 E53.41019
G1 X159.097 Y151.894 E53.43427
G1 X159.301 Y152.453 E53.45901
G1 X159.468 Y152.997 E53.48267
G1 X159.615 Y153.560 E53.50686
G1 X159.720 Y154.062 E53.52818
G1 X159.820 Y154.704 E53.55519
G1 X159.883 Y155.288 E53.57961
G1 X159.920 Y155.892 E53.60477
G1 X159.930 Y156.324 E53.62274
G1 X159.928 Y156.378 E53.62498
G1 X159.882 Y156.559 E53.63275
G1 X159.753 Y156.780 E53.64339
G1 X159.593 Y156.951 E53.65312
G1 X159.310 Y157.174 E53.66810
G1 X159.121 Y157.293 E53.67739
G1 X158.647 Y157.528 E53.69938
G1 X158.097 Y157.739 E53.72387
G1 X157.362 Y157.959 E53.75577
G1 X156.875 Y158.071 E53.77655
G1 X156.268 Y158.202 E53.80236
G1 X155.609 Y158.314 E53.83016
G1 X154.599 Y158.452 E53.87254
G1 X154.043 Y158.511 E53.89578
G1 X153.430 Y158.563 E53.92136
G1 X152.561 Y158.623 E53.95757
G1 X151.942 Y158.652 E53.98334
G1 X151.294 Y158.666 E54.01028
G1 X151.000 Y158.669 E54.02251
G1 X150.392 Y158.661 E54.04779
G1 X149.442 Y158.623 E54.08732
G1 X148.917 Y158.593 E54.10918
G1 X148.281 Y158.541 E54.13571
G1 X147.686 Y158.484 E54.16056
G1 X147.106 Y158.413 E54.18485
G1 X146.498 Y158.331 E54.21036
G1 X145.417 Y158.136 E54.25603
G1 X144.763 Y157.989 E54.28390
G1 X144.266 Y157.855 E54.30530
G1 X143.720 Y157.676 E54.32919
G1 X143.288 Y157.498 E54.34861
G1 X142.781 Y157.233 E54.37240
G1 X142.461 Y156.998 E54.38890
G1 X142.400 Y156.946 E54.39223
G1 X142.244 Y156.776 E54.40183
G1 X142.150 Y156.630 E54.40905
G1 X142.110 Y156.541 E54.41310
G1 X142.072 Y156.379 E54.42002
G1 X142.071 Y156.340 E54.42164
G1 X142.080 Y155.876 E54.44094
G1 X142.116 Y155.300 E54.46493
G1 X142.180 Y154.704 E54.48985
G1 X142.264 Y154.140 E54.51356
G1 X142.371 Y153.625 E54.53543
G1 X142.529 Y153.007 E54.56195
G1 X142.698 Y152.453 E54.58603
G1 X142.873 Y151.971 E54.60735
G1 X143.133 Y151.363 E54.63484
G1 X143.376 Y150.863 E54.65795
G1 X143.702 Y150.293 E54.68525
G1 X144.038 Y149.780 E54.71075
G1 X144.421 Y149.281 E54.73690
G1 X144.849 Y148.772 E54.76455
G1 X145.551 Y148.103 E54.80486
G1 X146.101 Y147.650 E54.83449
G1 X146.623 Y147.307 E54.86046
G1 X147.206 Y146.950 E54.88888
G1 X147.859 Y146.646 E54.91882
G1 X148.387 Y146.421 E54.94269
G1 X149.095 Y146.193 E54.97361
G1 X149.502 Y146.093 E54.99103
G1 X152.507 Y146.093 E55.11597
G1 X153.023 Y146.230 E55.13816
G1 X153.725 Y146.458 E55.16885
G1 X154.560 Y146.837 E55.20697
G0 F9000 X154.351 Y148.204
G1 F1200 X154.036 Y148.022 E55.22210
G1 X153.260 Y147.704 E55.25697
G1 X152.937 Y147.577 E55.27140
G1 X152.071 Y147.362 E55.30849
G1 X151.904 Y147.324 E55.31561
G1 X151.272 Y147.267 E55.34200
G1 X151.007 Y147.249 E55.35304
G1 X150.896 Y147.250 E55.35765
G1 X150.071 Y147.326 E55.39210
G1 X149.064 Y147.575 E55.43522
G1 X148.395 Y147.839 E55.46513
G1 X147.963 Y148.021 E55.48462
G1 X147.428 Y148.331 E55.51032
G1 X146.802 Y148.722 E55.54101
G1 X146.077 Y149.330 E55.58035
G1 X145.606 Y149.764 E55.60697
G1 X145.091 Y150.361 E55.63975
G1 X144.708 Y150.886 E55.66677
G1 X144.401 Y151.364 E55.69039
G1 X144.084 Y151.960 E55.71846
G1 X143.811 Y152.583 E55.74673
G1 X143.623 Y153.052 E55.76774
G1 X143.404 Y153.780 E55.79935
G1 X143.233 Y154.539 E55.83169
G1 X143.122 Y155.332 E55.86498
G1 X143.083 Y155.920 E55.88948
G1 X143.071 Y156.383 E55.90874
G1 X143.111 Y156.583 E55.91722
G1 X143.201 Y156.756 E55.92533
G1 X143.319 Y156.910 E55.93339
G1 X143.605 Y157.152 E55.94897
G1 X143.874 Y157.324 E55.96224
G1 X144.434 Y157.579 E55.98783
G1 X145.004 Y157.772 E56.01285
G1 X145.513 Y157.913 E56.03480
G1 X146.174 Y158.055 E56.06291
G1 X146.732 Y158.163 E56.08654
G1 X147.348 Y158.259 E56.11246
G1 X147.876 Y158.327 E56.13459
G1 X148.435 Y158.387 E56.15797
G1 X148.983 Y158.434 E56.18084
G1 X149.516 Y158.471 E56.20305
G1 X150.033 Y158.497 E56.22457
G1 X151.000 Y158.517 E56.26478
G1 X151.765 Y158.502 E56.29659
G1 X152.484 Y158.472 E56.32651
G1 X153.016 Y158.435 E56.34868
G1 X153.564 Y158.388 E56.37155
G1 X154.123 Y158.328 E56.39492
G1 X154.650 Y158.260 E56.41702
G1 X155.267 Y158.164 E56.44298
G1 X155.801 Y158.060 E56.46559
G1 X156.419 Y157.931 E56.49184
G1 X156.994 Y157.774 E56.51662
G1 X157.540 Y157.590 E56.54058
G1 X158.107 Y157.331 E56.56649
G1 X158.540 Y157.041 E56.58816
G1 X158.748 Y156.828 E56.60054
G1 X158.912 Y156.518 E56.61512
G1 X158.930 Y156.307 E56.62392
G1 X158.887 Y155.461 E56.65914
G1 X158.807 Y154.755 E56.68868
G1 X158.695 Y154.176 E56.71320
G1 X158.516 Y153.543 E56.74055
G1 X158.328 Y152.923 E56.76748
G1 X158.041 Y152.242 E56.79821
G1 X157.918 Y151.961 E56.81096
G1 X157.620 Y151.400 E56.83737
G1 X157.294 Y150.888 E56.86260
G1 X156.911 Y150.364 E56.88959
G1 X156.466 Y149.842 E56.91811
G1 X156.070 Y149.465 E56.94084
G1 X155.684 Y149.128 E56.96214
G1 X155.286 Y148.792 E56.98380
G1 X154.822 Y148.487 E57.00688
G1 X154.351 Y148.204 E57.02973
G1 F2400 E56.42973
G1 Z2.100
G0 F9000 X156.250 Y146.806
;TYPE:SUPPORT
G1 Z1.600
G1 F2400 E57.02973
G1 F1200 X156.250 Y145.171 E57.09770
G1 F2400 E56.49770
G1 Z2.100
G0 F9000 X156.250 Y150.944
G1 Z1.600
G1 F2400 E57.09770
G1 F1200 X156.250 Y157.072 E57.35248
G1 F2400 E56.75248
G1 Z2.100
G0 F9000 X143.750 Y148.716
G1 Z1.600
G1 F2400 E57.35248
G1 F1200 X143.750 Y144.511 E57.52730
;LAYER:8
M106 S84
G1 F2400 E56.92730
G1 Z2.100
G0 F9000 X145.944 Y147.660 Z1.800
;TYPE:WALL-INNER
G1 Z1.800
G1 F2400 E57.52730
G1 F1260 X146.465 Y147.266 E57.55446
G1 X147.371 Y146.738 E57.59805
G1 X147.679 Y146.593 E57.61221
G1 X154.324 Y146.593 E57.88847
G1 X154.563 Y146.701 E57.89938
G1 X155.359 Y147.162 E57.93762
G1 X155.534 Y147.265 E57.94606
G1 X156.070 Y147.670 E57.97399
G1 X156.582 Y148.095 E58.00166
G1 X156.929 Y148.444 E58.02212
G1 X157.323 Y148.871 E58.04627
G1 X157.620 Y149.228 E58.06558
G1 X158.132 Y149.956 E58.10258
G1 X158.474 Y150.541 E58.13076
G1 X158.489 Y150.570 E58.13211
G1 X158.182 Y150.110 E58.15511
G1 X157.873 Y149.650 E58.17815
G1 X157.253 Y148.933 E58.21755
G1 X156.834 Y148.499 E58.24263
G1 X156.605 Y148.287 E58.25561
G1 X155.906 Y147.749 E58.29228
G1 X155.452 Y147.417 E58.31566
G1 X154.930 Y147.117 E58.34070
G1 X154.251 Y146.758 E58.37263
G1 X153.849 Y146.593 E58.39069
G1 X148.124 Y146.593 E58.62871
G1 X147.589 Y146.835 E58.65312
G1 X146.624 Y147.361 E58.69882
G1 X145.815 Y147.954 E58.74052
G1 X145.387 Y148.293 E58.76322
G1 X144.974 Y148.689 E58.78701
G1 X144.539 Y149.173 E58.81406
G1 X144.169 Y149.594 E58.83736
G1 X143.526 Y150.541 E58.88495
G1 X143.809 Y150.050 E58.90852
G1 X144.153 Y149.537 E58.93420
G1 X144.427 Y149.171 E58.95320
G1 X145.371 Y148.140 E59.01132
G1 X145.944 Y147.660 E59.04240
G0 F9000 X145.629 Y147.271
;TYPE:WALL-OUTER
G1 F1260 X146.187 Y146.850 E59.07146
G1 X147.139 Y146.295 E59.11727
G1 X147.568 Y146.093 E59.13699
G1 X154.432 Y146.093 E59.42236
G1 X154.796 Y146.257 E59.43896
G1 X155.613 Y146.731 E59.47823
G1 X155.809 Y146.847 E59.48770
G1 X156.371 Y147.271 E59.51697
G1 X156.925 Y147.730 E59.54688
G1 X157.285 Y148.092 E59.56810
G1 X157.709 Y148.552 E59.59411
G1 X158.009 Y148.912 E59.61359
G1 X158.556 Y149.691 E59.65317
G1 X158.914 Y150.303 E59.68265
G1 X159.175 Y150.816 E59.70658
G1 X159.414 Y151.354 E59.73105
G1 X159.603 Y151.835 E59.75254
G1 X159.809 Y152.453 E59.77962
G1 X159.960 Y152.997 E59.80309
G1 X160.092 Y153.571 E59.82758
G1 X160.195 Y154.130 E59.85121
G1 X160.270 Y154.668 E59.87379
G1 X160.332 Y155.291 E59.89982
G1 X160.363 Y155.883 E59.92447
G1 X160.371 Y156.318 E59.94256
G1 X160.340 Y156.535 E59.95167
G1 X160.315 Y156.608 E59.95488
G1 X160.263 Y156.713 E59.95975
G1 X159.974 Y157.059 E59.97849
G1 X159.573 Y157.356 E59.99924
G1 X159.083 Y157.613 E60.02224
G1 X158.735 Y157.759 E60.03793
G1 X158.073 Y157.981 E60.06696
G1 X157.562 Y158.118 E60.08896
G1 X156.991 Y158.247 E60.11330
G1 X156.437 Y158.357 E60.13678
G1 X155.673 Y158.482 E60.16896
G1 X155.117 Y158.556 E60.19228
G1 X154.547 Y158.620 E60.21613
G1 X154.012 Y158.675 E60.23849
G1 X153.155 Y158.742 E60.27423
G1 X152.339 Y158.785 E60.30820
G1 X151.478 Y158.811 E60.34401
G1 X151.000 Y158.818 E60.36389
G1 X150.070 Y158.803 E60.40256
G1 X149.305 Y158.768 E60.43440
G1 X147.989 Y158.677 E60.48924
G1 X147.454 Y158.620 E60.51161
G1 X146.885 Y158.558 E60.53541
G1 X146.323 Y158.481 E60.55899
G1 X145.768 Y158.394 E60.58234
G1 X145.327 Y158.315 E60.60097
G1 X144.676 Y158.178 E60.62863
G1 X144.614 Y158.163 E60.63128
G1 X144.005 Y158.002 E60.65747
G1 X143.147 Y157.713 E60.69511
G1 X142.440 Y157.364 E60.72789
G1 X142.058 Y157.089 E60.74746
G1 X141.821 Y156.837 E60.76184
G1 X141.701 Y156.639 E60.77147
G1 X141.636 Y156.429 E60.78061
G1 X141.630 Y156.328 E60.78481
G1 X141.658 Y155.481 E60.82005
G1 X141.722 Y154.719 E60.85184
G1 X141.805 Y154.131 E60.87653
G1 X141.907 Y153.572 E60.90015
G1 X142.036 Y153.009 E60.92417
G1 X142.187 Y152.465 E60.94764
G1 X142.375 Y151.893 E60.97267
G1 X142.582 Y151.364 E60.99629
G1 X142.818 Y150.830 E61.02056
G1 X143.093 Y150.291 E61.04572
G1 X143.386 Y149.783 E61.07010
G1 X143.738 Y149.258 E61.09638
G1 X144.031 Y148.865 E61.11676
G1 X144.373 Y148.466 E61.13861
G1 X145.025 Y147.778 E61.17801
G1 X145.629 Y147.271 E61.21080
G0 F9000 X146.118 Y148.352
G1 F1260 X145.716 Y148.670 E61.23211
G1 X145.333 Y149.037 E61.25416
G1 X144.913 Y149.505 E61.28031
G1 X144.565 Y149.901 E61.30222
G1 X143.942 Y150.819 E61.34835
G1 X143.528 Y151.586 E61.38459
G1 X143.126 Y152.523 E61.42698
G1 X142.939 Y153.072 E61.45109
G1 X142.782 Y153.628 E61.47511
G1 X142.658 Y154.193 E61.49916
G1 X142.564 Y154.763 E61.52318
G1 X142.499 Y155.340 E61.54732
G1 X142.461 Y155.921 E61.57152
G1 X142.448 Y156.328 E61.58845
G1 X142.488 Y156.586 E61.59931
G1 X142.573 Y156.769 E61.60770
G1 X142.854 Y157.094 E61.62556
G1 X143.338 Y157.421 E61.64984
G1 X143.779 Y157.630 E61.67013
G1 X144.305 Y157.825 E61.69345
G1 X144.924 Y158.009 E61.72030
G1 X145.630 Y158.174 E61.75045
G1 X146.133 Y158.270 E61.77174
G1 X146.645 Y158.356 E61.79332
G1 X147.341 Y158.453 E61.82254
G1 X147.907 Y158.520 E61.84623
G1 X148.572 Y158.581 E61.87400
G1 X149.861 Y158.662 E61.92769
G1 X150.498 Y158.684 E61.95419
G1 X151.001 Y158.689 E61.97510
G1 X151.915 Y158.673 E62.01311
G1 X152.770 Y158.630 E62.04870
G1 X153.429 Y158.582 E62.07617
G1 X153.992 Y158.530 E62.09968
G1 X154.658 Y158.454 E62.12755
G1 X155.460 Y158.340 E62.16123
G1 X156.259 Y158.196 E62.19498
G1 X157.022 Y158.022 E62.22752
G1 X157.627 Y157.847 E62.25370
G1 X158.164 Y157.652 E62.27745
G1 X158.597 Y157.455 E62.29723
G1 X159.071 Y157.153 E62.32060
G1 X159.343 Y156.886 E62.33644
G1 X159.432 Y156.758 E62.34292
G1 X159.502 Y156.608 E62.34981
G1 X159.549 Y156.412 E62.35819
G1 X159.550 Y156.311 E62.36239
G1 X159.526 Y155.708 E62.38747
G1 X159.465 Y155.040 E62.41536
G1 X159.342 Y154.196 E62.45082
G1 X159.219 Y153.630 E62.47490
G1 X159.061 Y153.073 E62.49897
G1 X158.874 Y152.524 E62.52309
G1 X158.660 Y151.980 E62.54739
G1 X158.115 Y150.910 E62.59731
G1 X157.475 Y149.954 E62.64514
G1 X156.884 Y149.270 E62.68273
G1 X156.484 Y148.856 E62.70666
G1 X156.282 Y148.670 E62.71808
G1 X155.606 Y148.149 E62.75356
G1 X155.179 Y147.837 E62.77555
G1 X154.689 Y147.555 E62.79905
G1 X154.039 Y147.211 E62.82963
G1 X153.750 Y147.093 E62.84260
G1 X148.232 Y147.093 E63.07202
G1 X146.893 Y147.784 E63.13466
G1 X146.118 Y148.352 E63.17461
G1 F2400 E62.57461
G1 Z2.300
G0 F9000 X143.565 Y150.989
;TYPE:SKIN
G1 Z1.800
G1 F2400 E63.17461
G1 F1260 X143.085 Y150.863 E63.19598
G1 X143.209 Y151.695 E63.21641
G1 X142.661 Y151.854 E63.23662
G1 X142.642 Y152.541 E63.25571
G1 X142.478 Y153.085 E63.27432
G1 X142.337 Y153.651 E63.29241
G1 X142.221 Y154.242 E63.31024
G1 X142.134 Y154.861 E63.32802
G1 X142.074 Y155.509 E63.34582
G1 X142.045 Y156.187 E63.36388
G1 X142.317 Y156.813 E63.39225
G1 F2400 E62.79225
G1 Z2.300
G0 F9000 X158.457 Y151.033
G1 Z1.800
G1 F2400 E63.39225
G1 F1260 X159.379 Y151.955 E63.44646
G0 F9000 X159.076 Y152.358
G1 F1260 X159.553 Y153.189 E63.48279
G1 X159.751 Y154.095 E63.51109
G1 X159.873 Y154.923 E63.53538
G1 X159.936 Y155.694 E63.55699
G1 X159.941 Y156.405 E63.57674
G1 X159.918 Y156.736 E63.59053
G1 F2400 E62.99053
G1 Z2.300
G0 F9000 X143.750 Y147.851
;TYPE:SUPPORT
G1 Z1.800
G1 F2400 E63.59053
G1 F1260 X143.750 Y144.510 E63.72944
G1 F2400 E63.12944
G1 Z2.300
G0 F9000 X143.750 Y153.422
G1 Z1.800
G1 F2400 E63.72944
G1 F1260 X143.750 Y156.682 E63.86497
G1 F2400 E63.26497
G1 Z2.300
G0 F9000 X156.250 Y157.302
G1 Z1.800
G1 F2400 E63.86497
G1 F1260 X156.250 Y149.875 E64.17375
;LAYER:9
M106 S94
G1 F2400 E63.57375
G1 Z2.300
G0 F9000 X157.201 Y147.948 Z2.000
;TYPE:WALL-INNER
G1 Z2.000
G1 F2400 E64.17375
G1 F1260 X157.451 Y148.214 E64.18893
G1 X156.691 Y147.498 E64.23234
G1 X156.182 Y147.117 E64.25877
G1 X155.691 Y146.770 E64.28377
G1 X155.402 Y146.593 E64.29786
G1 X146.570 Y146.593 E64.66505
G1 X145.513 Y147.331 E64.71865
G1 X144.893 Y147.870 E64.75280
G1 X144.580 Y148.181 E64.77115
G1 X144.974 Y147.775 E64.79467
G1 X145.383 Y147.402 E64.81768
G1 X145.622 Y147.193 E64.83088
G1 X146.048 Y146.878 E64.85291
G1 X146.486 Y146.593 E64.87463
G1 X155.521 Y146.593 E65.25026
G1 X155.952 Y146.877 E65.27172
G1 X156.367 Y147.186 E65.29324
G1 X156.809 Y147.578 E65.31780
G1 X157.201 Y147.948 E65.34021
G0 F9000 X157.561 Y147.601
;TYPE:WALL-OUTER
G1 F1260 X157.900 Y147.962 E65.36080
G1 X158.438 Y148.631 E65.39649
G1 X158.866 Y149.265 E65.42829
G1 X159.161 Y149.767 E65.45250
G1 X159.425 Y150.266 E65.47597
G1 X159.680 Y150.815 E65.50114
G1 X159.896 Y151.362 E65.52559
G1 X160.081 Y151.895 E65.54904
G1 X160.245 Y152.455 E65.57330
G1 X160.369 Y152.947 E65.59440
G1 X160.499 Y153.565 E65.62065
G1 X160.666 Y154.711 E65.66880
G1 X160.715 Y155.294 E65.69313
G1 X160.743 Y155.887 E65.71781
G1 X160.751 Y156.222 E65.73174
G1 X160.730 Y156.505 E65.74354
G1 X160.645 Y156.738 E65.75385
G1 X160.440 Y157.030 E65.76868
G1 X160.281 Y157.187 E65.77797
G1 X159.904 Y157.463 E65.79740
G1 X159.699 Y157.582 E65.80725
G1 X159.256 Y157.793 E65.82765
G1 X158.297 Y158.124 E65.86983
G1 X157.264 Y158.378 E65.91406
G1 X156.734 Y158.480 E65.93650
G1 X156.182 Y158.569 E65.95974
G1 X155.634 Y158.648 E65.98276
G1 X155.081 Y158.717 E66.00593
G1 X154.282 Y158.797 E66.03931
G1 X153.715 Y158.844 E66.06297
G1 X152.925 Y158.898 E66.09589
G1 X152.146 Y158.930 E66.12830
G1 X151.000 Y158.954 E66.17596
G1 X150.354 Y158.945 E66.20282
G1 X149.076 Y158.898 E66.25599
G1 X148.286 Y158.845 E66.28891
G1 X147.717 Y158.797 E66.31265
G1 X147.127 Y158.739 E66.33729
G1 X145.939 Y158.588 E66.38708
G1 X145.273 Y158.480 E66.41513
G1 X144.729 Y158.376 E66.43816
G1 X143.839 Y158.161 E66.47623
G1 X143.261 Y157.987 E66.50132
G1 X142.748 Y157.796 E66.52408
G1 X142.107 Y157.471 E66.55396
G1 X141.721 Y157.187 E66.57388
G1 X141.661 Y157.132 E66.57727
G1 X141.614 Y157.087 E66.57997
G1 X141.418 Y156.846 E66.59289
G1 X141.317 Y156.659 E66.60172
G1 X141.264 Y156.483 E66.60937
G1 X141.249 Y156.182 E66.62190
G1 X141.285 Y155.307 E66.65830
G1 X141.405 Y154.145 E66.70687
G1 X141.501 Y153.565 E66.73131
G1 X141.615 Y153.009 E66.75491
G1 X141.794 Y152.322 E66.78443
G1 X141.992 Y151.687 E66.81208
G1 X142.314 Y150.827 E66.85026
G1 X142.547 Y150.320 E66.87346
G1 X142.833 Y149.777 E66.89897
G1 X143.108 Y149.306 E66.92165
G1 X143.475 Y148.751 E66.94931
G1 X143.863 Y148.247 E66.97575
G1 X144.277 Y147.767 E67.00211
G1 X144.634 Y147.407 E67.02319
G1 X145.046 Y147.032 E67.04635
G1 X145.302 Y146.808 E67.06049
G1 X145.767 Y146.465 E67.08451
G1 X146.338 Y146.093 E67.11285
G1 X155.671 Y146.093 E67.50087
G1 X156.237 Y146.465 E67.52903
G1 X156.680 Y146.795 E67.55199
G1 X157.135 Y147.199 E67.57729
G1 X157.561 Y147.601 E67.60164
G0 F9000 X156.768 Y148.236
G1 F1260 X156.374 Y147.885 E67.62358
G1 X155.888 Y147.522 E67.64880
G1 X155.416 Y147.188 E67.67284
G1 X155.261 Y147.093 E67.68040
G1 X146.727 Y147.093 E68.03520
G1 X145.821 Y147.726 E68.08115
G1 X145.234 Y148.237 E68.11351
G1 X144.649 Y148.818 E68.14778
G1 X144.289 Y149.256 E68.17136
G1 X143.913 Y149.744 E68.19697
G1 X143.502 Y150.365 E68.22793
G1 X143.190 Y150.930 E68.25476
G1 X142.949 Y151.421 E68.27750
G1 X142.710 Y151.999 E68.30351
G1 X142.515 Y152.539 E68.32738
G1 X142.347 Y153.088 E68.35124
G1 X142.213 Y153.644 E68.37502
G1 X142.100 Y154.205 E68.39881
G1 X142.014 Y154.772 E68.42266
G1 X141.959 Y155.293 E68.44444
G1 X141.921 Y155.925 E68.47076
G1 X141.914 Y156.368 E68.48918
G1 X141.918 Y156.448 E68.49251
G1 X141.938 Y156.544 E68.49659
G1 X142.049 Y156.808 E68.50850
G1 X142.198 Y157.010 E68.51893
G1 X142.453 Y157.246 E68.53338
G1 X142.616 Y157.359 E68.54162
G1 X143.076 Y157.622 E68.56365
G1 X143.574 Y157.834 E68.58615
G1 X144.068 Y158.003 E68.60786
G1 X144.566 Y158.142 E68.62936
G1 X145.215 Y158.288 E68.65701
G1 X145.755 Y158.400 E68.67994
G1 X146.711 Y158.550 E68.72017
G1 X147.806 Y158.678 E68.76601
G1 X148.481 Y158.737 E68.79418
G1 X149.024 Y158.780 E68.81682
G1 X149.810 Y158.818 E68.84954
G1 X150.999 Y158.846 E68.89899
G1 X151.949 Y158.829 E68.93849
G1 X152.698 Y158.795 E68.96966
G1 X153.518 Y158.737 E69.00384
G1 X154.063 Y158.693 E69.02657
G1 X154.686 Y158.623 E69.05264
G1 X155.221 Y158.559 E69.07504
G1 X155.751 Y158.482 E69.09730
G1 X156.317 Y158.386 E69.12117
G1 X157.230 Y158.191 E69.15999
G1 X158.125 Y157.939 E69.19864
G1 X158.484 Y157.814 E69.21445
G1 X158.971 Y157.599 E69.23658
G1 X159.295 Y157.419 E69.25199
G1 X159.743 Y157.073 E69.27552
G1 X159.979 Y156.758 E69.29189
G1 X160.048 Y156.597 E69.29917
G1 X160.084 Y156.446 E69.30562
G1 X160.086 Y156.222 E69.31494
G1 X160.079 Y155.948 E69.32633
G1 X160.081 Y155.931 E69.32704
G1 X160.046 Y155.346 E69.35141
G1 X159.986 Y154.773 E69.37536
G1 X159.900 Y154.205 E69.39924
G1 X159.787 Y153.645 E69.42300
G1 X159.654 Y153.090 E69.44672
G1 X159.485 Y152.540 E69.47064
G1 X159.290 Y152.000 E69.49451
G1 X159.070 Y151.462 E69.51868
G1 X158.810 Y150.932 E69.54322
G1 X158.523 Y150.408 E69.56806
G1 X158.190 Y149.890 E69.59366
G1 X157.929 Y149.532 E69.61208
G1 X157.403 Y148.875 E69.64707
G1 X156.768 Y148.236 E69.68453
G0 F9000 X157.693 Y148.837
;TYPE:SKIN
G1 F1260 X158.172 Y148.711 E69.70368
G1 X158.159 Y149.431 E69.72230
G1 X158.742 Y149.555 E69.73979
G1 X158.726 Y150.278 E69.75627
G1 X159.239 Y150.472 E69.77191
G1 X159.334 Y151.084 E69.78659
G1 X159.543 Y151.582 E69.80029
G1 X159.730 Y152.103 E69.81322
G1 X159.899 Y152.640 E69.82516
G1 X159.889 Y153.005 E69.84034
G1 F2400 E69.24034
G1 Z2.500
G0 F9000 X144.589 Y148.505
G1 Z2.000
G1 F2400 E69.84034
G1 F1260 X142.889 Y150.206 E69.94032
G0 F9000 X142.947 Y150.854
G1 F1260 X142.375 Y151.780 E69.97580
G1 X142.040 Y152.822 E69.99937
G1 X141.829 Y153.740 E70.01668
G1 X141.696 Y154.580 E70.03047
G1 X141.623 Y155.360 E70.04167
G1 X141.588 Y156.102 E70.05174
G1 X141.534 Y156.511 E70.06889
G1 F2400 E69.46889
G1 Z2.500
G0 F9000 X160.026 Y153.575
G1 Z2.000
G1 F2400 E70.06889
G1 F1260 X160.257 Y153.697 E70.07945
G1 X160.271 Y154.390 E70.08896
G1 X160.348 Y155.020 E70.09846
G1 X160.396 Y155.679 E70.10785
G1 X160.332 Y156.097 E70.12543
G1 F2400 E69.52543
G1 Z2.500
G0 F9000 X156.250 Y157.508
;TYPE:SUPPORT
G1 Z2.000
G1 F2400 E70.12543
G1 F1260 X156.250 Y148.956 E70.48099
G1 F2400 E69.88099
G1 Z2.500
G0 F9000 X143.750 Y151.775
G1 Z2.000
G1 F2400 E70.48099
G1 F1260 X143.750 Y156.959 E70.69651
G1 F2400 E70.09651
G1 Z2.500
G0 F9000 X143.750 Y147.041
G1 Z2.000
G1 F2400 E70.69651
G1 F1260 X143.750 Y145.113 E70.77667
;LAYER:10
M106 S104
G1 F2400 E70.17667
G1 Z2.500
G0 F9000 X150.719 Y146.437 Z2.200
;TYPE:WALL-INNER
G1 Z2.200
G1 F2400 E70.77667
G1 F1080 X150.989 Y146.427 E70.78790
G1 X151.277 Y146.436 E70.79988
G1 X151.539 Y146.460 E70.81082
G1 X151.585 Y146.593 E70.81667
G1 X150.392 Y146.593 E70.86627
G1 X150.446 Y146.462 E70.87216
G1 X150.719 Y146.437 E70.88356
G0 F9000 X150.058 Y146.093
;TYPE:WALL-OUTER
G1 F1080 X150.099 Y145.994 E70.88801
G1 X150.673 Y145.939 E70.91199
G1 X151.001 Y145.926 E70.92563
G1 X151.303 Y145.937 E70.93820
G1 X151.862 Y145.988 E70.96153
G1 X151.907 Y145.995 E70.96343
G1 X151.941 Y146.093 E70.96774
G1 X156.622 Y146.093 E71.16235
G1 X157.460 Y146.790 E71.20767
G1 X157.929 Y147.262 E71.23533
G1 X158.326 Y147.711 E71.26025
G1 X158.729 Y148.237 E71.28780
G1 X159.066 Y148.740 E71.31297
G1 X159.321 Y149.154 E71.33319
G1 X159.565 Y149.603 E71.35443
G1 X159.794 Y150.068 E71.37598
G1 X160.022 Y150.596 E71.39989
G1 X160.242 Y151.178 E71.42576
G1 X160.459 Y151.852 E71.45520
G1 X160.619 Y152.449 E71.48090
G1 X160.742 Y153.005 E71.50457
G1 X160.841 Y153.533 E71.52690
G1 X160.931 Y154.138 E71.55233
G1 X160.996 Y154.715 E71.57647
G1 X161.040 Y155.296 E71.60070
G1 X161.065 Y155.887 E71.62529
G1 X161.072 Y156.322 E71.64338
G1 X161.039 Y156.580 E71.65419
G1 X160.980 Y156.746 E71.66152
G1 X160.890 Y156.912 E71.66937
G1 X160.652 Y157.206 E71.68509
G1 X160.603 Y157.252 E71.68789
G1 X160.166 Y157.581 E71.71063
G1 X159.636 Y157.860 E71.73553
G1 X159.134 Y158.061 E71.75801
G1 X158.559 Y158.242 E71.78308
G1 X158.049 Y158.376 E71.80500
G1 X157.446 Y158.508 E71.83066
G1 X156.870 Y158.615 E71.85502
G1 X156.214 Y158.718 E71.88263
G1 X155.579 Y158.802 E71.90926
G1 X155.034 Y158.864 E71.93206
G1 X154.482 Y158.917 E71.95512
G1 X153.946 Y158.961 E71.97748
G1 X153.369 Y158.994 E72.00150
G1 X152.551 Y159.035 E72.03555
G1 X151.905 Y159.054 E72.06242
G1 X151.000 Y159.065 E72.10005
G1 X150.407 Y159.058 E72.12471
G1 X149.653 Y159.042 E72.15606
G1 X149.112 Y159.023 E72.17857
G1 X148.175 Y158.968 E72.21759
G1 X147.658 Y158.929 E72.23915
G1 X146.966 Y158.864 E72.26804
G1 X146.421 Y158.803 E72.29084
G1 X145.908 Y158.737 E72.31235
G1 X145.323 Y158.648 E72.33695
G1 X144.792 Y158.556 E72.35935
G1 X144.263 Y158.450 E72.38178
G1 X143.762 Y158.331 E72.40319
G1 X143.263 Y158.191 E72.42474
G1 X142.272 Y157.818 E72.46876
G1 X142.021 Y157.692 E72.48044
G1 X141.612 Y157.431 E72.50061
G1 X141.346 Y157.202 E72.51520
G1 X141.110 Y156.912 E72.53075
G1 X141.015 Y156.736 E72.53906
G1 X140.970 Y156.620 E72.54424
G1 X140.936 Y156.461 E72.55100
G1 X140.928 Y156.356 E72.55537
G1 X140.960 Y155.293 E72.59959
G1 X141.003 Y154.724 E72.62331
G1 X141.067 Y154.147 E72.64745
G1 X141.143 Y153.623 E72.66946
G1 X141.255 Y153.014 E72.69521
G1 X141.448 Y152.198 E72.73007
G1 X141.696 Y151.354 E72.76664
G1 X141.885 Y150.827 E72.78992
G1 X142.106 Y150.286 E72.81421
G1 X142.347 Y149.774 E72.83774
G1 X142.618 Y149.260 E72.86190
G1 X142.934 Y148.740 E72.88720
G1 X143.225 Y148.300 E72.90913
G1 X143.647 Y147.746 E72.93808
G1 X144.064 Y147.268 E72.96445
G1 X144.540 Y146.788 E72.99256
G1 X144.987 Y146.403 E73.01709
G1 X145.385 Y146.093 E73.03806
G1 X150.058 Y146.093 E73.23234
G1 F2400 E72.63234
G1 Z2.700
G0 F9000 X145.645 Y147.093
G1 Z2.200
G1 F2400 E73.23234
G1 F1080 X145.155 Y147.491 E73.25859
G1 X144.767 Y147.842 E73.28034
G1 X144.392 Y148.241 E73.30310
G1 X143.987 Y148.702 E73.32861
G1 X143.635 Y149.151 E73.35233
G1 X143.205 Y149.800 E73.38470
G1 X142.849 Y150.426 E73.41464
G1 X142.614 Y150.894 E73.43641
G1 X142.362 Y151.481 E73.46297
G1 X142.161 Y152.017 E73.48677
G1 X141.986 Y152.556 E73.51033
G1 X141.836 Y153.104 E73.53395
G1 X141.715 Y153.657 E73.55749
G1 X141.613 Y154.215 E73.58107
G1 X141.538 Y154.781 E73.60481
G1 X141.487 Y155.353 E73.62869
G1 X141.458 Y155.929 E73.65266
G1 X141.451 Y156.356 E73.67042
G1 X141.504 Y156.655 E73.68304
G1 X141.610 Y156.873 E73.69312
G1 X141.866 Y157.183 E73.70984
G1 X142.291 Y157.510 E73.73213
G1 X142.800 Y157.780 E73.75608
G1 X143.339 Y157.996 E73.78023
G1 X143.880 Y158.170 E73.80385
G1 X144.497 Y158.329 E73.83034
G1 X145.177 Y158.474 E73.85925
G1 X145.735 Y158.575 E73.88283
G1 X146.298 Y158.662 E73.90651
G1 X146.860 Y158.734 E73.93007
G1 X147.653 Y158.818 E73.96322
G1 X148.203 Y158.868 E73.98618
G1 X148.873 Y158.917 E74.01411
G1 X149.405 Y158.945 E74.03626
G1 X150.065 Y158.973 E74.06372
G1 X151.000 Y158.987 E74.10260
G1 X151.936 Y158.973 E74.14152
G1 X152.950 Y158.928 E74.18372
G1 X154.026 Y158.850 E74.22857
G1 X154.635 Y158.790 E74.25401
G1 X155.139 Y158.735 E74.27509
G1 X155.668 Y158.666 E74.29727
G1 X156.337 Y158.561 E74.32542
G1 X157.035 Y158.433 E74.35493
G1 X157.699 Y158.283 E74.38323
G1 X158.234 Y158.137 E74.40628
G1 X158.905 Y157.907 E74.43578
G1 X159.382 Y157.693 E74.45751
G1 X159.697 Y157.516 E74.47253
G1 X159.922 Y157.363 E74.48385
G1 X160.200 Y157.113 E74.49939
G1 X160.396 Y156.861 E74.51266
G1 X160.512 Y156.603 E74.52442
G1 X160.543 Y156.461 E74.53047
G1 X160.549 Y156.378 E74.53393
G1 X160.528 Y155.641 E74.56458
G1 X160.463 Y154.784 E74.60031
G1 X160.388 Y154.217 E74.62409
G1 X160.285 Y153.658 E74.64772
G1 X160.165 Y153.105 E74.67125
G1 X160.014 Y152.556 E74.69492
G1 X159.839 Y152.018 E74.71844
G1 X159.639 Y151.483 E74.74219
G1 X159.423 Y150.971 E74.76529
G1 X159.152 Y150.429 E74.79048
G1 X158.883 Y149.939 E74.81372
G1 X158.538 Y149.399 E74.84036
G1 X158.170 Y148.894 E74.86634
G1 X157.803 Y148.454 E74.89016
G1 X157.304 Y147.909 E74.92089
G1 X156.804 Y147.455 E74.94896
G1 X156.362 Y147.093 E74.97272
G1 X145.645 Y147.093 E75.41828
G0 F9000 X145.782 Y146.842
;TYPE:SKIN
G1 F1080 X145.169 Y146.583 E75.44285
G1 X145.096 Y147.218 E75.46134
G1 X144.427 Y147.255 E75.47900
G1 X144.367 Y147.902 E75.49586
G1 X143.765 Y148.008 E75.51197
G1 X143.707 Y148.657 E75.52693
G1 X143.176 Y148.832 E75.54073
G1 X143.117 Y149.481 E75.55363
G1 X142.655 Y149.726 E75.56546
G1 X142.516 Y150.294 E75.57640
G1 X142.291 Y150.776 E75.58613
G1 X142.088 Y151.281 E75.59486
G1 X142.051 Y151.597 E75.60809
G1 F2400 E75.00809
G1 Z2.700
G0 F9000 X146.489 Y146.842
G1 Z2.200
G1 F2400 E75.60809
G1 F1080 X146.342 Y146.342 E75.63747
G1 X147.299 Y146.592 E75.66683
G1 X148.006 Y146.592 E75.69623
G1 X148.713 Y146.592 E75.72562
G1 X149.420 Y146.592 E75.75501
G1 X150.024 Y146.842 E75.78219
G1 F2400 E75.18219
G1 Z2.700
G0 F9000 X151.784 Y146.480
G1 Z2.200
G1 F2400 E75.78219
G1 F1080 X152.249 Y146.592 E75.80347
G1 X152.956 Y146.592 E75.83286
G1 X153.663 Y146.592 E75.86225
G1 X154.371 Y146.592 E75.89169
G1 X155.078 Y146.592 E75.92108
G1 X155.785 Y146.592 E75.95048
G1 X156.389 Y146.843 E75.97767
G0 F9000 X156.919 Y146.665
G1 F1080 X158.162 Y147.909 E76.05078
G0 F9000 X158.581 Y149.035
G1 F1080 X159.417 Y149.871 E76.09994
G0 F9000 X159.592 Y150.753
G1 F1080 X159.948 Y151.110 E76.12090
G1 F2400 E75.52090
G1 Z2.700
G0 F9000 X156.250 Y148.134
;TYPE:SUPPORT
G1 Z2.200
G1 F2400 E76.12090
G1 F1080 X156.250 Y157.689 E76.51815
G1 F2400 E75.91815
G1 Z2.700
G0 F9000 X143.750 Y157.209
G1 Z2.200
G1 F2400 E76.51815
G1 F1080 X143.750 Y150.613 E76.79238
;LAYER:11
M106 S114
G1 F2400 E76.19238
G1 Z2.700
G0 F9000 X148.816 Y146.593 Z2.400
;TYPE:WALL-INNER
G1 Z2.400
G1 F2400 E76.79238
G1 F1140 X148.672 Y146.225 E76.80881
G1 X149.103 Y146.097 E76.82750
G1 X150.196 Y146.045 E76.87299
G1 X151.002 Y146.033 E76.90651
G1 X151.658 Y146.041 E76.93378
G1 X152.340 Y146.065 E76.96215
G1 X152.923 Y146.097 E76.98643
G1 X153.374 Y146.233 E77.00601
G1 X153.708 Y146.360 E77.02087
G1 X153.838 Y146.593 E77.03196
G1 X148.816 Y146.593 E77.24075
G0 F9000 X148.331 Y145.805
;TYPE:WALL-OUTER
G1 F1140 X149.018 Y145.601 E77.27055
G1 X149.541 Y145.572 E77.29232
G1 X150.195 Y145.545 E77.31954
G1 X151.001 Y145.533 E77.35305
G1 X151.675 Y145.541 E77.38107
G1 X152.352 Y145.565 E77.40924
G1 X153.014 Y145.601 E77.43680
G1 X153.519 Y145.754 E77.45874
G1 X154.057 Y145.958 E77.48266
G1 X154.132 Y146.093 E77.48908
G1 X157.409 Y146.093 E77.62532
G1 X157.679 Y146.336 E77.64043
G1 X158.114 Y146.781 E77.66630
G1 X158.523 Y147.248 E77.69211
G1 X158.906 Y147.746 E77.71823
G1 X159.194 Y148.162 E77.73926
G1 X159.487 Y148.638 E77.76250
G1 X159.818 Y149.242 E77.79114
G1 X160.064 Y149.760 E77.81498
G1 X160.288 Y150.295 E77.83909
G1 X160.480 Y150.817 E77.86221
G1 X160.653 Y151.354 E77.88567
G1 X160.805 Y151.900 E77.90923
G1 X160.923 Y152.394 E77.93035
G1 X161.023 Y152.888 E77.95130
G1 X161.140 Y153.582 E77.98056
G1 X161.213 Y154.142 E78.00404
G1 X161.271 Y154.726 E78.02844
G1 X161.310 Y155.300 E78.05236
G1 X161.331 Y155.888 E78.07682
G1 X161.336 Y156.329 E78.09516
G1 X161.322 Y156.515 E78.10291
G1 X161.246 Y156.781 E78.11442
G1 X161.083 Y157.076 E78.12843
G1 X160.866 Y157.330 E78.14232
G1 X160.630 Y157.534 E78.15529
G1 X160.180 Y157.821 E78.17748
G1 X159.636 Y158.073 E78.20240
G1 X158.668 Y158.391 E78.24476
G1 X158.180 Y158.513 E78.26568
G1 X157.671 Y158.621 E78.28731
G1 X157.145 Y158.719 E78.30955
G1 X156.617 Y158.801 E78.33177
G1 X156.076 Y158.876 E78.35448
G1 X155.291 Y158.961 E78.38730
G1 X154.673 Y159.018 E78.41311
G1 X154.053 Y159.061 E78.43894
G1 X153.415 Y159.090 E78.46550
G1 X152.850 Y159.114 E78.48901
G1 X152.170 Y159.131 E78.51729
G1 X151.215 Y159.145 E78.55700
G1 X151.001 Y159.146 E78.56589
G1 X150.116 Y159.139 E78.60269
G1 X149.350 Y159.120 E78.63454
G1 X148.791 Y159.100 E78.65780
G1 X148.119 Y159.071 E78.68576
G1 X147.608 Y159.039 E78.70705
G1 X147.031 Y158.995 E78.73111
G1 X146.394 Y158.931 E78.75773
G1 X145.644 Y158.839 E78.78914
G1 X144.952 Y158.736 E78.81823
G1 X144.330 Y158.622 E78.84452
G1 X143.815 Y158.513 E78.86640
G1 X142.859 Y158.253 E78.90759
G1 X142.370 Y158.075 E78.92923
G1 X141.879 Y157.852 E78.95165
G1 X141.461 Y157.602 E78.97190
G1 X141.122 Y157.319 E78.99026
G1 X140.970 Y157.150 E78.99971
G1 X140.958 Y157.134 E79.00054
G1 X140.939 Y157.107 E79.00191
G1 X140.750 Y156.774 E79.01783
G1 X140.670 Y156.456 E79.03146
G1 X140.663 Y156.320 E79.03713
G1 X140.665 Y156.178 E79.04303
G1 X140.691 Y155.298 E79.07963
G1 X140.727 Y154.727 E79.10342
G1 X140.785 Y154.150 E79.12753
G1 X140.859 Y153.581 E79.15138
G1 X140.952 Y153.008 E79.17552
G1 X141.061 Y152.461 E79.19871
G1 X141.192 Y151.910 E79.22225
G1 X141.346 Y151.355 E79.24620
G1 X141.670 Y150.401 E79.28809
G1 X141.883 Y149.880 E79.31149
G1 X142.102 Y149.404 E79.33327
G1 X142.333 Y148.956 E79.35423
G1 X142.752 Y148.244 E79.38858
G1 X143.101 Y147.737 E79.41417
G1 X143.389 Y147.358 E79.43396
G1 X143.802 Y146.870 E79.46053
G1 X144.308 Y146.348 E79.49076
G1 X144.593 Y146.093 E79.50666
G1 X148.083 Y146.093 E79.65176
G1 X148.018 Y145.926 E79.65921
G1 X148.331 Y145.805 E79.67316
G1 F2400 E79.07316
G1 Z2.900
G0 F9000 X144.750 Y147.093
G1 Z2.400
G1 F2400 E79.67316
G1 F1140 X144.292 Y147.541 E79.69979
G1 X143.939 Y147.922 E79.72139
G1 X143.537 Y148.412 E79.74774
G1 X143.223 Y148.834 E79.76961
G1 X142.850 Y149.419 E79.79845
G1 X142.560 Y149.928 E79.82281
G1 X142.301 Y150.447 E79.84692
G1 X142.069 Y150.970 E79.87071
G1 X141.866 Y151.499 E79.89427
G1 X141.686 Y152.034 E79.91773
G1 X141.531 Y152.576 E79.94117
G1 X141.402 Y153.119 E79.96438
G1 X141.290 Y153.671 E79.98779
G1 X141.202 Y154.228 E80.01124
G1 X141.134 Y154.791 E80.03481
G1 X141.088 Y155.359 E80.05851
G1 X141.067 Y155.867 E80.07964
G1 X141.058 Y156.358 E80.10006
G1 X141.103 Y156.641 E80.11197
G1 X141.135 Y156.731 E80.11595
G1 X141.267 Y156.977 E80.12755
G1 X141.411 Y157.163 E80.13733
G1 X141.643 Y157.388 E80.15077
G1 X142.112 Y157.705 E80.17430
G1 X142.642 Y157.963 E80.19881
G1 X143.128 Y158.147 E80.22042
G1 X143.634 Y158.304 E80.24244
G1 X144.155 Y158.437 E80.26480
G1 X144.691 Y158.555 E80.28762
G1 X145.239 Y158.658 E80.31080
G1 X145.793 Y158.745 E80.33411
G1 X146.554 Y158.847 E80.36603
G1 X147.558 Y158.953 E80.40801
G1 X148.501 Y159.026 E80.44733
G1 X149.063 Y159.059 E80.47074
G1 X150.085 Y159.096 E80.51325
G1 X150.750 Y159.105 E80.54090
G1 X151.001 Y159.106 E80.55134
G1 X151.915 Y159.097 E80.58934
G1 X152.921 Y159.061 E80.63119
G1 X153.444 Y159.030 E80.65297
G1 X153.984 Y158.992 E80.67548
G1 X154.973 Y158.902 E80.71677
G1 X155.930 Y158.784 E80.75686
G1 X156.690 Y158.670 E80.78881
G1 X157.340 Y158.548 E80.81630
G1 X158.000 Y158.400 E80.84442
G1 X158.561 Y158.246 E80.86861
G1 X159.061 Y158.080 E80.89051
G1 X159.547 Y157.880 E80.91236
G1 X160.050 Y157.607 E80.93616
G1 X160.414 Y157.336 E80.95502
G1 X160.593 Y157.158 E80.96552
G1 X160.772 Y156.919 E80.97793
G1 X160.873 Y156.710 E80.98758
G1 X160.911 Y156.597 E80.99254
G1 X160.939 Y156.432 E80.99950
G1 X160.942 Y156.265 E81.00644
G1 X160.912 Y155.361 E81.04405
G1 X160.866 Y154.792 E81.06778
G1 X160.799 Y154.230 E81.09131
G1 X160.710 Y153.672 E81.11480
G1 X160.599 Y153.121 E81.13817
G1 X160.480 Y152.618 E81.15966
G1 X160.315 Y152.036 E81.18481
G1 X160.136 Y151.500 E81.20831
G1 X159.932 Y150.972 E81.23184
G1 X159.561 Y150.175 E81.26839
G1 X159.152 Y149.421 E81.30405
G1 X158.831 Y148.914 E81.32900
G1 X158.465 Y148.415 E81.35473
G1 X158.065 Y147.924 E81.38106
G1 X157.463 Y147.296 E81.41723
G1 X157.253 Y147.093 E81.42937
G1 X144.750 Y147.093 E81.94918
G1 F2400 E81.34918
G1 Z2.900
G0 F9000 X149.776 Y146.240
;TYPE:FILL
G1 Z2.400
G1 F2400 E81.94918
G1 F1140 X149.954 Y146.418 E81.95965
G0 F9000 X148.587 Y146.629
;TYPE:SKIN
G1 F1140 X148.270 Y146.592 E81.97215
G1 X147.563 Y146.592 E82.00154
G1 X146.856 Y146.592 E82.03094
G1 X146.149 Y146.592 E82.06027
G1 X145.442 Y146.592 E82.08966
G1 X144.838 Y146.842 E82.11684
G1 F2400 E81.51684
G1 Z2.900
G0 F9000 X143.093 Y148.587
G1 Z2.400
G1 F2400 E82.11684
G1 F1140 X142.496 Y149.185 E82.15197
G1 F2400 E81.55197
G1 Z2.900
G0 F9000 X154.162 Y146.711
G1 Z2.400
G1 F2400 E82.15197
G1 F1140 X154.634 Y146.592 E82.17367
G1 X155.341 Y146.592 E82.20306
G1 X156.048 Y146.592 E82.23245
G1 X156.755 Y146.592 E82.26185
G1 X157.516 Y146.538 E82.28989
G1 X157.637 Y147.125 E82.30369
G1 X158.203 Y147.266 E82.31693
G1 X158.322 Y147.853 E82.32908
G1 X158.820 Y148.063 E82.34014
G1 X158.942 Y148.648 E82.35013
G1 X159.362 Y148.935 E82.35867
G1 X159.544 Y149.460 E82.36606
G1 X159.612 Y149.746 E82.37828
G1 F2400 E81.77828
G1 Z2.900
G0 F9000 X156.250 Y147.968
;TYPE:SUPPORT
G1 Z2.400
G1 F2400 E82.37828
G1 F1140 X156.250 Y157.863 E82.78967
G1 F2400 E82.18967
G1 Z2.900
G0 F9000 X143.750 Y157.423
G1 Z2.400
G1 F2400 E82.78967
G1 F1140 X143.750 Y149.634 E83.11350
;LAYER:12
M106 S127
G1 F2400 E82.51350
G1 Z2.900
G0 F9000 X147.459 Y146.086 Z2.600
;TYPE:WALL-INNER
G1 Z2.600
G1 F2400 E83.11350
G1 F1260 X148.576 Y145.985 E83.16013
G1 X149.240 Y145.943 E83.18779
G1 X152.766 Y145.943 E83.33438
G1 X153.454 Y145.989 E83.36305
G1 X153.939 Y146.029 E83.38328
G1 X154.529 Y146.084 E83.40792
G1 X154.819 Y146.228 E83.42138
G1 X154.819 Y146.593 E83.43656
G1 X147.446 Y146.593 E83.74309
G1 X147.315 Y146.154 E83.76214
G1 X147.459 Y146.086 E83.76876
G0 F9000 X148.536 Y145.487
;TYPE:WALL-OUTER
G1 F1260 X149.223 Y145.443 E83.79738
G1 X152.784 Y145.443 E83.94543
G1 X153.483 Y145.490 E83.97455
G1 X153.985 Y145.532 E83.99550
G1 X154.595 Y145.588 E84.02097
G1 X154.671 Y145.596 E84.02414
G1 X155.206 Y145.862 E84.04898
G1 X155.319 Y145.926 E84.05438
G1 X155.319 Y146.093 E84.06132
G1 X158.057 Y146.093 E84.17516
G1 X158.594 Y146.674 E84.20805
G1 X158.933 Y147.106 E84.23088
G1 X159.305 Y147.624 E84.25739
G1 X159.596 Y148.088 E84.28017
G1 X159.851 Y148.539 E84.30171
G1 X160.136 Y149.104 E84.32801
G1 X160.400 Y149.706 E84.35534
G1 X160.593 Y150.210 E84.37778
G1 X160.781 Y150.770 E84.40234
G1 X160.948 Y151.356 E84.42767
G1 X161.082 Y151.901 E84.45101
G1 X161.200 Y152.462 E84.47484
G1 X161.293 Y152.992 E84.49721
G1 X161.368 Y153.516 E84.51922
G1 X161.441 Y154.146 E84.54559
G1 X161.489 Y154.721 E84.56958
G1 X161.523 Y155.303 E84.59381
G1 X161.546 Y156.188 E84.63062
G1 X161.547 Y156.307 E84.63557
G1 X161.511 Y156.647 E84.64978
G1 X161.403 Y156.955 E84.66335
G1 X161.356 Y157.049 E84.66772
G1 X161.242 Y157.223 E84.67637
G1 X161.094 Y157.400 E84.68596
G1 X160.882 Y157.599 E84.69805
G1 X160.612 Y157.794 E84.71190
G1 X160.114 Y158.067 E84.73551
G1 X159.614 Y158.269 E84.75793
G1 X158.671 Y158.553 E84.79887
G1 X158.144 Y158.673 E84.82134
G1 X157.608 Y158.778 E84.84405
G1 X157.079 Y158.865 E84.86634
G1 X156.372 Y158.958 E84.89599
G1 X155.379 Y159.058 E84.93748
G1 X154.840 Y159.099 E84.95996
G1 X154.181 Y159.131 E84.98739
G1 X153.618 Y159.157 E85.01082
G1 X152.816 Y159.184 E85.04418
G1 X152.312 Y159.195 E85.06514
G1 X151.399 Y159.207 E85.10310
G1 X151.000 Y159.209 E85.11969
G1 X150.318 Y159.206 E85.14804
G1 X149.689 Y159.196 E85.17420
G1 X149.185 Y159.185 E85.19516
G1 X148.384 Y159.158 E85.22848
G1 X147.551 Y159.119 E85.26315
G1 X146.884 Y159.078 E85.29093
G1 X146.353 Y159.039 E85.31307
G1 X145.735 Y158.974 E85.33890
G1 X145.168 Y158.901 E85.36267
G1 X144.495 Y158.796 E85.39099
G1 X143.885 Y158.680 E85.41680
G1 X143.397 Y158.571 E85.43759
G1 X142.865 Y158.427 E85.46050
G1 X142.319 Y158.246 E85.48442
G1 X141.801 Y158.025 E85.50783
G1 X141.271 Y157.716 E85.53334
G1 X141.124 Y157.604 E85.54102
G1 X140.844 Y157.331 E85.55728
G1 X140.685 Y157.115 E85.56843
G1 X140.591 Y156.942 E85.57662
G1 X140.485 Y156.633 E85.59020
G1 X140.458 Y156.457 E85.59760
G1 X140.453 Y156.343 E85.60235
G1 X140.454 Y156.328 E85.60297
G1 X140.453 Y156.192 E85.60863
G1 X140.471 Y155.474 E85.63849
G1 X140.503 Y154.836 E85.66504
G1 X140.558 Y154.154 E85.69349
G1 X140.627 Y153.552 E85.71868
G1 X140.703 Y153.024 E85.74086
G1 X140.866 Y152.143 E85.77811
G1 X141.017 Y151.493 E85.80585
G1 X141.205 Y150.816 E85.83507
G1 X141.391 Y150.257 E85.85956
G1 X141.575 Y149.768 E85.88128
G1 X141.799 Y149.240 E85.90513
G1 X142.014 Y148.793 E85.92575
G1 X142.466 Y147.983 E85.96431
G1 X142.846 Y147.411 E85.99286
G1 X143.153 Y146.995 E86.01436
G1 X143.591 Y146.466 E86.04291
G1 X143.940 Y146.093 E86.06415
G1 X146.775 Y146.093 E86.18201
G1 X146.719 Y145.905 E86.19017
G1 X147.322 Y145.598 E86.21830
G1 X148.536 Y145.487 E86.26898
G1 F2400 E85.66898
G1 Z3.100
G0 F9000 X144.002 Y147.093
G1 Z2.600
G1 F2400 E86.26898
G1 F1260 X143.360 Y147.840 E86.30993
G1 X142.928 Y148.432 E86.34040
G1 X142.611 Y148.930 E86.36495
G1 X142.341 Y149.396 E86.38734
G1 X142.102 Y149.867 E86.40930
G1 X141.872 Y150.385 E86.43286
G1 X141.649 Y150.922 E86.45703
G1 X141.442 Y151.519 E86.48330
G1 X141.285 Y152.052 E86.50641
G1 X141.147 Y152.591 E86.52954
G1 X141.039 Y153.101 E86.55121
G1 X140.934 Y153.685 E86.57588
G1 X140.858 Y154.223 E86.59847
G1 X140.797 Y154.801 E86.62263
G1 X140.756 Y155.366 E86.64619
G1 X140.735 Y155.935 E86.66986
G1 X140.730 Y156.374 E86.68811
G1 X140.754 Y156.580 E86.69673
G1 X140.870 Y156.901 E86.71092
G1 X141.028 Y157.148 E86.72311
G1 X141.239 Y157.383 E86.73624
G1 X141.688 Y157.724 E86.75968
G1 X142.162 Y157.982 E86.78212
G1 X142.726 Y158.213 E86.80746
G1 X143.259 Y158.386 E86.83076
G1 X143.786 Y158.526 E86.85343
G1 X144.413 Y158.663 E86.88011
G1 X145.043 Y158.778 E86.90674
G1 X145.693 Y158.878 E86.93408
G1 X146.349 Y158.961 E86.96157
G1 X146.975 Y159.028 E86.98774
G1 X147.537 Y159.072 E87.01118
G1 X148.092 Y159.111 E87.03431
G1 X149.247 Y159.159 E87.08237
G1 X149.782 Y159.171 E87.10462
G1 X150.493 Y159.182 E87.13418
G1 X151.000 Y159.186 E87.15526
G1 X151.891 Y159.178 E87.19231
G1 X152.687 Y159.161 E87.22541
G1 X153.800 Y159.117 E87.27172
G1 X154.830 Y159.045 E87.31464
G1 X155.584 Y158.970 E87.34615
G1 X156.143 Y158.901 E87.36956
G1 X156.816 Y158.801 E87.39785
G1 X157.686 Y158.644 E87.43461
G1 X158.444 Y158.468 E87.46696
G1 X158.963 Y158.318 E87.48942
G1 X159.552 Y158.106 E87.51544
G1 X160.083 Y157.858 E87.53981
G1 X160.369 Y157.690 E87.55360
G1 X160.764 Y157.379 E87.57450
G1 X161.017 Y157.086 E87.59060
G1 X161.194 Y156.754 E87.60624
G1 X161.232 Y156.637 E87.61135
G1 X161.269 Y156.410 E87.62091
G1 X161.270 Y156.223 E87.62869
G1 X161.243 Y155.366 E87.66434
G1 X161.203 Y154.801 E87.68789
G1 X161.145 Y154.241 E87.71129
G1 X161.066 Y153.687 E87.73456
G1 X160.969 Y153.138 E87.75774
G1 X160.854 Y152.593 E87.78089
G1 X160.716 Y152.054 E87.80403
G1 X160.566 Y151.546 E87.82605
G1 X160.376 Y150.989 E87.85051
G1 X160.129 Y150.387 E87.87757
G1 X159.899 Y149.869 E87.90113
G1 X159.659 Y149.392 E87.92333
G1 X159.390 Y148.932 E87.94549
G1 X159.107 Y148.484 E87.96752
G1 X158.716 Y147.940 E87.99537
G1 X158.318 Y147.456 E88.02142
G1 X157.996 Y147.093 E88.04160
G1 X144.002 Y147.093 E88.62340
G1 F2400 E88.02340
G1 Z3.100
G0 F9000 X149.653 Y146.117
;TYPE:FILL
G1 Z2.600
G1 F2400 E88.62340
G1 F1260 X149.953 Y146.417 E88.64104
G0 F9000 X154.101 Y146.418
G1 F1260 X154.330 Y146.241 E88.65165
G1 X154.864 Y146.378 E88.66155
G1 X155.784 Y146.592 E88.69093
G1 X156.491 Y146.592 E88.72032
G1 X157.198 Y146.592 E88.74971
G1 X157.802 Y146.842 E88.77689
G1 F2400 E88.17689
G1 Z3.100
G0 F9000 X153.842 Y146.417
;TYPE:SKIN
G1 Z2.600
G1 F2400 E88.77689
G1 F1260 X153.368 Y146.297 E88.79096
G1 X152.634 Y146.270 E88.80818
G1 X151.924 Y146.267 E88.82577
G1 X151.217 Y146.267 E88.84335
G1 X150.510 Y146.267 E88.86093
G1 X149.803 Y146.267 E88.87851
G1 X149.095 Y146.267 E88.89611
G1 X148.408 Y146.286 E88.91142
G1 X147.982 Y146.214 E88.92939
G0 F9000 X147.195 Y146.842
G1 F1260 X146.592 Y146.592 E88.95875
G1 X145.885 Y146.592 E88.98808
G1 X145.178 Y146.592 E89.01742
G1 X144.471 Y146.592 E89.04675
G1 X143.794 Y146.622 E89.07065
G1 X143.619 Y147.155 E89.07974
G1 X143.162 Y147.404 E89.08827
G1 X143.131 Y147.728 E89.10180
G0 F9000 X143.750 Y148.789
;TYPE:SUPPORT
G1 F1260 X143.750 Y157.611 E89.46858
G1 F2400 E88.86858
G1 Z3.100
G0 F9000 X156.250 Y158.000
G1 Z2.600
G1 F2400 E89.46858
G1 F1260 X156.250 Y147.968 E89.88566
;LAYER:13
M106 S137
G1 F2400 E89.28566
G1 Z3.100
G0 F9000 X155.622 Y146.073 Z2.800
;TYPE:WALL-INNER
G1 Z2.800
G1 F2400 E89.88566
G1 F1140 X155.805 Y146.194 E89.89478
G1 X155.823 Y146.593 E89.91138
G1 X154.797 Y146.593 E89.95404
G1 X154.797 Y145.972 E89.97986
G1 X155.622 Y146.073 E90.01441
G1 F2400 E89.41441
G1 Z3.300
G0 F9000 X147.075 Y145.983
G1 Z2.800
G1 F2400 E90.01441
G1 F1140 X147.205 Y145.970 E90.01985
G1 X147.205 Y146.593 E90.04575
G1 X146.462 Y146.593 E90.07664
G1 X146.321 Y146.109 E90.09760
G1 X146.374 Y146.074 E90.10024
G1 X147.075 Y145.983 E90.12963
G0 F9000 X147.005 Y145.488
;TYPE:WALL-OUTER
G1 F1140 X147.443 Y145.443 E90.14793
G1 X147.704 Y145.443 E90.15878
G1 X147.704 Y147.093 E90.22738
G1 X143.375 Y147.093 E90.40736
G1 X142.978 Y147.604 E90.43426
G1 X142.486 Y148.327 E90.47062
G1 X142.213 Y148.794 E90.49311
G1 X141.796 Y149.623 E90.53169
G1 X141.582 Y150.099 E90.55339
G1 X141.378 Y150.630 E90.57704
G1 X141.183 Y151.213 E90.60260
G1 X141.000 Y151.861 E90.63059
G1 X140.830 Y152.588 E90.66163
G1 X140.724 Y153.153 E90.68553
G1 X140.598 Y154.075 E90.72422
G1 X140.528 Y154.765 E90.75305
G1 X140.487 Y155.372 E90.77835
G1 X140.469 Y155.937 E90.80185
G1 X140.465 Y156.238 E90.81437
G1 X140.469 Y156.426 E90.82218
G1 X140.495 Y156.626 E90.83057
G1 X140.537 Y156.775 E90.83700
G1 X140.744 Y157.179 E90.85588
G1 X140.994 Y157.474 E90.87195
G1 X141.272 Y157.707 E90.88703
G1 X141.725 Y157.991 E90.90926
G1 X142.254 Y158.232 E90.93343
G1 X142.811 Y158.430 E90.95801
G1 X143.363 Y158.587 E90.98187
G1 X144.196 Y158.772 E91.01734
G1 X144.747 Y158.872 E91.04063
G1 X145.299 Y158.956 E91.06384
G1 X145.810 Y159.021 E91.08526
G1 X146.322 Y159.076 E91.10666
G1 X146.962 Y159.125 E91.13335
G1 X147.514 Y159.157 E91.15634
G1 X148.166 Y159.190 E91.18348
G1 X149.180 Y159.223 E91.22566
G1 X149.769 Y159.235 E91.25015
G1 X150.344 Y159.243 E91.27406
G1 X151.000 Y159.247 E91.30133
G1 X151.871 Y159.241 E91.33755
G1 X152.738 Y159.225 E91.37360
G1 X153.834 Y159.190 E91.41919
G1 X154.911 Y159.136 E91.46402
G1 X155.713 Y159.073 E91.49747
G1 X156.614 Y158.969 E91.53518
G1 X157.160 Y158.887 E91.55813
G1 X157.693 Y158.795 E91.58062
G1 X158.210 Y158.688 E91.60257
G1 X158.711 Y158.569 E91.62398
G1 X159.315 Y158.388 E91.65019
G1 X159.745 Y158.233 E91.66919
G1 X160.268 Y157.994 E91.69310
G1 X160.474 Y157.879 E91.70291
G1 X160.889 Y157.580 E91.72417
G1 X161.264 Y157.164 E91.74746
G1 X161.326 Y157.068 E91.75221
G1 X161.444 Y156.825 E91.76344
G1 X161.516 Y156.569 E91.77450
G1 X161.535 Y156.362 E91.78314
G1 X161.534 Y156.236 E91.78838
G1 X161.535 Y156.204 E91.78971
G1 X161.512 Y155.373 E91.82427
G1 X161.478 Y154.811 E91.84768
G1 X161.427 Y154.253 E91.87098
G1 X161.344 Y153.595 E91.89855
G1 X161.251 Y153.016 E91.92293
G1 X161.102 Y152.290 E91.95374
G1 X160.951 Y151.681 E91.97983
G1 X160.783 Y151.104 E92.00481
G1 X160.596 Y150.555 E92.02893
G1 X160.391 Y150.031 E92.05232
G1 X160.068 Y149.339 E92.08407
G1 X159.878 Y148.951 E92.10203
G1 X159.547 Y148.378 E92.12954
G1 X159.166 Y147.811 E92.15794
G1 X158.775 Y147.283 E92.18526
G1 X158.622 Y147.093 E92.19540
G1 X154.298 Y147.093 E92.37517
G1 X154.298 Y145.443 E92.44377
G1 X154.570 Y145.443 E92.45508
G1 X155.342 Y145.530 E92.48738
G1 X155.805 Y145.593 E92.50680
G1 X156.292 Y145.917 E92.53112
G1 X156.300 Y146.093 E92.53845
G1 X158.616 Y146.093 E92.63474
G1 X158.943 Y146.484 E92.65593
G1 X159.337 Y147.029 E92.68389
G1 X159.626 Y147.470 E92.70581
G1 X160.064 Y148.232 E92.74235
G1 X160.528 Y149.246 E92.78871
G1 X160.723 Y149.755 E92.81137
G1 X160.899 Y150.282 E92.83447
G1 X161.057 Y150.826 E92.85802
G1 X161.191 Y151.357 E92.88079
G1 X161.308 Y151.905 E92.90409
G1 X161.409 Y152.457 E92.92742
G1 X161.493 Y153.017 E92.95096
G1 X161.563 Y153.580 E92.97455
G1 X161.619 Y154.156 E92.99861
G1 X161.667 Y154.892 E93.02927
G1 X161.701 Y155.611 E93.05920
G1 X161.711 Y156.193 E93.08340
G1 X161.712 Y156.233 E93.08506
G1 X161.667 Y156.713 E93.10511
G1 X161.566 Y157.016 E93.11838
G1 X161.517 Y157.116 E93.12301
G1 X161.326 Y157.412 E93.13766
G1 X160.991 Y157.747 E93.15736
G1 X160.885 Y157.828 E93.16290
G1 X160.489 Y158.074 E93.18229
G1 X159.929 Y158.327 E93.20783
G1 X158.997 Y158.622 E93.24848
G1 X158.362 Y158.768 E93.27556
G1 X157.862 Y158.863 E93.29672
G1 X157.275 Y158.955 E93.32143
G1 X156.759 Y159.022 E93.34306
G1 X156.184 Y159.077 E93.36707
G1 X155.718 Y159.115 E93.38651
G1 X155.033 Y159.156 E93.41504
G1 X154.488 Y159.184 E93.43773
G1 X153.773 Y159.213 E93.46748
G1 X153.174 Y159.232 E93.49240
G1 X152.332 Y159.252 E93.52741
G1 X151.637 Y159.261 E93.55631
G1 X150.998 Y159.264 E93.58288
G1 X150.909 Y159.265 E93.58658
G1 X150.147 Y159.259 E93.61826
G1 X149.218 Y159.243 E93.65689
G1 X148.229 Y159.214 E93.69802
G1 X147.190 Y159.170 E93.74126
G1 X146.644 Y159.137 E93.76400
G1 X146.115 Y159.103 E93.78604
G1 X145.588 Y159.056 E93.80804
G1 X145.015 Y158.997 E93.83199
G1 X144.477 Y158.921 E93.85457
G1 X143.972 Y158.835 E93.87587
G1 X143.478 Y158.736 E93.89682
G1 X142.964 Y158.612 E93.91880
G1 X142.426 Y158.453 E93.94213
G1 X142.060 Y158.323 E93.95827
G1 X141.601 Y158.122 E93.97911
G1 X141.100 Y157.817 E94.00349
G1 X140.773 Y157.528 E94.02164
G1 X140.561 Y157.255 E94.03601
G1 X140.462 Y157.075 E94.04455
G1 X140.318 Y156.643 E94.06348
G1 X140.288 Y156.405 E94.07345
G1 X140.289 Y156.362 E94.07524
G1 X140.287 Y156.288 E94.07832
G1 X140.309 Y155.312 E94.11891
G1 X140.362 Y154.390 E94.15730
G1 X140.420 Y153.735 E94.18464
G1 X140.526 Y152.887 E94.22017
G1 X140.604 Y152.381 E94.24145
G1 X140.731 Y151.718 E94.26952
G1 X140.879 Y151.082 E94.29667
G1 X141.067 Y150.394 E94.32632
G1 X141.248 Y149.841 E94.35051
G1 X141.472 Y149.246 E94.37694
G1 X141.692 Y148.734 E94.40011
G1 X141.944 Y148.217 E94.42402
G1 X142.365 Y147.484 E94.45917
G1 X142.812 Y146.808 E94.49286
G1 X143.385 Y146.093 E94.53096
G1 X145.795 Y146.093 E94.63115
G1 X145.737 Y145.893 E94.63981
G1 X146.195 Y145.593 E94.66257
G1 X147.005 Y145.488 E94.69653
G0 F9000 X146.046 Y146.342
;TYPE:SKIN
G1 F1140 X145.442 Y146.592 E94.72594
G1 X144.735 Y146.592 E94.75533
G1 X144.028 Y146.592 E94.78472
G1 X143.424 Y146.842 E94.81190
G1 F2400 E94.21190
G1 Z3.300
G0 F9000 X156.151 Y146.843
G1 Z2.800
G1 F2400 E94.81190
G1 F1140 X156.755 Y146.592 E94.84132
G1 X157.462 Y146.592 E94.87072
G1 X158.169 Y146.592 E94.90011
G1 X158.623 Y146.492 E94.91944
G1 F2400 E94.31944
G1 Z3.300
G0 F9000 X151.930 Y147.093
;TYPE:WALL-OUTER
G1 Z2.800
G1 F2400 E94.91944
G1 F1140 X151.559 Y147.093 E94.93486
