;-- START GCODE --
;Sliced for Type A Machines Series 1
;Sliced at: Tue 10-11-2020 16:51:39
;Basic settings: Layer height: 0.2 Walls: 1 Fill: 80
;Print Speed: 45 Support: 0
;Retraction Speed: 40 Retraction Distance: 0.6
;Print time: 56 minutes
;Filament used: 5.09m 15.0g
;Settings based on: Type A Machines ProMatte
G21        ;metric values
G90        ;absolute positioning
G28     ;move to endstops
G29		;allows for auto-levelling
G1 Z15.0 F12000 ;move the platform down 15mm
G1 X150 Y5 F9000 ;center
M140 S50 ;Prep Heat Bed
M109 S210 ;Heat To temp
M190 S50 ;Heat Bed to temp
G1 X150 Y5 Z0.3 ;move the platform to purge extrusion
G92 E0 ;zero the extruded length
G1 F200 X250 E30 ;extrude 30mm of feed stock
G92 E0 ;zero the extruded length again
G1 X150 Y150  Z25 F12000 ;recenter and begin
G1 F9000

;Layer count: 100
;LAYER:0
M107
G0 F9000 X126.250 Y109.250 Z0.200
;TYPE:SKIRT
G1 F1800 X178.750 Y109.250 E2.18270
G1 X178.750 Y195.750 E5.77895
G1 X126.250 Y195.750 E7.96164
G1 X126.250 Y109.250 E11.55790
G1 F2400 E10.95790
G1 Z0.700
G0 F9000 X130.250 Y113.250
;TYPE:WALL-INNER
G1 Z0.200
G1 F2400 E11.55790
G1 F1800 X174.750 Y113.250 E13.40799
G1 X174.750 Y191.750 E16.67164
G1 X130.250 Y191.750 E18.52174
G1 X130.250 Y113.250 E21.78539
G0 F9000 X129.750 Y112.750
;TYPE:WALL-OUTER
G1 F1800 X175.250 Y112.750 E23.67706
G1 X175.250 Y192.250 E26.98228
G1 X129.750 Y192.250 E28.87395
G1 X129.750 Y112.750 E32.17918
G0 F9000 X130.748 Y113.424
;TYPE:SKIN
G1 F1800 X174.575 Y157.251 E34.75604
G0 F9000 X174.575 Y157.958
G1 F1800 X130.423 Y113.806 E37.35201
G0 F9000 X130.423 Y114.513
G1 F1800 X174.575 Y158.665 E39.94798
G0 F9000 X174.575 Y159.372
G1 F1800 X130.423 Y115.220 E42.54395
G0 F9000 X130.423 Y115.928
G1 F1800 X174.575 Y160.079 E45.13988
G0 F9000 X174.575 Y160.786
G1 F1800 X130.423 Y116.635 E47.73582
G0 F9000 X130.423 Y117.342
G1 F1800 X174.575 Y161.493 E50.33176
G0 F9000 X174.575 Y162.201
G1 F1800 X130.423 Y118.049 E52.92773
G0 F9000 X130.423 Y118.756
G1 F1800 X174.575 Y162.908 E55.52370
G0 F9000 X174.575 Y163.615
G1 F1800 X130.423 Y119.463 E58.11967
G1 F2400 E57.51967
G1 Z0.700
G0 F9000 X131.456 Y113.424
G1 Z0.200
G1 F2400 E58.11967
G1 F1800 X174.575 Y156.544 E60.65493
G0 F9000 X174.575 Y155.837
G1 F1800 X132.163 Y113.424 E63.14862
G0 F9000 X132.870 Y113.424
G1 F1800 X174.575 Y155.130 E65.60074
G0 F9000 X174.575 Y154.422
G1 F1800 X133.577 Y113.424 E68.01127
G0 F9000 X134.284 Y113.424
G1 F1800 X174.575 Y153.715 E70.38023
G0 F9000 X174.575 Y153.008
G1 F1800 X134.991 Y113.424 E72.70761
G0 F9000 X135.698 Y113.424
G1 F1800 X174.574 Y152.300 E74.99337
G0 F9000 X174.574 Y151.593
G1 F1800 X136.405 Y113.424 E77.23756
G0 F9000 X137.112 Y113.424
G1 F1800 X174.574 Y150.886 E79.44019
G0 F9000 X174.574 Y150.179
G1 F1800 X137.820 Y113.424 E81.60121
G0 F9000 X138.527 Y113.424
G1 F1800 X174.574 Y149.472 E83.72067
G0 F9000 X174.574 Y148.765
G1 F1800 X139.234 Y113.424 E85.79855
G0 F9000 X139.941 Y113.424
G1 F1800 X174.574 Y148.058 E87.83487
G0 F9000 X174.574 Y147.351
G1 F1800 X140.648 Y113.424 E89.82962
G0 F9000 X141.355 Y113.424
G1 F1800 X174.574 Y146.644 E91.78280
G0 F9000 X174.574 Y145.936
G1 F1800 X142.062 Y113.424 E93.69438
G0 F9000 X142.769 Y113.424
G1 F1800 X174.574 Y145.229 E95.56439
G0 F9000 X174.574 Y144.522
G1 F1800 X143.476 Y113.424 E97.39283
G0 F9000 X144.184 Y113.424
G1 F1800 X174.574 Y143.815 E99.17968
G0 F9000 X174.574 Y143.108
G1 F1800 X144.891 Y113.424 E100.92495
G0 F9000 X145.598 Y113.424
G1 F1800 X174.574 Y142.401 E102.62866
G0 F9000 X174.574 Y141.694
G1 F1800 X146.305 Y113.424 E104.29080
G0 F9000 X147.012 Y113.424
G1 F1800 X174.574 Y140.987 E105.91137
G0 F9000 X174.574 Y140.280
G1 F1800 X147.719 Y113.424 E107.49037
G0 F9000 X148.426 Y113.424
G1 F1800 X174.574 Y139.572 E109.02777
G0 F9000 X174.574 Y138.865
G1 F1800 X149.133 Y113.424 E110.52360
G0 F9000 X149.840 Y113.424
G1 F1800 X174.574 Y138.158 E111.97787
G0 F9000 X174.574 Y137.451
G1 F1800 X150.547 Y113.424 E113.39056
G0 F9000 X151.255 Y113.424
G1 F1800 X174.574 Y136.744 E114.76166
G0 F9000 X174.574 Y136.037
G1 F1800 X151.962 Y113.424 E116.09119
G0 F9000 X152.669 Y113.424
G1 F1800 X174.574 Y135.330 E117.37915
G0 F9000 X174.574 Y134.623
G1 F1800 X153.376 Y113.424 E118.62554
G0 F9000 X154.083 Y113.424
G1 F1800 X174.574 Y133.916 E119.83036
G0 F9000 X174.574 Y133.209
G1 F1800 X154.790 Y113.424 E120.99361
G0 F9000 X155.497 Y113.424
G1 F1800 X174.574 Y132.501 E122.11527
G0 F9000 X174.574 Y131.794
G1 F1800 X156.204 Y113.424 E123.19535
G0 F9000 X156.911 Y113.424
G1 F1800 X174.574 Y131.087 E124.23387
G0 F9000 X174.574 Y130.380
G1 F1800 X157.619 Y113.424 E125.23079
G0 F9000 X158.326 Y113.424
G1 F1800 X174.574 Y129.673 E126.18614
G0 F9000 X174.574 Y128.966
G1 F1800 X159.033 Y113.424 E127.09992
G0 F9000 X159.740 Y113.424
G1 F1800 X174.574 Y128.259 E127.97213
G0 F9000 X174.574 Y127.552
G1 F1800 X160.447 Y113.424 E128.80277
G0 F9000 X161.154 Y113.424
G1 F1800 X174.574 Y126.845 E129.59185
G0 F9000 X174.574 Y126.137
G1 F1800 X161.861 Y113.424 E130.33932
G0 F9000 X162.568 Y113.424
G1 F1800 X174.574 Y125.430 E131.04523
G0 F9000 X174.574 Y124.723
G1 F1800 X163.275 Y113.424 E131.70957
G0 F9000 X163.983 Y113.424
G1 F1800 X174.574 Y124.016 E132.33231
G0 F9000 X174.574 Y123.309
G1 F1800 X164.690 Y113.424 E132.91348
G0 F9000 X165.397 Y113.424
G1 F1800 X174.574 Y122.602 E133.45308
G0 F9000 X174.574 Y121.895
G1 F1800 X166.104 Y113.424 E133.95111
G0 F9000 X166.811 Y113.424
G1 F1800 X174.574 Y121.188 E134.40758
G0 F9000 X174.574 Y120.481
G1 F1800 X167.518 Y113.424 E134.82247
G0 F9000 X168.225 Y113.424
G1 F1800 X174.574 Y119.773 E135.19577
G0 F9000 X174.574 Y119.066
G1 F1800 X168.932 Y113.424 E135.52750
G0 F9000 X169.639 Y113.424
G1 F1800 X174.574 Y118.359 E135.81766
G0 F9000 X174.574 Y117.652
G1 F1800 X170.346 Y113.424 E136.06625
G0 F9000 X171.054 Y113.424
G1 F1800 X174.574 Y116.945 E136.27324
G0 F9000 X174.574 Y116.238
G1 F1800 X171.761 Y113.424 E136.43866
G0 F9000 X172.468 Y113.424
G1 F1800 X174.574 Y115.531 E136.56252
G0 F9000 X174.574 Y114.824
G1 F1800 X173.175 Y113.424 E136.64480
G0 F9000 X173.882 Y113.424
G1 F1800 X174.574 Y114.117 E136.68552
G1 F2400 E136.08552
G1 Z0.700
G0 F9000 X130.423 Y120.170
G1 Z0.200
G1 F2400 E136.68552
G1 F1800 X174.575 Y164.322 E139.28149
G0 F9000 X174.575 Y165.029
G1 F1800 X130.423 Y120.877 E141.87745
G0 F9000 X130.423 Y121.584
G1 F1800 X174.575 Y165.736 E144.47342
G0 F9000 X174.575 Y166.443
G1 F1800 X130.423 Y122.291 E147.06939
G0 F9000 X130.423 Y122.999
G1 F1800 X174.575 Y167.150 E149.66533
G0 F9000 X174.575 Y167.857
G1 F1800 X130.423 Y123.706 E152.26127
G0 F9000 X130.423 Y124.413
G1 F1800 X174.575 Y168.565 E154.85724
G0 F9000 X174.575 Y169.272
G1 F1800 X130.423 Y125.120 E157.45321
G0 F9000 X130.423 Y125.827
G1 F1800 X174.575 Y169.979 E160.04917
G0 F9000 X174.575 Y170.686
G1 F1800 X130.423 Y126.534 E162.64514
G0 F9000 X130.423 Y127.241
G1 F1800 X174.575 Y171.393 E165.24111
G0 F9000 X174.575 Y172.100
G1 F1800 X130.423 Y127.948 E167.83708
G0 F9000 X130.423 Y128.655
G1 F1800 X174.575 Y172.807 E170.43305
G0 F9000 X174.575 Y173.514
G1 F1800 X130.423 Y129.363 E173.02899
G0 F9000 X130.423 Y130.070
G1 F1800 X174.575 Y174.221 E175.62493
G0 F9000 X174.575 Y174.929
G1 F1800 X130.423 Y130.777 E178.22089
G0 F9000 X130.423 Y131.484
G1 F1800 X174.575 Y175.636 E180.81686
G0 F9000 X174.575 Y176.343
G1 F1800 X130.423 Y132.191 E183.41283
G0 F9000 X130.423 Y132.898
G1 F1800 X174.575 Y177.050 E186.00880
G0 F9000 X174.575 Y177.757
G1 F1800 X130.423 Y133.605 E188.60477
G0 F9000 X130.423 Y134.312
G1 F1800 X174.575 Y178.464 E191.20074
G0 F9000 X174.575 Y179.171
G1 F1800 X130.423 Y135.019 E193.79670
G0 F9000 X130.423 Y135.727
G1 F1800 X174.575 Y179.878 E196.39264
G0 F9000 X174.575 Y180.585
G1 F1800 X130.423 Y136.434 E198.98858
G0 F9000 X130.423 Y137.141
G1 F1800 X174.575 Y181.292 E201.58452
G0 F9000 X174.575 Y182.000
G1 F1800 X130.423 Y137.848 E204.18049
G0 F9000 X130.423 Y138.555
G1 F1800 X174.575 Y182.707 E206.77646
G0 F9000 X174.575 Y183.414
G1 F1800 X130.423 Y139.262 E209.37243
G0 F9000 X130.423 Y139.969
G1 F1800 X174.575 Y184.121 E211.96839
G0 F9000 X174.575 Y184.828
G1 F1800 X130.423 Y140.676 E214.56436
G0 F9000 X130.423 Y141.383
G1 F1800 X174.575 Y185.535 E217.16033
G0 F9000 X174.575 Y186.242
G1 F1800 X130.423 Y142.090 E219.75630
G0 F9000 X130.423 Y142.798
G1 F1800 X174.575 Y186.949 E222.35224
G0 F9000 X174.575 Y187.656
G1 F1800 X130.423 Y143.505 E224.94818
G0 F9000 X130.423 Y144.212
G1 F1800 X174.575 Y188.364 E227.54415
G0 F9000 X174.575 Y189.071
G1 F1800 X130.423 Y144.919 E230.14011
G0 F9000 X130.423 Y145.626
G1 F1800 X174.575 Y189.778 E232.73608
G0 F9000 X174.575 Y190.485
G1 F1800 X130.423 Y146.333 E235.33205
G0 F9000 X130.423 Y147.040
G1 F1800 X174.575 Y191.192 E237.92802
G0 F9000 X174.250 Y191.574
G1 F1800 X130.423 Y147.747 E240.50488
G0 F9000 X130.423 Y148.454
G1 F1800 X173.543 Y191.574 E243.04017
G0 F9000 X172.835 Y191.574
G1 F1800 X130.423 Y149.162 E245.53383
G0 F9000 X130.423 Y149.869
G1 F1800 X172.128 Y191.574 E247.98593
G0 F9000 X171.421 Y191.574
G1 F1800 X130.423 Y150.576 E250.39645
G0 F9000 X130.423 Y151.283
G1 F1800 X170.714 Y191.574 E252.76541
G0 F9000 X170.007 Y191.574
G1 F1800 X130.423 Y151.990 E255.09280
G0 F9000 X130.424 Y152.698
G1 F1800 X169.300 Y191.574 E257.37856
G0 F9000 X168.593 Y191.574
G1 F1800 X130.424 Y153.405 E259.62275
G0 F9000 X130.424 Y154.112
G1 F1800 X167.886 Y191.574 E261.82537
G0 F9000 X167.179 Y191.574
G1 F1800 X130.424 Y154.819 E263.98642
G0 F9000 X130.424 Y155.526
G1 F1800 X166.472 Y191.574 E266.10591
G0 F9000 X165.764 Y191.574
G1 F1800 X130.424 Y156.233 E268.18379
G0 F9000 X130.424 Y156.940
G1 F1800 X165.057 Y191.574 E270.22011
G0 F9000 X164.350 Y191.574
G1 F1800 X130.424 Y157.648 E272.21483
G0 F9000 X130.424 Y158.355
G1 F1800 X163.643 Y191.574 E274.16798
G0 F9000 X162.936 Y191.574
G1 F1800 X130.424 Y159.062 E276.07956
G0 F9000 X130.424 Y159.769
G1 F1800 X162.229 Y191.574 E277.94957
G0 F9000 X161.522 Y191.574
G1 F1800 X130.424 Y160.476 E279.77802
G0 F9000 X130.424 Y161.183
G1 F1800 X160.815 Y191.574 E281.56489
G0 F9000 X160.108 Y191.574
G1 F1800 X130.424 Y161.890 E283.31019
G0 F9000 X130.424 Y162.597
G1 F1800 X159.400 Y191.574 E285.01390
G0 F9000 X158.693 Y191.574
G1 F1800 X130.424 Y163.304 E286.67604
G0 F9000 X130.424 Y164.012
G1 F1800 X157.986 Y191.574 E288.29658
G0 F9000 X157.279 Y191.574
G1 F1800 X130.424 Y164.719 E289.87555
G0 F9000 X130.424 Y165.426
G1 F1800 X156.572 Y191.574 E291.41295
G0 F9000 X155.865 Y191.574
G1 F1800 X130.424 Y166.133 E292.90879
G0 F9000 X130.424 Y166.840
G1 F1800 X155.158 Y191.574 E294.36305
G0 F9000 X154.451 Y191.574
G1 F1800 X130.424 Y167.547 E295.77575
G0 F9000 X130.424 Y168.254
G1 F1800 X153.744 Y191.574 E297.14687
G0 F9000 X153.036 Y191.574
G1 F1800 X130.424 Y168.961 E298.47640
G0 F9000 X130.424 Y169.668
G1 F1800 X152.329 Y191.574 E299.76436
G0 F9000 X151.622 Y191.574
G1 F1800 X130.424 Y170.375 E301.01075
G0 F9000 X130.424 Y171.083
G1 F1800 X150.915 Y191.574 E302.21554
G0 F9000 X150.208 Y191.574
G1 F1800 X130.424 Y171.790 E303.37877
G0 F9000 X130.424 Y172.497
G1 F1800 X149.501 Y191.574 E304.50042
G0 F9000 X148.794 Y191.574
G1 F1800 X130.424 Y173.204 E305.58051
G0 F9000 X130.424 Y173.911
G1 F1800 X148.087 Y191.574 E306.61902
G0 F9000 X147.380 Y191.574
G1 F1800 X130.424 Y174.618 E307.61597
G0 F9000 X130.424 Y175.325
G1 F1800 X146.673 Y191.574 E308.57135
G0 F9000 X145.965 Y191.574
G1 F1800 X130.424 Y176.032 E309.48513
G0 F9000 X130.424 Y176.739
G1 F1800 X145.258 Y191.574 E310.35734
G0 F9000 X144.551 Y191.574
G1 F1800 X130.424 Y177.447 E311.18796
G0 F9000 X130.424 Y178.154
G1 F1800 X143.844 Y191.574 E311.97700
G0 F9000 X143.137 Y191.574
G1 F1800 X130.424 Y178.861 E312.72448
G0 F9000 X130.424 Y179.568
G1 F1800 X142.430 Y191.574 E313.43038
G0 F9000 X141.723 Y191.574
G1 F1800 X130.424 Y180.275 E314.09472
G0 F9000 X130.424 Y180.982
G1 F1800 X141.016 Y191.574 E314.71749
G0 F9000 X140.309 Y191.574
G1 F1800 X130.424 Y181.689 E315.29869
G0 F9000 X130.424 Y182.396
G1 F1800 X139.601 Y191.574 E315.83829
G0 F9000 X138.894 Y191.574
G1 F1800 X130.424 Y183.103 E316.33633
G0 F9000 X130.424 Y183.810
G1 F1800 X138.187 Y191.574 E316.79279
G0 F9000 X137.480 Y191.574
G1 F1800 X130.424 Y184.518 E317.20766
G0 F9000 X130.424 Y185.225
G1 F1800 X136.773 Y191.574 E317.58095
G0 F9000 X136.066 Y191.574
G1 F1800 X130.424 Y185.932 E317.91268
G0 F9000 X130.424 Y186.639
G1 F1800 X135.359 Y191.574 E318.20284
G0 F9000 X134.652 Y191.574
G1 F1800 X130.424 Y187.346 E318.45143
G0 F9000 X130.424 Y188.053
G1 F1800 X133.945 Y191.574 E318.65845
G0 F9000 X133.238 Y191.574
G1 F1800 X130.424 Y188.760 E318.82390
G0 F9000 X130.424 Y189.467
G1 F1800 X132.530 Y191.574 E318.94776
G0 F9000 X131.823 Y191.574
G1 F1800 X130.424 Y190.174 E319.03004
G0 F9000 X130.424 Y190.882
G1 F1800 X131.116 Y191.574 E319.07073
;LAYER:1
M106 S10
G0 F9000 X130.250 Y191.750 Z0.400
;TYPE:WALL-INNER
G1 F1980 X130.250 Y113.250 E322.33438
G1 X174.750 Y113.250 E324.18448
G1 X174.750 Y191.750 E327.44813
G1 X130.250 Y191.750 E329.29822
G0 F9000 X129.750 Y192.250
;TYPE:WALL-OUTER
G1 F1980 X129.750 Y112.750 E332.60345
G1 X175.250 Y112.750 E334.49512
G1 X175.250 Y192.250 E337.80034
G1 X129.750 Y192.250 E339.69201
G0 F9000 X130.512 Y191.574
;TYPE:SKIN
G1 F1980 X174.574 Y147.513 E342.28266
G0 F9000 X174.574 Y148.220
G1 F1980 X131.219 Y191.574 E344.83174
G0 F9000 X131.927 Y191.574
G1 F1980 X174.574 Y148.927 E347.33922
G0 F9000 X174.574 Y149.634
G1 F1980 X132.634 Y191.574 E349.80513
G0 F9000 X133.341 Y191.574
G1 F1980 X174.574 Y150.341 E352.22947
G0 F9000 X174.574 Y151.048
G1 F1980 X134.048 Y191.574 E354.61225
G0 F9000 X134.755 Y191.574
G1 F1980 X174.574 Y151.755 E356.95345
G0 F9000 X174.574 Y152.462
G1 F1980 X135.462 Y191.574 E359.25309
G0 F9000 X136.169 Y191.574
G1 F1980 X174.574 Y153.169 E361.51115
G0 F9000 X174.574 Y153.876
G1 F1980 X136.876 Y191.574 E363.72765
G0 F9000 X137.583 Y191.574
G1 F1980 X174.574 Y154.583 E365.90258
G0 F9000 X174.574 Y155.290
G1 F1980 X138.290 Y191.574 E368.03594
G0 F9000 X138.998 Y191.574
G1 F1980 X174.574 Y155.997 E370.12770
G0 F9000 X174.574 Y156.704
G1 F1980 X139.705 Y191.574 E372.17790
G1 F2400 E371.57790
G1 Z0.900
G0 F9000 X130.425 Y190.954
G1 Z0.400
G1 F2400 E372.17790
G1 F1980 X174.574 Y146.805 E374.77369
G0 F9000 X174.574 Y146.098
G1 F1980 X130.425 Y190.247 E377.36948
G0 F9000 X130.425 Y189.540
G1 F1980 X174.574 Y145.391 E379.96527
G0 F9000 X174.574 Y144.684
G1 F1980 X130.425 Y188.833 E382.56106
G0 F9000 X130.425 Y188.126
G1 F1980 X174.574 Y143.977 E385.15686
G0 F9000 X174.574 Y143.270
G1 F1980 X130.425 Y187.419 E387.75265
G0 F9000 X130.425 Y186.712
G1 F1980 X174.574 Y142.563 E390.34844
G0 F9000 X174.574 Y141.856
G1 F1980 X130.425 Y186.005 E392.94423
G0 F9000 X130.425 Y185.298
G1 F1980 X174.574 Y141.149 E395.54002
G0 F9000 X174.574 Y140.442
G1 F1980 X130.425 Y184.590 E398.13579
G0 F9000 X130.425 Y183.883
G1 F1980 X174.574 Y139.734 E400.73158
G0 F9000 X174.574 Y139.027
G1 F1980 X130.425 Y183.176 E403.32737
G0 F9000 X130.425 Y182.469
G1 F1980 X174.574 Y138.320 E405.92316
G0 F9000 X174.574 Y137.613
G1 F1980 X130.425 Y181.762 E408.51895
G0 F9000 X130.425 Y181.055
G1 F1980 X174.574 Y136.906 E411.11475
G0 F9000 X174.574 Y136.199
G1 F1980 X130.425 Y180.348 E413.71054
G0 F9000 X130.425 Y179.641
G1 F1980 X174.574 Y135.492 E416.30633
G0 F9000 X174.574 Y134.785
G1 F1980 X130.425 Y178.934 E418.90212
G0 F9000 X130.425 Y178.226
G1 F1980 X174.574 Y134.078 E421.49788
G0 F9000 X174.574 Y133.370
G1 F1980 X130.425 Y177.519 E424.09368
G0 F9000 X130.425 Y176.812
G1 F1980 X174.574 Y132.663 E426.68947
G0 F9000 X174.574 Y131.956
G1 F1980 X130.425 Y176.105 E429.28526
G0 F9000 X130.425 Y175.398
G1 F1980 X174.574 Y131.249 E431.88105
G0 F9000 X174.574 Y130.542
G1 F1980 X130.425 Y174.691 E434.47684
G0 F9000 X130.425 Y173.984
G1 F1980 X174.574 Y129.835 E437.07264
G0 F9000 X174.574 Y129.128
G1 F1980 X130.425 Y173.277 E439.66843
G0 F9000 X130.425 Y172.570
G1 F1980 X174.574 Y128.421 E442.26422
G0 F9000 X174.574 Y127.714
G1 F1980 X130.425 Y171.863 E444.86001
G0 F9000 X130.425 Y171.155
G1 F1980 X174.574 Y127.006 E447.45580
G0 F9000 X174.574 Y126.299
G1 F1980 X130.425 Y170.448 E450.05160
G0 F9000 X130.425 Y169.741
G1 F1980 X174.574 Y125.592 E452.64739
G0 F9000 X174.574 Y124.885
G1 F1980 X130.425 Y169.034 E455.24318
G0 F9000 X130.425 Y168.327
G1 F1980 X174.574 Y124.178 E457.83897
G0 F9000 X174.574 Y123.471
G1 F1980 X130.425 Y167.620 E460.43476
G0 F9000 X130.425 Y166.913
G1 F1980 X174.574 Y122.764 E463.03056
G0 F9000 X174.574 Y122.057
G1 F1980 X130.425 Y166.206 E465.62635
G0 F9000 X130.425 Y165.499
G1 F1980 X174.574 Y121.350 E468.22214
G0 F9000 X174.574 Y120.643
G1 F1980 X130.425 Y164.791 E470.81790
G0 F9000 X130.425 Y164.084
G1 F1980 X174.574 Y119.935 E473.41370
G0 F9000 X174.574 Y119.228
G1 F1980 X130.425 Y163.377 E476.00949
G0 F9000 X130.425 Y162.670
G1 F1980 X174.574 Y118.521 E478.60528
G0 F9000 X174.574 Y117.814
G1 F1980 X130.425 Y161.963 E481.20107
G0 F9000 X130.425 Y161.256
G1 F1980 X174.574 Y117.107 E483.79686
G0 F9000 X174.574 Y116.400
G1 F1980 X130.425 Y160.549 E486.39266
G0 F9000 X130.425 Y159.842
G1 F1980 X174.574 Y115.693 E488.98845
G0 F9000 X174.574 Y114.986
G1 F1980 X130.425 Y159.135 E491.58424
G0 F9000 X130.425 Y158.427
G1 F1980 X174.574 Y114.279 E494.18000
G0 F9000 X174.574 Y113.571
G1 F1980 X130.425 Y157.720 E496.77579
G0 F9000 X130.425 Y157.013
G1 F1980 X174.014 Y113.424 E499.33866
G0 F9000 X173.306 Y113.424
G1 F1980 X130.425 Y156.306 E501.85993
G0 F9000 X130.425 Y155.599
G1 F1980 X172.599 Y113.424 E504.33963
G0 F9000 X171.892 Y113.424
G1 F1980 X130.425 Y154.892 E506.77776
G0 F9000 X130.425 Y154.185
G1 F1980 X171.185 Y113.424 E509.17432
G0 F9000 X170.478 Y113.424
G1 F1980 X130.425 Y153.478 E511.52931
G0 F9000 X130.425 Y152.771
G1 F1980 X169.771 Y113.424 E513.84273
G0 F9000 X169.064 Y113.424
G1 F1980 X130.424 Y152.064 E516.11462
G0 F9000 X130.424 Y151.357
G1 F1980 X168.357 Y113.424 E518.34493
G0 F9000 X167.650 Y113.424
G1 F1980 X130.424 Y150.650 E520.53368
G0 F9000 X130.424 Y149.943
G1 F1980 X166.942 Y113.424 E522.68083
G0 F9000 X166.235 Y113.424
G1 F1980 X130.424 Y149.236 E524.78641
G0 F9000 X130.424 Y148.529
G1 F1980 X165.528 Y113.424 E526.85042
G0 F9000 X164.821 Y113.424
G1 F1980 X130.424 Y147.822 E528.87286
G0 F9000 X130.424 Y147.114
G1 F1980 X164.114 Y113.424 E530.85370
G0 F9000 X163.407 Y113.424
G1 F1980 X130.424 Y146.407 E532.79297
G0 F9000 X130.424 Y145.700
G1 F1980 X162.700 Y113.424 E534.69068
G0 F9000 X161.993 Y113.424
G1 F1980 X130.424 Y144.993 E536.54682
G0 F9000 X130.424 Y144.286
G1 F1980 X161.286 Y113.424 E538.36138
G0 F9000 X160.579 Y113.424
G1 F1980 X130.424 Y143.579 E540.13438
G0 F9000 X130.424 Y142.872
G1 F1980 X159.871 Y113.424 E541.86578
G0 F9000 X159.164 Y113.424
G1 F1980 X130.424 Y142.165 E543.55561
G0 F9000 X130.424 Y141.458
G1 F1980 X158.457 Y113.424 E545.20387
G0 F9000 X157.750 Y113.424
G1 F1980 X130.424 Y140.751 E546.81057
G0 F9000 X130.424 Y140.043
G1 F1980 X157.043 Y113.424 E548.37566
G0 F9000 X156.336 Y113.424
G1 F1980 X130.424 Y139.336 E549.89919
G0 F9000 X130.424 Y138.629
G1 F1980 X155.629 Y113.424 E551.38115
G0 F9000 X154.922 Y113.424
G1 F1980 X130.424 Y137.922 E552.82154
G0 F9000 X130.424 Y137.215
G1 F1980 X154.215 Y113.424 E554.22036
G0 F9000 X153.507 Y113.424
G1 F1980 X130.424 Y136.508 E555.57758
G0 F9000 X130.424 Y135.801
G1 F1980 X152.800 Y113.424 E556.89323
G0 F9000 X152.093 Y113.424
G1 F1980 X130.424 Y135.094 E558.16731
G0 F9000 X130.424 Y134.387
G1 F1980 X151.386 Y113.424 E559.39983
G0 F9000 X150.679 Y113.424
G1 F1980 X130.424 Y133.679 E560.59074
G0 F9000 X130.424 Y132.972
G1 F1980 X149.972 Y113.424 E561.74009
G0 F9000 X149.265 Y113.424
G1 F1980 X130.424 Y132.265 E562.84787
G0 F9000 X130.424 Y131.558
G1 F1980 X148.558 Y113.424 E563.91408
G0 F9000 X147.851 Y113.424
G1 F1980 X130.424 Y130.851 E564.93872
G0 F9000 X130.424 Y130.144
G1 F1980 X147.143 Y113.424 E565.92176
G0 F9000 X146.436 Y113.424
G1 F1980 X130.424 Y129.437 E566.86324
G0 F9000 X130.424 Y128.730
G1 F1980 X145.729 Y113.424 E567.76314
G0 F9000 X145.022 Y113.424
G1 F1980 X130.424 Y128.023 E568.62148
G0 F9000 X130.424 Y127.315
G1 F1980 X144.315 Y113.424 E569.43821
G0 F9000 X143.608 Y113.424
G1 F1980 X130.424 Y126.608 E570.21338
G0 F9000 X130.424 Y125.901
G1 F1980 X142.901 Y113.424 E570.94698
G0 F9000 X142.194 Y113.424
G1 F1980 X130.424 Y125.194 E571.63901
G0 F9000 X130.424 Y124.487
G1 F1980 X141.487 Y113.424 E572.28948
G0 F9000 X140.780 Y113.424
G1 F1980 X130.424 Y123.780 E572.89837
G0 F9000 X130.424 Y123.073
G1 F1980 X140.072 Y113.424 E573.46566
G0 F9000 X139.365 Y113.424
G1 F1980 X130.424 Y122.366 E573.99139
G0 F9000 X130.424 Y121.659
G1 F1980 X138.658 Y113.424 E574.47555
G0 F9000 X137.951 Y113.424
G1 F1980 X130.424 Y120.952 E574.91813
G0 F9000 X130.424 Y120.244
G1 F1980 X137.244 Y113.424 E575.31912
G0 F9000 X136.537 Y113.424
G1 F1980 X130.424 Y119.537 E575.67855
G0 F9000 X130.424 Y118.830
G1 F1980 X135.830 Y113.424 E575.99640
G0 F9000 X135.123 Y113.424
G1 F1980 X130.424 Y118.123 E576.27268
G0 F9000 X130.424 Y117.416
G1 F1980 X134.416 Y113.424 E576.50740
G0 F9000 X133.708 Y113.424
G1 F1980 X130.424 Y116.709 E576.70051
G0 F9000 X130.424 Y116.002
G1 F1980 X133.001 Y113.424 E576.85206
G0 F9000 X132.294 Y113.424
G1 F1980 X130.424 Y115.295 E576.96204
G0 F9000 X130.424 Y114.588
G1 F1980 X131.587 Y113.424 E577.03045
G0 F9000 X130.880 Y113.424
G1 F1980 X130.424 Y113.880 E577.05726
G1 F2400 E576.45726
G1 Z0.900
G0 F9000 X174.574 Y157.411
G1 Z0.400
G1 F2400 E577.05726
G1 F1980 X140.412 Y191.574 E579.06588
G0 F9000 X141.119 Y191.574
G1 F1980 X174.574 Y158.118 E581.03294
G0 F9000 X174.574 Y158.826
G1 F1980 X141.826 Y191.574 E582.95839
G0 F9000 X142.533 Y191.574
G1 F1980 X174.574 Y159.533 E584.84228
G0 F9000 X174.574 Y160.240
G1 F1980 X143.240 Y191.574 E586.68460
G0 F9000 X143.947 Y191.574
G1 F1980 X174.574 Y160.947 E588.48535
G0 F9000 X174.574 Y161.654
G1 F1980 X144.654 Y191.574 E590.24453
G0 F9000 X145.362 Y191.574
G1 F1980 X174.574 Y162.361 E591.96211
G0 F9000 X174.574 Y163.068
G1 F1980 X146.069 Y191.574 E593.63813
G0 F9000 X146.776 Y191.574
G1 F1980 X174.574 Y163.775 E595.27257
G0 F9000 X174.574 Y164.482
G1 F1980 X147.483 Y191.574 E596.86545
G0 F9000 X148.190 Y191.574
G1 F1980 X174.574 Y165.190 E598.41673
G0 F9000 X174.574 Y165.897
G1 F1980 X148.897 Y191.574 E599.92644
G0 F9000 X149.604 Y191.574
G1 F1980 X174.574 Y166.604 E601.39458
G0 F9000 X174.574 Y167.311
G1 F1980 X150.311 Y191.574 E602.82115
G0 F9000 X151.018 Y191.574
G1 F1980 X174.574 Y168.018 E604.20615
G0 F9000 X174.574 Y168.725
G1 F1980 X151.726 Y191.574 E605.54956
G0 F9000 X152.433 Y191.574
G1 F1980 X174.574 Y169.432 E606.85139
G0 F9000 X174.574 Y170.139
G1 F1980 X153.140 Y191.574 E608.11166
G0 F9000 X153.847 Y191.574
G1 F1980 X174.574 Y170.846 E609.33036
G0 F9000 X174.574 Y171.554
G1 F1980 X154.554 Y191.574 E610.50746
G0 F9000 X155.261 Y191.574
G1 F1980 X174.574 Y172.261 E611.64299
G0 F9000 X174.574 Y172.968
G1 F1980 X155.968 Y191.574 E612.73695
G0 F9000 X156.675 Y191.574
G1 F1980 X174.574 Y173.675 E613.78934
G0 F9000 X174.574 Y174.382
G1 F1980 X157.382 Y191.574 E614.80016
G0 F9000 X158.089 Y191.574
G1 F1980 X174.574 Y175.089 E615.76942
G0 F9000 X174.574 Y175.796
G1 F1980 X158.797 Y191.574 E616.69707
G0 F9000 X159.504 Y191.574
G1 F1980 X174.574 Y176.503 E617.58316
G0 F9000 X174.574 Y177.210
G1 F1980 X160.211 Y191.574 E618.42768
G0 F9000 X160.918 Y191.574
G1 F1980 X174.574 Y177.917 E619.23063
G0 F9000 X174.574 Y178.625
G1 F1980 X161.625 Y191.574 E619.99198
G0 F9000 X162.332 Y191.574
G1 F1980 X174.574 Y179.332 E620.71177
G0 F9000 X174.574 Y180.039
G1 F1980 X163.039 Y191.574 E621.38998
G0 F9000 X163.746 Y191.574
G1 F1980 X174.574 Y180.746 E622.02662
G0 F9000 X174.574 Y181.453
G1 F1980 X164.453 Y191.574 E622.62170
G0 F9000 X165.161 Y191.574
G1 F1980 X174.574 Y182.160 E623.17518
G0 F9000 X174.574 Y182.867
G1 F1980 X165.868 Y191.574 E623.68709
G0 F9000 X166.575 Y191.574
G1 F1980 X174.574 Y183.574 E624.15743
G0 F9000 X174.574 Y184.281
G1 F1980 X167.282 Y191.574 E624.58620
G0 F9000 X167.989 Y191.574
G1 F1980 X174.574 Y184.989 E624.97337
G0 F9000 X174.574 Y185.696
G1 F1980 X168.696 Y191.574 E625.31897
G0 F9000 X169.403 Y191.574
G1 F1980 X174.574 Y186.403 E625.62301
G0 F9000 X174.574 Y187.110
G1 F1980 X170.110 Y191.574 E625.88548
G0 F9000 X170.817 Y191.574
G1 F1980 X174.574 Y187.817 E626.10637
G0 F9000 X174.574 Y188.524
G1 F1980 X171.525 Y191.574 E626.28567
G0 F9000 X172.232 Y191.574
G1 F1980 X174.574 Y189.231 E626.42340
G0 F9000 X174.574 Y189.938
G1 F1980 X172.939 Y191.574 E626.51956
G0 F9000 X173.646 Y191.574
G1 F1980 X174.574 Y190.645 E626.57415
G0 F9000 X174.574 Y191.352
G1 F1980 X174.353 Y191.574 E626.58718
;LAYER:2
M106 S20
G0 F9000 X174.750 Y191.750 Z0.600
;TYPE:WALL-INNER
G1 F2220 X130.250 Y191.750 E628.43727
G1 X130.250 Y113.250 E631.70092
G1 X174.750 Y113.250 E633.55102
G1 X174.750 Y191.750 E636.81467
G0 F9000 X175.250 Y192.250
;TYPE:WALL-OUTER
G1 F2220 X129.750 Y192.250 E638.70634
G1 X129.750 Y112.750 E642.01157
G1 X175.250 Y112.750 E643.90324
G1 X175.250 Y192.250 E647.20846
G0 F9000 X174.250 Y191.574
;TYPE:SKIN
G1 F2220 X130.423 Y147.747 E649.78532
G0 F9000 X130.423 Y148.454
G1 F2220 X173.543 Y191.574 E652.32061
G0 F9000 X172.835 Y191.574
G1 F2220 X130.423 Y149.162 E654.81428
G0 F9000 X130.423 Y149.869
G1 F2220 X172.128 Y191.574 E657.26637
G0 F9000 X171.421 Y191.574
G1 F2220 X130.423 Y150.576 E659.67689
G0 F9000 X130.423 Y151.283
G1 F2220 X170.714 Y191.574 E662.04585
G0 F9000 X170.007 Y191.574
G1 F2220 X130.423 Y151.990 E664.37324
G0 F9000 X130.424 Y152.698
G1 F2220 X169.300 Y191.574 E666.65900
G0 F9000 X168.593 Y191.574
G1 F2220 X130.424 Y153.405 E668.90319
G0 F9000 X130.424 Y154.112
G1 F2220 X167.886 Y191.574 E671.10581
G0 F9000 X167.179 Y191.574
G1 F2220 X130.424 Y154.819 E673.26686
G0 F9000 X130.424 Y155.526
G1 F2220 X166.472 Y191.574 E675.38635
G0 F9000 X165.764 Y191.574
G1 F2220 X130.424 Y156.233 E677.46423
G0 F9000 X130.424 Y156.940
G1 F2220 X165.057 Y191.574 E679.50055
G0 F9000 X164.350 Y191.574
G1 F2220 X130.424 Y157.648 E681.49527
G0 F9000 X130.424 Y158.355
G1 F2220 X163.643 Y191.574 E683.44842
G0 F9000 X162.936 Y191.574
G1 F2220 X130.424 Y159.062 E685.36000
G0 F9000 X130.424 Y159.769
G1 F2220 X162.229 Y191.574 E687.23001
G0 F9000 X161.522 Y191.574
G1 F2220 X130.424 Y160.476 E689.05846
G0 F9000 X130.424 Y161.183
G1 F2220 X160.815 Y191.574 E690.84533
G0 F9000 X160.108 Y191.574
G1 F2220 X130.424 Y161.890 E692.59064
G0 F9000 X130.424 Y162.597
G1 F2220 X159.400 Y191.574 E694.29434
G0 F9000 X158.693 Y191.574
G1 F2220 X130.424 Y163.304 E695.95648
G0 F9000 X130.424 Y164.012
G1 F2220 X157.986 Y191.574 E697.57702
G0 F9000 X157.279 Y191.574
G1 F2220 X130.424 Y164.719 E699.15599
G0 F9000 X130.424 Y165.426
G1 F2220 X156.572 Y191.574 E700.69340
G0 F9000 X155.865 Y191.574
G1 F2220 X130.424 Y166.133 E702.18923
G0 F9000 X130.424 Y166.840
G1 F2220 X155.158 Y191.574 E703.64349
G0 F9000 X154.451 Y191.574
G1 F2220 X130.424 Y167.547 E705.05619
G0 F9000 X130.424 Y168.254
G1 F2220 X153.744 Y191.574 E706.42732
G0 F9000 X153.036 Y191.574
G1 F2220 X130.424 Y168.961 E707.75684
G0 F9000 X130.424 Y169.668
G1 F2220 X152.329 Y191.574 E709.04480
G0 F9000 X151.622 Y191.574
G1 F2220 X130.424 Y170.375 E710.29119
G0 F9000 X130.424 Y171.083
G1 F2220 X150.915 Y191.574 E711.49599
G0 F9000 X150.208 Y191.574
G1 F2220 X130.424 Y171.790 E712.65921
G0 F9000 X130.424 Y172.497
G1 F2220 X149.501 Y191.574 E713.78086
G0 F9000 X148.794 Y191.574
G1 F2220 X130.424 Y173.204 E714.86095
G0 F9000 X130.424 Y173.911
G1 F2220 X148.087 Y191.574 E715.89947
G0 F9000 X147.380 Y191.574
G1 F2220 X130.424 Y174.618 E716.89641
G0 F9000 X130.424 Y175.325
G1 F2220 X146.673 Y191.574 E717.85179
G0 F9000 X145.965 Y191.574
G1 F2220 X130.424 Y176.032 E718.76557
G0 F9000 X130.424 Y176.739
G1 F2220 X145.258 Y191.574 E719.63779
G0 F9000 X144.551 Y191.574
G1 F2220 X130.424 Y177.447 E720.46840
G0 F9000 X130.424 Y178.154
G1 F2220 X143.844 Y191.574 E721.25744
G0 F9000 X143.137 Y191.574
G1 F2220 X130.424 Y178.861 E722.00492
G0 F9000 X130.424 Y179.568
G1 F2220 X142.430 Y191.574 E722.71083
G0 F9000 X141.723 Y191.574
G1 F2220 X130.424 Y180.275 E723.37516
G0 F9000 X130.424 Y180.982
G1 F2220 X141.016 Y191.574 E723.99793
G0 F9000 X140.309 Y191.574
G1 F2220 X130.424 Y181.689 E724.57913
G0 F9000 X130.424 Y182.396
G1 F2220 X139.601 Y191.574 E725.11873
G0 F9000 X138.894 Y191.574
G1 F2220 X130.424 Y183.103 E725.61677
G0 F9000 X130.424 Y183.810
G1 F2220 X138.187 Y191.574 E726.07323
G0 F9000 X137.480 Y191.574
G1 F2220 X130.424 Y184.518 E726.48810
G0 F9000 X130.424 Y185.225
G1 F2220 X136.773 Y191.574 E726.86139
G0 F9000 X136.066 Y191.574
G1 F2220 X130.424 Y185.932 E727.19312
G0 F9000 X130.424 Y186.639
G1 F2220 X135.359 Y191.574 E727.48328
G0 F9000 X134.652 Y191.574
G1 F2220 X130.424 Y187.346 E727.73187
G0 F9000 X130.424 Y188.053
G1 F2220 X133.945 Y191.574 E727.93889
G0 F9000 X133.238 Y191.574
G1 F2220 X130.424 Y188.760 E728.10434
G0 F9000 X130.424 Y189.467
G1 F2220 X132.530 Y191.574 E728.22820
G0 F9000 X131.823 Y191.574
G1 F2220 X130.424 Y190.174 E728.31048
G0 F9000 X130.424 Y190.882
G1 F2220 X131.116 Y191.574 E728.35117
G1 F2400 E727.75117
G1 Z1.100
G0 F9000 X174.575 Y191.192
G1 Z0.600
G1 F2400 E728.35117
G1 F2220 X130.423 Y147.040 E730.94714
G0 F9000 X130.423 Y146.333
G1 F2220 X174.575 Y190.485 E733.54311
G0 F9000 X174.575 Y189.778
G1 F2220 X130.423 Y145.626 E736.13908
G0 F9000 X130.423 Y144.919
G1 F2220 X174.575 Y189.071 E738.73504
G0 F9000 X174.575 Y188.364
G1 F2220 X130.423 Y144.212 E741.33101
G0 F9000 X130.423 Y143.505
G1 F2220 X174.575 Y187.656 E743.92695
G0 F9000 X174.575 Y186.949
G1 F2220 X130.423 Y142.798 E746.52289
G0 F9000 X130.423 Y142.090
G1 F2220 X174.575 Y186.242 E749.11886
G0 F9000 X174.575 Y185.535
G1 F2220 X130.423 Y141.383 E751.71483
G0 F9000 X130.423 Y140.676
G1 F2220 X174.575 Y184.828 E754.31080
G0 F9000 X174.575 Y184.121
G1 F2220 X130.423 Y139.969 E756.90676
G0 F9000 X130.423 Y139.262
G1 F2220 X174.575 Y183.414 E759.50273
G0 F9000 X174.575 Y182.707
G1 F2220 X130.423 Y138.555 E762.09870
G0 F9000 X130.423 Y137.848
G1 F2220 X174.575 Y182.000 E764.69467
G0 F9000 X174.575 Y181.292
G1 F2220 X130.423 Y137.141 E767.29061
G0 F9000 X130.423 Y136.434
G1 F2220 X174.575 Y180.585 E769.88655
G0 F9000 X174.575 Y179.878
G1 F2220 X130.423 Y135.727 E772.48249
G0 F9000 X130.423 Y135.019
G1 F2220 X174.575 Y179.171 E775.07846
G0 F9000 X174.575 Y178.464
G1 F2220 X130.423 Y134.312 E777.67442
G0 F9000 X130.423 Y133.605
G1 F2220 X174.575 Y177.757 E780.27039
G0 F9000 X174.575 Y177.050
G1 F2220 X130.423 Y132.898 E782.86636
G0 F9000 X130.423 Y132.191
G1 F2220 X174.575 Y176.343 E785.46233
G0 F9000 X174.575 Y175.636
G1 F2220 X130.423 Y131.484 E788.05830
G0 F9000 X130.423 Y130.777
G1 F2220 X174.575 Y174.929 E790.65427
G0 F9000 X174.575 Y174.221
G1 F2220 X130.423 Y130.070 E793.25020
G0 F9000 X130.423 Y129.363
G1 F2220 X174.575 Y173.514 E795.84614
G0 F9000 X174.575 Y172.807
G1 F2220 X130.423 Y128.655 E798.44211
G0 F9000 X130.423 Y127.948
G1 F2220 X174.575 Y172.100 E801.03808
G0 F9000 X174.575 Y171.393
G1 F2220 X130.423 Y127.241 E803.63405
G0 F9000 X130.423 Y126.534
G1 F2220 X174.575 Y170.686 E806.23002
G0 F9000 X174.575 Y169.979
G1 F2220 X130.423 Y125.827 E808.82599
G0 F9000 X130.423 Y125.120
G1 F2220 X174.575 Y169.272 E811.42195
G0 F9000 X174.575 Y168.565
G1 F2220 X130.423 Y124.413 E814.01792
G0 F9000 X130.423 Y123.706
G1 F2220 X174.575 Y167.857 E816.61386
G0 F9000 X174.575 Y167.150
G1 F2220 X130.423 Y122.999 E819.20980
G0 F9000 X130.423 Y122.291
G1 F2220 X174.575 Y166.443 E821.80577
G0 F9000 X174.575 Y165.736
G1 F2220 X130.423 Y121.584 E824.40174
G0 F9000 X130.423 Y120.877
G1 F2220 X174.575 Y165.029 E826.99771
G0 F9000 X174.575 Y164.322
G1 F2220 X130.423 Y120.170 E829.59367
G0 F9000 X130.423 Y119.463
G1 F2220 X174.575 Y163.615 E832.18964
G0 F9000 X174.575 Y162.908
G1 F2220 X130.423 Y118.756 E834.78561
G0 F9000 X130.423 Y118.049
G1 F2220 X174.575 Y162.201 E837.38158
G0 F9000 X174.575 Y161.493
G1 F2220 X130.423 Y117.342 E839.97752
G0 F9000 X130.423 Y116.635
G1 F2220 X174.575 Y160.786 E842.57346
G0 F9000 X174.575 Y160.079
G1 F2220 X130.423 Y115.928 E845.16940
G0 F9000 X130.423 Y115.220
G1 F2220 X174.575 Y159.372 E847.76536
G0 F9000 X174.575 Y158.665
G1 F2220 X130.423 Y114.513 E850.36133
G0 F9000 X130.423 Y113.806
G1 F2220 X174.575 Y157.958 E852.95730
G0 F9000 X174.575 Y157.251
G1 F2220 X130.748 Y113.424 E855.53416
G0 F9000 X131.456 Y113.424
G1 F2220 X174.575 Y156.544 E858.06942
G0 F9000 X174.575 Y155.837
G1 F2220 X132.163 Y113.424 E860.56311
G0 F9000 X132.870 Y113.424
G1 F2220 X174.575 Y155.130 E863.01524
G0 F9000 X174.575 Y154.422
G1 F2220 X133.577 Y113.424 E865.42576
G0 F9000 X134.284 Y113.424
G1 F2220 X174.575 Y153.715 E867.79472
G0 F9000 X174.575 Y153.008
G1 F2220 X134.991 Y113.424 E870.12211
G0 F9000 X135.698 Y113.424
G1 F2220 X174.574 Y152.300 E872.40787
G0 F9000 X174.574 Y151.593
G1 F2220 X136.405 Y113.424 E874.65206
G0 F9000 X137.112 Y113.424
G1 F2220 X174.574 Y150.886 E876.85468
G0 F9000 X174.574 Y150.179
G1 F2220 X137.820 Y113.424 E879.01570
G0 F9000 X138.527 Y113.424
G1 F2220 X174.574 Y149.472 E881.13516
G0 F9000 X174.574 Y148.765
G1 F2220 X139.234 Y113.424 E883.21304
G0 F9000 X139.941 Y113.424
G1 F2220 X174.574 Y148.058 E885.24936
G0 F9000 X174.574 Y147.351
G1 F2220 X140.648 Y113.424 E887.24411
G0 F9000 X141.355 Y113.424
G1 F2220 X174.574 Y146.644 E889.19729
G0 F9000 X174.574 Y145.936
G1 F2220 X142.062 Y113.424 E891.10887
G0 F9000 X142.769 Y113.424
G1 F2220 X174.574 Y145.229 E892.97888
G0 F9000 X174.574 Y144.522
G1 F2220 X143.476 Y113.424 E894.80733
G0 F9000 X144.184 Y113.424
G1 F2220 X174.574 Y143.815 E896.59417
G0 F9000 X174.574 Y143.108
G1 F2220 X144.891 Y113.424 E898.33945
G0 F9000 X145.598 Y113.424
G1 F2220 X174.574 Y142.401 E900.04315
G0 F9000 X174.574 Y141.694
G1 F2220 X146.305 Y113.424 E901.70529
G0 F9000 X147.012 Y113.424
G1 F2220 X174.574 Y140.987 E903.32586
G0 F9000 X174.574 Y140.280
G1 F2220 X147.719 Y113.424 E904.90486
G0 F9000 X148.426 Y113.424
G1 F2220 X174.574 Y139.572 E906.44226
G0 F9000 X174.574 Y138.865
G1 F2220 X149.133 Y113.424 E907.93810
G0 F9000 X149.840 Y113.424
G1 F2220 X174.574 Y138.158 E909.39236
G0 F9000 X174.574 Y137.451
G1 F2220 X150.547 Y113.424 E910.80506
G0 F9000 X151.255 Y113.424
G1 F2220 X174.574 Y136.744 E912.17615
G0 F9000 X174.574 Y136.037
G1 F2220 X151.962 Y113.424 E913.50568
G0 F9000 X152.669 Y113.424
G1 F2220 X174.574 Y135.330 E914.79364
G0 F9000 X174.574 Y134.623
G1 F2220 X153.376 Y113.424 E916.04003
G0 F9000 X154.083 Y113.424
G1 F2220 X174.574 Y133.916 E917.24485
G0 F9000 X174.574 Y133.209
G1 F2220 X154.790 Y113.424 E918.40811
G0 F9000 X155.497 Y113.424
G1 F2220 X174.574 Y132.501 E919.52976
G0 F9000 X174.574 Y131.794
G1 F2220 X156.204 Y113.424 E920.60985
G0 F9000 X156.911 Y113.424
G1 F2220 X174.574 Y131.087 E921.64836
G0 F9000 X174.574 Y130.380
G1 F2220 X157.619 Y113.424 E922.64528
G0 F9000 X158.326 Y113.424
G1 F2220 X174.574 Y129.673 E923.60063
G0 F9000 X174.574 Y128.966
G1 F2220 X159.033 Y113.424 E924.51441
G0 F9000 X159.740 Y113.424
G1 F2220 X174.574 Y128.259 E925.38662
G0 F9000 X174.574 Y127.552
G1 F2220 X160.447 Y113.424 E926.21727
G0 F9000 X161.154 Y113.424
G1 F2220 X174.574 Y126.845 E927.00634
G0 F9000 X174.574 Y126.137
G1 F2220 X161.861 Y113.424 E927.75382
G0 F9000 X162.568 Y113.424
G1 F2220 X174.574 Y125.430 E928.45972
G0 F9000 X174.574 Y124.723
G1 F2220 X163.275 Y113.424 E929.12406
G0 F9000 X163.983 Y113.424
G1 F2220 X174.574 Y124.016 E929.74680
G0 F9000 X174.574 Y123.309
G1 F2220 X164.690 Y113.424 E930.32797
G0 F9000 X165.397 Y113.424
G1 F2220 X174.574 Y122.602 E930.86757
G0 F9000 X174.574 Y121.895
G1 F2220 X166.104 Y113.424 E931.36561
G0 F9000 X166.811 Y113.424
G1 F2220 X174.574 Y121.188 E931.82207
G0 F9000 X174.574 Y120.481
G1 F2220 X167.518 Y113.424 E932.23697
G0 F9000 X168.225 Y113.424
G1 F2220 X174.574 Y119.773 E932.61026
G0 F9000 X174.574 Y119.066
G1 F2220 X168.932 Y113.424 E932.94199
G0 F9000 X169.639 Y113.424
G1 F2220 X174.574 Y118.359 E933.23215
G0 F9000 X174.574 Y117.652
G1 F2220 X170.346 Y113.424 E933.48074
G0 F9000 X171.054 Y113.424
G1 F2220 X174.574 Y116.945 E933.68773
G0 F9000 X174.574 Y116.238
G1 F2220 X171.761 Y113.424 E933.85315
G0 F9000 X172.468 Y113.424
G1 F2220 X174.574 Y115.531 E933.97701
G0 F9000 X174.574 Y114.824
G1 F2220 X173.175 Y113.424 E934.05929
G0 F9000 X173.882 Y113.424
G1 F2220 X174.574 Y114.117 E934.10001
;LAYER:3
M106 S30
G0 F9000 X174.750 Y113.250 Z0.800
;TYPE:WALL-INNER
G1 F2400 X174.750 Y191.750 E937.36366
G1 X130.250 Y191.750 E939.21376
G1 X130.250 Y113.250 E942.47741
G1 X174.750 Y113.250 E944.32750
G0 F9000 X175.250 Y112.750
;TYPE:WALL-OUTER
G1 F2400 X175.250 Y192.250 E947.63273
G1 X129.750 Y192.250 E949.52440
G1 X129.750 Y112.750 E952.82962
G1 X175.250 Y112.750 E954.72129
G0 F9000 X174.574 Y113.571
;TYPE:SKIN
G1 F2400 X130.425 Y157.720 E957.31709
G0 F9000 X130.425 Y158.427
G1 F2400 X174.574 Y114.279 E959.91285
G0 F9000 X174.574 Y114.986
G1 F2400 X130.425 Y159.135 E962.50864
G0 F9000 X130.425 Y159.842
G1 F2400 X174.574 Y115.693 E965.10443
G0 F9000 X174.574 Y116.400
G1 F2400 X130.425 Y160.549 E967.70023
G0 F9000 X130.425 Y161.256
G1 F2400 X174.574 Y117.107 E970.29602
G0 F9000 X174.574 Y117.814
G1 F2400 X130.425 Y161.963 E972.89181
G0 F9000 X130.425 Y162.670
G1 F2400 X174.574 Y118.521 E975.48760
G0 F9000 X174.574 Y119.228
G1 F2400 X130.425 Y163.377 E978.08339
G0 F9000 X130.425 Y164.084
G1 F2400 X174.574 Y119.935 E980.67919
G1 F2400 E980.07919
G1 Z1.300
G0 F9000 X174.014 Y113.424
G1 Z0.800
G1 F2400 E980.67919
G1 X130.425 Y157.013 E983.24205
G0 F9000 X130.425 Y156.306
G1 F2400 X173.306 Y113.424 E985.76332
G0 F9000 X172.599 Y113.424
G1 F2400 X130.425 Y155.599 E988.24302
G0 F9000 X130.425 Y154.892
G1 F2400 X171.892 Y113.424 E990.68115
G0 F9000 X171.185 Y113.424
G1 F2400 X130.425 Y154.185 E993.07771
G0 F9000 X130.425 Y153.478
G1 F2400 X170.478 Y113.424 E995.43270
G0 F9000 X169.771 Y113.424
G1 F2400 X130.425 Y152.771 E997.74613
G0 F9000 X130.424 Y152.064
G1 F2400 X169.064 Y113.424 E1000.01801
G0 F9000 X168.357 Y113.424
G1 F2400 X130.424 Y151.357 E1002.24832
G0 F9000 X130.424 Y150.650
G1 F2400 X167.650 Y113.424 E1004.43707
G0 F9000 X166.942 Y113.424
G1 F2400 X130.424 Y149.943 E1006.58422
G0 F9000 X130.424 Y149.236
G1 F2400 X166.235 Y113.424 E1008.68980
G0 F9000 X165.528 Y113.424
G1 F2400 X130.424 Y148.529 E1010.75381
G0 F9000 X130.424 Y147.822
G1 F2400 X164.821 Y113.424 E1012.77625
G0 F9000 X164.114 Y113.424
G1 F2400 X130.424 Y147.114 E1014.75709
G0 F9000 X130.424 Y146.407
G1 F2400 X163.407 Y113.424 E1016.69637
G0 F9000 X162.700 Y113.424
G1 F2400 X130.424 Y145.700 E1018.59407
G0 F9000 X130.424 Y144.993
G1 F2400 X161.993 Y113.424 E1020.45021
G0 F9000 X161.286 Y113.424
G1 F2400 X130.424 Y144.286 E1022.26477
G0 F9000 X130.424 Y143.579
G1 F2400 X160.579 Y113.424 E1024.03777
G0 F9000 X159.871 Y113.424
G1 F2400 X130.424 Y142.872 E1025.76917
G0 F9000 X130.424 Y142.165
G1 F2400 X159.164 Y113.424 E1027.45900
G0 F9000 X158.457 Y113.424
G1 F2400 X130.424 Y141.458 E1029.10727
G0 F9000 X130.424 Y140.751
G1 F2400 X157.750 Y113.424 E1030.71396
G0 F9000 X157.043 Y113.424
G1 F2400 X130.424 Y140.043 E1032.27905
G0 F9000 X130.424 Y139.336
G1 F2400 X156.336 Y113.424 E1033.80258
G0 F9000 X155.629 Y113.424
G1 F2400 X130.424 Y138.629 E1035.28454
G0 F9000 X130.424 Y137.922
G1 F2400 X154.922 Y113.424 E1036.72493
G0 F9000 X154.215 Y113.424
G1 F2400 X130.424 Y137.215 E1038.12375
G0 F9000 X130.424 Y136.508
G1 F2400 X153.507 Y113.424 E1039.48097
G0 F9000 X152.800 Y113.424
G1 F2400 X130.424 Y135.801 E1040.79662
G0 F9000 X130.424 Y135.094
G1 F2400 X152.093 Y113.424 E1042.07070
G0 F9000 X151.386 Y113.424
G1 F2400 X130.424 Y134.387 E1043.30322
G0 F9000 X130.424 Y133.679
G1 F2400 X150.679 Y113.424 E1044.49413
G0 F9000 X149.972 Y113.424
G1 F2400 X130.424 Y132.972 E1045.64348
G0 F9000 X130.424 Y132.265
G1 F2400 X149.265 Y113.424 E1046.75126
G0 F9000 X148.558 Y113.424
G1 F2400 X130.424 Y131.558 E1047.81747
G0 F9000 X130.424 Y130.851
G1 F2400 X147.851 Y113.424 E1048.84211
G0 F9000 X147.143 Y113.424
G1 F2400 X130.424 Y130.144 E1049.82515
G0 F9000 X130.424 Y129.437
G1 F2400 X146.436 Y113.424 E1050.76663
G0 F9000 X145.729 Y113.424
G1 F2400 X130.424 Y128.730 E1051.66653
G0 F9000 X130.424 Y128.023
G1 F2400 X145.022 Y113.424 E1052.52487
G0 F9000 X144.315 Y113.424
G1 F2400 X130.424 Y127.315 E1053.34161
G0 F9000 X130.424 Y126.608
G1 F2400 X143.608 Y113.424 E1054.11677
G0 F9000 X142.901 Y113.424
G1 F2400 X130.424 Y125.901 E1054.85037
G0 F9000 X130.424 Y125.194
G1 F2400 X142.194 Y113.424 E1055.54241
G0 F9000 X141.487 Y113.424
G1 F2400 X130.424 Y124.487 E1056.19287
G0 F9000 X130.424 Y123.780
G1 F2400 X140.780 Y113.424 E1056.80176
G0 F9000 X140.072 Y113.424
G1 F2400 X130.424 Y123.073 E1057.36905
G0 F9000 X130.424 Y122.366
G1 F2400 X139.365 Y113.424 E1057.89478
G0 F9000 X138.658 Y113.424
G1 F2400 X130.424 Y121.659 E1058.37894
G0 F9000 X130.424 Y120.952
G1 F2400 X137.951 Y113.424 E1058.82153
G0 F9000 X137.244 Y113.424
G1 F2400 X130.424 Y120.244 E1059.22252
G0 F9000 X130.424 Y119.537
G1 F2400 X136.537 Y113.424 E1059.58194
G0 F9000 X135.830 Y113.424
G1 F2400 X130.424 Y118.830 E1059.89979
G0 F9000 X130.424 Y118.123
G1 F2400 X135.123 Y113.424 E1060.17607
G0 F9000 X134.416 Y113.424
G1 F2400 X130.424 Y117.416 E1060.41079
G0 F9000 X130.424 Y116.709
G1 F2400 X133.708 Y113.424 E1060.60390
G0 F9000 X133.001 Y113.424
G1 F2400 X130.424 Y116.002 E1060.75545
G0 F9000 X130.424 Y115.295
G1 F2400 X132.294 Y113.424 E1060.86543
G0 F9000 X131.587 Y113.424
G1 F2400 X130.424 Y114.588 E1060.93384
G0 F9000 X130.424 Y113.880
G1 F2400 X130.880 Y113.424 E1060.96065
G1 F2400 E1060.36065
G1 Z1.300
G0 F9000 X174.574 Y120.643
G1 Z0.800
G1 F2400 E1060.96065
G1 X130.425 Y164.791 E1063.55641
G0 F9000 X130.425 Y165.499
G1 F2400 X174.574 Y121.350 E1066.15220
G0 F9000 X174.574 Y122.057
G1 F2400 X130.425 Y166.206 E1068.74799
G0 F9000 X130.425 Y166.913
G1 F2400 X174.574 Y122.764 E1071.34379
G0 F9000 X174.574 Y123.471
G1 F2400 X130.425 Y167.620 E1073.93958
G0 F9000 X130.425 Y168.327
G1 F2400 X174.574 Y124.178 E1076.53537
G0 F9000 X174.574 Y124.885
G1 F2400 X130.425 Y169.034 E1079.13116
G0 F9000 X130.425 Y169.741
G1 F2400 X174.574 Y125.592 E1081.72695
G0 F9000 X174.574 Y126.299
G1 F2400 X130.425 Y170.448 E1084.32275
G0 F9000 X130.425 Y171.155
G1 F2400 X174.574 Y127.006 E1086.91854
G0 F9000 X174.574 Y127.714
G1 F2400 X130.425 Y171.863 E1089.51433
G0 F9000 X130.425 Y172.570
G1 F2400 X174.574 Y128.421 E1092.11012
G0 F9000 X174.574 Y129.128
G1 F2400 X130.425 Y173.277 E1094.70591
G0 F9000 X130.425 Y173.984
G1 F2400 X174.574 Y129.835 E1097.30171
G0 F9000 X174.574 Y130.542
G1 F2400 X130.425 Y174.691 E1099.89750
G0 F9000 X130.425 Y175.398
G1 F2400 X174.574 Y131.249 E1102.49329
G0 F9000 X174.574 Y131.956
G1 F2400 X130.425 Y176.105 E1105.08908
G0 F9000 X130.425 Y176.812
G1 F2400 X174.574 Y132.663 E1107.68487
G0 F9000 X174.574 Y133.370
G1 F2400 X130.425 Y177.519 E1110.28067
G0 F9000 X130.425 Y178.226
G1 F2400 X174.574 Y134.078 E1112.87643
G0 F9000 X174.574 Y134.785
G1 F2400 X130.425 Y178.934 E1115.47222
G0 F9000 X130.425 Y179.641
G1 F2400 X174.574 Y135.492 E1118.06801
G0 F9000 X174.574 Y136.199
G1 F2400 X130.425 Y180.348 E1120.66381
G0 F9000 X130.425 Y181.055
G1 F2400 X174.574 Y136.906 E1123.25960
G0 F9000 X174.574 Y137.613
G1 F2400 X130.425 Y181.762 E1125.85539
G0 F9000 X130.425 Y182.469
G1 F2400 X174.574 Y138.320 E1128.45118
G0 F9000 X174.574 Y139.027
G1 F2400 X130.425 Y183.176 E1131.04697
G0 F9000 X130.425 Y183.883
G1 F2400 X174.574 Y139.734 E1133.64277
G0 F9000 X174.574 Y140.442
G1 F2400 X130.425 Y184.590 E1136.23853
G0 F9000 X130.425 Y185.298
G1 F2400 X174.574 Y141.149 E1138.83432
G0 F9000 X174.574 Y141.856
G1 F2400 X130.425 Y186.005 E1141.43011
G0 F9000 X130.425 Y186.712
G1 F2400 X174.574 Y142.563 E1144.02590
G0 F9000 X174.574 Y143.270
G1 F2400 X130.425 Y187.419 E1146.62170
G0 F9000 X130.425 Y188.126
G1 F2400 X174.574 Y143.977 E1149.21749
G0 F9000 X174.574 Y144.684
G1 F2400 X130.425 Y188.833 E1151.81328
G0 F9000 X130.425 Y189.540
G1 F2400 X174.574 Y145.391 E1154.40907
G0 F9000 X174.574 Y146.098
G1 F2400 X130.425 Y190.247 E1157.00486
G0 F9000 X130.425 Y190.954
G1 F2400 X174.574 Y146.805 E1159.60066
G0 F9000 X174.574 Y147.513
G1 F2400 X130.512 Y191.574 E1162.19130
G0 F9000 X131.219 Y191.574
G1 F2400 X174.574 Y148.220 E1164.74038
G0 F9000 X174.574 Y148.927
G1 F2400 X131.927 Y191.574 E1167.24786
G0 F9000 X132.634 Y191.574
G1 F2400 X174.574 Y149.634 E1169.71377
G0 F9000 X174.574 Y150.341
G1 F2400 X133.341 Y191.574 E1172.13812
G0 F9000 X134.048 Y191.574
G1 F2400 X174.574 Y151.048 E1174.52089
G0 F9000 X174.574 Y151.755
G1 F2400 X134.755 Y191.574 E1176.86209
G0 F9000 X135.462 Y191.574
G1 F2400 X174.574 Y152.462 E1179.16173
G0 F9000 X174.574 Y153.169
G1 F2400 X136.169 Y191.574 E1181.41980
G0 F9000 X136.876 Y191.574
G1 F2400 X174.574 Y153.876 E1183.63629
G0 F9000 X174.574 Y154.583
G1 F2400 X137.583 Y191.574 E1185.81122
G0 F9000 X138.290 Y191.574
G1 F2400 X174.574 Y155.290 E1187.94458
G0 F9000 X174.574 Y155.997
G1 F2400 X138.998 Y191.574 E1190.03635
G0 F9000 X139.705 Y191.574
G1 F2400 X174.574 Y156.704 E1192.08654
G0 F9000 X174.574 Y157.411
G1 F2400 X140.412 Y191.574 E1194.09516
G0 F9000 X141.119 Y191.574
G1 F2400 X174.574 Y158.118 E1196.06222
G0 F9000 X174.574 Y158.826
G1 F2400 X141.826 Y191.574 E1197.98767
G0 F9000 X142.533 Y191.574
G1 F2400 X174.574 Y159.533 E1199.87156
G0 F9000 X174.574 Y160.240
G1 F2400 X143.240 Y191.574 E1201.71388
G0 F9000 X143.947 Y191.574
G1 F2400 X174.574 Y160.947 E1203.51463
G0 F9000 X174.574 Y161.654
G1 F2400 X144.654 Y191.574 E1205.27381
G0 F9000 X145.362 Y191.574
G1 F2400 X174.574 Y162.361 E1206.99140
G0 F9000 X174.574 Y163.068
G1 F2400 X146.069 Y191.574 E1208.66741
G0 F9000 X146.776 Y191.574
G1 F2400 X174.574 Y163.775 E1210.30186
G0 F9000 X174.574 Y164.482
G1 F2400 X147.483 Y191.574 E1211.89473
G0 F9000 X148.190 Y191.574
G1 F2400 X174.574 Y165.190 E1213.44601
G0 F9000 X174.574 Y165.897
G1 F2400 X148.897 Y191.574 E1214.95572
G0 F9000 X149.604 Y191.574
G1 F2400 X174.574 Y166.604 E1216.42386
G0 F9000 X174.574 Y167.311
G1 F2400 X150.311 Y191.574 E1217.85043
G0 F9000 X151.018 Y191.574
G1 F2400 X174.574 Y168.018 E1219.23543
G0 F9000 X174.574 Y168.725
G1 F2400 X151.726 Y191.574 E1220.57884
G0 F9000 X152.433 Y191.574
G1 F2400 X174.574 Y169.432 E1221.88067
G0 F9000 X174.574 Y170.139
G1 F2400 X153.140 Y191.574 E1223.14094
G0 F9000 X153.847 Y191.574
G1 F2400 X174.574 Y170.846 E1224.35964
G0 F9000 X174.574 Y171.554
G1 F2400 X154.554 Y191.574 E1225.53674
G0 F9000 X155.261 Y191.574
G1 F2400 X174.574 Y172.261 E1226.67227
G0 F9000 X174.574 Y172.968
G1 F2400 X155.968 Y191.574 E1227.76623
G0 F9000 X156.675 Y191.574
G1 F2400 X174.574 Y173.675 E1228.81862
G0 F9000 X174.574 Y174.382
G1 F2400 X157.382 Y191.574 E1229.82944
G0 F9000 X158.089 Y191.574
G1 F2400 X174.574 Y175.089 E1230.79870
G0 F9000 X174.574 Y175.796
G1 F2400 X158.797 Y191.574 E1231.72636
G0 F9000 X159.504 Y191.574
G1 F2400 X174.574 Y176.503 E1232.61244
G0 F9000 X174.574 Y177.210
G1 F2400 X160.211 Y191.574 E1233.45696
G0 F9000 X160.918 Y191.574
G1 F2400 X174.574 Y177.917 E1234.25991
G0 F9000 X174.574 Y178.625
G1 F2400 X161.625 Y191.574 E1235.02126
G0 F9000 X162.332 Y191.574
G1 F2400 X174.574 Y179.332 E1235.74105
G0 F9000 X174.574 Y180.039
G1 F2400 X163.039 Y191.574 E1236.41926
G0 F9000 X163.746 Y191.574
G1 F2400 X174.574 Y180.746 E1237.05591
G0 F9000 X174.574 Y181.453
G1 F2400 X164.453 Y191.574 E1237.65098
G0 F9000 X165.161 Y191.574
G1 F2400 X174.574 Y182.160 E1238.20446
G0 F9000 X174.574 Y182.867
G1 F2400 X165.868 Y191.574 E1238.71637
G0 F9000 X166.575 Y191.574
G1 F2400 X174.574 Y183.574 E1239.18671
G0 F9000 X174.574 Y184.281
G1 F2400 X167.282 Y191.574 E1239.61548
G0 F9000 X167.989 Y191.574
G1 F2400 X174.574 Y184.989 E1240.00265
G0 F9000 X174.574 Y185.696
G1 F2400 X168.696 Y191.574 E1240.34826
G0 F9000 X169.403 Y191.574
G1 F2400 X174.574 Y186.403 E1240.65229
G0 F9000 X174.574 Y187.110
G1 F2400 X170.110 Y191.574 E1240.91476
G0 F9000 X170.817 Y191.574
G1 F2400 X174.574 Y187.817 E1241.13565
G0 F9000 X174.574 Y188.524
G1 F2400 X171.525 Y191.574 E1241.31495
G0 F9000 X172.232 Y191.574
G1 F2400 X174.574 Y189.231 E1241.45268
G0 F9000 X174.574 Y189.938
G1 F2400 X172.939 Y191.574 E1241.54884
G0 F9000 X173.646 Y191.574
G1 F2400 X174.574 Y190.645 E1241.60344
G0 F9000 X174.574 Y191.352
G1 F2400 X174.353 Y191.574 E1241.61646
;LAYER:4
M106 S40
G0 F9000 X174.750 Y191.750 Z1.000
;TYPE:WALL-INNER
G1 F2700 X130.250 Y191.750 E1243.46655
G1 X130.250 Y113.250 E1246.73021
G1 X174.750 Y113.250 E1248.58030
G1 X174.750 Y191.750 E1251.84395
G0 F9000 X175.250 Y192.250
;TYPE:WALL-OUTER
G1 F2700 X129.750 Y192.250 E1253.73562
G1 X129.750 Y112.750 E1257.04085
G1 X175.250 Y112.750 E1258.93252
G1 X175.250 Y192.250 E1262.23774
G0 F9000 X174.337 Y191.574
;TYPE:FILL
G1 F2700 X130.423 Y147.660 E1264.81972
G0 F9000 X130.423 Y148.544
G1 F2700 X173.454 Y191.574 E1267.34975
G0 F9000 X172.570 Y191.574
G1 F2700 X130.423 Y149.427 E1269.82783
G0 F9000 X130.423 Y150.311
G1 F2700 X171.686 Y191.574 E1272.25393
G0 F9000 X170.802 Y191.574
G1 F2700 X130.423 Y151.195 E1274.62807
G0 F9000 X130.423 Y152.079
G1 F2700 X169.918 Y191.574 E1276.95022
G0 F9000 X169.034 Y191.574
G1 F2700 X130.424 Y152.964 E1279.22034
G0 F9000 X130.424 Y153.848
G1 F2700 X168.150 Y191.574 E1281.43848
G0 F9000 X167.266 Y191.574
G1 F2700 X130.424 Y154.731 E1283.60468
G0 F9000 X130.424 Y155.615
G1 F2700 X166.382 Y191.574 E1285.71890
G0 F9000 X165.499 Y191.574
G1 F2700 X130.424 Y156.499 E1287.78118
G0 F9000 X130.424 Y157.383
G1 F2700 X164.615 Y191.574 E1289.79148
G0 F9000 X163.731 Y191.574
G1 F2700 X130.424 Y158.267 E1291.74980
G0 F9000 X130.424 Y159.151
G1 F2700 X162.847 Y191.574 E1293.65615
G0 F9000 X161.963 Y191.574
G1 F2700 X130.424 Y160.035 E1295.51052
G0 F9000 X130.424 Y160.919
G1 F2700 X161.079 Y191.574 E1297.31292
G0 F9000 X160.195 Y191.574
G1 F2700 X130.424 Y161.803 E1299.06334
G0 F9000 X130.424 Y162.686
G1 F2700 X159.311 Y191.574 E1300.76182
G0 F9000 X158.427 Y191.574
G1 F2700 X130.424 Y163.570 E1302.40831
G0 F9000 X130.424 Y164.454
G1 F2700 X157.544 Y191.574 E1304.00287
G0 F9000 X156.660 Y191.574
G1 F2700 X130.424 Y165.338 E1305.54544
G0 F9000 X130.424 Y166.222
G1 F2700 X155.776 Y191.574 E1307.03604
G0 F9000 X154.892 Y191.574
G1 F2700 X130.424 Y167.106 E1308.47467
G0 F9000 X130.424 Y167.990
G1 F2700 X154.008 Y191.574 E1309.86132
G0 F9000 X153.124 Y191.574
G1 F2700 X130.424 Y168.874 E1311.19599
G0 F9000 X130.424 Y169.757
G1 F2700 X152.240 Y191.574 E1312.47872
G0 F9000 X151.356 Y191.574
G1 F2700 X130.424 Y170.641 E1313.70947
G0 F9000 X130.424 Y171.525
G1 F2700 X150.473 Y191.574 E1314.88827
G0 F9000 X149.589 Y191.574
G1 F2700 X130.424 Y172.409 E1316.01510
G0 F9000 X130.424 Y173.293
G1 F2700 X148.705 Y191.574 E1317.08995
G0 F9000 X147.821 Y191.574
G1 F2700 X130.424 Y174.177 E1318.11283
G0 F9000 X130.424 Y175.061
G1 F2700 X146.937 Y191.574 E1319.08373
G0 F9000 X146.053 Y191.574
G1 F2700 X130.424 Y175.945 E1320.00266
G0 F9000 X130.424 Y176.829
G1 F2700 X145.169 Y191.574 E1320.86960
G0 F9000 X144.285 Y191.574
G1 F2700 X130.424 Y177.712 E1321.68461
G0 F9000 X130.424 Y178.596
G1 F2700 X143.401 Y191.574 E1322.44764
G0 F9000 X142.518 Y191.574
G1 F2700 X130.424 Y179.480 E1323.15872
G0 F9000 X130.424 Y180.364
G1 F2700 X141.634 Y191.574 E1323.81782
G0 F9000 X140.750 Y191.574
G1 F2700 X130.424 Y181.248 E1324.42495
G0 F9000 X130.424 Y182.132
G1 F2700 X139.866 Y191.574 E1324.98010
G0 F9000 X138.982 Y191.574
G1 F2700 X130.424 Y183.016 E1325.48328
G0 F9000 X130.424 Y183.900
G1 F2700 X138.098 Y191.574 E1325.93448
G0 F9000 X137.214 Y191.574
G1 F2700 X130.424 Y184.783 E1326.33374
G0 F9000 X130.424 Y185.667
G1 F2700 X136.330 Y191.574 E1326.68102
G0 F9000 X135.447 Y191.574
G1 F2700 X130.424 Y186.551 E1326.97635
G0 F9000 X130.424 Y187.435
G1 F2700 X134.563 Y191.574 E1327.21971
G0 F9000 X133.679 Y191.574
G1 F2700 X130.424 Y188.319 E1327.41109
G0 F9000 X130.424 Y189.203
G1 F2700 X132.795 Y191.574 E1327.55050
G0 F9000 X131.911 Y191.574
G1 F2700 X130.424 Y190.087 E1327.63793
G0 F9000 X130.424 Y190.971
G1 F2700 X131.027 Y191.574 E1327.67338
G1 F2400 E1327.07338
G1 Z1.500
G0 F9000 X174.575 Y190.928
G1 Z1.000
G1 F2400 E1327.67338
G1 F2700 X130.423 Y146.776 E1330.26935
G0 F9000 X130.423 Y145.892
G1 F2700 X174.575 Y190.044 E1332.86532
G0 F9000 X174.575 Y189.160
G1 F2700 X130.423 Y145.008 E1335.46128
G0 F9000 X130.423 Y144.124
G1 F2700 X174.575 Y188.276 E1338.05725
G0 F9000 X174.575 Y187.392
G1 F2700 X130.423 Y143.240 E1340.65322
G0 F9000 X130.423 Y142.356
G1 F2700 X174.575 Y186.508 E1343.24919
G0 F9000 X174.575 Y185.624
G1 F2700 X130.423 Y141.472 E1345.84516
G0 F9000 X130.423 Y140.589
G1 F2700 X174.575 Y184.740 E1348.44110
G0 F9000 X174.575 Y183.856
G1 F2700 X130.423 Y139.705 E1351.03704
G0 F9000 X130.423 Y138.821
G1 F2700 X174.575 Y182.973 E1353.63300
G0 F9000 X174.575 Y182.089
G1 F2700 X130.423 Y137.937 E1356.22897
G0 F9000 X130.423 Y137.053
G1 F2700 X174.575 Y181.205 E1358.82494
G0 F9000 X174.575 Y180.321
G1 F2700 X130.423 Y136.169 E1361.42091
G0 F9000 X130.423 Y135.285
G1 F2700 X174.575 Y179.437 E1364.01688
G0 F9000 X174.575 Y178.553
G1 F2700 X130.423 Y134.401 E1366.61285
G0 F9000 X130.423 Y133.518
G1 F2700 X174.575 Y177.669 E1369.20879
G0 F9000 X174.575 Y176.785
G1 F2700 X130.423 Y132.634 E1371.80472
G0 F9000 X130.423 Y131.750
G1 F2700 X174.575 Y175.902 E1374.40069
G0 F9000 X174.575 Y175.018
G1 F2700 X130.423 Y130.866 E1376.99666
G0 F9000 X130.423 Y129.982
G1 F2700 X174.575 Y174.134 E1379.59263
G0 F9000 X174.575 Y173.250
G1 F2700 X130.423 Y129.098 E1382.18860
G0 F9000 X130.423 Y128.214
G1 F2700 X174.575 Y172.366 E1384.78457
G0 F9000 X174.575 Y171.482
G1 F2700 X130.423 Y127.330 E1387.38054
G0 F9000 X130.423 Y126.446
G1 F2700 X174.575 Y170.598 E1389.97650
G0 F9000 X174.575 Y169.714
G1 F2700 X130.423 Y125.563 E1392.57244
G0 F9000 X130.423 Y124.679
G1 F2700 X174.575 Y168.830 E1395.16838
G0 F9000 X174.575 Y167.947
G1 F2700 X130.423 Y123.795 E1397.76435
G0 F9000 X130.423 Y122.911
G1 F2700 X174.575 Y167.063 E1400.36032
G0 F9000 X174.575 Y166.179
G1 F2700 X130.423 Y122.027 E1402.95629
G0 F9000 X130.423 Y121.143
G1 F2700 X174.575 Y165.295 E1405.55226
G0 F9000 X174.575 Y164.411
G1 F2700 X130.423 Y120.259 E1408.14822
G0 F9000 X130.423 Y119.375
G1 F2700 X174.575 Y163.527 E1410.74419
G0 F9000 X174.575 Y162.643
G1 F2700 X130.423 Y118.492 E1413.34013
G0 F9000 X130.423 Y117.608
G1 F2700 X174.575 Y161.759 E1415.93607
G0 F9000 X174.575 Y160.875
G1 F2700 X130.423 Y116.724 E1418.53201
G0 F9000 X130.423 Y115.840
G1 F2700 X174.575 Y159.992 E1421.12798
G0 F9000 X174.575 Y159.108
G1 F2700 X130.423 Y114.956 E1423.72395
G0 F9000 X130.423 Y114.072
G1 F2700 X174.575 Y158.224 E1426.31991
G0 F9000 X174.575 Y157.340
G1 F2700 X130.659 Y113.424 E1428.90201
G0 F9000 X131.543 Y113.424
G1 F2700 X174.575 Y156.456 E1431.43212
G0 F9000 X174.575 Y155.572
G1 F2700 X132.427 Y113.424 E1433.91026
G0 F9000 X133.311 Y113.424
G1 F2700 X174.575 Y154.688 E1436.33643
G0 F9000 X174.575 Y153.804
G1 F2700 X134.195 Y113.424 E1438.71062
G0 F9000 X135.079 Y113.424
G1 F2700 X174.575 Y152.921 E1441.03286
G0 F9000 X174.574 Y152.036
G1 F2700 X135.963 Y113.424 E1443.30307
G0 F9000 X136.847 Y113.424
G1 F2700 X174.574 Y151.152 E1445.52130
G0 F9000 X174.574 Y150.268
G1 F2700 X137.730 Y113.424 E1447.68759
G0 F9000 X138.614 Y113.424
G1 F2700 X174.574 Y149.384 E1449.80190
G0 F9000 X174.574 Y148.500
G1 F2700 X139.498 Y113.424 E1451.86423
G0 F9000 X140.382 Y113.424
G1 F2700 X174.574 Y147.617 E1453.87462
G0 F9000 X174.574 Y146.733
G1 F2700 X141.266 Y113.424 E1455.83303
G0 F9000 X142.150 Y113.424
G1 F2700 X174.574 Y145.849 E1457.73947
G0 F9000 X174.574 Y144.965
G1 F2700 X143.034 Y113.424 E1459.59393
G0 F9000 X143.918 Y113.424
G1 F2700 X174.574 Y144.081 E1461.39641
G0 F9000 X174.574 Y143.197
G1 F2700 X144.802 Y113.424 E1463.14692
G0 F9000 X145.685 Y113.424
G1 F2700 X174.574 Y142.313 E1464.84549
G0 F9000 X174.574 Y141.429
G1 F2700 X146.569 Y113.424 E1466.49207
G0 F9000 X147.453 Y113.424
G1 F2700 X174.574 Y140.545 E1468.08668
G0 F9000 X174.574 Y139.662
G1 F2700 X148.337 Y113.424 E1469.62935
G0 F9000 X149.221 Y113.424
G1 F2700 X174.574 Y138.778 E1471.12004
G0 F9000 X174.574 Y137.894
G1 F2700 X150.105 Y113.424 E1472.55875
G0 F9000 X150.989 Y113.424
G1 F2700 X174.574 Y137.010 E1473.94549
G0 F9000 X174.574 Y136.126
G1 F2700 X151.873 Y113.424 E1475.28025
G0 F9000 X152.756 Y113.424
G1 F2700 X174.574 Y135.242 E1476.56306
G0 F9000 X174.574 Y134.358
G1 F2700 X153.640 Y113.424 E1477.79390
G0 F9000 X154.524 Y113.424
G1 F2700 X174.574 Y133.474 E1478.97276
G0 F9000 X174.574 Y132.591
G1 F2700 X155.408 Y113.424 E1480.09968
G0 F9000 X156.292 Y113.424
G1 F2700 X174.574 Y131.707 E1481.17462
G0 F9000 X174.574 Y130.823
G1 F2700 X157.176 Y113.424 E1482.19759
G0 F9000 X158.060 Y113.424
G1 F2700 X174.574 Y129.939 E1483.16858
G0 F9000 X174.574 Y129.055
G1 F2700 X158.944 Y113.424 E1484.08759
G0 F9000 X159.828 Y113.424
G1 F2700 X174.574 Y128.171 E1484.95463
G0 F9000 X174.574 Y127.287
G1 F2700 X160.711 Y113.424 E1485.76972
G0 F9000 X161.595 Y113.424
G1 F2700 X174.574 Y126.403 E1486.53283
G0 F9000 X174.574 Y125.519
G1 F2700 X162.479 Y113.424 E1487.24397
G0 F9000 X163.363 Y113.424
G1 F2700 X174.574 Y124.636 E1487.90317
G0 F9000 X174.574 Y123.752
G1 F2700 X164.247 Y113.424 E1488.51038
G0 F9000 X165.131 Y113.424
G1 F2700 X174.574 Y122.868 E1489.06563
G0 F9000 X174.574 Y121.984
G1 F2700 X166.015 Y113.424 E1489.56889
G0 F9000 X166.899 Y113.424
G1 F2700 X174.574 Y121.100 E1490.02018
G0 F9000 X174.574 Y120.216
G1 F2700 X167.783 Y113.424 E1490.41950
G0 F9000 X168.666 Y113.424
G1 F2700 X174.574 Y119.332 E1490.76686
G0 F9000 X174.574 Y118.448
G1 F2700 X169.550 Y113.424 E1491.06226
G0 F9000 X170.434 Y113.424
G1 F2700 X174.574 Y117.564 E1491.30567
G0 F9000 X174.574 Y116.681
G1 F2700 X171.318 Y113.424 E1491.49714
G0 F9000 X172.202 Y113.424
G1 F2700 X174.574 Y115.797 E1491.63664
G0 F9000 X174.574 Y114.913
G1 F2700 X173.086 Y113.424 E1491.72415
G0 F9000 X173.970 Y113.424
G1 F2700 X174.574 Y114.029 E1491.75970
;LAYER:5
M106 S51
G0 F9000 X174.750 Y113.250 Z1.200
;TYPE:WALL-INNER
G1 F2700 X174.750 Y191.750 E1495.02335
G1 X130.250 Y191.750 E1496.87344
G1 X130.250 Y113.250 E1500.13709
G1 X174.750 Y113.250 E1501.98719
G0 F9000 X175.250 Y112.750
;TYPE:WALL-OUTER
G1 F2700 X175.250 Y192.250 E1505.29241
G1 X129.750 Y192.250 E1507.18408
G1 X129.750 Y112.750 E1510.48931
G1 X175.250 Y112.750 E1512.38098
G0 F9000 X174.279 Y113.424
;TYPE:FILL
G1 F2700 X130.425 Y157.279 E1514.95946
G0 F9000 X130.425 Y158.163
G1 F2700 X174.574 Y114.014 E1517.55525
G0 F9000 X174.574 Y114.898
G1 F2700 X130.425 Y159.047 E1520.15104
G0 F9000 X130.425 Y159.931
G1 F2700 X174.574 Y115.782 E1522.74683
G0 F9000 X174.574 Y116.666
G1 F2700 X130.425 Y160.815 E1525.34262
G0 F9000 X130.425 Y161.699
G1 F2700 X174.574 Y117.550 E1527.93842
G0 F9000 X174.574 Y118.434
G1 F2700 X130.425 Y162.582 E1530.53418
G0 F9000 X130.425 Y163.466
G1 F2700 X174.574 Y119.317 E1533.12997
G1 F2400 E1532.52997
G1 Z1.700
G0 F9000 X173.396 Y113.424
G1 Z1.200
G1 F2400 E1533.12997
G1 F2700 X130.425 Y156.395 E1535.65650
G0 F9000 X130.425 Y155.511
G1 F2700 X172.512 Y113.424 E1538.13106
G0 F9000 X171.628 Y113.424
G1 F2700 X130.425 Y154.627 E1540.55363
G0 F9000 X130.425 Y153.744
G1 F2700 X170.744 Y113.424 E1542.92427
G0 F9000 X169.860 Y113.424
G1 F2700 X130.425 Y152.860 E1545.24292
G0 F9000 X130.424 Y151.977
G1 F2700 X168.976 Y113.424 E1547.50966
G0 F9000 X168.092 Y113.424
G1 F2700 X130.424 Y151.093 E1549.72442
G0 F9000 X130.424 Y150.209
G1 F2700 X167.208 Y113.424 E1551.88721
G0 F9000 X166.324 Y113.424
G1 F2700 X130.424 Y149.325 E1553.99802
G0 F9000 X130.424 Y148.441
G1 F2700 X165.441 Y113.424 E1556.05689
G0 F9000 X164.557 Y113.424
G1 F2700 X130.424 Y147.557 E1558.06378
G0 F9000 X130.424 Y146.673
G1 F2700 X163.673 Y113.424 E1560.01869
G0 F9000 X162.789 Y113.424
G1 F2700 X130.424 Y145.789 E1561.92163
G0 F9000 X130.424 Y144.905
G1 F2700 X161.905 Y113.424 E1563.77259
G0 F9000 X161.021 Y113.424
G1 F2700 X130.424 Y144.022 E1565.57161
G0 F9000 X130.424 Y143.138
G1 F2700 X160.137 Y113.424 E1567.31865
G0 F9000 X159.253 Y113.424
G1 F2700 X130.424 Y142.254 E1569.01371
G0 F9000 X130.424 Y141.370
G1 F2700 X158.369 Y113.424 E1570.65680
G0 F9000 X157.486 Y113.424
G1 F2700 X130.424 Y140.486 E1572.24794
G0 F9000 X130.424 Y139.602
G1 F2700 X156.602 Y113.424 E1573.78711
G0 F9000 X155.718 Y113.424
G1 F2700 X130.424 Y138.718 E1575.27430
G0 F9000 X130.424 Y137.834
G1 F2700 X154.834 Y113.424 E1576.70951
G0 F9000 X153.950 Y113.424
G1 F2700 X130.424 Y136.951 E1578.09278
G0 F9000 X130.424 Y136.067
G1 F2700 X153.066 Y113.424 E1579.42407
G0 F9000 X152.182 Y113.424
G1 F2700 X130.424 Y135.183 E1580.70339
G0 F9000 X130.424 Y134.299
G1 F2700 X151.298 Y113.424 E1581.93073
G0 F9000 X150.415 Y113.424
G1 F2700 X130.424 Y133.415 E1583.10613
G0 F9000 X130.424 Y132.531
G1 F2700 X149.531 Y113.424 E1584.22954
G0 F9000 X148.647 Y113.424
G1 F2700 X130.424 Y131.647 E1585.30099
G0 F9000 X130.424 Y130.763
G1 F2700 X147.763 Y113.424 E1586.32045
G0 F9000 X146.879 Y113.424
G1 F2700 X130.424 Y129.879 E1587.28794
G0 F9000 X130.424 Y128.996
G1 F2700 X145.995 Y113.424 E1588.20349
G0 F9000 X145.111 Y113.424
G1 F2700 X130.424 Y128.112 E1589.06706
G0 F9000 X130.424 Y127.228
G1 F2700 X144.227 Y113.424 E1589.87865
G0 F9000 X143.343 Y113.424
G1 F2700 X130.424 Y126.344 E1590.63827
G0 F9000 X130.424 Y125.460
G1 F2700 X142.460 Y113.424 E1591.34594
G0 F9000 X141.576 Y113.424
G1 F2700 X130.424 Y124.576 E1592.00163
G0 F9000 X130.424 Y123.692
G1 F2700 X140.692 Y113.424 E1592.60535
G0 F9000 X139.808 Y113.424
G1 F2700 X130.424 Y122.808 E1593.15709
G0 F9000 X130.424 Y121.925
G1 F2700 X138.924 Y113.424 E1593.65689
G0 F9000 X138.040 Y113.424
G1 F2700 X130.424 Y121.041 E1594.10471
G0 F9000 X130.424 Y120.157
G1 F2700 X137.156 Y113.424 E1594.50056
G0 F9000 X136.272 Y113.424
G1 F2700 X130.424 Y119.273 E1594.84443
G0 F9000 X130.424 Y118.389
G1 F2700 X135.389 Y113.424 E1595.13635
G0 F9000 X134.505 Y113.424
G1 F2700 X130.424 Y117.505 E1595.37630
G0 F9000 X130.424 Y116.621
G1 F2700 X133.621 Y113.424 E1595.56427
G0 F9000 X132.737 Y113.424
G1 F2700 X130.424 Y115.737 E1595.70026
G0 F9000 X130.424 Y114.853
G1 F2700 X131.853 Y113.424 E1595.78428
G0 F9000 X130.969 Y113.424
G1 F2700 X130.424 Y113.970 E1595.81636
G1 F2400 E1595.21636
G1 Z1.700
G0 F9000 X174.574 Y120.201
G1 Z1.200
G1 F2400 E1595.81636
G1 F2700 X130.425 Y164.350 E1598.41215
G0 F9000 X130.425 Y165.234
G1 F2700 X174.574 Y121.085 E1601.00794
G0 F9000 X174.574 Y121.969
G1 F2700 X130.425 Y166.118 E1603.60373
G0 F9000 X130.425 Y167.002
G1 F2700 X174.574 Y122.853 E1606.19953
G0 F9000 X174.574 Y123.737
G1 F2700 X130.425 Y167.886 E1608.79532
G0 F9000 X130.425 Y168.770
G1 F2700 X174.574 Y124.621 E1611.39111
G0 F9000 X174.574 Y125.505
G1 F2700 X130.425 Y169.654 E1613.98690
G0 F9000 X130.425 Y170.537
G1 F2700 X174.574 Y126.388 E1616.58269
G0 F9000 X174.574 Y127.272
G1 F2700 X130.425 Y171.421 E1619.17849
G0 F9000 X130.425 Y172.305
G1 F2700 X174.574 Y128.156 E1621.77428
G0 F9000 X174.574 Y129.040
G1 F2700 X130.425 Y173.189 E1624.37007
G0 F9000 X130.425 Y174.073
G1 F2700 X174.574 Y129.924 E1626.96586
G0 F9000 X174.574 Y130.808
G1 F2700 X130.425 Y174.957 E1629.56165
G0 F9000 X130.425 Y175.841
G1 F2700 X174.574 Y131.692 E1632.15745
G0 F9000 X174.574 Y132.576
G1 F2700 X130.425 Y176.725 E1634.75324
G0 F9000 X130.425 Y177.608
G1 F2700 X174.574 Y133.460 E1637.34900
G0 F9000 X174.574 Y134.343
G1 F2700 X130.425 Y178.492 E1639.94479
G0 F9000 X130.425 Y179.376
G1 F2700 X174.574 Y135.227 E1642.54058
G0 F9000 X174.574 Y136.111
G1 F2700 X130.425 Y180.260 E1645.13638
G0 F9000 X130.425 Y181.144
G1 F2700 X174.574 Y136.995 E1647.73217
G0 F9000 X174.574 Y137.879
G1 F2700 X130.425 Y182.028 E1650.32796
G0 F9000 X130.425 Y182.912
G1 F2700 X174.574 Y138.763 E1652.92375
G0 F9000 X174.574 Y139.647
G1 F2700 X130.425 Y183.796 E1655.51954
G0 F9000 X130.425 Y184.680
G1 F2700 X174.574 Y140.531 E1658.11534
G0 F9000 X174.574 Y141.414
G1 F2700 X130.425 Y185.563 E1660.71113
G0 F9000 X130.425 Y186.447
G1 F2700 X174.574 Y142.298 E1663.30692
G0 F9000 X174.574 Y143.182
G1 F2700 X130.425 Y187.331 E1665.90271
G0 F9000 X130.425 Y188.215
G1 F2700 X174.574 Y144.066 E1668.49850
G0 F9000 X174.574 Y144.950
G1 F2700 X130.425 Y189.099 E1671.09430
G0 F9000 X130.425 Y189.983
G1 F2700 X174.574 Y145.834 E1673.69009
G0 F9000 X174.574 Y146.718
G1 F2700 X130.425 Y190.867 E1676.28588
G0 F9000 X130.601 Y191.574
G1 F2700 X174.574 Y147.602 E1678.87129
G0 F9000 X174.574 Y148.486
G1 F2700 X131.485 Y191.574 E1681.40473
G0 F9000 X132.369 Y191.574
G1 F2700 X174.574 Y149.369 E1683.88623
G0 F9000 X174.574 Y150.253
G1 F2700 X133.253 Y191.574 E1686.31574
G0 F9000 X134.137 Y191.574
G1 F2700 X174.574 Y151.137 E1688.69328
G0 F9000 X174.574 Y152.021
G1 F2700 X135.021 Y191.574 E1691.01885
G0 F9000 X135.905 Y191.574
G1 F2700 X174.574 Y152.904 E1693.29247
G0 F9000 X174.574 Y153.788
G1 F2700 X136.789 Y191.574 E1695.51411
G0 F9000 X137.672 Y191.574
G1 F2700 X174.574 Y154.672 E1697.68380
G0 F9000 X174.574 Y155.556
G1 F2700 X138.556 Y191.574 E1699.80152
G0 F9000 X139.440 Y191.574
G1 F2700 X174.574 Y156.440 E1701.86727
G0 F9000 X174.574 Y157.324
G1 F2700 X140.324 Y191.574 E1703.88104
G0 F9000 X141.208 Y191.574
G1 F2700 X174.574 Y158.208 E1705.84283
G0 F9000 X174.574 Y159.091
G1 F2700 X142.092 Y191.574 E1707.75268
G0 F9000 X142.976 Y191.574
G1 F2700 X174.574 Y159.975 E1709.61055
G0 F9000 X174.574 Y160.859
G1 F2700 X143.860 Y191.574 E1711.41644
G0 F9000 X144.744 Y191.574
G1 F2700 X174.574 Y161.743 E1713.17036
G0 F9000 X174.574 Y162.627
G1 F2700 X145.627 Y191.574 E1714.87233
G0 F9000 X146.511 Y191.574
G1 F2700 X174.574 Y163.511 E1716.52233
G0 F9000 X174.574 Y164.395
G1 F2700 X147.395 Y191.574 E1718.12035
G0 F9000 X148.279 Y191.574
G1 F2700 X174.574 Y165.279 E1719.66640
G0 F9000 X174.574 Y166.163
G1 F2700 X149.163 Y191.574 E1721.16047
G0 F9000 X150.047 Y191.574
G1 F2700 X174.574 Y167.046 E1722.60259
G0 F9000 X174.574 Y167.930
G1 F2700 X150.931 Y191.574 E1723.99274
G0 F9000 X151.815 Y191.574
G1 F2700 X174.574 Y168.814 E1725.33091
G0 F9000 X174.574 Y169.698
G1 F2700 X152.699 Y191.574 E1726.61710
G0 F9000 X153.582 Y191.574
G1 F2700 X174.574 Y170.582 E1727.85135
G0 F9000 X174.574 Y171.466
G1 F2700 X154.466 Y191.574 E1729.03363
G0 F9000 X155.350 Y191.574
G1 F2700 X174.574 Y172.350 E1730.16392
G0 F9000 X174.574 Y173.234
G1 F2700 X156.234 Y191.574 E1731.24225
G0 F9000 X157.118 Y191.574
G1 F2700 X174.574 Y174.117 E1732.26862
G0 F9000 X174.574 Y175.001
G1 F2700 X158.002 Y191.574 E1733.24302
G0 F9000 X158.886 Y191.574
G1 F2700 X174.574 Y175.885 E1734.16544
G0 F9000 X174.574 Y176.769
G1 F2700 X159.770 Y191.574 E1735.03589
G0 F9000 X160.653 Y191.574
G1 F2700 X174.574 Y177.653 E1735.85439
G0 F9000 X174.574 Y178.537
G1 F2700 X161.537 Y191.574 E1736.62092
G0 F9000 X162.421 Y191.574
G1 F2700 X174.574 Y179.421 E1737.33547
G0 F9000 X174.574 Y180.305
G1 F2700 X163.305 Y191.574 E1737.99804
G0 F9000 X164.189 Y191.574
G1 F2700 X174.574 Y181.189 E1738.60864
G0 F9000 X174.574 Y182.072
G1 F2700 X165.073 Y191.574 E1739.16729
G0 F9000 X165.957 Y191.574
G1 F2700 X174.574 Y182.956 E1739.67397
G0 F9000 X174.574 Y183.840
G1 F2700 X166.841 Y191.574 E1740.12867
G0 F9000 X167.725 Y191.574
G1 F2700 X174.574 Y184.724 E1740.53139
G0 F9000 X174.574 Y185.608
G1 F2700 X168.608 Y191.574 E1740.88217
G0 F9000 X169.492 Y191.574
G1 F2700 X174.574 Y186.492 E1741.18097
G0 F9000 X174.574 Y187.376
G1 F2700 X170.376 Y191.574 E1741.42780
G0 F9000 X171.260 Y191.574
G1 F2700 X174.574 Y188.260 E1741.62265
G0 F9000 X174.574 Y189.143
G1 F2700 X172.144 Y191.574 E1741.76555
G0 F9000 X173.028 Y191.574
G1 F2700 X174.574 Y190.027 E1741.85648
G0 F9000 X174.574 Y190.911
G1 F2700 X173.912 Y191.574 E1741.89544
;LAYER:6
M106 S63
G0 F9000 X174.750 Y191.750 Z1.400
;TYPE:WALL-INNER
G1 F2700 X130.250 Y191.750 E1743.74553
G1 X130.250 Y113.250 E1747.00918
G1 X174.750 Y113.250 E1748.85928
G1 X174.750 Y191.750 E1752.12293
G0 F9000 X175.250 Y192.250
;TYPE:WALL-OUTER
G1 F2700 X129.750 Y192.250 E1754.01460
G1 X129.750 Y112.750 E1757.31982
G1 X175.250 Y112.750 E1759.21149
G1 X175.250 Y192.250 E1762.51672
G0 F9000 X174.337 Y191.574
;TYPE:FILL
G1 F2700 X173.438 Y190.674 E1762.56961
G0 F9000 X173.674 Y190.027
G1 F2700 X174.575 Y190.928 E1762.62258
G0 F9000 X174.575 Y190.044
G1 F2700 X173.674 Y189.143 E1762.67556
G0 F9000 X173.674 Y188.259
G1 F2700 X174.575 Y189.160 E1762.72853
G0 F9000 X174.575 Y188.276
G1 F2700 X173.674 Y187.375 E1762.78151
G0 F9000 X173.674 Y186.491
G1 F2700 X174.575 Y187.392 E1762.83448
G0 F9000 X174.575 Y186.508
G1 F2700 X173.674 Y185.607 E1762.88746
G0 F9000 X173.674 Y184.723
G1 F2700 X174.575 Y185.624 E1762.94043
G0 F9000 X174.575 Y184.740
G1 F2700 X173.674 Y183.839 E1762.99341
G0 F9000 X173.674 Y182.956
G1 F2700 X174.575 Y183.856 E1763.04636
G0 F9000 X174.575 Y182.973
G1 F2700 X173.674 Y182.072 E1763.09933
G0 F9000 X173.674 Y181.188
G1 F2700 X174.575 Y182.089 E1763.15231
G0 F9000 X174.575 Y181.205
G1 F2700 X173.674 Y180.304 E1763.20528
G0 F9000 X173.674 Y179.420
G1 F2700 X174.575 Y180.321 E1763.25826
G1 F2400 E1762.65826
G1 Z1.900
G0 F9000 X172.554 Y190.674
G1 Z1.400
G1 F2400 E1763.25826
G1 F2700 X173.454 Y191.574 E1763.31117
G0 F9000 X172.570 Y191.574
G1 F2700 X171.670 Y190.674 E1763.36409
G0 F9000 X170.786 Y190.674
G1 F2700 X171.686 Y191.574 E1763.41701
G0 F9000 X170.802 Y191.574
G1 F2700 X170.675 Y191.447 E1763.42447
G1 F2400 E1762.82447
G1 Z1.900
G0 F9000 X174.574 Y179.436
G1 Z1.400
G1 F2400 E1763.42447
G1 F2700 X173.674 Y178.536 E1763.47739
G0 F9000 X173.674 Y177.652
G1 F2700 X174.574 Y178.552 E1763.53031
G0 F9000 X174.574 Y177.669
G1 F2700 X173.674 Y176.768 E1763.58325
G0 F9000 X173.674 Y175.885
G1 F2700 X174.574 Y176.785 E1763.63617
G0 F9000 X174.574 Y175.901
G1 F2700 X173.674 Y175.001 E1763.68909
G0 F9000 X173.674 Y174.117
G1 F2700 X174.574 Y175.017 E1763.74200
G0 F9000 X174.574 Y174.133
G1 F2700 X173.674 Y173.233 E1763.79492
G0 F9000 X173.674 Y172.349
G1 F2700 X174.574 Y173.249 E1763.84784
G0 F9000 X174.574 Y172.365
G1 F2700 X173.674 Y171.465 E1763.90075
G0 F9000 X173.674 Y170.581
G1 F2700 X174.574 Y171.481 E1763.95367
G0 F9000 X174.574 Y170.597
G1 F2700 X173.674 Y169.697 E1764.00658
G0 F9000 X173.674 Y168.813
G1 F2700 X174.574 Y169.714 E1764.05953
G0 F9000 X174.574 Y168.830
G1 F2700 X174.419 Y168.675 E1764.06864
G1 F2400 E1763.46864
G1 Z1.900
G0 F9000 X173.889 Y136.325
G1 Z1.400
G1 F2400 E1764.06864
G1 F2700 X173.673 Y136.109 E1764.08134
G0 F9000 X173.673 Y135.225
G1 F2700 X174.574 Y136.125 E1764.13429
G0 F9000 X174.574 Y135.241
G1 F2700 X173.673 Y134.341 E1764.18724
G0 F9000 X173.673 Y133.457
G1 F2700 X174.574 Y134.358 E1764.24021
G0 F9000 X174.574 Y133.474
G1 F2700 X173.673 Y132.574 E1764.29316
G0 F9000 X173.673 Y131.690
G1 F2700 X174.574 Y132.590 E1764.34610
G0 F9000 X174.574 Y131.706
G1 F2700 X173.673 Y130.806 E1764.39905
G0 F9000 X173.673 Y129.922
G1 F2700 X174.574 Y130.822 E1764.45200
G0 F9000 X174.574 Y129.938
G1 F2700 X173.673 Y129.038 E1764.50494
G0 F9000 X173.673 Y128.154
G1 F2700 X174.574 Y129.054 E1764.55789
G0 F9000 X174.574 Y128.170
G1 F2700 X173.673 Y127.270 E1764.61083
G0 F9000 X173.673 Y126.386
G1 F2700 X174.574 Y127.286 E1764.66378
G0 F9000 X174.574 Y126.403
G1 F2700 X173.673 Y125.502 E1764.71675
G0 F9000 X173.673 Y124.619
G1 F2700 X174.574 Y125.519 E1764.76970
G0 F9000 X174.574 Y124.635
G1 F2700 X173.673 Y123.735 E1764.82265
G0 F9000 X173.673 Y122.851
G1 F2700 X174.574 Y123.751 E1764.87559
G0 F9000 X174.574 Y122.867
G1 F2700 X173.673 Y121.967 E1764.92854
G0 F9000 X173.673 Y121.083
G1 F2700 X174.574 Y121.983 E1764.98148
G0 F9000 X174.574 Y121.099
G1 F2700 X173.673 Y120.199 E1765.03443
G0 F9000 X173.673 Y119.315
G1 F2700 X174.574 Y120.215 E1765.08738
G0 F9000 X174.574 Y119.332
G1 F2700 X173.673 Y118.431 E1765.14035
G0 F9000 X173.673 Y117.548
G1 F2700 X174.574 Y118.448 E1765.19330
G0 F9000 X174.574 Y117.564
G1 F2700 X173.673 Y116.664 E1765.24624
G0 F9000 X173.673 Y115.780
G1 F2700 X174.574 Y116.680 E1765.29919
G0 F9000 X174.574 Y115.796
G1 F2700 X173.673 Y114.896 E1765.35214
G0 F9000 X173.102 Y114.325
G1 F2700 X172.202 Y113.424 E1765.40508
G0 F9000 X171.318 Y113.424
G1 F2700 X172.218 Y114.325 E1765.45803
G0 F9000 X171.334 Y114.325
G1 F2700 X170.629 Y113.619 E1765.49685
G1 X170.067 Y113.499 E1765.50565
G1 X169.183 Y113.499 E1765.51439
G1 X168.299 Y113.499 E1765.52314
G1 X167.416 Y113.499 E1765.53188
G1 X166.532 Y113.499 E1765.54062
G1 X165.648 Y113.499 E1765.54937
G1 X164.764 Y113.499 E1765.55812
G1 X163.880 Y113.499 E1765.56687
G1 X162.996 Y113.499 E1765.57561
G1 X162.112 Y113.499 E1765.58436
G1 X161.228 Y113.499 E1765.59311
G1 X160.711 Y113.424 E1765.61483
G1 F2400 E1765.01483
G1 Z1.900
G0 F9000 X173.086 Y113.424
G1 Z1.400
G1 F2400 E1765.61483
G1 F2700 X174.574 Y114.912 E1765.70231
G0 F9000 X174.574 Y114.028
G1 F2700 X173.970 Y113.424 E1765.73783
G1 F2400 E1765.13783
G1 Z1.900
G0 F9000 X159.977 Y113.574
G1 Z1.400
G1 F2400 E1765.73783
G1 F2700 X159.461 Y113.499 E1765.74659
G1 X158.577 Y113.499 E1765.75533
G1 X157.693 Y113.499 E1765.76408
G1 X156.809 Y113.499 E1765.77283
G1 X155.925 Y113.499 E1765.78157
G1 X155.041 Y113.499 E1765.79032
G1 X154.157 Y113.499 E1765.79907
G1 X153.273 Y113.499 E1765.80781
G1 X152.389 Y113.499 E1765.81656
G1 X151.506 Y113.499 E1765.82537
G1 X150.622 Y113.499 E1765.83412
G1 X149.738 Y113.499 E1765.84287
G1 X148.854 Y113.499 E1765.85161
G1 X147.970 Y113.499 E1765.86036
G1 X147.086 Y113.499 E1765.86911
G1 X146.202 Y113.499 E1765.87786
G1 X145.318 Y113.499 E1765.88660
G1 X144.435 Y113.499 E1765.89534
G1 X143.551 Y113.499 E1765.90409
G1 X142.667 Y113.499 E1765.91283
G1 X141.783 Y113.499 E1765.92158
G1 X140.899 Y113.499 E1765.93033
G1 X140.015 Y113.499 E1765.93907
G1 X139.131 Y113.499 E1765.94782
G1 X138.247 Y113.499 E1765.95657
G1 X137.363 Y113.499 E1765.96532
G1 X136.480 Y113.499 E1765.97405
G1 X135.596 Y113.499 E1765.98280
G1 X134.712 Y113.499 E1765.99155
G1 X134.195 Y113.424 E1766.01327
G0 F9000 X133.311 Y113.424
G1 F2700 X134.211 Y114.325 E1766.06621
G0 F9000 X133.327 Y114.325
G1 F2700 X132.427 Y113.424 E1766.11916
G0 F9000 X131.543 Y113.424
G1 F2700 X132.443 Y114.325 E1766.17210
G0 F9000 X131.560 Y114.325
G1 F2700 X130.659 Y113.424 E1766.22508
G0 F9000 X130.423 Y114.072
G1 F2700 X131.324 Y114.973 E1766.27806
G0 F9000 X131.324 Y115.857
G1 F2700 X130.423 Y114.956 E1766.33103
G0 F9000 X130.423 Y115.840
G1 F2700 X131.324 Y116.741 E1766.38401
G0 F9000 X131.324 Y117.625
G1 F2700 X130.423 Y116.724 E1766.43698
G0 F9000 X130.423 Y117.608
G1 F2700 X131.324 Y118.508 E1766.48993
G0 F9000 X131.324 Y119.392
G1 F2700 X130.423 Y118.492 E1766.54287
G0 F9000 X130.423 Y119.375
G1 F2700 X131.324 Y120.276 E1766.59585
G0 F9000 X131.324 Y121.160
G1 F2700 X130.423 Y120.259 E1766.64882
G0 F9000 X130.423 Y121.143
G1 F2700 X131.324 Y122.044 E1766.70180
G0 F9000 X131.324 Y122.928
G1 F2700 X130.423 Y122.027 E1766.75477
G0 F9000 X130.423 Y122.911
G1 F2700 X131.324 Y123.812 E1766.80775
G0 F9000 X131.324 Y124.696
G1 F2700 X130.423 Y123.795 E1766.86073
G0 F9000 X130.423 Y124.679
G1 F2700 X131.324 Y125.580 E1766.91370
G0 F9000 X131.324 Y126.463
G1 F2700 X130.423 Y125.563 E1766.96665
G0 F9000 X130.423 Y126.446
G1 F2700 X131.324 Y127.347 E1767.01962
G0 F9000 X131.324 Y128.231
G1 F2700 X130.423 Y127.330 E1767.07260
G0 F9000 X130.423 Y128.214
G1 F2700 X131.324 Y129.115 E1767.12557
G0 F9000 X131.324 Y129.999
G1 F2700 X130.423 Y129.098 E1767.17855
G0 F9000 X130.423 Y129.982
G1 F2700 X131.324 Y130.883 E1767.23152
G0 F9000 X131.324 Y131.767
G1 F2700 X130.423 Y130.866 E1767.28450
G0 F9000 X130.423 Y131.750
G1 F2700 X131.324 Y132.651 E1767.33747
G0 F9000 X131.324 Y133.534
G1 F2700 X130.423 Y132.634 E1767.39042
G0 F9000 X130.423 Y133.518
G1 F2700 X131.324 Y134.418 E1767.44337
G0 F9000 X131.324 Y135.302
G1 F2700 X130.423 Y134.401 E1767.49634
G0 F9000 X130.423 Y135.285
G1 F2700 X131.324 Y136.186 E1767.54932
G0 F9000 X131.324 Y137.070
G1 F2700 X130.423 Y136.169 E1767.60229
G0 F9000 X130.423 Y137.053
G1 F2700 X131.324 Y137.954 E1767.65527
G0 F9000 X131.324 Y138.838
G1 F2700 X130.423 Y137.937 E1767.70824
G0 F9000 X130.423 Y138.821
G1 F2700 X131.324 Y139.722 E1767.76122
G0 F9000 X131.324 Y140.606
G1 F2700 X130.423 Y139.705 E1767.81419
G0 F9000 X130.423 Y140.589
G1 F2700 X131.324 Y141.489 E1767.86714
G0 F9000 X131.324 Y142.373
G1 F2700 X130.423 Y141.472 E1767.92011
G0 F9000 X130.423 Y142.356
G1 F2700 X131.324 Y143.257 E1767.97309
G0 F9000 X131.324 Y144.141
G1 F2700 X130.423 Y143.240 E1768.02607
G0 F9000 X130.423 Y144.124
G1 F2700 X131.324 Y145.025 E1768.07904
G0 F9000 X131.324 Y145.909
G1 F2700 X130.423 Y145.008 E1768.13202
G0 F9000 X130.423 Y145.892
G1 F2700 X131.324 Y146.793 E1768.18499
G0 F9000 X131.324 Y147.677
G1 F2700 X130.423 Y146.776 E1768.23797
G0 F9000 X130.423 Y147.660
G1 F2700 X131.324 Y148.561 E1768.29094
G0 F9000 X131.324 Y149.444
G1 F2700 X130.423 Y148.544 E1768.34389
G0 F9000 X130.423 Y149.427
G1 F2700 X131.324 Y150.328 E1768.39686
G0 F9000 X131.324 Y151.212
G1 F2700 X130.423 Y150.311 E1768.44984
G0 F9000 X130.423 Y151.195
G1 F2700 X131.324 Y152.096 E1768.50281
G0 F9000 X131.325 Y152.981
G1 F2700 X130.423 Y152.079 E1768.55585
G0 F9000 X130.424 Y152.964
G1 F2700 X131.325 Y153.865 E1768.60882
G0 F9000 X131.325 Y154.748
G1 F2700 X130.424 Y153.848 E1768.66177
G0 F9000 X130.424 Y154.731
G1 F2700 X131.325 Y155.632 E1768.71474
G0 F9000 X131.325 Y156.516
G1 F2700 X130.424 Y155.615 E1768.76772
G0 F9000 X130.424 Y156.499
G1 F2700 X131.325 Y157.400 E1768.82070
G0 F9000 X131.325 Y158.284
G1 F2700 X130.424 Y157.383 E1768.87367
G0 F9000 X130.424 Y158.267
G1 F2700 X131.325 Y159.168 E1768.92665
G0 F9000 X131.325 Y160.052
G1 F2700 X130.424 Y159.151 E1768.97962
G0 F9000 X130.424 Y160.035
G1 F2700 X131.325 Y160.936 E1769.03260
G0 F9000 X131.325 Y161.819
G1 F2700 X130.424 Y160.919 E1769.08554
G0 F9000 X130.424 Y161.803
G1 F2700 X131.325 Y162.703 E1769.13849
G0 F9000 X131.325 Y163.587
G1 F2700 X130.424 Y162.686 E1769.19146
G0 F9000 X130.424 Y163.570
G1 F2700 X131.325 Y164.471 E1769.24444
G0 F9000 X131.325 Y165.355
G1 F2700 X130.424 Y164.454 E1769.29741
G0 F9000 X130.424 Y165.338
G1 F2700 X131.325 Y166.239 E1769.35039
G0 F9000 X131.325 Y167.123
G1 F2700 X130.424 Y166.222 E1769.40337
G0 F9000 X130.424 Y167.106
G1 F2700 X131.325 Y168.007 E1769.45634
G0 F9000 X131.325 Y168.891
G1 F2700 X130.424 Y167.990 E1769.50932
G0 F9000 X130.424 Y168.874
G1 F2700 X131.325 Y169.774 E1769.56226
G0 F9000 X131.325 Y170.658
G1 F2700 X130.424 Y169.757 E1769.61524
G0 F9000 X130.424 Y170.641
G1 F2700 X131.325 Y171.542 E1769.66821
G0 F9000 X131.325 Y172.426
G1 F2700 X130.424 Y171.525 E1769.72119
G0 F9000 X130.424 Y172.409
G1 F2700 X131.325 Y173.310 E1769.77416
G0 F9000 X131.325 Y174.194
G1 F2700 X130.424 Y173.293 E1769.82714
G0 F9000 X130.424 Y174.177
G1 F2700 X131.325 Y175.078 E1769.88011
G0 F9000 X131.325 Y175.962
G1 F2700 X130.424 Y175.061 E1769.93309
G0 F9000 X130.424 Y175.945
G1 F2700 X131.325 Y176.845 E1769.98604
G0 F9000 X131.325 Y177.729
G1 F2700 X130.424 Y176.829 E1770.03898
G0 F9000 X130.424 Y177.712
G1 F2700 X131.325 Y178.613 E1770.09196
G0 F9000 X131.325 Y179.497
G1 F2700 X130.424 Y178.596 E1770.14493
G0 F9000 X130.424 Y179.480
G1 F2700 X131.325 Y180.381 E1770.19791
G0 F9000 X131.325 Y181.265
G1 F2700 X130.424 Y180.364 E1770.25088
G0 F9000 X130.424 Y181.248
G1 F2700 X131.325 Y182.149 E1770.30386
G0 F9000 X131.325 Y183.033
G1 F2700 X130.424 Y182.132 E1770.35683
G0 F9000 X130.424 Y183.016
G1 F2700 X131.325 Y183.917 E1770.40981
G0 F9000 X131.325 Y184.800
G1 F2700 X130.424 Y183.900 E1770.46276
G0 F9000 X130.424 Y184.783
G1 F2700 X131.325 Y185.684 E1770.51573
G0 F9000 X131.325 Y186.568
G1 F2700 X130.424 Y185.667 E1770.56871
G0 F9000 X130.424 Y186.551
G1 F2700 X131.325 Y187.452 E1770.62168
G0 F9000 X131.325 Y188.336
G1 F2700 X130.424 Y187.435 E1770.67466
G0 F9000 X130.424 Y188.319
G1 F2700 X131.325 Y189.220 E1770.72763
G0 F9000 X131.325 Y190.104
G1 F2700 X130.424 Y189.203 E1770.78061
G0 F9000 X130.424 Y190.087
G1 F2700 X131.911 Y191.574 E1770.86804
G0 F9000 X131.027 Y191.574
G1 F2700 X130.424 Y190.971 E1770.90349
G1 F2400 E1770.30349
G1 Z1.900
G0 F9000 X131.895 Y190.674
G1 Z1.400
G1 F2400 E1770.90349
G1 F2700 X132.795 Y191.574 E1770.95641
G0 F9000 X133.679 Y191.574
G1 F2700 X132.779 Y190.674 E1771.00932
G0 F9000 X133.662 Y190.674
G1 F2700 X134.325 Y191.336 E1771.04828
G0 F9000 X134.652 Y191.574
;TYPE:SKIN
G1 F2700 X130.674 Y187.596 E1771.28217
G0 F9000 X130.674 Y188.303
G1 F2700 X133.945 Y191.574 E1771.47449
G0 F9000 X132.987 Y191.324
G1 F2700 X130.674 Y189.010 E1771.61052
G0 F9000 X130.674 Y189.717
G1 F2700 X132.280 Y191.324 E1771.70497
G0 F9000 X131.573 Y191.324
G1 F2700 X130.674 Y190.424 E1771.75786
G0 F9000 X130.674 Y191.131
G1 F2700 X130.866 Y191.324 E1771.76918
G1 F2400 E1771.16918
G1 Z1.900
G0 F9000 X130.674 Y186.889
G1 Z1.400
G1 F2400 E1771.76918
G1 F2700 X135.359 Y191.574 E1772.04464
G0 F9000 X136.066 Y191.574
G1 F2700 X130.674 Y186.181 E1772.36169
G0 F9000 X130.674 Y185.474
G1 F2700 X136.773 Y191.574 E1772.72032
G0 F9000 X137.480 Y191.574
G1 F2700 X130.674 Y184.767 E1773.12052
G0 F9000 X130.674 Y184.060
G1 F2700 X138.187 Y191.574 E1773.56228
G0 F9000 X138.894 Y191.574
G1 F2700 X130.674 Y183.353 E1774.04562
G0 F9000 X130.674 Y182.646
G1 F2700 X139.601 Y191.574 E1774.57052
G0 F9000 X140.309 Y191.574
G1 F2700 X130.674 Y181.939 E1775.13702
G0 F9000 X130.674 Y181.232
G1 F2700 X141.016 Y191.574 E1775.74509
G0 F9000 X141.723 Y191.574
G1 F2700 X130.674 Y180.525 E1776.39473
G0 F9000 X130.674 Y179.817
G1 F2700 X142.430 Y191.574 E1777.08597
G0 F9000 X143.137 Y191.574
G1 F2700 X130.674 Y179.110 E1777.81877
G0 F9000 X130.674 Y178.403
G1 F2700 X143.844 Y191.574 E1778.59315
G0 F9000 X144.551 Y191.574
G1 F2700 X130.674 Y177.696 E1779.40909
G0 F9000 X130.674 Y176.989
G1 F2700 X145.258 Y191.574 E1780.26660
G0 F9000 X145.965 Y191.574
G1 F2700 X130.674 Y176.282 E1781.16569
G0 F9000 X130.674 Y175.575
G1 F2700 X146.673 Y191.574 E1782.10637
G0 F9000 X147.380 Y191.574
G1 F2700 X130.674 Y174.868 E1783.08861
G0 F9000 X130.674 Y174.161
G1 F2700 X148.087 Y191.574 E1784.11243
G0 F9000 X148.794 Y191.574
G1 F2700 X130.674 Y173.454 E1785.17782
G0 F9000 X130.674 Y172.746
G1 F2700 X149.501 Y191.574 E1786.28480
G0 F9000 X150.208 Y191.574
G1 F2700 X130.674 Y172.039 E1787.43336
G0 F9000 X130.674 Y171.332
G1 F2700 X150.915 Y191.574 E1788.62348
G0 F9000 X151.622 Y191.574
G1 F2700 X130.674 Y170.625 E1789.85517
G0 F9000 X130.674 Y169.918
G1 F2700 X152.329 Y191.574 E1791.12843
G0 F9000 X153.036 Y191.574
G1 F2700 X130.674 Y169.211 E1792.44326
G0 F9000 X130.674 Y168.504
G1 F2700 X153.744 Y191.574 E1793.79969
G0 F9000 X154.451 Y191.574
G1 F2700 X130.674 Y167.797 E1795.19769
G0 F9000 X130.674 Y167.090
G1 F2700 X155.158 Y191.574 E1796.63725
G0 F9000 X155.865 Y191.574
G1 F2700 X130.674 Y166.382 E1798.11841
G0 F9000 X130.674 Y165.675
G1 F2700 X156.572 Y191.574 E1799.64115
G0 F9000 X157.279 Y191.574
G1 F2700 X130.674 Y164.968 E1801.20545
G0 F9000 X130.674 Y164.261
G1 F2700 X157.986 Y191.574 E1802.81132
G0 F9000 X158.693 Y191.574
G1 F2700 X130.674 Y163.554 E1804.45876
G0 F9000 X130.674 Y162.847
G1 F2700 X159.400 Y191.574 E1806.14777
G0 F9000 X160.108 Y191.574
G1 F2700 X130.674 Y162.140 E1807.87837
G0 F9000 X130.674 Y161.433
G1 F2700 X160.815 Y191.574 E1809.65055
G0 F9000 X161.522 Y191.574
G1 F2700 X130.674 Y160.726 E1811.46429
G0 F9000 X130.674 Y160.018
G1 F2700 X162.229 Y191.574 E1813.31963
G0 F9000 X162.936 Y191.574
G1 F2700 X130.674 Y159.311 E1815.21655
G0 F9000 X130.674 Y158.604
G1 F2700 X163.643 Y191.574 E1817.15503
G0 F9000 X164.350 Y191.574
G1 F2700 X130.674 Y157.897 E1819.13508
G0 F9000 X130.674 Y157.190
G1 F2700 X165.057 Y191.574 E1821.15669
G0 F9000 X165.764 Y191.574
G1 F2700 X130.674 Y156.483 E1823.21988
G0 F9000 X130.674 Y155.776
G1 F2700 X166.472 Y191.574 E1825.32467
G0 F9000 X167.179 Y191.574
G1 F2700 X130.674 Y155.069 E1827.47102
G0 F9000 X130.674 Y154.362
G1 F2700 X167.886 Y191.574 E1829.65894
G0 F9000 X168.593 Y191.574
G1 F2700 X130.674 Y153.655 E1831.88843
G0 F9000 X130.674 Y152.947
G1 F2700 X169.300 Y191.574 E1834.15952
G0 F9000 X170.007 Y191.574
G1 F2700 X130.674 Y152.240 E1836.47218
G0 F9000 X130.674 Y151.533
G1 F2700 X170.714 Y191.574 E1838.82641
G0 F9000 X171.325 Y191.478
G1 F2700 X130.674 Y150.826 E1841.21656
G0 F9000 X130.674 Y150.119
G1 F2700 X171.878 Y191.324 E1843.63923
G0 F9000 X172.585 Y191.324
G1 F2700 X130.674 Y149.412 E1846.10347
G0 F9000 X130.674 Y148.705
G1 F2700 X173.292 Y191.324 E1848.60927
G0 F9000 X173.999 Y191.324
G1 F2700 X130.674 Y147.998 E1851.15664
G0 F9000 X130.674 Y147.291
G1 F2700 X174.325 Y190.942 E1853.72316
G0 F9000 X174.325 Y190.235
G1 F2700 X130.674 Y146.583 E1856.28970
G0 F9000 X130.674 Y145.876
G1 F2700 X174.325 Y189.527 E1858.85621
G0 F9000 X174.325 Y188.820
G1 F2700 X130.674 Y145.169 E1861.42272
G0 F9000 X130.674 Y144.462
G1 F2700 X174.325 Y188.113 E1863.98923
G0 F9000 X174.325 Y187.406
G1 F2700 X130.674 Y143.755 E1866.55574
G0 F9000 X130.674 Y143.048
G1 F2700 X174.325 Y186.699 E1869.12225
G0 F9000 X174.325 Y185.992
G1 F2700 X130.674 Y142.341 E1871.68877
G0 F9000 X130.674 Y141.634
G1 F2700 X174.325 Y185.285 E1874.25528
G0 F9000 X174.325 Y184.578
G1 F2700 X130.674 Y140.927 E1876.82179
G0 F9000 X130.674 Y140.219
G1 F2700 X174.325 Y183.871 E1879.38833
G0 F9000 X174.325 Y183.163
G1 F2700 X130.674 Y139.512 E1881.95484
G0 F9000 X130.674 Y138.805
G1 F2700 X174.325 Y182.456 E1884.52135
G0 F9000 X174.325 Y181.749
G1 F2700 X130.674 Y138.098 E1887.08786
G0 F9000 X130.674 Y137.391
G1 F2700 X174.325 Y181.042 E1889.65438
G0 F9000 X174.325 Y180.335
G1 F2700 X130.674 Y136.684 E1892.22089
G0 F9000 X130.674 Y135.977
G1 F2700 X174.325 Y179.628 E1894.78740
G0 F9000 X174.325 Y178.921
G1 F2700 X130.674 Y135.270 E1897.35391
G0 F9000 X130.674 Y134.563
G1 F2700 X174.325 Y178.214 E1899.92042
G0 F9000 X174.325 Y177.507
G1 F2700 X130.674 Y133.856 E1902.48693
G0 F9000 X130.674 Y133.148
G1 F2700 X174.325 Y176.800 E1905.05347
G0 F9000 X174.325 Y176.092
G1 F2700 X130.674 Y132.441 E1907.61999
G0 F9000 X130.674 Y131.734
G1 F2700 X174.325 Y175.385 E1910.18650
G0 F9000 X174.325 Y174.678
G1 F2700 X130.674 Y131.027 E1912.75301
G0 F9000 X130.674 Y130.320
G1 F2700 X174.325 Y173.971 E1915.31952
G0 F9000 X174.325 Y173.264
G1 F2700 X130.674 Y129.613 E1917.88603
G0 F9000 X130.674 Y128.906
G1 F2700 X174.325 Y172.557 E1920.45254
G0 F9000 X174.325 Y171.850
G1 F2700 X130.674 Y128.199 E1923.01905
G0 F9000 X130.674 Y127.492
G1 F2700 X174.325 Y171.143 E1925.58557
G0 F9000 X174.325 Y170.436
G1 F2700 X130.674 Y126.784 E1928.15211
G0 F9000 X130.674 Y126.077
G1 F2700 X174.325 Y169.728 E1930.71862
G0 F9000 X174.574 Y169.271
G1 F2700 X130.674 Y125.370 E1933.29980
G0 F9000 X130.674 Y124.663
G1 F2700 X174.574 Y168.564 E1935.88098
G0 F9000 X174.574 Y167.857
G1 F2700 X130.674 Y123.956 E1938.46216
G0 F9000 X130.674 Y123.249
G1 F2700 X174.574 Y167.150 E1941.04334
G0 F9000 X174.574 Y166.443
G1 F2700 X130.674 Y122.542 E1943.62452
G0 F9000 X130.674 Y121.835
G1 F2700 X174.574 Y165.735 E1946.20568
G0 F9000 X174.574 Y165.028
G1 F2700 X130.674 Y121.128 E1948.78683
G0 F9000 X130.674 Y120.420
G1 F2700 X174.574 Y164.321 E1951.36801
G0 F9000 X174.574 Y163.614
G1 F2700 X130.674 Y119.713 E1953.94919
G0 F9000 X130.674 Y119.006
G1 F2700 X174.574 Y162.907 E1956.53037
G0 F9000 X174.574 Y162.200
G1 F2700 X130.674 Y118.299 E1959.11155
G0 F9000 X130.674 Y117.592
G1 F2700 X174.574 Y161.493 E1961.69273
G0 F9000 X174.574 Y160.786
G1 F2700 X130.674 Y116.885 E1964.27391
G0 F9000 X130.674 Y116.178
G1 F2700 X174.574 Y160.079 E1966.85510
G0 F9000 X174.574 Y159.371
G1 F2700 X130.674 Y115.471 E1969.43625
G0 F9000 X130.674 Y114.764
G1 F2700 X174.574 Y158.664 E1972.01740
G0 F9000 X174.574 Y157.957
G1 F2700 X130.674 Y114.057 E1974.59855
G0 F9000 X130.999 Y113.675
G1 F2700 X174.574 Y157.250 E1977.16059
G0 F9000 X174.574 Y156.543
G1 F2700 X131.706 Y113.675 E1979.68107
G0 F9000 X132.413 Y113.675
G1 F2700 X174.574 Y155.836 E1982.15997
G0 F9000 X174.574 Y155.129
G1 F2700 X133.120 Y113.675 E1984.59731
G0 F9000 X133.674 Y113.521
G1 F2700 X174.574 Y154.422 E1987.00210
G0 F9000 X174.574 Y153.715
G1 F2700 X134.285 Y113.425 E1989.37097
G0 F9000 X134.992 Y113.425
G1 F2700 X174.574 Y153.008 E1991.69827
G0 F9000 X174.574 Y152.300
G1 F2700 X135.699 Y113.425 E1993.98397
G0 F9000 X136.406 Y113.425
G1 F2700 X174.574 Y151.593 E1996.22810
G0 F9000 X174.574 Y150.886
G1 F2700 X137.113 Y113.425 E1998.43067
G0 F9000 X137.820 Y113.425
G1 F2700 X174.574 Y150.179 E2000.59166
G0 F9000 X174.574 Y149.472
G1 F2700 X138.527 Y113.425 E2002.71109
G0 F9000 X139.234 Y113.425
G1 F2700 X174.574 Y148.765 E2004.78894
G0 F9000 X174.574 Y148.058
G1 F2700 X139.942 Y113.425 E2006.82520
G0 F9000 X140.649 Y113.425
G1 F2700 X174.574 Y147.351 E2008.81989
G0 F9000 X174.574 Y146.644
G1 F2700 X141.356 Y113.425 E2010.77301
G0 F9000 X142.063 Y113.425
G1 F2700 X174.574 Y145.936 E2012.68453
G0 F9000 X174.574 Y145.229
G1 F2700 X142.770 Y113.425 E2014.55449
G0 F9000 X143.477 Y113.425
G1 F2700 X174.574 Y144.522 E2016.38287
G0 F9000 X174.574 Y143.815
G1 F2700 X144.184 Y113.425 E2018.16969
G0 F9000 X144.891 Y113.425
G1 F2700 X174.574 Y143.108 E2019.91493
G0 F9000 X174.574 Y142.401
G1 F2700 X145.598 Y113.425 E2021.61861
G0 F9000 X146.306 Y113.425
G1 F2700 X174.574 Y141.694 E2023.28069
G0 F9000 X174.574 Y140.987
G1 F2700 X147.013 Y113.425 E2024.90120
G0 F9000 X147.720 Y113.425
G1 F2700 X174.574 Y140.280 E2026.48014
G0 F9000 X174.574 Y139.572
G1 F2700 X148.427 Y113.425 E2028.01749
G0 F9000 X149.134 Y113.425
G1 F2700 X174.574 Y138.865 E2029.51326
G0 F9000 X174.574 Y138.158
G1 F2700 X149.841 Y113.425 E2030.96747
G0 F9000 X150.548 Y113.425
G1 F2700 X174.574 Y137.451 E2032.38010
G0 F9000 X174.574 Y136.744
G1 F2700 X151.255 Y113.425 E2033.75117
G0 F9000 X151.962 Y113.425
G1 F2700 X174.574 Y136.037 E2035.08067
G0 F9000 X174.324 Y135.080
G1 F2700 X152.670 Y113.425 E2036.35387
G0 F9000 X153.377 Y113.425
G1 F2700 X174.324 Y134.372 E2037.58547
G0 F9000 X174.324 Y133.665
G1 F2700 X154.084 Y113.425 E2038.77551
G0 F9000 X154.791 Y113.425
G1 F2700 X174.324 Y132.958 E2039.92397
G0 F9000 X174.324 Y132.251
G1 F2700 X155.498 Y113.425 E2041.03087
G0 F9000 X156.205 Y113.425
G1 F2700 X174.324 Y131.544 E2042.09620
G0 F9000 X174.324 Y130.837
G1 F2700 X156.912 Y113.425 E2043.11996
G0 F9000 X157.619 Y113.425
G1 F2700 X174.324 Y130.130 E2044.10215
G0 F9000 X174.324 Y129.423
G1 F2700 X158.326 Y113.425 E2045.04277
G0 F9000 X159.033 Y113.425
G1 F2700 X174.324 Y128.716 E2045.94182
G0 F9000 X174.324 Y128.008
G1 F2700 X159.741 Y113.425 E2046.79925
G0 F9000 X160.448 Y113.425
G1 F2700 X174.324 Y127.301 E2047.61510
G0 F9000 X174.324 Y126.594
G1 F2700 X161.155 Y113.425 E2048.38939
G0 F9000 X161.862 Y113.425
G1 F2700 X174.324 Y125.887 E2049.12211
G0 F9000 X174.324 Y125.180
G1 F2700 X162.569 Y113.425 E2049.81325
G0 F9000 X163.276 Y113.425
G1 F2700 X174.324 Y124.473 E2050.46283
G0 F9000 X174.324 Y123.766
G1 F2700 X163.983 Y113.425 E2051.07085
G0 F9000 X164.690 Y113.425
G1 F2700 X174.324 Y123.059 E2051.63729
G0 F9000 X174.324 Y122.352
G1 F2700 X165.397 Y113.425 E2052.16216
G0 F9000 X166.105 Y113.425
G1 F2700 X174.324 Y121.644 E2052.64541
G0 F9000 X174.324 Y120.937
G1 F2700 X166.812 Y113.425 E2053.08708
G0 F9000 X167.519 Y113.425
G1 F2700 X174.324 Y120.230 E2053.48719
G0 F9000 X174.324 Y119.523
G1 F2700 X168.226 Y113.425 E2053.84573
G0 F9000 X168.933 Y113.425
G1 F2700 X174.324 Y118.816 E2054.16270
G0 F9000 X174.324 Y118.109
G1 F2700 X169.640 Y113.425 E2054.43810
G0 F9000 X170.347 Y113.425
G1 F2700 X174.324 Y117.402 E2054.67193
G0 F9000 X174.324 Y116.695
G1 F2700 X171.054 Y113.425 E2054.86420
G0 F9000 X172.011 Y113.675
G1 F2700 X174.324 Y115.988 E2055.00019
G0 F9000 X174.324 Y115.281
G1 F2700 X172.718 Y113.675 E2055.09462
G0 F9000 X173.425 Y113.675
G1 F2700 X174.324 Y114.573 E2055.14745
G0 F9000 X174.324 Y113.866
G1 F2700 X174.132 Y113.675 E2055.15871
;LAYER:7
M106 S73
G0 F9000 X174.750 Y113.250 Z1.600
;TYPE:WALL-INNER
G1 F2700 X174.750 Y191.750 E2058.42236
G1 X130.250 Y191.750 E2060.27245
G1 X130.250 Y113.250 E2063.53610
G1 X174.750 Y113.250 E2065.38620
G0 F9000 X175.250 Y112.750
;TYPE:WALL-OUTER
G1 F2700 X175.250 Y192.250 E2068.69143
G1 X129.750 Y192.250 E2070.58310
G1 X129.750 Y112.750 E2073.88832
G1 X175.250 Y112.750 E2075.77999
G0 F9000 X174.279 Y113.424
;TYPE:FILL
G1 F2700 X173.379 Y114.325 E2075.83294
G0 F9000 X173.674 Y114.914
G1 F2700 X174.574 Y114.014 E2075.88585
G0 F9000 X174.574 Y114.898
G1 F2700 X173.674 Y115.797 E2075.93874
G0 F9000 X173.674 Y116.681
G1 F2700 X174.574 Y115.782 E2075.99163
G0 F9000 X174.574 Y116.666
G1 F2700 X173.674 Y117.565 E2076.04452
G0 F9000 X173.674 Y118.449
G1 F2700 X174.574 Y117.550 E2076.09740
G0 F9000 X174.574 Y118.434
G1 F2700 X173.674 Y119.333 E2076.15029
G0 F9000 X173.674 Y120.217
G1 F2700 X174.574 Y119.317 E2076.20321
G1 F2400 E2075.60321
G1 Z2.100
G0 F9000 X172.495 Y114.325
G1 Z1.600
G1 F2400 E2076.20321
G1 F2700 X173.396 Y113.424 E2076.25618
G0 F9000 X172.512 Y113.424
G1 F2700 X171.611 Y114.325 E2076.30916
G0 F9000 X170.728 Y114.325
G1 F2700 X171.628 Y113.424 E2076.36210
G0 F9000 X170.744 Y113.424
G1 F2700 X170.226 Y113.499 E2076.37094
G1 X169.342 Y113.499 E2076.37976
G1 X168.458 Y113.499 E2076.38858
G1 X167.575 Y113.499 E2076.39739
G1 X166.691 Y113.499 E2076.40614
G1 X165.807 Y113.499 E2076.41488
G1 X164.923 Y113.499 E2076.42370
G1 X164.039 Y113.499 E2076.43253
G1 X163.155 Y113.499 E2076.44135
G1 X162.271 Y113.499 E2076.45017
G1 X161.387 Y113.499 E2076.45899
G1 X160.504 Y113.499 E2076.46780
G1 X159.620 Y113.499 E2076.47654
G1 X158.736 Y113.499 E2076.48529
G1 X157.852 Y113.499 E2076.49404
G1 X156.968 Y113.499 E2076.50286
G1 X156.084 Y113.499 E2076.51168
G1 X155.200 Y113.499 E2076.52050
G1 X154.316 Y113.499 E2076.52932
G1 X153.432 Y113.499 E2076.53814
G1 X152.549 Y113.499 E2076.54695
G1 X151.665 Y113.499 E2076.55570
G1 X150.781 Y113.499 E2076.56445
G1 X149.897 Y113.499 E2076.57327
G1 X149.013 Y113.499 E2076.58209
G1 X148.129 Y113.499 E2076.59091
G1 X147.245 Y113.499 E2076.59973
G1 X146.361 Y113.499 E2076.60855
G1 X145.478 Y113.499 E2076.61736
G1 X144.594 Y113.499 E2076.62611
G1 X143.710 Y113.499 E2076.63485
G1 X142.826 Y113.499 E2076.64360
G1 X141.942 Y113.499 E2076.65242
G1 X141.058 Y113.499 E2076.66124
G1 X140.174 Y113.499 E2076.67006
G1 X139.290 Y113.499 E2076.67888
G1 X138.406 Y113.499 E2076.68770
G1 X137.523 Y113.499 E2076.69651
G1 X136.639 Y113.499 E2076.70526
G1 X135.755 Y113.499 E2076.71401
G1 X134.871 Y113.499 E2076.72283
G1 X134.354 Y113.575 E2076.74456
G0 F9000 X134.324 Y113.605
G1 F2700 X133.604 Y114.325 E2076.78689
G0 F9000 X132.721 Y114.325
G1 F2700 X133.621 Y113.424 E2076.83983
G0 F9000 X132.737 Y113.424
G1 F2700 X131.837 Y114.325 E2076.89278
G0 F9000 X131.323 Y114.838
G1 F2700 X130.424 Y115.737 E2076.94564
G0 F9000 X130.424 Y116.621
G1 F2700 X131.323 Y115.722 E2076.99850
G0 F9000 X131.323 Y116.606
G1 F2700 X130.424 Y117.505 E2077.05135
G0 F9000 X130.424 Y118.389
G1 F2700 X131.323 Y117.490 E2077.10421
G0 F9000 X131.323 Y118.373
G1 F2700 X130.424 Y119.273 E2077.15710
G0 F9000 X130.424 Y120.157
G1 F2700 X131.323 Y119.257 E2077.20999
G1 F2400 E2076.60999
G1 Z2.100
G0 F9000 X130.424 Y114.853
G1 Z1.600
G1 F2400 E2077.20999
G1 F2700 X131.853 Y113.424 E2077.29401
G0 F9000 X130.969 Y113.424
G1 F2700 X130.424 Y113.970 E2077.32608
G1 F2400 E2076.72608
G1 Z2.100
G0 F9000 X131.323 Y120.141
G1 Z1.600
G1 F2400 E2077.32608
G1 F2700 X130.424 Y121.041 E2077.37897
G0 F9000 X130.424 Y121.925
G1 F2700 X131.323 Y121.025 E2077.43185
G0 F9000 X131.323 Y121.909
G1 F2700 X130.424 Y122.808 E2077.48471
G0 F9000 X130.424 Y123.692
G1 F2700 X131.323 Y122.793 E2077.53757
G0 F9000 X131.323 Y123.677
G1 F2700 X130.424 Y124.576 E2077.59043
G0 F9000 X130.424 Y125.460
G1 F2700 X131.323 Y124.561 E2077.64328
G0 F9000 X131.323 Y125.444
G1 F2700 X130.424 Y126.344 E2077.69617
G0 F9000 X130.424 Y127.228
G1 F2700 X131.323 Y126.328 E2077.74906
G0 F9000 X131.323 Y127.212
G1 F2700 X130.424 Y128.112 E2077.80195
G0 F9000 X130.424 Y128.996
G1 F2700 X131.323 Y128.096 E2077.85483
G0 F9000 X131.323 Y128.980
G1 F2700 X130.424 Y129.879 E2077.90769
G0 F9000 X130.424 Y130.763
G1 F2700 X131.323 Y129.864 E2077.96055
G0 F9000 X131.323 Y130.748
G1 F2700 X130.424 Y131.647 E2078.01341
G0 F9000 X130.424 Y132.531
G1 F2700 X131.323 Y131.632 E2078.06626
G0 F9000 X131.323 Y132.516
G1 F2700 X130.424 Y133.415 E2078.11912
G0 F9000 X130.424 Y134.299
G1 F2700 X131.323 Y133.399 E2078.17201
G0 F9000 X131.323 Y134.283
G1 F2700 X130.424 Y135.183 E2078.22490
G0 F9000 X130.424 Y136.067
G1 F2700 X131.323 Y135.167 E2078.27778
G0 F9000 X131.323 Y136.051
G1 F2700 X130.424 Y136.951 E2078.33067
G0 F9000 X130.424 Y137.834
G1 F2700 X131.323 Y136.935 E2078.38353
G0 F9000 X131.323 Y137.819
G1 F2700 X130.424 Y138.718 E2078.43639
G0 F9000 X130.424 Y139.602
G1 F2700 X131.323 Y138.703 E2078.48924
G0 F9000 X131.323 Y139.587
G1 F2700 X130.424 Y140.486 E2078.54210
G0 F9000 X130.424 Y141.370
G1 F2700 X131.323 Y140.471 E2078.59496
G0 F9000 X131.323 Y141.354
G1 F2700 X130.424 Y142.254 E2078.64785
G0 F9000 X130.424 Y143.138
G1 F2700 X131.323 Y142.238 E2078.70073
G0 F9000 X131.323 Y143.122
G1 F2700 X130.424 Y144.022 E2078.75362
G0 F9000 X130.424 Y144.905
G1 F2700 X131.323 Y144.006 E2078.80648
G0 F9000 X131.323 Y144.890
G1 F2700 X130.424 Y145.789 E2078.85934
G0 F9000 X130.424 Y146.673
G1 F2700 X131.323 Y145.774 E2078.91219
G0 F9000 X131.323 Y146.658
G1 F2700 X130.424 Y147.557 E2078.96505
G0 F9000 X130.424 Y148.441
G1 F2700 X131.323 Y147.542 E2079.01791
G0 F9000 X131.323 Y148.425
G1 F2700 X130.424 Y149.325 E2079.07080
G0 F9000 X130.424 Y150.209
G1 F2700 X131.323 Y149.309 E2079.12368
G0 F9000 X131.323 Y150.193
G1 F2700 X130.424 Y151.093 E2079.17657
G0 F9000 X130.424 Y151.977
G1 F2700 X131.323 Y151.077 E2079.22946
G0 F9000 X131.323 Y151.961
G1 F2700 X130.425 Y152.860 E2079.28229
G0 F9000 X130.425 Y153.744
G1 F2700 X131.324 Y152.844 E2079.33517
G0 F9000 X131.324 Y153.728
G1 F2700 X130.425 Y154.627 E2079.38803
G0 F9000 X130.425 Y155.511
G1 F2700 X131.324 Y154.612 E2079.44089
G0 F9000 X131.324 Y155.496
G1 F2700 X130.425 Y156.395 E2079.49375
G0 F9000 X130.425 Y157.279
G1 F2700 X131.324 Y156.380 E2079.54660
G0 F9000 X131.324 Y157.264
G1 F2700 X130.425 Y158.163 E2079.59946
G0 F9000 X130.425 Y159.047
G1 F2700 X131.324 Y158.147 E2079.65235
G0 F9000 X131.324 Y159.031
G1 F2700 X130.425 Y159.931 E2079.70524
G0 F9000 X130.425 Y160.815
G1 F2700 X131.324 Y159.915 E2079.75812
G0 F9000 X131.324 Y160.799
G1 F2700 X130.425 Y161.699 E2079.81101
G0 F9000 X130.425 Y162.582
G1 F2700 X131.324 Y161.683 E2079.86387
G0 F9000 X131.324 Y162.567
G1 F2700 X130.425 Y163.466 E2079.91673
G0 F9000 X130.425 Y164.350
G1 F2700 X131.324 Y163.451 E2079.96958
G0 F9000 X131.324 Y164.335
G1 F2700 X130.425 Y165.234 E2080.02244
G0 F9000 X130.425 Y166.118
G1 F2700 X131.324 Y165.219 E2080.07530
G0 F9000 X131.324 Y166.102
G1 F2700 X130.425 Y167.002 E2080.12819
G0 F9000 X130.425 Y167.886
G1 F2700 X131.324 Y166.986 E2080.18107
G0 F9000 X131.324 Y167.870
G1 F2700 X130.425 Y168.770 E2080.23396
G0 F9000 X130.425 Y169.654
G1 F2700 X131.324 Y168.754 E2080.28685
G0 F9000 X131.324 Y169.638
G1 F2700 X130.425 Y170.537 E2080.33971
G0 F9000 X130.425 Y171.421
G1 F2700 X131.324 Y170.522 E2080.39256
G0 F9000 X131.324 Y171.406
G1 F2700 X130.425 Y172.305 E2080.44542
G0 F9000 X130.425 Y173.189
G1 F2700 X131.324 Y172.290 E2080.49828
G0 F9000 X131.324 Y173.173
G1 F2700 X130.425 Y174.073 E2080.55117
G0 F9000 X130.425 Y174.957
G1 F2700 X131.324 Y174.057 E2080.60405
G0 F9000 X131.324 Y174.941
G1 F2700 X130.425 Y175.841 E2080.65694
G0 F9000 X130.425 Y176.725
G1 F2700 X131.324 Y175.825 E2080.70983
G0 F9000 X131.324 Y176.709
G1 F2700 X130.425 Y177.608 E2080.76269
G0 F9000 X130.425 Y178.492
G1 F2700 X131.324 Y177.593 E2080.81554
G0 F9000 X131.324 Y178.477
G1 F2700 X130.425 Y179.376 E2080.86840
G0 F9000 X130.425 Y180.260
G1 F2700 X131.324 Y179.361 E2080.92126
G0 F9000 X131.324 Y180.245
G1 F2700 X130.425 Y181.144 E2080.97412
G0 F9000 X130.425 Y182.028
G1 F2700 X131.324 Y181.128 E2081.02700
G0 F9000 X131.324 Y182.012
G1 F2700 X130.425 Y182.912 E2081.07989
G0 F9000 X130.425 Y183.796
G1 F2700 X131.324 Y182.896 E2081.13278
G0 F9000 X131.324 Y183.780
G1 F2700 X130.425 Y184.680 E2081.18567
G0 F9000 X130.425 Y185.563
G1 F2700 X131.324 Y184.664 E2081.23852
G0 F9000 X131.324 Y185.548
G1 F2700 X130.425 Y186.447 E2081.29138
G0 F9000 X130.425 Y187.331
G1 F2700 X131.324 Y186.432 E2081.34424
G0 F9000 X131.324 Y187.316
G1 F2700 X130.425 Y188.215 E2081.39710
G0 F9000 X130.425 Y189.099
G1 F2700 X131.324 Y188.200 E2081.44995
G0 F9000 X131.324 Y189.083
G1 F2700 X130.425 Y189.983 E2081.50284
G0 F9000 X130.425 Y190.867
G1 F2700 X131.324 Y189.967 E2081.55573
G0 F9000 X131.502 Y190.674
G1 F2700 X130.601 Y191.574 E2081.60867
G0 F9000 X131.485 Y191.574
G1 F2700 X132.385 Y190.674 E2081.66159
G0 F9000 X133.269 Y190.674
