;-- START GCODE --
;Sliced for Type A Machines Series 1
;Sliced at: Fri 09-10-2020 03:39:32
;Basic settings: Layer height: 0.2 Walls: 1 Fill: 20
;Print Speed: 45 Support: 0
;Retraction Speed: 40 Retraction Distance: 0.6
;Print time: 40 minutes
;Filament used: 2.099m 6.0g
;Settings based on: Type A Machines ProMatte
G21        ;metric values
G90        ;absolute positioning
G28     ;move to endstops
G29		;allows for auto-levelling
G1 Z15.0 F12000 ;move the platform down 15mm
G1 X150 Y5 F9000 ;center
M140 S50 ;Prep Heat Bed
M109 S210 ;Heat To temp
M190 S50 ;Heat Bed to temp
G1 X150 Y5 Z0.3 ;move the platform to purge extrusion
G92 E0 ;zero the extruded length
G1 F200 X250 E30 ;extrude 30mm of feed stock
G92 E0 ;zero the extruded length again
G1 X150 Y150  Z25 F12000 ;recenter and begin
G1 F9000

;Layer count: 125
;LAYER:0
M107
G0 F9000 X125.485 Y144.266 Z0.200
;TYPE:SKIRT
G1 F1800 X126.230 Y143.693 E0.03908
G1 X126.986 Y143.211 E0.07635
G1 X127.471 Y142.945 E0.09935
G1 X128.284 Y142.566 E0.13664
G1 X129.165 Y142.245 E0.17562
G1 X130.070 Y142.002 E0.21458
G1 X130.996 Y141.839 E0.25367
G1 X131.915 Y141.759 E0.29203
G1 X133.089 Y141.750 E0.34084
G1 X172.569 Y141.750 E1.98222
G1 X173.523 Y141.785 E2.02191
G1 X174.465 Y141.910 E2.06142
G1 X175.381 Y142.112 E2.10042
G1 X176.275 Y142.394 E2.13939
G1 X177.142 Y142.753 E2.17841
G1 X177.973 Y143.186 E2.21736
G1 X178.764 Y143.689 E2.25633
G1 X179.512 Y144.262 E2.29551
G1 X180.202 Y144.896 E2.33447
G1 X180.834 Y145.585 E2.37334
G1 X181.406 Y146.329 E2.41235
G1 X181.911 Y147.120 E2.45137
G1 X182.346 Y147.956 E2.49055
G1 X182.704 Y148.821 E2.52947
G1 X182.986 Y149.715 E2.56845
G1 X183.188 Y150.631 E2.60744
G1 X183.311 Y151.562 E2.64649
G1 X183.351 Y152.492 E2.68519
G1 X183.314 Y153.428 E2.72413
G1 X183.190 Y154.365 E2.76343
G1 X182.988 Y155.281 E2.80243
G1 X182.706 Y156.175 E2.84140
G1 X182.348 Y157.040 E2.88032
G1 X181.914 Y157.874 E2.91941
G1 X181.410 Y158.665 E2.95840
G1 X180.838 Y159.412 E2.99752
G1 X180.204 Y160.102 E3.03648
G1 X179.515 Y160.734 E3.07535
G1 X178.770 Y161.307 E3.11442
G1 X178.014 Y161.789 E3.15170
G1 X177.529 Y162.055 E3.17469
G1 X176.716 Y162.434 E3.21199
G1 X175.835 Y162.755 E3.25097
G1 X174.930 Y162.998 E3.28993
G1 X174.004 Y163.161 E3.32902
G1 X173.085 Y163.241 E3.36737
G1 X171.912 Y163.250 E3.41614
G1 X132.432 Y163.250 E5.05753
G1 X131.477 Y163.215 E5.09726
G1 X130.535 Y163.090 E5.13677
G1 X129.619 Y162.888 E5.17576
G1 X128.725 Y162.606 E5.21474
G1 X127.858 Y162.247 E5.25375
G1 X127.027 Y161.814 E5.29271
G1 X126.236 Y161.311 E5.33168
G1 X125.488 Y160.738 E5.37086
G1 X124.798 Y160.104 E5.40981
G1 X124.166 Y159.415 E5.44868
G1 X123.594 Y158.671 E5.48770
G1 X123.089 Y157.880 E5.52672
G1 X122.654 Y157.044 E5.56590
G1 X122.296 Y156.179 E5.60482
G1 X122.014 Y155.285 E5.64379
G1 X121.812 Y154.369 E5.68279
G1 X121.689 Y153.438 E5.72183
G1 X121.649 Y152.508 E5.76053
G1 X121.686 Y151.572 E5.79948
G1 X121.810 Y150.635 E5.83877
G1 X122.012 Y149.719 E5.87777
G1 X122.294 Y148.825 E5.91675
G1 X122.652 Y147.960 E5.95567
G1 X123.086 Y147.126 E5.99475
G1 X123.590 Y146.335 E6.03375
G1 X124.162 Y145.588 E6.07286
G1 X124.796 Y144.898 E6.11182
G1 X125.485 Y144.266 E6.15069
G0 F9000 X125.807 Y144.649
G1 F1800 X126.517 Y144.103 E6.18793
G1 X127.241 Y143.642 E6.22362
G1 X127.697 Y143.391 E6.24526
G1 X128.476 Y143.028 E6.28099
G1 X129.315 Y142.723 E6.31810
G1 X130.179 Y142.491 E6.35529
G1 X131.061 Y142.336 E6.39253
G1 X131.939 Y142.259 E6.42917
G1 X133.091 Y142.250 E6.47707
G1 X172.560 Y142.250 E8.11800
G1 X173.481 Y142.284 E8.15631
G1 X174.378 Y142.402 E8.19393
G1 X175.251 Y142.596 E8.23111
G1 X176.104 Y142.865 E8.26829
G1 X176.930 Y143.206 E8.30544
G1 X177.723 Y143.619 E8.34262
G1 X178.477 Y144.099 E8.37978
G1 X179.190 Y144.646 E8.41714
G1 X179.848 Y145.250 E8.45427
G1 X180.451 Y145.907 E8.49135
G1 X180.996 Y146.616 E8.52853
G1 X181.478 Y147.371 E8.56577
G1 X181.892 Y148.167 E8.60307
G1 X182.233 Y148.992 E8.64019
G1 X182.502 Y149.845 E8.67737
G1 X182.696 Y150.718 E8.71455
G1 X182.813 Y151.605 E8.75175
G1 X182.851 Y152.493 E8.78870
G1 X182.816 Y153.385 E8.82581
G1 X182.698 Y154.278 E8.86326
G1 X182.504 Y155.151 E8.90044
G1 X182.235 Y156.004 E8.93763
G1 X181.894 Y156.829 E8.97474
G1 X181.481 Y157.624 E9.01199
G1 X181.000 Y158.378 E9.04917
G1 X180.454 Y159.090 E9.08648
G1 X179.850 Y159.748 E9.12361
G1 X179.193 Y160.351 E9.16069
G1 X178.483 Y160.897 E9.19792
G1 X177.759 Y161.358 E9.23361
G1 X177.303 Y161.609 E9.25525
G1 X176.524 Y161.972 E9.29098
G1 X175.685 Y162.277 E9.32809
G1 X174.821 Y162.509 E9.36529
G1 X173.939 Y162.664 E9.40252
G1 X173.061 Y162.741 E9.43916
G1 X171.910 Y162.750 E9.48702
G1 X132.441 Y162.750 E11.12795
G1 X131.519 Y162.716 E11.16630
G1 X130.622 Y162.598 E11.20392
G1 X129.749 Y162.404 E11.24110
G1 X128.896 Y162.135 E11.27828
G1 X128.070 Y161.794 E11.31544
G1 X127.277 Y161.381 E11.35261
G1 X126.523 Y160.901 E11.38977
G1 X125.810 Y160.354 E11.42713
G1 X125.152 Y159.750 E11.46427
G1 X124.549 Y159.093 E11.50134
G1 X124.004 Y158.384 E11.53852
G1 X123.522 Y157.629 E11.57576
G1 X123.108 Y156.833 E11.61306
G1 X122.767 Y156.008 E11.65018
G1 X122.498 Y155.155 E11.68736
G1 X122.304 Y154.282 E11.72454
G1 X122.187 Y153.395 E11.76174
G1 X122.149 Y152.507 E11.79869
G1 X122.184 Y151.615 E11.83581
G1 X122.302 Y150.722 E11.87326
G1 X122.496 Y149.849 E11.91044
G1 X122.765 Y148.996 E11.94762
G1 X123.106 Y148.171 E11.98474
G1 X123.519 Y147.376 E12.02198
G1 X124.000 Y146.622 E12.05916
G1 X124.546 Y145.910 E12.09647
G1 X125.150 Y145.252 E12.13360
G1 X125.807 Y144.649 E12.17068
G1 F2400 E11.57068
G1 Z0.700
G0 F9000 X128.383 Y147.714
;TYPE:WALL-INNER
G1 Z0.200
G1 F2400 E12.17068
G1 F1800 X128.814 Y147.383 E12.19327
G1 X129.285 Y147.083 E12.21649
G1 X130.006 Y146.728 E12.24990
G1 X130.529 Y146.538 E12.27303
G1 X131.037 Y146.402 E12.29490
G1 X131.589 Y146.305 E12.31820
G1 X132.126 Y146.258 E12.34061
G1 X133.110 Y146.250 E12.38152
G1 X172.499 Y146.250 E14.01913
G1 X173.135 Y146.273 E14.04559
G1 X173.691 Y146.347 E14.06890
G1 X174.213 Y146.462 E14.09113
G1 X174.737 Y146.628 E14.11398
G1 X175.235 Y146.833 E14.13637
G1 X175.724 Y147.089 E14.15932
G1 X176.185 Y147.381 E14.18201
G1 X176.610 Y147.708 E14.20430
G1 X177.017 Y148.081 E14.22725
G1 X177.386 Y148.483 E14.24994
G1 X177.723 Y148.922 E14.27295
G1 X178.011 Y149.373 E14.29519
G1 X178.262 Y149.856 E14.31783
G1 X178.470 Y150.359 E14.34046
G1 X178.636 Y150.883 E14.36331
G1 X178.751 Y151.405 E14.38553
G1 X178.825 Y151.962 E14.40889
G1 X178.848 Y152.498 E14.43120
G1 X178.827 Y153.035 E14.45354
G1 X178.753 Y153.591 E14.47686
G1 X178.638 Y154.113 E14.49908
G1 X178.472 Y154.637 E14.52193
G1 X178.264 Y155.140 E14.54456
G1 X178.017 Y155.615 E14.56682
G1 X177.715 Y156.090 E14.59022
G1 X177.392 Y156.510 E14.61225
G1 X177.019 Y156.917 E14.63520
G1 X176.617 Y157.286 E14.65789
G1 X176.186 Y157.617 E14.68048
G1 X175.715 Y157.917 E14.70370
G1 X174.994 Y158.272 E14.73711
G1 X174.471 Y158.462 E14.76025
G1 X173.963 Y158.598 E14.78211
G1 X173.411 Y158.695 E14.80541
G1 X172.874 Y158.742 E14.82782
G1 X171.891 Y158.750 E14.86869
G1 X132.501 Y158.750 E16.50634
G1 X131.865 Y158.727 E16.53280
G1 X131.309 Y158.653 E16.55612
G1 X130.787 Y158.538 E16.57834
G1 X130.263 Y158.372 E16.60119
G1 X129.765 Y158.167 E16.62358
G1 X129.276 Y157.911 E16.64653
G1 X128.815 Y157.619 E16.66922
G1 X128.390 Y157.292 E16.69151
G1 X127.983 Y156.919 E16.71446
G1 X127.613 Y156.516 E16.73721
G1 X127.277 Y156.078 E16.76016
G1 X126.989 Y155.627 E16.78241
G1 X126.738 Y155.144 E16.80504
G1 X126.530 Y154.641 E16.82767
G1 X126.364 Y154.117 E16.85052
G1 X126.249 Y153.595 E16.87274
G1 X126.175 Y153.038 E16.89610
G1 X126.152 Y152.498 E16.91858
G1 X126.173 Y151.965 E16.94075
G1 X126.247 Y151.409 E16.96407
G1 X126.362 Y150.887 E16.98629
G1 X126.528 Y150.363 E17.00915
G1 X126.736 Y149.860 E17.03178
G1 X126.983 Y149.385 E17.05404
G1 X127.285 Y148.910 E17.07744
G1 X127.610 Y148.487 E17.09961
G1 X127.981 Y148.083 E17.12242
G1 X128.383 Y147.714 E17.14511
G1 F2400 E16.54511
G1 Z0.700
G0 F9000 X129.699 Y149.550
G1 Z0.200
G1 F2400 E17.14511
G1 F1800 X129.336 Y149.929 E17.16692
G1 X129.026 Y150.351 E17.18869
G1 X128.775 Y150.810 E17.21044
G1 X128.586 Y151.295 E17.23208
G1 X128.462 Y151.804 E17.25387
G1 X128.416 Y152.154 E17.26854
G1 X128.401 Y152.500 E17.28294
G1 X128.434 Y153.022 E17.30469
G1 X128.536 Y153.534 E17.32639
G1 X128.704 Y154.029 E17.34812
G1 X128.935 Y154.498 E17.36986
G1 X129.227 Y154.935 E17.39171
G1 X129.450 Y155.201 E17.40614
G1 X129.829 Y155.564 E17.42796
G1 X130.251 Y155.874 E17.44973
G1 X130.710 Y156.125 E17.47148
G1 X131.198 Y156.315 E17.49325
G1 X131.704 Y156.438 E17.51490
G1 X132.054 Y156.484 E17.52958
G1 X132.401 Y156.500 E17.54402
G1 X132.923 Y156.466 E17.56577
G1 X133.435 Y156.364 E17.58747
G1 X133.769 Y156.259 E17.60203
G1 X134.247 Y156.048 E17.62375
G1 X134.696 Y155.776 E17.64558
G1 X135.102 Y155.450 E17.66722
G1 X135.465 Y155.071 E17.68904
G1 X135.775 Y154.649 E17.71081
G1 X136.026 Y154.190 E17.73256
G1 X136.215 Y153.705 E17.75420
G1 X136.339 Y153.196 E17.77598
G1 X136.385 Y152.846 E17.79066
G1 X136.401 Y152.500 E17.80506
G1 X136.367 Y151.978 E17.82681
G1 X136.265 Y151.466 E17.84851
G1 X136.097 Y150.971 E17.87025
G1 X135.866 Y150.502 E17.89198
G1 X135.574 Y150.065 E17.91383
G1 X135.351 Y149.799 E17.92826
G1 X134.972 Y149.436 E17.95008
G1 X134.550 Y149.126 E17.97185
G1 X134.091 Y148.875 E17.99360
G1 X133.603 Y148.685 E18.01537
G1 X133.097 Y148.562 E18.03702
G1 X132.915 Y148.533 E18.04469
G1 X132.584 Y148.505 E18.05850
G1 X132.379 Y148.499 E18.06702
G1 X131.729 Y148.557 E18.09415
G1 X131.366 Y148.636 E18.10960
G1 X131.032 Y148.741 E18.12416
G1 X130.554 Y148.952 E18.14588
G1 X130.105 Y149.224 E18.16770
G1 X129.699 Y149.550 E18.18935
G1 F2400 E17.58935
G1 Z0.700
G0 F9000 X168.615 Y152.154
G1 Z0.200
G1 F2400 E18.18935
G1 F1800 X168.600 Y152.500 E18.20375
G1 X168.633 Y153.022 E18.22550
G1 X168.735 Y153.534 E18.24720
G1 X168.903 Y154.029 E18.26893
G1 X169.134 Y154.498 E18.29067
G1 X169.426 Y154.935 E18.31252
G1 X169.649 Y155.201 E18.32695
G1 X170.028 Y155.564 E18.34877
G1 X170.450 Y155.874 E18.37054
G1 X170.909 Y156.125 E18.39229
G1 X171.397 Y156.315 E18.41406
G1 X171.903 Y156.438 E18.43571
G1 X172.253 Y156.484 E18.45039
G1 X172.600 Y156.500 E18.46483
G1 X173.122 Y156.466 E18.48658
G1 X173.634 Y156.364 E18.50828
G1 X173.968 Y156.259 E18.52284
G1 X174.447 Y156.047 E18.54462
G1 X174.895 Y155.776 E18.56638
G1 X175.301 Y155.450 E18.58803
G1 X175.664 Y155.071 E18.60985
G1 X175.974 Y154.649 E18.63162
G1 X176.225 Y154.190 E18.65337
G1 X176.414 Y153.705 E18.67501
G1 X176.538 Y153.196 E18.69679
G1 X176.584 Y152.846 E18.71147
G1 X176.599 Y152.500 E18.72587
G1 X176.566 Y151.978 E18.74761
G1 X176.464 Y151.466 E18.76932
G1 X176.296 Y150.971 E18.79105
G1 X176.065 Y150.502 E18.81279
G1 X175.773 Y150.065 E18.83464
G1 X175.550 Y149.799 E18.84907
G1 X175.171 Y149.436 E18.87089
G1 X174.895 Y149.224 E18.88536
G1 X174.447 Y148.953 E18.90712
G1 X173.968 Y148.741 E18.92890
G1 X173.464 Y148.595 E18.95072
G1 X173.114 Y148.533 E18.96549
G1 X172.783 Y148.505 E18.97931
G1 X172.578 Y148.499 E18.98783
G1 X171.928 Y148.557 E19.01496
G1 X171.565 Y148.636 E19.03041
G1 X171.231 Y148.741 E19.04496
G1 X170.753 Y148.952 E19.06669
G1 X170.304 Y149.224 E19.08851
G1 X169.898 Y149.550 E19.11016
G1 X169.535 Y149.929 E19.13198
G1 X169.225 Y150.351 E19.15375
G1 X168.974 Y150.810 E19.17550
G1 X168.785 Y151.295 E19.19714
G1 X168.661 Y151.804 E19.21892
G1 X168.615 Y152.154 E19.23360
G0 F9000 X169.113 Y152.196
;TYPE:WALL-OUTER
G1 F1800 X169.100 Y152.500 E19.24625
G1 X169.153 Y153.108 E19.27162
G1 X169.218 Y153.405 E19.28426
G1 X169.427 Y153.979 E19.30966
G1 X169.732 Y154.508 E19.33504
G1 X170.124 Y154.975 E19.36039
G1 X170.349 Y155.181 E19.37308
G1 X170.850 Y155.531 E19.39848
G1 X171.402 Y155.789 E19.42382
G1 X171.694 Y155.881 E19.43655
G1 X172.295 Y155.986 E19.46191
G1 X172.600 Y156.000 E19.47460
G1 X173.208 Y155.946 E19.49998
G1 X173.505 Y155.881 E19.51262
G1 X174.079 Y155.672 E19.53802
G1 X174.608 Y155.367 E19.56341
G1 X175.075 Y154.975 E19.58875
G1 X175.281 Y154.750 E19.60144
G1 X175.631 Y154.249 E19.62685
G1 X175.888 Y153.697 E19.65216
G1 X175.981 Y153.405 E19.66490
G1 X176.086 Y152.804 E19.69027
G1 X176.099 Y152.500 E19.70292
G1 X176.046 Y151.892 E19.72829
G1 X175.981 Y151.595 E19.74093
G1 X175.772 Y151.021 E19.76633
G1 X175.467 Y150.492 E19.79171
G1 X175.075 Y150.025 E19.81706
G1 X174.850 Y149.819 E19.82975
G1 X174.348 Y149.469 E19.85519
G1 X173.797 Y149.211 E19.88048
G1 X173.505 Y149.119 E19.89321
G1 X173.054 Y149.030 E19.91232
G1 X172.755 Y149.004 E19.92480
G1 X172.593 Y149.000 E19.93154
G1 X171.999 Y149.052 E19.95633
G1 X171.694 Y149.119 E19.96931
G1 X171.120 Y149.328 E19.99471
G1 X170.591 Y149.633 E20.02010
G1 X170.124 Y150.025 E20.04544
G1 X169.918 Y150.250 E20.05813
G1 X169.568 Y150.751 E20.08354
G1 X169.311 Y151.303 E20.10885
G1 X169.218 Y151.595 E20.12159
G1 X169.113 Y152.196 E20.14696
G1 F2400 E19.54696
G1 Z0.700
G0 F9000 X172.491 Y145.750
G1 Z0.200
G1 F2400 E20.14696
G1 F1800 X173.187 Y145.776 E20.17591
G1 X173.773 Y145.853 E20.20049
G1 X174.348 Y145.981 E20.22498
G1 X174.904 Y146.156 E20.24921
G1 X175.443 Y146.379 E20.27346
G1 X175.977 Y146.657 E20.29849
G1 X176.473 Y146.972 E20.32292
G1 X176.935 Y147.327 E20.34714
G1 X177.371 Y147.727 E20.37174
G1 X177.771 Y148.163 E20.39634
G1 X178.126 Y148.624 E20.42053
G1 X178.442 Y149.119 E20.44495
G1 X178.717 Y149.648 E20.46974
G1 X178.942 Y150.192 E20.49421
G1 X179.117 Y150.745 E20.51833
G1 X179.245 Y151.323 E20.54294
G1 X179.322 Y151.909 E20.56751
G1 X179.348 Y152.498 E20.59202
G1 X179.325 Y153.079 E20.61620
G1 X179.247 Y153.673 E20.64110
G1 X179.119 Y154.248 E20.66560
G1 X178.945 Y154.801 E20.68970
G1 X178.721 Y155.345 E20.71416
G1 X178.449 Y155.868 E20.73867
G1 X178.128 Y156.373 E20.76354
G1 X177.777 Y156.831 E20.78753
G1 X177.373 Y157.271 E20.81237
G1 X176.937 Y157.671 E20.83697
G1 X176.476 Y158.026 E20.86116
G1 X175.980 Y158.342 E20.88561
G1 X175.726 Y158.482 E20.89767
G1 X175.181 Y158.736 E20.92267
G1 X174.624 Y158.939 E20.94731
G1 X174.064 Y159.089 E20.97142
G1 X173.485 Y159.191 E20.99586
G1 X172.896 Y159.242 E21.02044
G1 X171.895 Y159.250 E21.06206
G1 X132.510 Y159.250 E22.69949
G1 X131.813 Y159.224 E22.72849
G1 X131.227 Y159.147 E22.75306
G1 X130.652 Y159.019 E22.77755
G1 X130.096 Y158.844 E22.80179
G1 X129.557 Y158.621 E22.82604
G1 X129.021 Y158.342 E22.85116
G1 X128.527 Y158.028 E22.87550
G1 X128.065 Y157.673 E22.89972
G1 X127.629 Y157.273 E22.92432
G1 X127.229 Y156.837 E22.94892
G1 X126.874 Y156.376 E22.97311
G1 X126.556 Y155.877 E22.99771
G1 X126.283 Y155.352 E23.02231
G1 X126.058 Y154.808 E23.04679
G1 X125.883 Y154.252 E23.07102
G1 X125.755 Y153.677 E23.09551
G1 X125.678 Y153.091 E23.12009
G1 X125.652 Y152.500 E23.14468
G1 X125.676 Y151.913 E23.16911
G1 X125.753 Y151.327 E23.19368
G1 X125.881 Y150.751 E23.21821
G1 X126.056 Y150.196 E23.24240
G1 X126.281 Y149.652 E23.26688
G1 X126.554 Y149.126 E23.29152
G1 X126.872 Y148.627 E23.31612
G1 X127.227 Y148.165 E23.34034
G1 X127.627 Y147.729 E23.36494
G1 X128.063 Y147.329 E23.38954
G1 X128.524 Y146.974 E23.41373
G1 X129.020 Y146.658 E23.43818
G1 X129.274 Y146.518 E23.45024
G1 X129.819 Y146.264 E23.47524
G1 X130.376 Y146.061 E23.49988
G1 X130.936 Y145.911 E23.52399
G1 X131.515 Y145.809 E23.54843
G1 X132.104 Y145.758 E23.57301
G1 X133.106 Y145.750 E23.61467
G1 X172.491 Y145.750 E25.25211
G1 F2400 E24.65211
G1 Z0.700
G0 F9000 X135.847 Y151.892
G1 Z0.200
G1 F2400 E25.25211
G1 F1800 X135.782 Y151.595 E25.26475
G1 X135.573 Y151.021 E25.29014
G1 X135.268 Y150.492 E25.31553
G1 X134.876 Y150.025 E25.34088
G1 X134.651 Y149.819 E25.35356
G1 X134.150 Y149.469 E25.37897
G1 X133.598 Y149.211 E25.40430
G1 X133.306 Y149.119 E25.41703
G1 X132.855 Y149.030 E25.43614
G1 X132.556 Y149.004 E25.44862
G1 X132.394 Y149.000 E25.45536
G1 X131.800 Y149.052 E25.48015
G1 X131.495 Y149.119 E25.49313
G1 X130.921 Y149.328 E25.51853
G1 X130.392 Y149.633 E25.54392
G1 X129.925 Y150.025 E25.56927
G1 X129.719 Y150.250 E25.58195
G1 X129.369 Y150.751 E25.60736
G1 X129.112 Y151.303 E25.63267
G1 X129.019 Y151.595 E25.64541
G1 X128.914 Y152.196 E25.67078
G1 X128.901 Y152.500 E25.68343
G1 X128.954 Y153.108 E25.70880
G1 X129.019 Y153.405 E25.72144
G1 X129.228 Y153.979 E25.74684
G1 X129.533 Y154.508 E25.77223
G1 X129.925 Y154.975 E25.79757
G1 X130.150 Y155.181 E25.81026
G1 X130.651 Y155.531 E25.83567
G1 X131.203 Y155.789 E25.86100
G1 X131.495 Y155.881 E25.87373
G1 X132.096 Y155.986 E25.89909
G1 X132.401 Y156.000 E25.91179
G1 X133.009 Y155.946 E25.93716
G1 X133.306 Y155.881 E25.94980
G1 X133.880 Y155.672 E25.97520
G1 X134.409 Y155.367 E26.00059
G1 X134.876 Y154.975 E26.02594
G1 X135.082 Y154.750 E26.03862
G1 X135.432 Y154.249 E26.06403
G1 X135.689 Y153.697 E26.08934
G1 X135.782 Y153.405 E26.10208
G1 X135.887 Y152.804 E26.12745
G1 X135.901 Y152.500 E26.14010
G1 X135.847 Y151.892 E26.16548
G0 F9000 X136.487 Y151.690
;TYPE:SKIN
G1 F1800 X143.369 Y158.572 E26.57011
G0 F9000 X142.662 Y158.572
G1 F1800 X136.574 Y152.484 E26.92806
G0 F9000 X136.522 Y153.139
G1 F1800 X141.955 Y158.572 E27.24750
G0 F9000 X141.248 Y158.572
G1 F1800 X136.391 Y153.715 E27.53308
G0 F9000 X136.198 Y154.229
G1 F1800 X140.541 Y158.572 E27.78843
G1 F2400 E27.18843
G1 Z0.700
G0 F9000 X144.076 Y158.572
G1 Z0.200
G1 F2400 E27.78843
G1 F1800 X136.114 Y150.610 E28.25656
G1 F2400 E27.65656
G1 Z0.700
G0 F9000 X134.285 Y148.781
G1 Z0.200
G1 F2400 E28.25656
G1 F1800 X131.952 Y146.448 E28.39373
G0 F9000 X131.325 Y146.528
G1 F1800 X133.204 Y148.407 E28.50421
G0 F9000 X132.414 Y148.324
G1 F1800 X130.748 Y146.658 E28.60217
G0 F9000 X130.218 Y146.835
G1 F1800 X131.760 Y148.377 E28.69283
G0 F9000 X131.185 Y148.509
G1 F1800 X129.732 Y147.056 E28.77826
G0 F9000 X129.269 Y147.300
G1 F1800 X130.675 Y148.706 E28.86093
G0 F9000 X130.214 Y148.952
G1 F1800 X128.842 Y147.580 E28.94160
G0 F9000 X128.448 Y147.893
G1 F1800 X129.798 Y149.244 E29.02100
G0 F9000 X129.427 Y149.579
G1 F1800 X128.080 Y148.232 E29.10020
G0 F9000 X127.741 Y148.601
G1 F1800 X129.097 Y149.956 E29.17990
G0 F9000 X128.811 Y150.378
G1 F1800 X127.434 Y149.000 E29.26089
G0 F9000 X127.159 Y149.432
G1 F1800 X128.573 Y150.847 E29.34406
G0 F9000 X128.387 Y151.368
G1 F1800 X126.914 Y149.895 E29.43066
G0 F9000 X126.704 Y150.392
G1 F1800 X128.266 Y151.954 E29.52250
G0 F9000 X128.234 Y152.629
G1 F1800 X126.531 Y150.926 E29.62263
G0 F9000 X126.409 Y151.511
G1 F1800 X128.340 Y153.442 E29.73617
G0 F9000 X128.800 Y154.609
G1 F1800 X126.340 Y152.150 E29.88078
G0 F9000 X126.343 Y152.859
G1 F1800 X132.040 Y158.556 E30.21574
G0 F9000 X132.764 Y158.573
G1 F1800 X130.277 Y156.086 E30.36197
G0 F9000 X131.454 Y156.556
G1 F1800 X133.471 Y158.573 E30.48056
G0 F9000 X134.178 Y158.573
G1 F1800 X132.273 Y156.668 E30.59256
G0 F9000 X132.949 Y156.637
G1 F1800 X134.885 Y158.573 E30.70639
G0 F9000 X135.592 Y158.573
G1 F1800 X133.534 Y156.515 E30.82740
G0 F9000 X134.051 Y156.325
G1 F1800 X136.299 Y158.573 E30.95957
G0 F9000 X137.006 Y158.572
G1 F1800 X134.519 Y156.086 E31.10577
G0 F9000 X134.942 Y155.802
G1 F1800 X137.713 Y158.572 E31.26866
G0 F9000 X138.420 Y158.572
G1 F1800 X135.320 Y155.472 E31.45093
G0 F9000 X135.657 Y155.103
G1 F1800 X139.127 Y158.572 E31.65492
G0 F9000 X139.834 Y158.572
G1 F1800 X135.951 Y154.689 E31.88323
G1 F2400 E31.28323
G1 Z0.700
G0 F9000 X131.231 Y158.455
G1 Z0.200
G1 F2400 E31.88323
G1 F1800 X126.443 Y153.667 E32.16474
G0 F9000 X126.725 Y154.656
G1 F1800 X130.244 Y158.174 E32.37162
G1 F2400 E31.77162
G1 Z0.700
G0 F9000 X128.573 Y157.211
G1 Z0.200
G1 F2400 E32.37162
G1 F1800 X127.687 Y156.325 E32.42371
G1 F2400 E31.82371
G1 Z0.700
G0 F9000 X132.643 Y146.431
G1 Z0.200
G1 F2400 E32.42371
G1 F1800 X144.782 Y158.571 E33.13747
G0 F9000 X145.490 Y158.571
G1 F1800 X133.350 Y146.431 E33.85125
G0 F9000 X134.057 Y146.431
G1 F1800 X146.197 Y158.571 E34.56504
G0 F9000 X146.904 Y158.571
G1 F1800 X134.764 Y146.431 E35.27882
G0 F9000 X135.471 Y146.431
G1 F1800 X147.611 Y158.571 E35.99261
G0 F9000 X148.318 Y158.571
G1 F1800 X136.178 Y146.431 E36.70640
G0 F9000 X136.885 Y146.431
G1 F1800 X149.024 Y158.570 E37.42012
G0 F9000 X149.731 Y158.570
G1 F1800 X137.592 Y146.431 E38.13385
G0 F9000 X138.299 Y146.431
G1 F1800 X150.439 Y158.570 E38.84760
G0 F9000 X151.146 Y158.570
G1 F1800 X139.006 Y146.431 E39.56136
G0 F9000 X139.713 Y146.431
G1 F1800 X151.853 Y158.570 E40.27512
G0 F9000 X152.560 Y158.570
G1 F1800 X140.420 Y146.430 E40.98890
G0 F9000 X141.127 Y146.430
G1 F1800 X153.266 Y158.570 E41.70266
G0 F9000 X153.973 Y158.570
G1 F1800 X141.834 Y146.430 E42.41641
G0 F9000 X142.541 Y146.430
G1 F1800 X154.681 Y158.570 E43.13020
G0 F9000 X155.388 Y158.570
G1 F1800 X143.248 Y146.430 E43.84399
G0 F9000 X143.955 Y146.430
G1 F1800 X156.095 Y158.570 E44.55777
G0 F9000 X156.801 Y158.569
G1 F1800 X144.662 Y146.429 E45.27153
G0 F9000 X145.369 Y146.429
G1 F1800 X157.508 Y158.569 E45.98528
G0 F9000 X158.215 Y158.569
G1 F1800 X146.076 Y146.429 E46.69904
G0 F9000 X146.783 Y146.429
G1 F1800 X158.922 Y158.569 E47.41280
G0 F9000 X159.630 Y158.569
G1 F1800 X147.490 Y146.429 E48.12658
G0 F9000 X148.197 Y146.429
G1 F1800 X160.337 Y158.569 E48.84037
G0 F9000 X161.043 Y158.568
G1 F1800 X148.903 Y146.429 E49.55412
G0 F9000 X149.611 Y146.429
G1 F1800 X161.750 Y158.568 E50.26785
G0 F9000 X162.457 Y158.568
G1 F1800 X150.318 Y146.429 E50.98158
G0 F9000 X151.025 Y146.429
G1 F1800 X163.164 Y158.568 E51.69530
G0 F9000 X163.871 Y158.568
G1 F1800 X151.732 Y146.429 E52.40903
G0 F9000 X152.438 Y146.428
G1 F1800 X164.579 Y158.568 E53.12284
G0 F9000 X165.285 Y158.567
G1 F1800 X153.145 Y146.428 E53.83660
G0 F9000 X153.853 Y146.428
G1 F1800 X165.992 Y158.567 E54.55033
G0 F9000 X166.699 Y158.567
G1 F1800 X154.560 Y146.428 E55.26405
G0 F9000 X155.267 Y146.428
G1 F1800 X167.406 Y158.567 E55.97778
G0 F9000 X168.113 Y158.567
G1 F1800 X155.974 Y146.428 E56.69151
G0 F9000 X156.680 Y146.427
G1 F1800 X168.821 Y158.567 E57.40532
G0 F9000 X169.527 Y158.567
G1 F1800 X157.387 Y146.427 E58.11911
G0 F9000 X158.094 Y146.427
G1 F1800 X170.234 Y158.567 E58.83289
G0 F9000 X170.941 Y158.567
G1 F1800 X158.802 Y146.427 E59.54665
G0 F9000 X159.509 Y146.427
G1 F1800 X171.648 Y158.567 E60.26040
G0 F9000 X172.355 Y158.567
G1 F1800 X160.216 Y146.427 E60.97416
G0 F9000 X160.922 Y146.426
G1 F1800 X168.884 Y154.388 E61.44230
G0 F9000 X168.512 Y153.309
G1 F1800 X161.629 Y146.426 E61.84699
G0 F9000 X162.336 Y146.426
G1 F1800 X168.425 Y152.515 E62.20500
G0 F9000 X168.476 Y151.859
G1 F1800 X163.043 Y146.426 E62.52444
G0 F9000 X163.751 Y146.426
G1 F1800 X168.607 Y151.283 E62.80998
G0 F9000 X168.801 Y150.770
G1 F1800 X164.457 Y146.426 E63.06539
G0 F9000 X165.164 Y146.426
G1 F1800 X169.048 Y150.309 E63.29373
G0 F9000 X169.341 Y149.896
G1 F1800 X165.871 Y146.426 E63.49775
G0 F9000 X166.578 Y146.426
G1 F1800 X169.678 Y149.526 E63.68002
G0 F9000 X170.056 Y149.196
G1 F1800 X167.285 Y146.426 E63.84291
G0 F9000 X167.993 Y146.426
G1 F1800 X170.479 Y148.912 E63.98908
G0 F9000 X170.948 Y148.674
G1 F1800 X168.699 Y146.425 E64.12131
G0 F9000 X169.406 Y146.425
G1 F1800 X171.464 Y148.483 E64.24232
G0 F9000 X172.057 Y148.369
G1 F1800 X170.113 Y146.425 E64.35662
G0 F9000 X170.820 Y146.425
G1 F1800 X172.722 Y148.327 E64.46845
G0 F9000 X173.536 Y148.433
G1 F1800 X171.527 Y146.425 E64.58654
G0 F9000 X172.234 Y146.425
G1 F1800 X174.728 Y148.919 E64.73318
G1 F2400 E64.13318
G1 Z0.700
G0 F9000 X176.425 Y147.788
G1 Z0.200
G1 F2400 E64.73318
G1 F1800 X177.309 Y148.671 E64.78512
G1 F2400 E64.18512
G1 Z0.700
G0 F9000 X178.273 Y150.342
G1 Z0.200
G1 F2400 E64.78512
G1 F1800 X174.755 Y146.824 E64.99197
G0 F9000 X173.767 Y146.543
G1 F1800 X178.555 Y151.332 E65.27351
G0 F9000 X178.656 Y152.140
G1 F1800 X172.959 Y146.442 E65.60850
G1 F2400 E65.00850
G1 Z0.700
G0 F9000 X176.199 Y150.390
G1 Z0.200
G1 F2400 E65.60850
G1 F1800 X178.658 Y152.848 E65.75305
G0 F9000 X178.589 Y153.487
G1 F1800 X176.658 Y151.556 E65.86659
G0 F9000 X176.764 Y152.369
G1 F1800 X178.468 Y154.072 E65.96675
G0 F9000 X178.294 Y154.606
G1 F1800 X176.732 Y153.044 E66.05859
G0 F9000 X176.611 Y153.630
G1 F1800 X178.084 Y155.103 E66.14520
G0 F9000 X177.840 Y155.566
G1 F1800 X176.426 Y154.152 E66.22833
G0 F9000 X176.187 Y154.620
G1 F1800 X177.564 Y155.997 E66.30930
G0 F9000 X177.257 Y156.397
G1 F1800 X175.902 Y155.042 E66.38896
G0 F9000 X175.571 Y155.419
G1 F1800 X176.919 Y156.766 E66.46819
G0 F9000 X176.551 Y157.106
G1 F1800 X175.200 Y155.755 E66.54763
G0 F9000 X174.784 Y156.046
G1 F1800 X176.156 Y157.418 E66.62829
G0 F9000 X175.730 Y157.698
G1 F1800 X174.323 Y156.292 E66.71099
G0 F9000 X173.814 Y156.490
G1 F1800 X175.266 Y157.942 E66.79636
G0 F9000 X174.780 Y158.163
G1 F1800 X173.237 Y156.620 E66.88709
G0 F9000 X172.584 Y156.675
G1 F1800 X174.250 Y158.340 E66.98501
G0 F9000 X173.673 Y158.471
G1 F1800 X171.794 Y156.591 E67.09552
G0 F9000 X170.713 Y156.217
G1 F1800 X173.046 Y158.551 E67.23272
;LAYER:1
M106 S10
G0 F9000 X173.140 Y158.725 Z0.400
;TYPE:WALL-INNER
G1 F1980 X172.594 Y158.749 E67.25544
G1 X132.708 Y158.750 E68.91371
G1 X132.133 Y158.744 E68.93762
G1 X131.595 Y158.697 E68.96007
G1 X131.050 Y158.601 E68.98308
G1 X130.527 Y158.462 E69.00557
G1 X130.012 Y158.275 E69.02835
G1 X129.503 Y158.038 E69.05170
G1 X128.817 Y157.620 E69.08509
G1 X128.392 Y157.294 E69.10736
G1 X127.985 Y156.921 E69.13032
G1 X127.615 Y156.518 E69.15306
G1 X127.281 Y156.084 E69.17583
G1 X126.860 Y155.391 E69.20954
G1 X126.624 Y154.885 E69.23275
G1 X126.528 Y154.638 E69.24377
G1 X126.367 Y154.125 E69.26612
G1 X126.248 Y153.593 E69.28879
G1 X126.175 Y153.040 E69.31198
G1 X126.152 Y152.496 E69.33462
G1 X126.173 Y151.967 E69.35663
G1 X126.247 Y151.411 E69.37995
G1 X126.365 Y150.879 E69.40260
G1 X126.436 Y150.633 E69.41325
G1 X126.624 Y150.115 E69.43616
G1 X126.860 Y149.608 E69.45941
G1 X127.279 Y148.917 E69.49301
G1 X127.608 Y148.489 E69.51545
G1 X127.979 Y148.085 E69.53825
G1 X128.381 Y147.716 E69.56094
G1 X128.816 Y147.381 E69.58377
G1 X129.509 Y146.960 E69.61748
G1 X130.015 Y146.724 E69.64069
G1 X130.262 Y146.628 E69.65171
G1 X130.775 Y146.467 E69.67406
G1 X131.307 Y146.348 E69.69673
G1 X131.860 Y146.275 E69.71992
G1 X132.407 Y146.251 E69.74268
G1 X172.293 Y146.250 E71.40095
G1 X172.867 Y146.256 E71.42481
G1 X173.405 Y146.303 E71.44727
G1 X173.950 Y146.399 E71.47027
G1 X174.473 Y146.538 E71.49277
G1 X174.988 Y146.725 E71.51555
G1 X175.497 Y146.962 E71.53889
G1 X176.183 Y147.380 E71.57229
G1 X176.608 Y147.706 E71.59456
G1 X177.015 Y148.079 E71.61751
G1 X177.384 Y148.481 E71.64020
G1 X177.719 Y148.916 E71.66303
G1 X178.140 Y149.609 E71.69674
G1 X178.376 Y150.115 E71.71995
G1 X178.472 Y150.362 E71.73097
G1 X178.633 Y150.875 E71.75332
G1 X178.752 Y151.407 E71.77599
G1 X178.825 Y151.960 E71.79918
G1 X178.848 Y152.496 E71.82148
G1 X178.827 Y153.033 E71.84383
G1 X178.753 Y153.589 E71.86714
G1 X178.635 Y154.121 E71.88980
G1 X178.564 Y154.367 E71.90045
G1 X178.376 Y154.885 E71.92336
G1 X178.140 Y155.392 E71.94661
G1 X177.721 Y156.083 E71.98020
G1 X177.394 Y156.508 E72.00250
G1 X177.021 Y156.915 E72.02545
G1 X176.619 Y157.284 E72.04814
G1 X176.184 Y157.619 E72.07096
G1 X175.491 Y158.040 E72.10467
G1 X174.985 Y158.276 E72.12789
G1 X174.738 Y158.372 E72.13890
G1 X174.225 Y158.533 E72.16126
G1 X173.693 Y158.652 E72.18392
G1 X173.140 Y158.725 E72.20711
G1 F2400 E71.60711
G1 Z0.900
G0 F9000 X172.624 Y156.501
G1 Z0.400
G1 F2400 E72.20711
G1 F1980 X173.272 Y156.443 E72.23416
G1 X173.634 Y156.364 E72.24957
G1 X173.968 Y156.259 E72.26412
G1 X174.447 Y156.047 E72.28590
G1 X174.620 Y155.952 E72.29411
G1 X175.173 Y155.566 E72.32214
G1 X175.660 Y155.079 E72.35078
G1 X175.966 Y154.663 E72.37225
G1 X176.225 Y154.190 E72.39467
G1 X176.414 Y153.705 E72.41631
G1 X176.538 Y153.196 E72.43809
G1 X176.567 Y153.014 E72.44575
G1 X176.595 Y152.681 E72.45965
G1 X176.600 Y152.474 E72.46825
G1 X176.544 Y151.829 E72.49517
G1 X176.414 Y151.295 E72.51802
G1 X176.225 Y150.810 E72.53966
G1 X176.053 Y150.479 E72.55517
G1 X175.666 Y149.927 E72.58320
G1 X175.179 Y149.440 E72.61183
G1 X174.762 Y149.134 E72.63333
G1 X174.290 Y148.875 E72.65572
G1 X173.802 Y148.685 E72.67749
G1 X173.296 Y148.562 E72.69914
G1 X173.114 Y148.533 E72.70680
G1 X172.783 Y148.505 E72.72061
G1 X172.576 Y148.499 E72.72922
G1 X171.928 Y148.557 E72.75627
G1 X171.565 Y148.636 E72.77172
G1 X171.231 Y148.741 E72.78627
G1 X170.753 Y148.952 E72.80800
G1 X170.578 Y149.047 E72.81627
G1 X170.026 Y149.434 E72.84430
G1 X169.539 Y149.921 E72.87294
G1 X169.233 Y150.337 E72.89441
G1 X168.974 Y150.810 E72.91683
G1 X168.785 Y151.295 E72.93847
G1 X168.661 Y151.804 E72.96025
G1 X168.632 Y151.986 E72.96791
G1 X168.604 Y152.319 E72.98180
G1 X168.599 Y152.526 E72.99041
G1 X168.655 Y153.171 E73.01733
G1 X168.785 Y153.705 E73.04018
G1 X168.974 Y154.190 E73.06182
G1 X169.146 Y154.521 E73.07733
G1 X169.533 Y155.073 E73.10536
G1 X170.020 Y155.560 E73.13399
G1 X170.436 Y155.866 E73.15546
G1 X170.909 Y156.125 E73.17788
G1 X171.397 Y156.315 E73.19965
G1 X171.903 Y156.438 E73.22130
G1 X172.085 Y156.467 E73.22896
G1 X172.416 Y156.495 E73.24277
G1 X172.624 Y156.501 E73.25143
G1 F2400 E72.65143
G1 Z0.900
G0 F9000 X136.368 Y153.014
G1 Z0.400
G1 F2400 E73.25143
G1 F1980 X136.396 Y152.683 E73.26524
G1 X136.402 Y152.476 E73.27385
G1 X136.344 Y151.828 E73.30089
G1 X136.265 Y151.466 E73.31630
G1 X136.097 Y150.971 E73.33803
G1 X135.854 Y150.479 E73.36084
G1 X135.467 Y149.927 E73.38887
G1 X134.980 Y149.440 E73.41751
G1 X134.564 Y149.134 E73.43898
G1 X134.091 Y148.875 E73.46140
G1 X133.603 Y148.685 E73.48317
G1 X133.097 Y148.562 E73.50482
G1 X132.915 Y148.533 E73.51248
G1 X132.584 Y148.505 E73.52629
G1 X132.377 Y148.499 E73.53490
G1 X131.729 Y148.557 E73.56195
G1 X131.366 Y148.636 E73.57739
G1 X131.032 Y148.741 E73.59195
G1 X130.554 Y148.952 E73.61367
G1 X130.379 Y149.047 E73.62195
G1 X129.827 Y149.434 E73.64998
G1 X129.340 Y149.921 E73.67861
G1 X129.034 Y150.337 E73.70008
G1 X128.775 Y150.810 E73.72250
G1 X128.586 Y151.295 E73.74414
G1 X128.462 Y151.804 E73.76593
G1 X128.433 Y151.986 E73.77359
G1 X128.405 Y152.319 E73.78748
G1 X128.400 Y152.526 E73.79609
G1 X128.456 Y153.171 E73.82301
G1 X128.586 Y153.705 E73.84586
G1 X128.775 Y154.190 E73.86750
G1 X128.947 Y154.521 E73.88301
G1 X129.334 Y155.073 E73.91103
G1 X129.821 Y155.560 E73.93967
G1 X130.237 Y155.866 E73.96114
G1 X130.710 Y156.125 E73.98356
G1 X131.198 Y156.315 E74.00533
G1 X131.704 Y156.438 E74.02698
G1 X131.886 Y156.467 E74.03464
G1 X132.217 Y156.495 E74.04845
G1 X132.425 Y156.501 E74.05710
G1 X133.073 Y156.443 E74.08415
G1 X133.435 Y156.364 E74.09956
G1 X133.769 Y156.259 E74.11411
G1 X134.247 Y156.048 E74.13584
G1 X134.422 Y155.953 E74.14411
G1 X134.974 Y155.566 E74.17214
G1 X135.461 Y155.079 E74.20078
G1 X135.767 Y154.663 E74.22225
G1 X136.026 Y154.190 E74.24467
G1 X136.215 Y153.705 E74.26631
G1 X136.339 Y153.196 E74.28809
G1 X136.368 Y153.014 E74.29575
G0 F9000 X135.897 Y152.655
;TYPE:WALL-OUTER
G1 F1980 X135.901 Y152.491 E74.30257
G1 X135.849 Y151.900 E74.32724
G1 X135.738 Y151.447 E74.34663
G1 X135.573 Y151.021 E74.36562
G1 X135.428 Y150.743 E74.37865
G1 X135.082 Y150.250 E74.40370
G1 X134.653 Y149.821 E74.42892
G1 X134.150 Y149.469 E74.45444
G1 X133.598 Y149.211 E74.47978
G1 X133.306 Y149.119 E74.49250
G1 X132.855 Y149.030 E74.51162
G1 X132.556 Y149.004 E74.52409
G1 X132.392 Y149.000 E74.53091
G1 X131.800 Y149.052 E74.55562
G1 X131.495 Y149.119 E74.56860
G1 X130.921 Y149.328 E74.59400
G1 X130.643 Y149.473 E74.60704
G1 X130.150 Y149.819 E74.63208
G1 X129.721 Y150.248 E74.65730
G1 X129.369 Y150.751 E74.68283
G1 X129.112 Y151.303 E74.70814
G1 X129.019 Y151.595 E74.72088
G1 X128.930 Y152.046 E74.73999
G1 X128.904 Y152.346 E74.75251
G1 X128.901 Y152.509 E74.75929
G1 X128.952 Y153.100 E74.78395
G1 X129.063 Y153.553 E74.80334
G1 X129.228 Y153.979 E74.82234
G1 X129.373 Y154.257 E74.83537
G1 X129.719 Y154.750 E74.86041
G1 X130.148 Y155.179 E74.88564
G1 X130.651 Y155.531 E74.91116
G1 X131.203 Y155.789 E74.93649
G1 X131.495 Y155.881 E74.94922
G1 X131.946 Y155.970 E74.96833
G1 X132.245 Y155.996 E74.98081
G1 X132.410 Y156.000 E74.98767
G1 X133.001 Y155.948 E75.01234
G1 X133.306 Y155.881 E75.02532
G1 X133.880 Y155.672 E75.05072
G1 X134.158 Y155.527 E75.06375
G1 X134.651 Y155.181 E75.08880
G1 X135.080 Y154.752 E75.11402
G1 X135.432 Y154.249 E75.13954
G1 X135.689 Y153.697 E75.16486
G1 X135.782 Y153.405 E75.17760
G1 X135.871 Y152.954 E75.19671
G1 X135.897 Y152.655 E75.20919
G1 F2400 E74.60919
G1 Z0.900
G0 F9000 X132.703 Y159.250
G1 Z0.400
G1 F2400 E75.20919
G1 F1980 X132.111 Y159.244 E75.23380
G1 X131.521 Y159.193 E75.25842
G1 X130.950 Y159.092 E75.28253
G1 X130.374 Y158.939 E75.30731
G1 X129.823 Y158.738 E75.33169
G1 X129.278 Y158.484 E75.35669
G1 X128.529 Y158.030 E75.39311
G1 X128.067 Y157.675 E75.41733
G1 X127.631 Y157.275 E75.44193
G1 X127.231 Y156.839 E75.46653
G1 X126.877 Y156.379 E75.49066
G1 X126.708 Y156.126 E75.50331
G1 X126.420 Y155.630 E75.52715
G1 X126.162 Y155.076 E75.55256
G1 X125.882 Y154.249 E75.58886
G1 X125.755 Y153.678 E75.61318
G1 X125.678 Y153.093 E75.63771
G1 X125.652 Y152.503 E75.66227
G1 X125.676 Y151.915 E75.68673
G1 X125.753 Y151.329 E75.71131
G1 X125.878 Y150.763 E75.73540
G1 X125.964 Y150.466 E75.74826
G1 X126.158 Y149.932 E75.77188
G1 X126.416 Y149.378 E75.79729
G1 X126.870 Y148.629 E75.83370
G1 X127.225 Y148.167 E75.85792
G1 X127.625 Y147.731 E75.88252
G1 X128.061 Y147.331 E75.90712
G1 X128.521 Y146.977 E75.93126
G1 X128.774 Y146.808 E75.94391
G1 X129.270 Y146.520 E75.96775
G1 X129.824 Y146.262 E75.99316
G1 X130.646 Y145.984 E76.02924
G1 X131.222 Y145.855 E76.05378
G1 X131.807 Y145.778 E76.07831
G1 X132.408 Y145.751 E76.10332
G1 X172.298 Y145.750 E77.76175
G1 X172.889 Y145.756 E77.78632
G1 X173.479 Y145.807 E77.81095
G1 X174.050 Y145.908 E77.83505
G1 X174.626 Y146.061 E77.85983
G1 X175.175 Y146.261 E77.88412
G1 X175.722 Y146.516 E77.90921
G1 X176.471 Y146.970 E77.94563
G1 X176.933 Y147.325 E77.96985
G1 X177.369 Y147.725 E77.99445
G1 X177.769 Y148.161 E78.01905
G1 X178.123 Y148.621 E78.04318
G1 X178.292 Y148.874 E78.05583
G1 X178.580 Y149.370 E78.07968
G1 X178.838 Y149.924 E78.10509
G1 X179.116 Y150.743 E78.14104
G1 X179.245 Y151.322 E78.16571
G1 X179.322 Y151.904 E78.19011
G1 X179.348 Y152.496 E78.21475
G1 X179.325 Y153.081 E78.23909
G1 X179.248 Y153.665 E78.26358
G1 X179.122 Y154.237 E78.28793
G1 X178.842 Y155.068 E78.32439
G1 X178.584 Y155.622 E78.34980
G1 X178.130 Y156.371 E78.38621
G1 X177.775 Y156.833 E78.41043
G1 X177.376 Y157.268 E78.43497
G1 X176.942 Y157.667 E78.45948
G1 X176.479 Y158.023 E78.48377
G1 X176.226 Y158.192 E78.49642
G1 X175.730 Y158.480 E78.52026
G1 X175.178 Y158.737 E78.54558
G1 X174.903 Y158.844 E78.55784
G1 X174.354 Y159.016 E78.58176
G1 X173.778 Y159.145 E78.60630
G1 X173.193 Y159.222 E78.63083
G1 X172.593 Y159.249 E78.65580
G1 X132.703 Y159.250 E80.31424
G1 F2400 E79.71424
G1 Z0.900
G0 F9000 X169.151 Y153.100
G1 Z0.400
G1 F2400 E80.31424
G1 F1980 X169.262 Y153.553 E80.33363
G1 X169.427 Y153.979 E80.35262
G1 X169.572 Y154.257 E80.36566
G1 X169.918 Y154.750 E80.39070
G1 X170.347 Y155.179 E80.41592
G1 X170.850 Y155.531 E80.44145
G1 X171.402 Y155.789 E80.46678
G1 X171.694 Y155.881 E80.47951
G1 X172.145 Y155.970 E80.49862
G1 X172.444 Y155.996 E80.51110
G1 X172.609 Y156.000 E80.51796
G1 X173.200 Y155.948 E80.54262
G1 X173.505 Y155.881 E80.55561
G1 X174.079 Y155.672 E80.58100
G1 X174.356 Y155.527 E80.59400
G1 X174.850 Y155.181 E80.61908
G1 X175.279 Y154.752 E80.64430
G1 X175.631 Y154.249 E80.66983
G1 X175.888 Y153.697 E80.69514
G1 X175.981 Y153.405 E80.70788
G1 X176.070 Y152.954 E80.72699
G1 X176.096 Y152.654 E80.73951
G1 X176.099 Y152.491 E80.74629
G1 X176.048 Y151.900 E80.77095
G1 X175.937 Y151.447 E80.79034
G1 X175.772 Y151.021 E80.80934
G1 X175.627 Y150.743 E80.82237
G1 X175.281 Y150.250 E80.84741
G1 X174.852 Y149.821 E80.87264
G1 X174.348 Y149.469 E80.89820
G1 X173.797 Y149.211 E80.92349
G1 X173.505 Y149.119 E80.93622
G1 X173.054 Y149.030 E80.95533
G1 X172.755 Y149.004 E80.96781
G1 X172.591 Y149.000 E80.97463
G1 X171.999 Y149.052 E80.99934
G1 X171.694 Y149.119 E81.01232
G1 X171.120 Y149.328 E81.03772
G1 X170.842 Y149.473 E81.05075
G1 X170.349 Y149.819 E81.07579
G1 X169.920 Y150.248 E81.10102
G1 X169.568 Y150.751 E81.12654
G1 X169.311 Y151.303 E81.15185
G1 X169.218 Y151.595 E81.16460
G1 X169.129 Y152.046 E81.18371
G1 X169.103 Y152.346 E81.19623
G1 X169.100 Y152.509 E81.20300
G1 X169.151 Y153.100 E81.22767
G0 F9000 X168.457 Y152.922
;TYPE:SKIN
G1 F1980 X162.807 Y158.572 E81.55987
G0 F9000 X163.514 Y158.572
G1 F1980 X168.560 Y153.527 E81.85652
G0 F9000 X168.734 Y154.060
G1 F1980 X164.221 Y158.572 E82.12184
G0 F9000 X164.928 Y158.572
G1 F1980 X168.959 Y154.541 E82.35885
G0 F9000 X169.243 Y154.965
G1 F1980 X165.635 Y158.572 E82.57095
G0 F9000 X166.342 Y158.572
G1 F1980 X169.564 Y155.351 E82.76037
G0 F9000 X169.919 Y155.703
G1 F1980 X167.049 Y158.572 E82.92908
G0 F9000 X167.756 Y158.573
G1 F1980 X170.327 Y156.002 E83.08025
G0 F9000 X170.782 Y156.254
G1 F1980 X168.463 Y158.573 E83.21659
G0 F9000 X169.170 Y158.573
G1 F1980 X171.284 Y156.459 E83.34089
G0 F9000 X171.847 Y156.603
G1 F1980 X169.877 Y158.573 E83.45672
G0 F9000 X170.584 Y158.573
G1 F1980 X172.486 Y156.671 E83.56855
G0 F9000 X173.244 Y156.620
G1 F1980 X171.291 Y158.573 E83.68338
G0 F9000 X171.998 Y158.573
G1 F1980 X174.245 Y156.326 E83.81549
G1 F2400 E83.21549
G1 Z0.900
G0 F9000 X174.399 Y158.294
G1 Z0.400
G1 F2400 E83.81549
G1 F1980 X178.402 Y154.291 E84.05085
G0 F9000 X178.602 Y153.384
G1 F1980 X173.483 Y158.502 E84.35180
G0 F9000 X172.710 Y158.568
G1 F1980 X178.666 Y152.612 E84.70199
G0 F9000 X178.643 Y151.928
G1 F1980 X176.432 Y154.140 E84.83202
G0 F9000 X176.722 Y153.143
G1 F1980 X178.550 Y151.314 E84.93953
G0 F9000 X178.408 Y150.749
G1 F1980 X176.767 Y152.390 E85.03601
G0 F9000 X176.703 Y151.747
G1 F1980 X178.228 Y150.222 E85.12568
G0 F9000 X178.005 Y149.738
G1 F1980 X176.559 Y151.184 E85.21070
G0 F9000 X176.355 Y150.681
G1 F1980 X177.741 Y149.294 E85.29222
G0 F9000 X177.459 Y148.870
G1 F1980 X176.095 Y150.234 E85.37241
G0 F9000 X175.803 Y149.818
G1 F1980 X177.142 Y148.479 E85.45114
G0 F9000 X176.797 Y148.117
G1 F1980 X175.450 Y149.465 E85.53037
G0 F9000 X175.066 Y149.141
G1 F1980 X176.423 Y147.784 E85.61016
G0 F9000 X176.017 Y147.484
G1 F1980 X174.635 Y148.865 E85.69138
G0 F9000 X174.157 Y148.636
G1 F1980 X175.578 Y147.216 E85.77490
G0 F9000 X175.111 Y146.975
G1 F1980 X173.624 Y148.462 E85.86233
G0 F9000 X173.029 Y148.351
G1 F1980 X174.607 Y146.772 E85.95514
G0 F9000 X174.062 Y146.610
G1 F1980 X172.326 Y148.346 E86.05721
G0 F9000 X171.488 Y148.477
G1 F1980 X173.473 Y146.492 E86.17392
G0 F9000 X172.828 Y146.430
G1 F1980 X170.069 Y149.188 E86.33611
G0 F9000 X169.270 Y149.987
G1 F1980 X160.686 Y158.572 E86.84085
G0 F9000 X161.393 Y158.572
G1 F1980 X168.582 Y151.383 E87.26353
G0 F9000 X168.434 Y152.238
G1 F1980 X162.100 Y158.572 E87.63595
G1 F2400 E87.03595
G1 Z0.900
G0 F9000 X159.979 Y158.572
G1 Z0.400
G1 F2400 E87.63595
G1 F1980 X172.121 Y146.430 E88.34985
G0 F9000 X171.413 Y146.430
G1 F1980 X159.272 Y158.572 E89.06373
G0 F9000 X158.565 Y158.572
G1 F1980 X170.706 Y146.430 E89.77760
G0 F9000 X169.999 Y146.430
G1 F1980 X157.858 Y158.572 E90.49147
G0 F9000 X157.151 Y158.571
G1 F1980 X169.292 Y146.430 E91.20532
G0 F9000 X168.585 Y146.430
G1 F1980 X156.444 Y158.571 E91.91916
G0 F9000 X155.737 Y158.571
G1 F1980 X167.878 Y146.430 E92.63301
G0 F9000 X167.172 Y146.429
G1 F1980 X155.030 Y158.571 E93.34691
G0 F9000 X154.323 Y158.571
G1 F1980 X166.464 Y146.429 E94.06078
G0 F9000 X165.757 Y146.429
G1 F1980 X153.616 Y158.571 E94.77466
G0 F9000 X152.909 Y158.571
G1 F1980 X165.050 Y146.429 E95.48853
G0 F9000 X164.343 Y146.429
G1 F1980 X152.202 Y158.570 E96.20237
G0 F9000 X151.495 Y158.570
G1 F1980 X163.636 Y146.429 E96.91622
G0 F9000 X162.929 Y146.429
G1 F1980 X150.788 Y158.570 E97.63006
G0 F9000 X150.081 Y158.570
G1 F1980 X162.223 Y146.429 E98.34394
G0 F9000 X161.515 Y146.429
G1 F1980 X149.374 Y158.570 E99.05778
G0 F9000 X148.667 Y158.570
G1 F1980 X160.808 Y146.429 E99.77163
G0 F9000 X160.101 Y146.429
G1 F1980 X147.959 Y158.570 E100.48550
G0 F9000 X147.253 Y158.570
G1 F1980 X159.394 Y146.429 E101.19934
G0 F9000 X158.687 Y146.429
G1 F1980 X146.546 Y158.570 E101.91319
G0 F9000 X145.839 Y158.570
G1 F1980 X157.980 Y146.429 E102.62703
G0 F9000 X157.273 Y146.428
G1 F1980 X145.132 Y158.570 E103.34091
G0 F9000 X144.425 Y158.570
G1 F1980 X156.566 Y146.428 E104.05478
G0 F9000 X155.859 Y146.428
G1 F1980 X143.718 Y158.570 E104.76865
G0 F9000 X143.010 Y158.570
G1 F1980 X155.152 Y146.428 E105.48256
G0 F9000 X154.445 Y146.428
G1 F1980 X142.303 Y158.570 E106.19646
G0 F9000 X141.597 Y158.569
G1 F1980 X153.738 Y146.428 E106.91030
G0 F9000 X153.031 Y146.428
G1 F1980 X140.890 Y158.569 E107.62415
G0 F9000 X140.183 Y158.569
G1 F1980 X152.324 Y146.427 E108.33802
G0 F9000 X151.617 Y146.427
G1 F1980 X139.476 Y158.569 E109.05189
G0 F9000 X138.768 Y158.569
G1 F1980 X150.910 Y146.427 E109.76580
G0 F9000 X150.203 Y146.427
G1 F1980 X138.061 Y158.569 E110.47970
G0 F9000 X137.354 Y158.569
G1 F1980 X149.496 Y146.427 E111.19360
G0 F9000 X148.789 Y146.427
G1 F1980 X136.648 Y158.568 E111.90745
G0 F9000 X135.941 Y158.568
G1 F1980 X148.082 Y146.427 E112.62129
G0 F9000 X147.375 Y146.426
G1 F1980 X135.234 Y158.568 E113.33517
G0 F9000 X134.527 Y158.568
G1 F1980 X146.668 Y146.426 E114.04904
G0 F9000 X145.961 Y146.426
G1 F1980 X133.819 Y158.568 E114.76294
G0 F9000 X133.112 Y158.568
G1 F1980 X145.254 Y146.426 E115.47685
G0 F9000 X144.547 Y146.426
G1 F1980 X132.405 Y158.568 E116.19075
G0 F9000 X131.734 Y158.532
G1 F1980 X133.857 Y156.409 E116.31557
G0 F9000 X132.930 Y156.629
G1 F1980 X131.124 Y158.435 E116.42176
G0 F9000 X130.563 Y158.290
G1 F1980 X132.185 Y156.667 E116.51716
G0 F9000 X131.563 Y156.582
G1 F1980 X130.048 Y158.097 E116.60623
G0 F9000 X129.567 Y157.871
G1 F1980 X131.010 Y156.428 E116.69107
G0 F9000 X130.515 Y156.216
G1 F1980 X129.127 Y157.604 E116.77268
G0 F9000 X128.708 Y157.316
G1 F1980 X130.067 Y155.957 E116.85259
G0 F9000 X129.666 Y155.651
G1 F1980 X128.323 Y156.993 E116.93152
G0 F9000 X127.967 Y156.642
G1 F1980 X129.312 Y155.297 E117.01060
G0 F9000 X129.001 Y154.902
G1 F1980 X127.640 Y156.262 E117.09059
G0 F9000 X127.346 Y155.849
G1 F1980 X128.724 Y154.471 E117.17162
G0 F9000 X128.506 Y153.983
G1 F1980 X127.078 Y155.410 E117.25555
G0 F9000 X126.843 Y154.938
G1 F1980 X128.341 Y153.440 E117.34362
G0 F9000 X128.250 Y152.824
G1 F1980 X126.646 Y154.428 E117.43793
G0 F9000 X126.491 Y153.876
G1 F1980 X128.245 Y152.122 E117.54106
G0 F9000 X128.418 Y151.242
G1 F1980 X126.383 Y153.277 E117.66071
G0 F9000 X126.332 Y152.621
G1 F1980 X132.528 Y146.425 E118.02501
G0 F9000 X133.235 Y146.425
G1 F1980 X131.135 Y148.525 E118.14848
G0 F9000 X132.012 Y148.355
G1 F1980 X133.942 Y146.425 E118.26196
G0 F9000 X134.649 Y146.425
G1 F1980 X132.733 Y148.341 E118.37462
G0 F9000 X133.341 Y148.440
G1 F1980 X135.356 Y146.425 E118.49309
G0 F9000 X136.063 Y146.425
G1 F1980 X133.882 Y148.606 E118.62132
G0 F9000 X134.368 Y148.827
G1 F1980 X136.770 Y146.425 E118.76255
G0 F9000 X137.477 Y146.426
G1 F1980 X134.807 Y149.095 E118.91951
G0 F9000 X135.198 Y149.411
G1 F1980 X138.184 Y146.426 E119.09504
G0 F9000 X138.891 Y146.426
G1 F1980 X135.552 Y149.765 E119.29136
G0 F9000 X135.852 Y150.171
G1 F1980 X139.598 Y146.426 E119.51159
G0 F9000 X140.305 Y146.426
G1 F1980 X136.117 Y150.614 E119.75782
G0 F9000 X136.328 Y151.110
G1 F1980 X141.012 Y146.426 E120.03323
G0 F9000 X141.719 Y146.426
G1 F1980 X136.487 Y151.658 E120.34085
G0 F9000 X136.561 Y152.291
G1 F1980 X142.426 Y146.426 E120.68569
G0 F9000 X143.133 Y146.426
G1 F1980 X136.543 Y153.017 E121.07318
G0 F9000 X136.301 Y153.966
G1 F1980 X143.840 Y146.426 E121.51648
G1 F2400 E120.91648
G1 Z0.900
G0 F9000 X131.786 Y146.460
G1 Z0.400
G1 F2400 E121.51648
G1 F1980 X126.361 Y151.885 E121.83545
G0 F9000 X126.510 Y151.028
G1 F1980 X130.928 Y146.610 E122.09521
G0 F9000 X129.826 Y147.005
G1 F1980 X126.905 Y149.926 E122.26695
G1 F2400 E121.66695
G1 Z0.900
G0 F9000 X175.684 Y157.715
G1 Z0.400
G1 F2400 E122.26695
G1 F1980 X177.816 Y155.583 E122.39230
;LAYER:2
M106 S20
G0 F9000 X178.016 Y155.617 Z0.600
;TYPE:WALL-INNER
G1 F2220 X177.721 Y156.081 E122.41516
G1 X177.391 Y156.513 E122.43776
G1 X177.028 Y156.908 E122.46007
G1 X176.615 Y157.288 E122.48340
G1 X176.402 Y157.459 E122.49476
G1 X175.967 Y157.764 E122.51685
G1 X175.488 Y158.042 E122.53987
G1 X174.749 Y158.367 E122.57343
G1 X174.217 Y158.535 E122.59663
G1 X173.690 Y158.652 E122.61907
G1 X173.151 Y158.724 E122.64168
G1 X172.596 Y158.749 E122.66478
G1 X132.907 Y158.750 E124.31486
G1 X132.135 Y158.744 E124.34695
G1 X131.595 Y158.697 E124.36949
G1 X131.046 Y158.602 E124.39265
G1 X130.533 Y158.464 E124.41474
G1 X130.017 Y158.277 E124.43756
G1 X129.522 Y158.046 E124.46027
G1 X129.027 Y157.761 E124.48401
G1 X128.832 Y157.631 E124.49376
G1 X128.382 Y157.286 E124.51733
G1 X127.992 Y156.928 E124.53934
G1 X127.612 Y156.515 E124.56267
G1 X127.441 Y156.302 E124.57403
G1 X127.136 Y155.867 E124.59612
G1 X126.858 Y155.388 E124.61914
G1 X126.533 Y154.649 E124.65271
G1 X126.365 Y154.117 E124.67590
G1 X126.248 Y153.590 E124.69835
G1 X126.176 Y153.051 E124.72095
G1 X126.152 Y152.504 E124.74372
G1 X126.173 Y151.970 E124.76594
G1 X126.246 Y151.422 E124.78892
G1 X126.364 Y150.882 E124.81190
G1 X126.525 Y150.372 E124.83414
G1 X126.737 Y149.858 E124.85725
G1 X126.984 Y149.383 E124.87951
G1 X127.279 Y148.919 E124.90237
G1 X127.609 Y148.487 E124.92497
G1 X127.972 Y148.092 E124.94727
G1 X128.385 Y147.712 E124.97061
G1 X128.598 Y147.541 E124.98196
G1 X129.033 Y147.236 E125.00405
G1 X129.512 Y146.958 E125.02708
G1 X130.251 Y146.633 E125.06064
G1 X130.783 Y146.465 E125.08384
G1 X131.310 Y146.348 E125.10628
G1 X131.849 Y146.276 E125.12889
G1 X132.404 Y146.251 E125.15198
G1 X172.094 Y146.250 E126.80210
G1 X172.865 Y146.256 E126.83416
G1 X173.405 Y146.303 E126.85669
G1 X173.954 Y146.398 E126.87986
G1 X174.467 Y146.536 E126.90194
G1 X174.983 Y146.723 E126.92476
G1 X175.478 Y146.954 E126.94747
G1 X175.973 Y147.239 E126.97122
G1 X176.168 Y147.369 E126.98096
G1 X176.618 Y147.714 E127.00454
G1 X177.008 Y148.072 E127.02655
G1 X177.388 Y148.485 E127.04988
G1 X177.559 Y148.698 E127.06124
G1 X177.864 Y149.133 E127.08332
G1 X178.142 Y149.612 E127.10635
G1 X178.467 Y150.351 E127.13991
G1 X178.635 Y150.883 E127.16311
G1 X178.752 Y151.410 E127.18555
G1 X178.824 Y151.949 E127.20816
G1 X178.848 Y152.493 E127.23080
G1 X178.827 Y153.030 E127.25314
G1 X178.754 Y153.578 E127.27613
G1 X178.636 Y154.118 E127.29911
G1 X178.475 Y154.628 E127.32134
G1 X178.263 Y155.142 E127.34446
G1 X178.016 Y155.617 E127.36672
G1 F2400 E126.76672
G1 Z1.100
G0 F9000 X176.070 Y154.491
G1 Z0.600
G1 F2400 E127.36672
G1 F2220 X176.294 Y154.036 E127.38780
G1 X176.464 Y153.534 E127.40984
G1 X176.538 Y153.196 E127.42422
G1 X176.567 Y153.014 E127.43188
G1 X176.595 Y152.681 E127.44578
G1 X176.600 Y152.472 E127.45447
G1 X176.544 Y151.829 E127.48130
G1 X176.458 Y151.443 E127.49774
G1 X176.235 Y150.831 E127.52482
G1 X175.877 Y150.203 E127.55488
G1 X175.548 Y149.795 E127.57667
G1 X175.164 Y149.427 E127.59878
G1 X174.600 Y149.034 E127.62736
G1 X173.990 Y148.749 E127.65535
G1 X173.464 Y148.595 E127.67814
G1 X173.114 Y148.533 E127.69292
G1 X172.783 Y148.505 E127.70673
G1 X172.574 Y148.499 E127.71542
G1 X171.927 Y148.557 E127.74243
G1 X171.542 Y148.642 E127.75882
G1 X170.930 Y148.865 E127.78590
G1 X170.302 Y149.223 E127.81595
G1 X169.894 Y149.552 E127.83774
G1 X169.532 Y149.930 E127.85950
G1 X169.218 Y150.359 E127.88161
G1 X168.909 Y150.955 E127.90952
G1 X168.735 Y151.466 E127.93196
G1 X168.661 Y151.804 E127.94635
G1 X168.632 Y151.986 E127.95401
G1 X168.604 Y152.319 E127.96790
G1 X168.599 Y152.528 E127.97659
G1 X168.655 Y153.171 E128.00343
G1 X168.741 Y153.557 E128.01987
G1 X168.964 Y154.169 E128.04695
G1 X169.322 Y154.797 E128.07700
G1 X169.651 Y155.205 E128.09879
G1 X170.029 Y155.567 E128.12055
G1 X170.458 Y155.881 E128.14266
G1 X171.054 Y156.190 E128.17057
G1 X171.565 Y156.364 E128.19301
G1 X171.903 Y156.438 E128.20739
G1 X172.085 Y156.467 E128.21506
G1 X172.416 Y156.495 E128.22887
G1 X172.626 Y156.501 E128.23760
G1 X173.272 Y156.443 E128.26457
G1 X173.657 Y156.358 E128.28096
G1 X174.291 Y156.127 E128.30901
G1 X174.896 Y155.779 E128.33803
G1 X175.430 Y155.330 E128.36704
G1 X175.869 Y154.808 E128.39539
G1 X176.070 Y154.491 E128.41100
G1 F2400 E127.81100
G1 Z1.100
G0 F9000 X136.396 Y152.683
G1 Z0.600
G1 F2400 E128.41100
G1 F2220 X136.402 Y152.474 E128.41969
G1 X136.344 Y151.828 E128.44666
G1 X136.259 Y151.443 E128.46305
G1 X136.036 Y150.831 E128.49013
G1 X135.678 Y150.203 E128.52018
G1 X135.349 Y149.795 E128.54197
G1 X134.971 Y149.433 E128.56373
G1 X134.542 Y149.119 E128.58584
G1 X133.946 Y148.810 E128.61375
G1 X133.435 Y148.636 E128.63619
G1 X133.097 Y148.562 E128.65057
G1 X132.915 Y148.533 E128.65824
G1 X132.584 Y148.505 E128.67205
G1 X132.375 Y148.499 E128.68074
G1 X131.728 Y148.557 E128.70775
G1 X131.343 Y148.642 E128.72414
G1 X130.731 Y148.865 E128.75122
G1 X130.103 Y149.223 E128.78127
G1 X129.695 Y149.552 E128.80306
G1 X129.333 Y149.930 E128.82482
G1 X129.019 Y150.359 E128.84693
G1 X128.710 Y150.955 E128.87484
G1 X128.536 Y151.466 E128.89728
G1 X128.462 Y151.804 E128.91167
G1 X128.433 Y151.986 E128.91933
G1 X128.405 Y152.319 E128.93322
G1 X128.400 Y152.528 E128.94191
G1 X128.456 Y153.171 E128.96875
G1 X128.542 Y153.557 E128.98519
G1 X128.765 Y154.169 E129.01227
G1 X129.123 Y154.797 E129.04232
G1 X129.452 Y155.205 E129.06411
G1 X129.830 Y155.567 E129.08587
G1 X130.259 Y155.881 E129.10798
G1 X130.855 Y156.190 E129.13589
G1 X131.366 Y156.364 E129.15833
G1 X131.704 Y156.438 E129.17271
G1 X131.886 Y156.467 E129.18038
G1 X132.217 Y156.495 E129.19419
G1 X132.427 Y156.501 E129.20292
G1 X133.073 Y156.443 E129.22989
G1 X133.458 Y156.358 E129.24628
G1 X134.070 Y156.135 E129.27336
G1 X134.698 Y155.777 E129.30341
G1 X135.106 Y155.448 E129.32520
G1 X135.468 Y155.070 E129.34696
G1 X135.782 Y154.641 E129.36907
G1 X136.091 Y154.045 E129.39698
G1 X136.265 Y153.534 E129.41942
G1 X136.339 Y153.196 E129.43381
G1 X136.368 Y153.014 E129.44147
G1 X136.396 Y152.683 E129.45528
G0 F9000 X135.897 Y152.655
;TYPE:WALL-OUTER
G1 F2220 X135.901 Y152.489 E129.46218
G1 X135.849 Y151.900 E129.48676
G1 X135.780 Y151.587 E129.50009
G1 X135.576 Y151.028 E129.52483
G1 X135.267 Y150.490 E129.55062
G1 X134.980 Y150.134 E129.56964
G1 X134.649 Y149.817 E129.58869
G1 X134.277 Y149.545 E129.60785
G1 X133.745 Y149.269 E129.63277
G1 X133.306 Y149.119 E129.65205
G1 X132.855 Y149.030 E129.67117
G1 X132.556 Y149.004 E129.68364
G1 X132.390 Y149.000 E129.69055
G1 X131.800 Y149.052 E129.71517
G1 X131.487 Y149.121 E129.72850
G1 X130.928 Y149.325 E129.75324
G1 X130.390 Y149.634 E129.77903
G1 X130.034 Y149.921 E129.79804
G1 X129.717 Y150.252 E129.81710
G1 X129.445 Y150.624 E129.83626
G1 X129.169 Y151.156 E129.86117
G1 X129.019 Y151.595 E129.88046
G1 X128.930 Y152.046 E129.89957
G1 X128.904 Y152.346 E129.91209
G1 X128.901 Y152.511 E129.91895
G1 X128.952 Y153.100 E129.94353
G1 X129.021 Y153.413 E129.95686
G1 X129.225 Y153.972 E129.98160
G1 X129.534 Y154.510 E130.00739
G1 X129.821 Y154.866 E130.02640
G1 X130.152 Y155.183 E130.04546
G1 X130.524 Y155.455 E130.06462
G1 X131.056 Y155.731 E130.08953
G1 X131.495 Y155.881 E130.10882
G1 X131.946 Y155.970 E130.12793
G1 X132.245 Y155.996 E130.14041
G1 X132.412 Y156.000 E130.14736
G1 X133.001 Y155.948 E130.17194
G1 X133.314 Y155.879 E130.18527
G1 X133.873 Y155.675 E130.21001
G1 X134.411 Y155.366 E130.23580
G1 X134.767 Y155.079 E130.25481
G1 X135.084 Y154.748 E130.27387
G1 X135.356 Y154.376 E130.29302
G1 X135.632 Y153.844 E130.31794
G1 X135.782 Y153.405 E130.33723
G1 X135.871 Y152.954 E130.35634
G1 X135.897 Y152.655 E130.36882
G1 F2400 E129.76882
G1 Z1.100
G0 F9000 X132.903 Y159.250
G1 Z0.600
G1 F2400 E130.36882
G1 F2220 X132.113 Y159.244 E130.40166
G1 X131.524 Y159.193 E130.42624
G1 X130.944 Y159.092 E130.45072
G1 X130.380 Y158.941 E130.47499
G1 X129.830 Y158.741 E130.49933
G1 X129.289 Y158.489 E130.52414
G1 X128.770 Y158.190 E130.54904
G1 X128.065 Y157.673 E130.58539
G1 X127.633 Y157.277 E130.60975
G1 X127.238 Y156.847 E130.63403
G1 X127.042 Y156.604 E130.64701
G1 X126.709 Y156.129 E130.67113
G1 X126.417 Y155.626 E130.69531
G1 X126.061 Y154.815 E130.73213
G1 X125.881 Y154.246 E130.75694
G1 X125.755 Y153.675 E130.78125
G1 X125.677 Y153.093 E130.80566
G1 X125.652 Y152.506 E130.83009
G1 X125.676 Y151.916 E130.85464
G1 X125.753 Y151.332 E130.87913
G1 X125.880 Y150.756 E130.90365
G1 X126.055 Y150.200 E130.92789
G1 X126.280 Y149.653 E130.95248
G1 X126.552 Y149.130 E130.97699
G1 X126.869 Y148.631 E131.00156
G1 X127.227 Y148.165 E131.02600
G1 X127.623 Y147.733 E131.05036
G1 X128.053 Y147.338 E131.07463
G1 X128.296 Y147.142 E131.08761
G1 X128.771 Y146.809 E131.11173
G1 X129.273 Y146.518 E131.13586
G1 X130.085 Y146.161 E131.17273
G1 X130.647 Y145.983 E131.19724
G1 X131.219 Y145.856 E131.22160
G1 X131.805 Y145.778 E131.24618
G1 X132.405 Y145.751 E131.27115
G1 X172.098 Y145.750 E132.92139
G1 X172.887 Y145.756 E132.95420
G1 X173.476 Y145.807 E132.97878
G1 X174.056 Y145.908 E133.00325
G1 X174.620 Y146.059 E133.02753
G1 X175.170 Y146.259 E133.05186
G1 X175.711 Y146.511 E133.07667
G1 X176.230 Y146.810 E133.10157
G1 X176.931 Y147.324 E133.13771
G1 X177.367 Y147.723 E133.16229
G1 X177.762 Y148.153 E133.18656
G1 X177.958 Y148.396 E133.19954
G1 X178.291 Y148.871 E133.22366
G1 X178.582 Y149.373 E133.24778
G1 X178.720 Y149.653 E133.26076
G1 X178.939 Y150.185 E133.28468
G1 X179.117 Y150.747 E133.30919
G1 X179.244 Y151.319 E133.33355
G1 X179.322 Y151.900 E133.35792
G1 X179.348 Y152.493 E133.38260
G1 X179.324 Y153.082 E133.40711
G1 X179.247 Y153.667 E133.43164
G1 X179.120 Y154.244 E133.45620
G1 X178.945 Y154.800 E133.48043
G1 X178.721 Y155.344 E133.50489
G1 X178.448 Y155.870 E133.52953
G1 X178.131 Y156.369 E133.55411
G1 X177.776 Y156.831 E133.57833
G1 X177.377 Y157.267 E133.60290
G1 X176.947 Y157.662 E133.62718
G1 X176.706 Y157.857 E133.64007
G1 X176.230 Y158.190 E133.66422
G1 X175.727 Y158.482 E133.68840
G1 X174.915 Y158.839 E133.72528
G1 X174.353 Y159.017 E133.74979
G1 X173.781 Y159.144 E133.77415
G1 X173.195 Y159.222 E133.79873
G1 X172.596 Y159.249 E133.82365
G1 X132.903 Y159.250 E135.47390
G1 F2400 E134.87390
G1 Z1.100
G0 F9000 X169.151 Y153.100
G1 Z0.600
G1 F2400 E135.47390
G1 F2220 X169.220 Y153.413 E135.48722
G1 X169.424 Y153.972 E135.51196
G1 X169.733 Y154.510 E135.53776
G1 X170.020 Y154.866 E135.55677
G1 X170.351 Y155.183 E135.57582
G1 X170.723 Y155.455 E135.59498
G1 X171.255 Y155.731 E135.61990
G1 X171.694 Y155.881 E135.63919
G1 X172.145 Y155.970 E135.65830
G1 X172.444 Y155.996 E135.67078
G1 X172.611 Y156.000 E135.67772
G1 X173.200 Y155.948 E135.70230
G1 X173.513 Y155.879 E135.71563
G1 X174.079 Y155.672 E135.74069
G1 X174.608 Y155.368 E135.76605
G1 X175.075 Y154.975 E135.79143
G1 X175.464 Y154.512 E135.81657
G1 X175.633 Y154.246 E135.82967
G1 X175.833 Y153.839 E135.84853
G1 X175.981 Y153.405 E135.86759
G1 X176.070 Y152.954 E135.88670
G1 X176.096 Y152.654 E135.89922
G1 X176.099 Y152.489 E135.90608
G1 X176.048 Y151.900 E135.93066
G1 X175.979 Y151.587 E135.94399
G1 X175.775 Y151.028 E135.96873
G1 X175.466 Y150.490 E135.99452
G1 X175.179 Y150.134 E136.01353
G1 X174.846 Y149.815 E136.03270
G1 X174.349 Y149.469 E136.05788
G1 X173.804 Y149.214 E136.08290
G1 X173.208 Y149.054 E136.10855
G1 X172.755 Y149.004 E136.12750
G1 X172.589 Y149.000 E136.13440
G1 X171.999 Y149.052 E136.15903
G1 X171.686 Y149.121 E136.17235
G1 X171.127 Y149.325 E136.19709
G1 X170.589 Y149.634 E136.22289
G1 X170.233 Y149.921 E136.24190
G1 X169.916 Y150.252 E136.26095
G1 X169.644 Y150.624 E136.28011
G1 X169.368 Y151.156 E136.30503
G1 X169.218 Y151.595 E136.32432
G1 X169.129 Y152.046 E136.34343
G1 X169.103 Y152.346 E136.35595
G1 X169.100 Y152.511 E136.36281
G1 X169.151 Y153.100 E136.38739
G0 F9000 X168.504 Y153.301
;TYPE:SKIN
G1 F2220 X161.632 Y146.429 E136.79144
G0 F9000 X160.925 Y146.429
G1 F2220 X168.889 Y154.393 E137.25969
G1 F2400 E136.65969
G1 Z1.100
G0 F9000 X168.423 Y152.513
G1 Z0.600
G1 F2400 E137.25969
G1 F2220 X162.339 Y146.429 E137.61741
G0 F9000 X163.046 Y146.429
G1 F2220 X168.474 Y151.857 E137.93655
G0 F9000 X168.611 Y151.286
G1 F2220 X163.753 Y146.429 E138.22215
G0 F9000 X164.461 Y146.430
G1 F2220 X168.805 Y150.774 E138.47756
G0 F9000 X169.047 Y150.308
G1 F2220 X165.168 Y146.430 E138.70561
G0 F9000 X165.875 Y146.430
G1 F2220 X169.340 Y149.895 E138.90933
G0 F9000 X169.678 Y149.525
G1 F2220 X166.583 Y146.430 E139.09131
G0 F9000 X167.290 Y146.430
G1 F2220 X170.055 Y149.195 E139.25388
G0 F9000 X170.483 Y148.916
G1 F2220 X167.997 Y146.430 E139.40005
G0 F9000 X168.705 Y146.431
G1 F2220 X170.945 Y148.672 E139.53178
G0 F9000 X171.463 Y148.482
G1 F2220 X169.412 Y146.431 E139.65237
G0 F9000 X170.119 Y146.431
G1 F2220 X172.057 Y148.369 E139.76632
G0 F9000 X172.722 Y148.327
G1 F2220 X170.826 Y146.431 E139.87780
G0 F9000 X171.533 Y146.431
G1 F2220 X173.536 Y148.433 E139.99553
G0 F9000 X174.704 Y148.894
G1 F2220 X172.240 Y146.431 E140.14038
G0 F9000 X172.956 Y146.440
G1 F2220 X178.656 Y152.139 E140.47549
G0 F9000 X178.658 Y152.848
G1 F2220 X176.165 Y150.356 E140.62204
G0 F9000 X176.662 Y151.560
G1 F2220 X178.589 Y153.486 E140.73531
G0 F9000 X178.466 Y154.071
G1 F2220 X176.765 Y152.370 E140.83532
G0 F9000 X176.737 Y153.049
G1 F2220 X178.294 Y154.606 E140.92687
G0 F9000 X178.084 Y155.103
G1 F2220 X176.614 Y153.633 E141.01330
G0 F9000 X176.429 Y154.155
G1 F2220 X177.840 Y155.567 E141.09629
G0 F9000 X177.564 Y155.997
G1 F2220 X176.191 Y154.625 E141.17699
G0 F9000 X175.900 Y155.040
G1 F2220 X177.257 Y156.397 E141.25677
G0 F9000 X176.919 Y156.766
G1 F2220 X175.577 Y155.424 E141.33568
G0 F9000 X175.199 Y155.753
G1 F2220 X176.552 Y157.107 E141.41526
G0 F9000 X176.155 Y157.416
G1 F2220 X174.784 Y156.045 E141.49587
G0 F9000 X174.330 Y156.298
G1 F2220 X175.729 Y157.698 E141.57815
G0 F9000 X175.269 Y157.945
G1 F2220 X173.811 Y156.487 E141.66388
G0 F9000 X173.239 Y156.622
G1 F2220 X174.778 Y158.161 E141.75436
G0 F9000 X174.249 Y158.339
G1 F2220 X172.584 Y156.675 E141.85223
G0 F9000 X171.797 Y156.594
G1 F2220 X173.677 Y158.474 E141.96277
G0 F9000 X173.048 Y158.552
G1 F2220 X170.696 Y156.201 E142.10103
G1 F2400 E141.50103
G1 Z1.100
G0 F9000 X170.948 Y158.573
G1 Z0.600
G1 F2400 E142.10103
G1 F2220 X158.803 Y146.429 E142.81508
G0 F9000 X158.096 Y146.429
G1 F2220 X170.240 Y158.573 E143.52910
G0 F9000 X169.533 Y158.573
G1 F2220 X157.389 Y146.429 E144.24312
G0 F9000 X156.682 Y146.429
G1 F2220 X168.826 Y158.573 E144.95714
G0 F9000 X168.119 Y158.573
G1 F2220 X155.975 Y146.429 E145.67116
G0 F9000 X155.267 Y146.429
G1 F2220 X167.411 Y158.572 E146.38515
G0 F9000 X166.704 Y158.572
G1 F2220 X154.560 Y146.428 E147.09917
G0 F9000 X153.853 Y146.428
G1 F2220 X165.997 Y158.572 E147.81319
G0 F9000 X165.290 Y158.572
G1 F2220 X153.145 Y146.428 E148.52724
G0 F9000 X152.438 Y146.428
G1 F2220 X164.583 Y158.572 E149.24129
G0 F9000 X163.876 Y158.572
G1 F2220 X151.731 Y146.428 E149.95534
G0 F9000 X151.024 Y146.428
G1 F2220 X163.169 Y158.572 E150.66939
G0 F9000 X162.461 Y158.572
G1 F2220 X150.316 Y146.427 E151.38347
G0 F9000 X149.609 Y146.427
G1 F2220 X161.754 Y158.572 E152.09755
G0 F9000 X161.047 Y158.572
G1 F2220 X148.902 Y146.427 E152.81163
G0 F9000 X148.195 Y146.427
G1 F2220 X160.339 Y158.572 E153.52568
G1 F2400 E152.92568
G1 Z1.100
G0 F9000 X171.655 Y158.573
G1 Z0.600
G1 F2400 E153.52568
G1 F2220 X159.511 Y146.429 E154.23970
G1 F2400 E153.63970
G1 Z1.100
G0 F9000 X147.488 Y146.427
G1 Z0.600
G1 F2400 E154.23970
G1 F2220 X159.632 Y158.572 E154.95375
G0 F9000 X158.925 Y158.572
G1 F2220 X146.781 Y146.427 E155.66780
G0 F9000 X146.074 Y146.427
G1 F2220 X158.218 Y158.572 E156.38185
G0 F9000 X157.511 Y158.572
G1 F2220 X145.366 Y146.426 E157.09596
G0 F9000 X144.659 Y146.426
G1 F2220 X156.803 Y158.571 E157.81001
G0 F9000 X156.096 Y158.571
G1 F2220 X143.952 Y146.426 E158.52406
G0 F9000 X143.244 Y146.426
G1 F2220 X155.389 Y158.571 E159.23814
G0 F9000 X154.682 Y158.571
G1 F2220 X142.537 Y146.426 E159.95222
G0 F9000 X141.830 Y146.426
G1 F2220 X153.975 Y158.571 E160.66630
G0 F9000 X153.268 Y158.571
G1 F2220 X141.122 Y146.426 E161.38041
G0 F9000 X140.415 Y146.426
G1 F2220 X152.561 Y158.571 E162.09452
G0 F9000 X151.853 Y158.570
G1 F2220 X139.708 Y146.426 E162.80857
G0 F9000 X139.001 Y146.426
G1 F2220 X151.146 Y158.570 E163.52262
G0 F9000 X150.439 Y158.570
G1 F2220 X138.294 Y146.426 E164.23667
G0 F9000 X137.587 Y146.426
G1 F2220 X149.731 Y158.570 E164.95069
G0 F9000 X149.024 Y158.570
G1 F2220 X136.879 Y146.425 E165.66477
G0 F9000 X136.172 Y146.425
G1 F2220 X148.317 Y158.570 E166.37885
G0 F9000 X147.610 Y158.570
G1 F2220 X135.465 Y146.425 E167.09292
G0 F9000 X134.758 Y146.425
G1 F2220 X146.902 Y158.570 E167.80697
G0 F9000 X146.195 Y158.570
G1 F2220 X134.051 Y146.425 E168.52102
G0 F9000 X133.344 Y146.425
G1 F2220 X145.488 Y158.570 E169.23507
G0 F9000 X144.781 Y158.570
G1 F2220 X132.636 Y146.425 E169.94915
G0 F9000 X131.951 Y146.446
G1 F2220 X134.302 Y148.797 E170.08738
G0 F9000 X133.201 Y148.404
G1 F2220 X131.321 Y146.524 E170.19792
G0 F9000 X130.749 Y146.659
G1 F2220 X132.414 Y148.324 E170.29582
G0 F9000 X131.760 Y148.377
G1 F2220 X130.220 Y146.837 E170.38636
G0 F9000 X129.729 Y147.053
G1 F2220 X131.186 Y148.510 E170.47203
G0 F9000 X130.669 Y148.700
G1 F2220 X129.269 Y147.300 E170.55434
G0 F9000 X128.844 Y147.583
G1 F2220 X130.217 Y148.955 E170.63504
G0 F9000 X129.797 Y149.242
G1 F2220 X128.447 Y147.892 E170.71442
G0 F9000 X128.079 Y148.232
G1 F2220 X129.426 Y149.579 E170.79361
G0 F9000 X129.097 Y149.956
G1 F2220 X127.741 Y148.601 E170.87331
G0 F9000 X127.434 Y149.001
G1 F2220 X128.812 Y150.378 E170.95430
G0 F9000 X128.570 Y150.844
G1 F2220 X127.158 Y149.432 E171.03732
G0 F9000 X126.914 Y149.895
G1 F2220 X128.385 Y151.366 E171.12381
G0 F9000 X128.262 Y151.950
G1 F2220 X126.704 Y150.392 E171.21542
G0 F9000 X126.531 Y150.926
G1 F2220 X128.233 Y152.628 E171.31549
G0 F9000 X128.337 Y153.439
G1 F2220 X126.410 Y151.512 E171.42879
G0 F9000 X126.340 Y152.150
G1 F2220 X128.834 Y154.643 E171.57540
G1 F2400 E170.97540
G1 Z1.100
G0 F9000 X127.675 Y156.313
G1 Z0.600
G1 F2400 E171.57540
G1 F2220 X128.572 Y157.210 E171.62814
G1 F2400 E171.02814
G1 Z1.100
G0 F9000 X130.240 Y158.171
G1 Z0.600
G1 F2400 E171.62814
G1 F2220 X126.730 Y154.661 E171.83451
G0 F9000 X126.444 Y153.668
G1 F2220 X131.231 Y158.455 E172.11597
G0 F9000 X132.042 Y158.559
G1 F2220 X126.343 Y152.859 E172.45108
G1 F2400 E171.85108
G1 Z1.100
G0 F9000 X130.275 Y156.084
G1 Z0.600
G1 F2400 E172.45108
G1 F2220 X132.759 Y158.568 E172.59713
G0 F9000 X133.466 Y158.568
G1 F2220 X131.461 Y156.563 E172.71501
G0 F9000 X132.276 Y156.671
G1 F2220 X134.173 Y158.568 E172.82655
G0 F9000 X134.880 Y158.568
G1 F2220 X132.941 Y156.629 E172.94056
G0 F9000 X133.535 Y156.516
G1 F2220 X135.587 Y158.568 E173.06121
G0 F9000 X136.294 Y158.568
G1 F2220 X134.053 Y156.327 E173.19297
G0 F9000 X134.515 Y156.082
G1 F2220 X137.001 Y158.568 E173.33914
G0 F9000 X137.709 Y158.569
G1 F2220 X134.944 Y155.803 E173.50174
G0 F9000 X135.321 Y155.474
G1 F2220 X138.416 Y158.569 E173.68371
G0 F9000 X139.123 Y158.569
G1 F2220 X135.658 Y155.103 E173.88747
G0 F9000 X135.951 Y154.690
G1 F2220 X139.831 Y158.569 E174.11557
G0 F9000 X140.538 Y158.569
G1 F2220 X136.193 Y154.224 E174.37104
G0 F9000 X136.388 Y153.712
G1 F2220 X141.245 Y158.569 E174.65661
G0 F9000 X141.952 Y158.569
G1 F2220 X136.524 Y153.141 E174.97576
G0 F9000 X136.576 Y152.486
G1 F2220 X142.660 Y158.570 E175.33347
G0 F9000 X143.367 Y158.570
G1 F2220 X136.494 Y151.697 E175.73758
G0 F9000 X136.109 Y150.605
G1 F2220 X144.074 Y158.570 E176.20589
G1 F2400 E175.60589
G1 Z1.100
G0 F9000 X160.218 Y146.429
G1 Z0.600
G1 F2400 E176.20589
G1 F2220 X172.362 Y158.573 E176.91991
G1 F2400 E176.31991
G1 Z1.100
G0 F9000 X178.555 Y151.331
G1 Z0.600
G1 F2400 E176.91991
G1 F2220 X173.767 Y146.543 E177.20143
G0 F9000 X174.758 Y146.827
G1 F2220 X178.267 Y150.337 E177.40777
G1 F2400 E176.80777
G1 Z1.100
G0 F9000 X177.326 Y148.688
G1 Z0.600
G1 F2400 E177.40777
G1 F2220 X176.428 Y147.790 E177.46057
;LAYER:3
M106 S30
G0 F9000 X176.611 Y147.709 Z0.800
;TYPE:WALL-INNER
G1 F2400 X177.019 Y148.083 E177.48358
G1 X177.376 Y148.471 E177.50550
G1 X177.715 Y148.911 E177.52859
G1 X178.007 Y149.369 E177.55118
G1 X178.262 Y149.855 E177.57399
G1 X178.466 Y150.350 E177.59625
G1 X178.634 Y150.878 E177.61929
G1 X178.753 Y151.410 E177.64195
G1 X178.824 Y151.947 E177.66447
G1 X178.848 Y152.491 E177.68711
G1 X178.827 Y153.029 E177.70950
G1 X178.755 Y153.575 E177.73239
G1 X178.637 Y154.115 E177.75537
G1 X178.479 Y154.616 E177.77722
G1 X178.266 Y155.136 E177.80058
G1 X178.018 Y155.614 E177.82297
G1 X177.724 Y156.076 E177.84573
G1 X177.391 Y156.511 E177.86851
G1 X177.017 Y156.919 E177.89152
G1 X176.629 Y157.276 E177.91344
G1 X176.184 Y157.619 E177.93680
G1 X175.495 Y158.037 E177.97030
G1 X174.998 Y158.270 E177.99313
G1 X174.484 Y158.458 E178.01588
G1 X173.961 Y158.599 E178.03840
G1 X173.427 Y158.694 E178.06095
G1 X172.879 Y158.742 E178.08382
G1 X171.894 Y158.750 E178.12477
G1 X132.566 Y158.750 E179.75984
G1 X131.859 Y158.725 E179.78925
G1 X131.325 Y158.655 E179.81164
G1 X130.785 Y158.537 E179.83462
G1 X130.275 Y158.376 E179.85686
G1 X129.769 Y158.168 E179.87960
G1 X129.277 Y157.913 E179.90264
G1 X128.828 Y157.627 E179.92478
G1 X128.389 Y157.291 E179.94776
G1 X127.981 Y156.917 E179.97077
G1 X127.624 Y156.529 E179.99269
G1 X127.285 Y156.089 E180.01578
G1 X126.993 Y155.631 E180.03837
G1 X126.738 Y155.145 E180.06118
G1 X126.534 Y154.650 E180.08344
G1 X126.366 Y154.122 E180.10648
G1 X126.247 Y153.590 E180.12914
G1 X126.176 Y153.053 E180.15166
G1 X126.152 Y152.506 E180.17443
G1 X126.173 Y151.971 E180.19669
G1 X126.245 Y151.425 E180.21958
G1 X126.363 Y150.885 E180.24256
G1 X126.524 Y150.375 E180.26480
G1 X126.734 Y149.864 E180.28777
G1 X126.982 Y149.386 E180.31016
G1 X127.276 Y148.924 E180.33292
G1 X127.609 Y148.489 E180.35570
G1 X127.983 Y148.081 E180.37871
G1 X128.371 Y147.724 E180.40063
G1 X128.816 Y147.381 E180.42399
G1 X129.505 Y146.963 E180.45749
G1 X130.002 Y146.730 E180.48032
G1 X130.516 Y146.542 E180.50307
G1 X131.039 Y146.401 E180.52559
G1 X131.573 Y146.306 E180.54814
G1 X132.121 Y146.258 E180.57101
G1 X133.107 Y146.250 E180.61200
G1 X172.435 Y146.250 E182.24707
G1 X173.141 Y146.275 E182.27644
G1 X173.675 Y146.345 E182.29883
G1 X174.215 Y146.463 E182.32181
G1 X174.725 Y146.624 E182.34405
G1 X175.231 Y146.832 E182.36679
G1 X175.723 Y147.087 E182.38983
G1 X176.172 Y147.373 E182.41197
G1 X176.611 Y147.709 E182.43495
G1 F2400 E181.83495
G1 Z1.300
G0 F9000 X175.173 Y149.434
G1 Z0.800
G1 F2400 E182.43495
G1 X174.620 Y149.048 E182.46299
G1 X174.432 Y148.945 E182.47190
G1 X173.964 Y148.738 E182.49318
G1 X173.482 Y148.599 E182.51403
G1 X173.114 Y148.533 E182.52958
G1 X172.783 Y148.505 E182.54339
G1 X172.573 Y148.499 E182.55212
G1 X171.912 Y148.558 E182.57971
G1 X171.383 Y148.687 E182.60235
G1 X170.759 Y148.947 E182.63045
G1 X170.294 Y149.228 E182.65304
G1 X169.774 Y149.665 E182.68128
G1 X169.417 Y150.075 E182.70388
G1 X169.049 Y150.652 E182.73234
G1 X168.788 Y151.282 E182.76069
G1 X168.661 Y151.804 E182.78302
G1 X168.632 Y151.986 E182.79068
G1 X168.604 Y152.320 E182.80462
G1 X168.599 Y152.529 E182.81331
G1 X168.658 Y153.195 E182.84111
G1 X168.839 Y153.868 E182.87008
G1 X169.133 Y154.501 E182.89910
G1 X169.533 Y155.073 E182.92812
G1 X170.026 Y155.566 E182.95711
G1 X170.578 Y155.953 E182.98513
G1 X170.768 Y156.056 E182.99412
G1 X171.235 Y156.262 E183.01534
G1 X171.717 Y156.401 E183.03619
G1 X172.085 Y156.467 E183.05174
G1 X172.416 Y156.495 E183.06555
G1 X172.627 Y156.501 E183.07432
G1 X173.287 Y156.442 E183.10187
G1 X173.816 Y156.313 E183.12451
G1 X174.440 Y156.053 E183.15262
G1 X174.905 Y155.772 E183.17520
G1 X175.425 Y155.335 E183.20344
G1 X175.782 Y154.925 E183.22605
G1 X176.150 Y154.348 E183.25450
G1 X176.411 Y153.718 E183.28285
G1 X176.538 Y153.196 E183.30519
G1 X176.567 Y153.014 E183.31285
G1 X176.595 Y152.680 E183.32678
G1 X176.600 Y152.471 E183.33547
G1 X176.541 Y151.805 E183.36327
G1 X176.360 Y151.132 E183.39225
G1 X176.066 Y150.499 E183.42126
G1 X175.666 Y149.927 E183.45028
G1 X175.173 Y149.434 E183.47927
G1 F2400 E182.87927
G1 Z1.300
G0 F9000 X136.402 Y152.473
G1 Z0.800
G1 F2400 E183.47927
G1 X136.342 Y151.804 E183.50719
G1 X136.161 Y151.132 E183.53613
G1 X135.867 Y150.499 E183.56515
G1 X135.467 Y149.927 E183.59416
G1 X134.974 Y149.434 E183.62315
G1 X134.422 Y149.047 E183.65118
G1 X134.232 Y148.944 E183.66016
G1 X133.765 Y148.738 E183.68138
G1 X133.283 Y148.599 E183.70224
G1 X132.915 Y148.533 E183.71778
G1 X132.584 Y148.505 E183.73159
G1 X132.374 Y148.499 E183.74033
G1 X131.713 Y148.558 E183.76792
G1 X131.184 Y148.687 E183.79056
G1 X130.560 Y148.947 E183.81866
G1 X130.095 Y149.228 E183.84125
G1 X129.575 Y149.665 E183.86949
G1 X129.218 Y150.075 E183.89209
G1 X128.850 Y150.652 E183.92054
G1 X128.589 Y151.282 E183.94890
G1 X128.462 Y151.804 E183.97123
G1 X128.433 Y151.986 E183.97889
G1 X128.405 Y152.320 E183.99283
G1 X128.400 Y152.529 E184.00152
G1 X128.459 Y153.195 E184.02932
G1 X128.640 Y153.868 E184.05829
G1 X128.934 Y154.501 E184.08731
G1 X129.334 Y155.073 E184.11633
G1 X129.827 Y155.566 E184.14531
G1 X130.379 Y155.953 E184.17334
G1 X130.569 Y156.056 E184.18233
G1 X131.036 Y156.262 E184.20355
G1 X131.518 Y156.401 E184.22440
G1 X131.886 Y156.467 E184.23995
G1 X132.217 Y156.495 E184.25376
G1 X132.428 Y156.501 E184.26253
G1 X133.088 Y156.442 E184.29008
G1 X133.617 Y156.313 E184.31272
G1 X134.241 Y156.053 E184.34083
G1 X134.706 Y155.772 E184.36341
G1 X135.226 Y155.335 E184.39165
G1 X135.583 Y154.925 E184.41425
G1 X135.951 Y154.348 E184.44271
G1 X136.212 Y153.718 E184.47106
G1 X136.339 Y153.196 E184.49339
G1 X136.368 Y153.014 E184.50106
G1 X136.396 Y152.683 E184.51487
G1 X136.402 Y152.473 E184.52360
G0 F9000 X135.897 Y152.655
;TYPE:WALL-OUTER
G1 F2400 X135.901 Y152.488 E184.53055
G1 X135.848 Y151.892 E184.55542
G1 X135.690 Y151.303 E184.58078
G1 X135.432 Y150.750 E184.60615
G1 X135.082 Y150.250 E184.63152
G1 X134.651 Y149.819 E184.65686
G1 X134.158 Y149.473 E184.68190
G1 X133.594 Y149.209 E184.70779
G1 X133.164 Y149.085 E184.72640
G1 X132.855 Y149.030 E184.73945
G1 X132.556 Y149.004 E184.75192
G1 X132.389 Y149.000 E184.75887
G1 X131.795 Y149.053 E184.78366
G1 X131.341 Y149.164 E184.80309
G1 X130.787 Y149.394 E184.82803
G1 X130.387 Y149.636 E184.84747
G1 X129.926 Y150.023 E184.87249
G1 X129.619 Y150.375 E184.89191
G1 X129.295 Y150.884 E184.91700
G1 X129.064 Y151.443 E184.94215
G1 X128.930 Y152.046 E184.96783
G1 X128.904 Y152.346 E184.98035
G1 X128.901 Y152.512 E184.98725
G1 X128.953 Y153.108 E185.01212
G1 X129.111 Y153.697 E185.03747
G1 X129.369 Y154.250 E185.06284
G1 X129.719 Y154.750 E185.08822
G1 X130.150 Y155.181 E185.11356
G1 X130.643 Y155.527 E185.13860
G1 X131.207 Y155.791 E185.16449
G1 X131.637 Y155.915 E185.18310
G1 X131.946 Y155.970 E185.19615
G1 X132.245 Y155.996 E185.20862
G1 X132.413 Y156.000 E185.21561
G1 X133.006 Y155.947 E185.24036
G1 X133.460 Y155.836 E185.25979
G1 X134.014 Y155.606 E185.28473
G1 X134.414 Y155.364 E185.30417
G1 X134.875 Y154.977 E185.32919
G1 X135.182 Y154.625 E185.34861
G1 X135.506 Y154.116 E185.37370
G1 X135.737 Y153.557 E185.39884
G1 X135.871 Y152.954 E185.42453
G1 X135.897 Y152.655 E185.43700
G1 F2400 E184.83700
G1 Z1.300
G0 F9000 X132.549 Y159.250
G1 Z0.800
G1 F2400 E185.43700
G1 X131.819 Y159.224 E185.46737
G1 X131.235 Y159.148 E185.49186
G1 X130.659 Y159.021 E185.51638
G1 X130.103 Y158.846 E185.54061
G1 X129.558 Y158.622 E185.56511
G1 X129.033 Y158.350 E185.58969
G1 X128.541 Y158.037 E185.61394
G1 X128.064 Y157.672 E185.63891
G1 X127.635 Y157.278 E185.66312
G1 X127.231 Y156.840 E185.68790
G1 X126.883 Y156.386 E185.71168
G1 X126.557 Y155.877 E185.73681
G1 X126.282 Y155.350 E185.76152
G1 X126.062 Y154.817 E185.78550
G1 X125.882 Y154.250 E185.81023
G1 X125.756 Y153.683 E185.83438
G1 X125.677 Y153.091 E185.85921
G1 X125.652 Y152.508 E185.88347
G1 X125.676 Y151.914 E185.90818
G1 X125.752 Y151.335 E185.93246
G1 X125.879 Y150.756 E185.95711
G1 X126.054 Y150.203 E185.98122
G1 X126.278 Y149.658 E186.00572
G1 X126.550 Y149.132 E186.03034
G1 X126.863 Y148.641 E186.05455
G1 X127.229 Y148.163 E186.07958
G1 X127.622 Y147.735 E186.10373
G1 X128.060 Y147.331 E186.12851
G1 X128.517 Y146.980 E186.15247
G1 X129.275 Y146.518 E186.18937
G1 X129.803 Y146.271 E186.21361
G1 X130.369 Y146.063 E186.23868
G1 X130.927 Y145.914 E186.26269
G1 X131.510 Y145.810 E186.28731
G1 X132.098 Y145.758 E186.31185
G1 X133.103 Y145.750 E186.35364
G1 X172.452 Y145.750 E187.98958
G1 X173.181 Y145.776 E188.01990
G1 X173.765 Y145.852 E188.04439
G1 X174.341 Y145.979 E188.06891
G1 X174.897 Y146.154 E188.09315
G1 X175.442 Y146.378 E188.11764
G1 X175.967 Y146.650 E188.14223
G1 X176.459 Y146.963 E188.16647
G1 X176.936 Y147.328 E188.19144
G1 X177.365 Y147.722 E188.21566
G1 X177.766 Y148.157 E188.24025
G1 X178.117 Y148.613 E188.26418
G1 X178.440 Y149.118 E188.28910
G1 X178.718 Y149.650 E188.31406
G1 X178.938 Y150.183 E188.33803
G1 X179.116 Y150.744 E188.36250
G1 X179.244 Y151.317 E188.38691
G1 X179.322 Y151.899 E188.41132
G1 X179.348 Y152.491 E188.43596
G1 X179.324 Y153.081 E188.46051
G1 X179.248 Y153.665 E188.48499
G1 X179.121 Y154.241 E188.50951
G1 X178.946 Y154.797 E188.53375
G1 X178.722 Y155.342 E188.55825
G1 X178.450 Y155.868 E188.58287
G1 X178.137 Y156.359 E188.60707
G1 X177.772 Y156.836 E188.63205
G1 X177.378 Y157.265 E188.65626
G1 X176.943 Y157.666 E188.68086
G1 X176.483 Y158.020 E188.70499
G1 X175.725 Y158.482 E188.74190
G1 X175.197 Y158.729 E188.76613
G1 X174.631 Y158.937 E188.79120
G1 X174.073 Y159.086 E188.81521
G1 X173.490 Y159.190 E188.83983
G1 X172.902 Y159.242 E188.86438
G1 X171.898 Y159.250 E188.90612
G1 X132.549 Y159.250 E190.54206
G1 F2400 E189.94206
G1 Z1.300
G0 F9000 X169.152 Y153.108
G1 Z0.800
G1 F2400 E190.54206
G1 X169.310 Y153.697 E190.56741
G1 X169.568 Y154.250 E190.59278
G1 X169.918 Y154.750 E190.61816
G1 X170.349 Y155.181 E190.64350
G1 X170.842 Y155.527 E190.66854
G1 X171.406 Y155.791 E190.69443
G1 X171.836 Y155.915 E190.71304
G1 X172.145 Y155.970 E190.72609
G1 X172.444 Y155.996 E190.73856
G1 X172.612 Y156.000 E190.74555
G1 X173.205 Y155.947 E190.77030
G1 X173.659 Y155.836 E190.78973
G1 X174.213 Y155.606 E190.81467
G1 X174.613 Y155.364 E190.83411
G1 X175.074 Y154.977 E190.85913
G1 X175.381 Y154.625 E190.87855
G1 X175.705 Y154.116 E190.90364
G1 X175.936 Y153.557 E190.92878
G1 X176.070 Y152.954 E190.95446
G1 X176.096 Y152.654 E190.96698
G1 X176.099 Y152.488 E190.97389
G1 X176.047 Y151.892 E190.99876
G1 X175.889 Y151.303 E191.02411
G1 X175.631 Y150.750 E191.04948
G1 X175.281 Y150.250 E191.07486
G1 X174.850 Y149.819 E191.10020
G1 X174.356 Y149.473 E191.12527
G1 X174.211 Y149.394 E191.13214
G1 X173.793 Y149.209 E191.15114
G1 X173.363 Y149.085 E191.16975
G1 X173.054 Y149.030 E191.18280
G1 X172.755 Y149.004 E191.19528
G1 X172.588 Y149.000 E191.20222
G1 X171.994 Y149.053 E191.22701
G1 X171.540 Y149.164 E191.24645
G1 X170.986 Y149.394 E191.27138
G1 X170.586 Y149.636 E191.29082
G1 X170.125 Y150.023 E191.31584
G1 X169.818 Y150.375 E191.33526
G1 X169.494 Y150.884 E191.36035
G1 X169.263 Y151.443 E191.38550
G1 X169.129 Y152.046 E191.41118
G1 X169.103 Y152.346 E191.42370
G1 X169.100 Y152.512 E191.43060
G1 X169.152 Y153.108 E191.45547
G0 F9000 X168.457 Y152.922
;TYPE:SKIN
G1 F2400 X162.811 Y158.568 E191.78743
G0 F9000 X163.518 Y158.568
G1 F2400 X168.562 Y153.524 E192.08400
G0 F9000 X168.734 Y154.060
G1 F2400 X164.225 Y158.568 E192.34909
G0 F9000 X164.932 Y158.568
G1 F2400 X168.958 Y154.542 E192.58580
G0 F9000 X169.243 Y154.965
G1 F2400 X165.640 Y158.567 E192.79761
G0 F9000 X166.347 Y158.567
G1 F2400 X169.564 Y155.351 E192.98673
G0 F9000 X169.918 Y155.704
G1 F2400 X167.054 Y158.567 E193.15509
G0 F9000 X167.761 Y158.567
G1 F2400 X170.333 Y155.996 E193.30629
G0 F9000 X170.783 Y156.253
G1 F2400 X168.468 Y158.567 E193.44237
G0 F9000 X169.176 Y158.567
G1 F2400 X171.285 Y156.458 E193.56637
G0 F9000 X171.849 Y156.601
G1 F2400 X169.883 Y158.567 E193.68196
G0 F9000 X170.590 Y158.567
G1 F2400 X172.486 Y156.671 E193.79344
G0 F9000 X173.244 Y156.620
G1 F2400 X171.298 Y158.567 E193.90789
G0 F9000 X172.005 Y158.567
G1 F2400 X174.250 Y156.321 E194.03992
G1 F2400 E193.43992
G1 Z1.300
G0 F9000 X174.390 Y158.302
G1 Z0.800
G1 F2400 E194.03992
G1 X178.395 Y154.298 E194.27537
G0 F9000 X178.602 Y153.384
G1 F2400 X173.480 Y158.506 E194.57652
G0 F9000 X172.712 Y158.567
G1 F2400 X178.667 Y152.612 E194.92665
G0 F9000 X178.643 Y151.928
G1 F2400 X176.420 Y154.152 E195.05738
G0 F9000 X176.722 Y153.143
G1 F2400 X178.550 Y151.314 E195.16489
G0 F9000 X178.408 Y150.749
G1 F2400 X176.768 Y152.389 E195.26132
G0 F9000 X176.706 Y151.744
G1 F2400 X178.225 Y150.225 E195.35063
G0 F9000 X178.003 Y149.740
G1 F2400 X176.556 Y151.187 E195.43571
G0 F9000 X176.346 Y150.690
G1 F2400 X177.747 Y149.289 E195.51808
G0 F9000 X177.460 Y148.869
G1 F2400 X176.094 Y150.235 E195.59840
G0 F9000 X175.803 Y149.818
G1 F2400 X177.143 Y148.478 E195.67718
G0 F9000 X176.797 Y148.117
G1 F2400 X175.450 Y149.465 E195.75641
G0 F9000 X175.063 Y149.145
G1 F2400 X176.422 Y147.786 E195.83632
G0 F9000 X176.018 Y147.482
G1 F2400 X174.640 Y148.860 E195.91734
G0 F9000 X174.160 Y148.633
G1 F2400 X175.582 Y147.211 E196.00094
G0 F9000 X175.114 Y146.972
G1 F2400 X173.627 Y148.459 E196.08837
G0 F9000 X173.029 Y148.351
G1 F2400 X174.610 Y146.769 E196.18136
G0 F9000 X174.064 Y146.607
G1 F2400 X172.326 Y148.346 E196.28358
G0 F9000 X171.483 Y148.482
G1 F2400 X173.470 Y146.494 E196.40044
G0 F9000 X172.819 Y146.438
G1 F2400 X170.081 Y149.177 E196.56145
G0 F9000 X169.249 Y150.009
G1 F2400 X160.689 Y158.569 E197.06474
G0 F9000 X161.396 Y158.569
G1 F2400 X168.582 Y151.383 E197.48725
G0 F9000 X168.434 Y152.238
G1 F2400 X162.104 Y158.568 E197.85943
G1 F2400 E197.25943
G1 Z1.300
G0 F9000 X159.982 Y158.569
G1 Z0.800
G1 F2400 E197.85943
G1 X172.126 Y146.424 E198.57348
G0 F9000 X171.419 Y146.424
G1 F2400 X159.275 Y158.569 E199.28753
G0 F9000 X158.567 Y158.569
G1 F2400 X170.712 Y146.424 E200.00161
G0 F9000 X170.005 Y146.424
G1 F2400 X157.860 Y158.570 E200.71572
G0 F9000 X157.153 Y158.570
G1 F2400 X169.298 Y146.424 E201.42983
G0 F9000 X168.590 Y146.425
G1 F2400 X156.445 Y158.570 E202.14391
G0 F9000 X155.738 Y158.570
G1 F2400 X167.883 Y146.425 E202.85799
G0 F9000 X167.176 Y146.425
G1 F2400 X155.031 Y158.570 E203.57207
G0 F9000 X154.323 Y158.570
G1 F2400 X166.469 Y146.425 E204.28618
G0 F9000 X165.762 Y146.425
G1 F2400 X153.616 Y158.570 E205.00029
G0 F9000 X152.909 Y158.570
G1 F2400 X165.054 Y146.426 E205.71434
G0 F9000 X164.347 Y146.426
G1 F2400 X152.202 Y158.570 E206.42839
G0 F9000 X151.495 Y158.570
G1 F2400 X163.640 Y146.426 E207.14244
G0 F9000 X162.932 Y146.426
G1 F2400 X150.787 Y158.571 E207.85652
G0 F9000 X150.080 Y158.571
G1 F2400 X162.225 Y146.426 E208.57060
G0 F9000 X161.518 Y146.426
G1 F2400 X149.373 Y158.571 E209.28467
G0 F9000 X148.666 Y158.571
G1 F2400 X160.810 Y146.426 E209.99872
G0 F9000 X160.103 Y146.426
G1 F2400 X147.959 Y158.571 E210.71277
G0 F9000 X147.252 Y158.571
G1 F2400 X159.396 Y146.426 E211.42682
G0 F9000 X158.689 Y146.426
G1 F2400 X146.544 Y158.572 E212.14093
G0 F9000 X145.837 Y158.572
G1 F2400 X157.982 Y146.426 E212.85504
G0 F9000 X157.274 Y146.427
G1 F2400 X145.130 Y158.572 E213.56909
G0 F9000 X144.423 Y158.572
G1 F2400 X156.567 Y146.427 E214.28314
G0 F9000 X155.860 Y146.427
G1 F2400 X143.715 Y158.572 E214.99722
G0 F9000 X143.008 Y158.572
G1 F2400 X155.153 Y146.427 E215.71130
G0 F9000 X154.446 Y146.427
G1 F2400 X142.300 Y158.572 E216.42541
G0 F9000 X141.593 Y158.572
G1 F2400 X153.738 Y146.428 E217.13946
G0 F9000 X153.031 Y146.428
G1 F2400 X140.886 Y158.572 E217.85351
G0 F9000 X140.179 Y158.572
G1 F2400 X152.324 Y146.428 E218.56756
G0 F9000 X151.617 Y146.428
G1 F2400 X139.471 Y158.573 E219.28167
G0 F9000 X138.764 Y158.573
G1 F2400 X150.910 Y146.428 E219.99578
G0 F9000 X150.202 Y146.429
G1 F2400 X138.057 Y158.573 E220.70983
G0 F9000 X137.350 Y158.573
G1 F2400 X149.495 Y146.429 E221.42388
G0 F9000 X148.787 Y146.429
G1 F2400 X136.643 Y158.573 E222.13790
G0 F9000 X135.935 Y158.574
G1 F2400 X148.080 Y146.429 E222.85198
G0 F9000 X147.373 Y146.429
G1 F2400 X135.228 Y158.574 E223.56606
G0 F9000 X134.521 Y158.574
G1 F2400 X146.665 Y146.429 E224.28011
G0 F9000 X145.958 Y146.429
G1 F2400 X133.814 Y158.574 E224.99416
G0 F9000 X133.107 Y158.574
G1 F2400 X145.251 Y146.429 E225.70821
G0 F9000 X144.544 Y146.429
G1 F2400 X132.405 Y158.568 E226.42193
G0 F9000 X131.735 Y158.531
G1 F2400 X133.870 Y156.396 E226.54746
G0 F9000 X132.930 Y156.629
G1 F2400 X131.127 Y158.432 E226.65347
G0 F9000 X130.567 Y158.285
G1 F2400 X132.185 Y156.667 E226.74861
G0 F9000 X131.560 Y156.585
G1 F2400 X130.051 Y158.094 E226.83733
G0 F9000 X129.570 Y157.867
G1 F2400 X131.004 Y156.433 E226.92164
G0 F9000 X130.511 Y156.220
G1 F2400 X129.124 Y157.607 E227.00319
G0 F9000 X128.709 Y157.314
G1 F2400 X130.072 Y155.951 E227.08333
G0 F9000 X129.666 Y155.651
G1 F2400 X128.323 Y156.993 E227.16227
G0 F9000 X127.967 Y156.642
G1 F2400 X129.312 Y155.297 E227.24135
G0 F9000 X129.001 Y154.902
G1 F2400 X127.641 Y156.262 E227.32131
G0 F9000 X127.343 Y155.852
G1 F2400 X128.726 Y154.469 E227.40263
G0 F9000 X128.501 Y153.987
G1 F2400 X127.076 Y155.412 E227.48641
G0 F9000 X126.842 Y154.939
G1 F2400 X128.342 Y153.439 E227.57460
G0 F9000 X128.250 Y152.824
G1 F2400 X126.647 Y154.427 E227.66885
G0 F9000 X126.491 Y153.876
G1 F2400 X128.245 Y152.122 E227.77198
G0 F9000 X128.417 Y151.243
G1 F2400 X126.382 Y153.278 E227.89163
G0 F9000 X126.332 Y152.621
G1 F2400 X132.521 Y146.431 E228.25555
G0 F9000 X133.228 Y146.431
G1 F2400 X131.144 Y148.515 E228.37808
G0 F9000 X132.011 Y148.355
G1 F2400 X133.935 Y146.431 E228.49121
G0 F9000 X134.643 Y146.431
G1 F2400 X132.733 Y148.341 E228.60351
G0 F9000 X133.346 Y148.435
G1 F2400 X135.350 Y146.431 E228.72134
G0 F9000 X136.057 Y146.431
G1 F2400 X133.887 Y148.601 E228.84892
G0 F9000 X134.374 Y148.821
G1 F2400 X136.765 Y146.431 E228.98948
G0 F9000 X137.472 Y146.431
G1 F2400 X134.802 Y149.100 E229.14643
G0 F9000 X135.198 Y149.411
G1 F2400 X138.179 Y146.431 E229.32167
G0 F9000 X138.886 Y146.431
G1 F2400 X135.552 Y149.765 E229.51770
G0 F9000 X135.852 Y150.171
G1 F2400 X139.594 Y146.430 E229.73769
G0 F9000 X140.301 Y146.430
G1 F2400 X136.115 Y150.616 E229.98381
G0 F9000 X136.336 Y151.102
G1 F2400 X141.008 Y146.430 E230.25850
G0 F9000 X141.715 Y146.430
G1 F2400 X136.485 Y151.660 E230.56601
G0 F9000 X136.561 Y152.291
G1 F2400 X142.422 Y146.430 E230.91061
G0 F9000 X143.130 Y146.429
G1 F2400 X136.543 Y153.017 E231.29793
G0 F9000 X136.297 Y153.969
G1 F2400 X143.837 Y146.429 E231.74125
G1 F2400 E231.14125
G1 Z1.300
G0 F9000 X131.784 Y146.462
G1 Z0.800
G1 F2400 E231.74125
G1 X126.361 Y151.885 E232.06010
G0 F9000 X126.509 Y151.029
G1 F2400 X130.927 Y146.611 E232.31987
G0 F9000 X129.829 Y147.002
G1 F2400 X126.891 Y149.940 E232.49261
G1 F2400 E231.89261
G1 Z1.300
G0 F9000 X175.684 Y157.715
G1 Z0.800
G1 F2400 E232.49261
G1 X177.850 Y155.550 E232.61993
;LAYER:4
M106 S40
G0 F9000 X178.016 Y155.618 Z1.000
;TYPE:WALL-INNER
G1 F2700 X177.724 Y156.077 E232.64255
G1 X177.399 Y156.501 E232.66476
G1 X177.020 Y156.916 E232.68813
G1 X176.412 Y157.451 E232.72180
G1 X175.965 Y157.764 E232.74448
G1 X175.491 Y158.039 E232.76727
G1 X175.001 Y158.269 E232.78977
G1 X174.488 Y158.457 E232.81249
G1 X173.959 Y158.599 E232.83526
G1 X173.429 Y158.694 E232.85764
G1 X172.882 Y158.742 E232.88047
G1 X171.695 Y158.750 E232.92982
G1 X132.605 Y158.750 E234.55500
G1 X131.861 Y158.725 E234.58595
G1 X131.327 Y158.655 E234.60834
G1 X130.794 Y158.538 E234.63103
G1 X130.270 Y158.374 E234.65385
G1 X129.767 Y158.167 E234.67647
G1 X129.286 Y157.918 E234.69899
G1 X128.820 Y157.622 E234.72194
G1 X128.398 Y157.298 E234.74406
G1 X127.984 Y156.920 E234.76736
G1 X127.449 Y156.312 E234.80103
G1 X127.136 Y155.865 E234.82372
G1 X126.861 Y155.391 E234.84650
G1 X126.631 Y154.901 E234.86901
G1 X126.443 Y154.388 E234.89172
G1 X126.301 Y153.859 E234.91450
G1 X126.206 Y153.329 E234.93688
G1 X126.158 Y152.779 E234.95984
G1 X126.151 Y152.499 E234.97148
G1 X126.173 Y151.973 E234.99337
G1 X126.245 Y151.427 E235.01626
G1 X126.362 Y150.894 E235.03895
G1 X126.526 Y150.370 E235.06178
G1 X126.733 Y149.867 E235.08439
G1 X126.984 Y149.382 E235.10710
G1 X127.276 Y148.923 E235.12971
G1 X127.604 Y148.495 E235.15213
G1 X127.980 Y148.084 E235.17529
G1 X128.588 Y147.549 E235.20896
G1 X129.035 Y147.236 E235.23165
G1 X129.509 Y146.961 E235.25443
G1 X129.999 Y146.731 E235.27694
G1 X130.512 Y146.543 E235.29965
G1 X131.041 Y146.401 E235.32242
G1 X131.571 Y146.306 E235.34481
G1 X132.118 Y146.258 E235.36764
G1 X133.306 Y146.250 E235.41703
G1 X172.396 Y146.250 E237.04221
G1 X173.139 Y146.275 E237.07311
G1 X173.673 Y146.345 E237.09550
G1 X174.206 Y146.462 E237.11819
G1 X174.730 Y146.626 E237.14102
G1 X175.233 Y146.833 E237.16363
G1 X175.714 Y147.082 E237.18615
G1 X176.180 Y147.378 E237.20910
G1 X176.602 Y147.702 E237.23122
G1 X177.016 Y148.080 E237.25453
G1 X177.551 Y148.688 E237.28820
G1 X177.864 Y149.135 E237.31089
G1 X178.139 Y149.609 E237.33367
G1 X178.369 Y150.099 E237.35617
G1 X178.557 Y150.612 E237.37889
G1 X178.699 Y151.141 E237.40166
G1 X178.794 Y151.671 E237.42405
G1 X178.842 Y152.221 E237.44700
G1 X178.849 Y152.500 E237.45860
G1 X178.827 Y153.027 E237.48053
G1 X178.755 Y153.573 E237.50343
G1 X178.638 Y154.106 E237.52612
G1 X178.474 Y154.630 E237.54894
G1 X178.267 Y155.133 E237.57156
G1 X178.016 Y155.618 E237.59426
G1 F2400 E236.99426
G1 Z1.500
G0 F9000 X176.062 Y154.508
G1 Z1.000
G1 F2400 E237.59426
G1 F2700 X176.302 Y154.017 E237.61698
G1 X176.499 Y153.390 E237.64431
G1 X176.567 Y153.014 E237.66019
G1 X176.595 Y152.680 E237.67413
G1 X176.600 Y152.470 E237.68286
G1 X176.541 Y151.805 E237.71062
G1 X176.360 Y151.132 E237.73959
G1 X176.077 Y150.522 E237.76755
G1 X175.867 Y150.192 E237.78381
G1 X175.557 Y149.806 E237.80439
G1 X175.427 Y149.670 E237.81222
G1 X175.153 Y149.420 E237.82764
G1 X174.601 Y149.034 E237.85564
G1 X173.969 Y148.739 E237.88464
G1 X173.319 Y148.565 E237.91261
G1 X172.783 Y148.505 E237.93504
G1 X172.572 Y148.499 E237.94381
G1 X171.912 Y148.558 E237.97136
G1 X171.390 Y148.685 E237.99370
G1 X170.903 Y148.876 E238.01545
G1 X170.463 Y149.117 E238.03630
G1 X170.291 Y149.233 E238.04493
G1 X169.905 Y149.543 E238.06551
G1 X169.769 Y149.673 E238.07333
G1 X169.519 Y149.947 E238.08875
G1 X169.137 Y150.492 E238.11642
G1 X168.897 Y150.983 E238.13915
G1 X168.700 Y151.610 E238.16647
G1 X168.632 Y151.986 E238.18236
G1 X168.604 Y152.320 E238.19629
G1 X168.599 Y152.530 E238.20502
G1 X168.658 Y153.195 E238.23278
G1 X168.839 Y153.868 E238.26175
G1 X169.122 Y154.478 E238.28971
G1 X169.332 Y154.808 E238.30597
G1 X169.642 Y155.194 E238.32656
G1 X169.772 Y155.330 E238.33438
G1 X170.046 Y155.580 E238.34980
G1 X170.597 Y155.966 E238.37777
G1 X171.231 Y156.262 E238.40686
G1 X171.880 Y156.435 E238.43478
G1 X172.416 Y156.495 E238.45721
G1 X172.628 Y156.501 E238.46602
G1 X173.287 Y156.442 E238.49353
G1 X173.809 Y156.315 E238.51587
G1 X174.296 Y156.124 E238.53762
G1 X174.736 Y155.883 E238.55847
G1 X174.908 Y155.767 E238.56710
G1 X175.294 Y155.457 E238.58768
G1 X175.430 Y155.327 E238.59550
G1 X175.680 Y155.053 E238.61092
G1 X176.062 Y154.508 E238.63859
G1 F2400 E238.03859
G1 Z1.500
G0 F9000 X136.396 Y152.683
G1 Z1.000
G1 F2400 E238.63859
G1 F2700 X136.402 Y152.472 E238.64737
G1 X136.342 Y151.804 E238.67525
G1 X136.161 Y151.132 E238.70419
G1 X135.878 Y150.522 E238.73214
G1 X135.668 Y150.192 E238.74841
G1 X135.358 Y149.806 E238.76899
G1 X135.228 Y149.670 E238.77681
G1 X134.954 Y149.420 E238.79223
G1 X134.403 Y149.034 E238.82020
G1 X133.769 Y148.738 E238.84929
G1 X133.120 Y148.565 E238.87722
G1 X132.584 Y148.505 E238.89964
G1 X132.373 Y148.499 E238.90842
G1 X131.713 Y148.558 E238.93596
G1 X131.191 Y148.685 E238.95830
G1 X130.704 Y148.876 E238.98005
G1 X130.264 Y149.117 E239.00091
G1 X130.092 Y149.233 E239.00953
G1 X129.706 Y149.543 E239.03011
G1 X129.570 Y149.673 E239.03794
G1 X129.320 Y149.947 E239.05336
G1 X128.938 Y150.492 E239.08103
G1 X128.698 Y150.983 E239.10375
G1 X128.501 Y151.610 E239.13107
G1 X128.433 Y151.986 E239.14696
G1 X128.405 Y152.320 E239.16089
G1 X128.400 Y152.530 E239.16963
G1 X128.459 Y153.195 E239.19738
G1 X128.640 Y153.868 E239.22636
G1 X128.923 Y154.478 E239.25431
G1 X129.133 Y154.808 E239.27058
G1 X129.443 Y155.194 E239.29116
G1 X129.573 Y155.330 E239.29898
G1 X129.847 Y155.580 E239.31440
G1 X130.398 Y155.966 E239.34237
G1 X131.032 Y156.262 E239.37146
G1 X131.681 Y156.435 E239.39939
G1 X132.217 Y156.495 E239.42181
G1 X132.429 Y156.501 E239.43063
G1 X133.088 Y156.442 E239.45813
G1 X133.610 Y156.315 E239.48047
G1 X134.097 Y156.124 E239.50222
G1 X134.537 Y155.883 E239.52308
G1 X134.709 Y155.767 E239.53170
G1 X135.095 Y155.457 E239.55228
G1 X135.231 Y155.327 E239.56011
G1 X135.481 Y155.053 E239.57553
G1 X135.863 Y154.508 E239.60320
G1 X136.103 Y154.017 E239.62592
G1 X136.300 Y153.390 E239.65324
G1 X136.368 Y153.014 E239.66913
G1 X136.396 Y152.683 E239.68294
G0 F9000 X135.897 Y152.655
;TYPE:WALL-OUTER
G1 F2700 X135.901 Y152.487 E239.68992
G1 X135.848 Y151.892 E239.71476
G1 X135.690 Y151.303 E239.74011
G1 X135.436 Y150.757 E239.76515
G1 X135.265 Y150.488 E239.77840
G1 X134.982 Y150.136 E239.79718
G1 X134.645 Y149.814 E239.81656
G1 X134.152 Y149.469 E239.84157
G1 X133.598 Y149.210 E239.86700
G1 X133.017 Y149.055 E239.89200
G1 X132.556 Y149.004 E239.91128
G1 X132.388 Y149.000 E239.91827
G1 X131.795 Y149.053 E239.94302
G1 X131.342 Y149.163 E239.96240
G1 X130.916 Y149.330 E239.98143
G1 X130.388 Y149.636 E240.00680
G1 X130.036 Y149.919 E240.02558
G1 X129.714 Y150.256 E240.04495
G1 X129.370 Y150.747 E240.06988
G1 X129.163 Y151.169 E240.08942
G1 X128.986 Y151.735 E240.11408
G1 X128.930 Y152.046 E240.12721
G1 X128.904 Y152.346 E240.13973
G1 X128.901 Y152.513 E240.14668
G1 X128.953 Y153.108 E240.17151
G1 X129.111 Y153.697 E240.19686
G1 X129.365 Y154.243 E240.22190
G1 X129.536 Y154.512 E240.23515
G1 X129.819 Y154.864 E240.25393
G1 X130.156 Y155.186 E240.27331
G1 X130.649 Y155.531 E240.29832
G1 X131.203 Y155.790 E240.32375
G1 X131.784 Y155.945 E240.34875
G1 X132.245 Y155.996 E240.36803
G1 X132.414 Y156.000 E240.37506
G1 X133.006 Y155.947 E240.39977
G1 X133.459 Y155.837 E240.41915
G1 X133.885 Y155.670 E240.43818
G1 X134.413 Y155.364 E240.46355
G1 X134.765 Y155.081 E240.48232
G1 X135.087 Y154.744 E240.50170
G1 X135.431 Y154.253 E240.52663
G1 X135.638 Y153.831 E240.54617
G1 X135.815 Y153.265 E240.57082
G1 X135.871 Y152.954 E240.58396
G1 X135.897 Y152.655 E240.59644
G1 F2400 E239.99644
G1 Z1.500
G0 F9000 X133.303 Y145.750
G1 Z1.000
G1 F2400 E240.59644
G1 F2700 X172.413 Y145.750 E242.22245
G1 X173.179 Y145.776 E242.25431
G1 X173.763 Y145.852 E242.27879
G1 X174.329 Y145.976 E242.30288
G1 X174.906 Y146.157 E242.32803
G1 X175.439 Y146.377 E242.35200
G1 X175.965 Y146.649 E242.37662
G1 X176.465 Y146.966 E242.40123
G1 X176.921 Y147.316 E242.42513
G1 X177.372 Y147.728 E242.45053
G1 X177.573 Y147.936 E242.46255
G1 X177.941 Y148.374 E242.48634
G1 X178.291 Y148.873 E242.51168
G1 X178.581 Y149.373 E242.53571
G1 X178.827 Y149.897 E242.55977
G1 X179.037 Y150.471 E242.58519
G1 X179.186 Y151.025 E242.60904
G1 X179.290 Y151.608 E242.63366
G1 X179.342 Y152.190 E242.65795
G1 X179.349 Y152.490 E242.67043
G1 X179.324 Y153.079 E242.69494
G1 X179.248 Y153.663 E242.71942
G1 X179.125 Y154.225 E242.74334
G1 X178.943 Y154.806 E242.76865
G1 X178.723 Y155.339 E242.79263
G1 X178.451 Y155.866 E242.81728
G1 X178.134 Y156.365 E242.84186
G1 X177.784 Y156.821 E242.86576
G1 X177.372 Y157.272 E242.89116
G1 X177.164 Y157.473 E242.90318
G1 X176.726 Y157.841 E242.92697
G1 X176.227 Y158.191 E242.95231
G1 X175.727 Y158.481 E242.97634
G1 X175.199 Y158.728 E243.00057
G1 X174.632 Y158.936 E243.02568
G1 X174.075 Y159.086 E243.04966
G1 X173.492 Y159.190 E243.07428
G1 X172.905 Y159.242 E243.09878
G1 X171.698 Y159.250 E243.14897
G1 X132.588 Y159.250 E244.77497
G1 X131.821 Y159.224 E244.80688
G1 X131.237 Y159.148 E244.83136
G1 X130.671 Y159.024 E244.85545
G1 X130.094 Y158.843 E244.88059
G1 X129.561 Y158.623 E244.90457
G1 X129.035 Y158.351 E244.92919
G1 X128.535 Y158.034 E244.95380
G1 X128.079 Y157.684 E244.97770
G1 X127.628 Y157.272 E245.00309
G1 X127.427 Y157.064 E245.01512
G1 X127.058 Y156.624 E245.03899
G1 X126.709 Y156.127 E245.06424
G1 X126.419 Y155.627 E245.08827
G1 X126.172 Y155.099 E245.11251
G1 X125.963 Y154.529 E245.13775
G1 X125.814 Y153.975 E245.16160
G1 X125.710 Y153.392 E245.18622
G1 X125.658 Y152.804 E245.21076
G1 X125.651 Y152.510 E245.22299
G1 X125.676 Y151.921 E245.24750
G1 X125.752 Y151.337 E245.27198
G1 X125.875 Y150.775 E245.29590
G1 X126.058 Y150.192 E245.32131
G1 X126.277 Y149.661 E245.34519
G1 X126.549 Y149.134 E245.36984
G1 X126.866 Y148.635 E245.39442
G1 X127.216 Y148.179 E245.41832
G1 X127.628 Y147.728 E245.44372
G1 X127.836 Y147.527 E245.45574
G1 X128.274 Y147.159 E245.47953
G1 X128.773 Y146.809 E245.50487
G1 X129.273 Y146.519 E245.52890
G1 X129.801 Y146.272 E245.55313
G1 X130.368 Y146.064 E245.57824
G1 X130.925 Y145.914 E245.60223
G1 X131.508 Y145.810 E245.62685
G1 X132.095 Y145.758 E245.65135
G1 X133.303 Y145.750 E245.70157
G1 F2400 E245.10157
G1 Z1.500
G0 F9000 X169.129 Y152.046
G1 Z1.000
G1 F2400 E245.70157
G1 F2700 X169.103 Y152.346 E245.71409
G1 X169.100 Y152.513 E245.72103
G1 X169.152 Y153.108 E245.74587
G1 X169.310 Y153.697 E245.77122
G1 X169.564 Y154.243 E245.79625
G1 X169.735 Y154.512 E245.80951
G1 X170.018 Y154.864 E245.82828
G1 X170.355 Y155.186 E245.84766
G1 X170.848 Y155.531 E245.87268
G1 X171.402 Y155.790 E245.89811
G1 X171.983 Y155.945 E245.92311
G1 X172.444 Y155.996 E245.94239
G1 X172.613 Y156.000 E245.94942
G1 X173.205 Y155.947 E245.97413
G1 X173.658 Y155.837 E245.99351
G1 X174.084 Y155.670 E246.01253
G1 X174.612 Y155.364 E246.03790
G1 X174.964 Y155.081 E246.05668
G1 X175.286 Y154.744 E246.07606
G1 X175.630 Y154.253 E246.10098
G1 X175.837 Y153.831 E246.12053
G1 X176.014 Y153.265 E246.14518
G1 X176.070 Y152.954 E246.15832
G1 X176.096 Y152.654 E246.17084
G1 X176.099 Y152.487 E246.17778
G1 X176.047 Y151.892 E246.20261
G1 X175.889 Y151.303 E246.22797
G1 X175.635 Y150.757 E246.25300
G1 X175.464 Y150.488 E246.26626
G1 X175.181 Y150.136 E246.28503
G1 X174.844 Y149.814 E246.30441
G1 X174.350 Y149.469 E246.32946
G1 X173.797 Y149.210 E246.35485
G1 X173.216 Y149.055 E246.37985
G1 X172.755 Y149.004 E246.39913
G1 X172.587 Y149.000 E246.40612
G1 X171.994 Y149.053 E246.43087
G1 X171.541 Y149.163 E246.45025
G1 X171.115 Y149.330 E246.46928
G1 X170.587 Y149.636 E246.49465
G1 X170.235 Y149.919 E246.51343
G1 X169.913 Y150.256 E246.53280
G1 X169.569 Y150.747 E246.55773
G1 X169.362 Y151.169 E246.57727
G1 X169.185 Y151.735 E246.60193
G1 X169.129 Y152.046 E246.61506
G0 F9000 X168.700 Y151.023
;TYPE:FILL
G1 F2700 X164.104 Y146.426 E246.88532
G1 F2400 E246.28532
G1 Z1.500
G0 F9000 X161.164 Y146.426
G1 Z1.000
G1 F2400 E246.88532
G1 F2700 X149.019 Y158.571 E247.59940
G0 F9000 X147.964 Y158.570
G1 F2700 X135.825 Y146.431 E248.31313
G1 F2400 E247.71313
G1 Z1.500
G0 F9000 X132.875 Y146.431
G1 Z1.000
G1 F2400 E248.31313
G1 F2700 X130.543 Y148.763 E248.45024
G0 F9000 X130.922 Y148.600
G1 F2700 X129.493 Y147.170 E248.53429
G1 F2400 E247.93429
G1 Z1.500
G0 F9000 X128.672 Y150.634
G1 Z1.000
G1 F2400 E248.53429
G1 F2700 X126.350 Y152.957 E248.67084
G1 F2400 E248.07084
G1 Z1.500
G0 F9000 X126.468 Y151.217
G1 Z1.000
G1 F2400 E248.67084
G1 F2700 X128.268 Y153.017 E248.77668
G1 F2400 E248.17668
G1 Z1.500
G0 F9000 X130.281 Y156.096
G1 Z1.000
G1 F2400 E248.77668
G1 F2700 X128.908 Y157.469 E248.85740
G1 F2400 E248.25740
G1 Z1.500
G0 F9000 X131.883 Y156.632
G1 Z1.000
G1 F2400 E248.85740
G1 F2700 X133.824 Y158.573 E248.97153
G0 F9000 X134.874 Y158.574
G1 F2700 X147.020 Y146.429 E249.68564
G1 F2400 E249.08564
G1 Z1.500
G0 F9000 X149.965 Y146.429
G1 Z1.000
G1 F2400 E249.68564
G1 F2700 X162.103 Y158.567 E250.39930
G0 F9000 X163.164 Y158.568
G1 F2700 X168.488 Y153.244 E250.71233
G1 F2400 E250.11233
G1 Z1.500
G0 F9000 X172.162 Y156.641
G1 Z1.000
G1 F2400 E250.71233
G1 F2700 X170.237 Y158.567 E250.82555
G0 F9000 X169.173 Y158.567
G1 F2700 X157.034 Y146.428 E251.53927
G1 F2400 E250.93927
G1 Z1.500
G0 F9000 X154.092 Y146.427
G1 Z1.000
G1 F2400 E251.53927
G1 F2700 X141.947 Y158.572 E252.25335
G0 F9000 X140.894 Y158.572
G1 F2700 X136.299 Y153.976 E252.52355
G1 F2400 E251.92355
G1 Z1.500
G0 F9000 X135.997 Y150.381
G1 Z1.000
G1 F2400 E252.52355
G1 F2700 X139.947 Y146.430 E252.75582
G1 F2400 E252.15582
G1 Z1.500
G0 F9000 X142.895 Y146.431
G1 Z1.000
G1 F2400 E252.75582
G1 F2700 X155.033 Y158.569 E253.46949
G0 F9000 X156.092 Y158.570
G1 F2700 X168.236 Y146.425 E254.18354
G1 F2400 E253.58354
G1 Z1.500
G0 F9000 X171.174 Y146.425
G1 Z1.000
G1 F2400 E254.18354
G1 F2700 X173.115 Y148.366 E254.29767
G0 F9000 X173.340 Y148.392
G1 F2700 X174.863 Y146.869 E254.38721
G1 F2400 E253.78721
G1 Z1.500
G0 F9000 X178.321 Y150.482
G1 Z1.000
G1 F2400 E254.38721
G1 F2700 X176.738 Y152.066 E254.48032
G0 F9000 X176.730 Y151.981
G1 F2700 X178.530 Y153.781 E254.58615
G1 F2400 E253.98615
G1 Z1.500
G0 F9000 X175.506 Y157.828
G1 Z1.000
G1 F2400 E254.58615
G1 F2700 X174.076 Y156.398 E254.67023
;LAYER:5
M106 S51
G0 F9000 X173.810 Y156.313 Z1.200
;TYPE:WALL-INNER
G1 F2700 X174.297 Y156.123 E254.69196
G1 X174.763 Y155.868 E254.71405
G1 X175.304 Y155.451 E254.74244
G1 X175.775 Y154.936 E254.77146
G1 X176.146 Y154.354 E254.80015
G1 X176.365 Y153.854 E254.82285
G1 X176.535 Y153.220 E254.85014
G1 X176.595 Y152.680 E254.87273
G1 X176.600 Y152.468 E254.88154
G1 X176.542 Y151.813 E254.90888
G1 X176.413 Y151.290 E254.93128
G1 X176.223 Y150.803 E254.95301
G1 X175.968 Y150.337 E254.97510
G1 X175.551 Y149.796 E255.00349
G1 X175.036 Y149.325 E255.03251
G1 X174.454 Y148.955 E255.06118
G1 X173.954 Y148.734 E255.08391
G1 X173.319 Y148.565 E255.11123
G1 X172.783 Y148.505 E255.13365
G1 X172.570 Y148.499 E255.14251
G1 X171.911 Y148.558 E255.17002
G1 X171.389 Y148.687 E255.19237
G1 X170.902 Y148.877 E255.21411
G1 X170.436 Y149.132 E255.23619
G1 X169.895 Y149.549 E255.26459
G1 X169.424 Y150.064 E255.29361
G1 X169.053 Y150.646 E255.32230
G1 X168.834 Y151.146 E255.34500
G1 X168.664 Y151.780 E255.37229
G1 X168.604 Y152.320 E255.39487
G1 X168.599 Y152.532 E255.40369
G1 X168.657 Y153.187 E255.43103
G1 X168.786 Y153.710 E255.45342
G1 X168.976 Y154.197 E255.47516
G1 X169.231 Y154.663 E255.49724
G1 X169.648 Y155.204 E255.52564
G1 X170.163 Y155.675 E255.55466
G1 X170.745 Y156.045 E255.58333
G1 X171.245 Y156.266 E255.60606
G1 X171.880 Y156.435 E255.63338
G1 X172.416 Y156.495 E255.65580
G1 X172.631 Y156.501 E255.66474
G1 X173.288 Y156.442 E255.69217
G1 X173.810 Y156.313 E255.71452
G1 F2400 E255.11452
G1 Z1.700
G0 F9000 X174.750 Y158.366
G1 Z1.200
G1 F2400 E255.71452
G1 F2700 X174.228 Y158.532 E255.73729
G1 X173.692 Y158.652 E255.76013
G1 X173.158 Y158.723 E255.78253
G1 X172.602 Y158.749 E255.80567
G1 X132.629 Y158.750 E257.46755
G1 X132.141 Y158.744 E257.48784
G1 X131.603 Y158.698 E257.51029
G1 X131.061 Y158.604 E257.53316
G1 X130.531 Y158.463 E257.55596
G1 X130.019 Y158.277 E257.57861
G1 X129.527 Y158.049 E257.60115
G1 X129.052 Y157.776 E257.62393
G1 X128.610 Y157.468 E257.64633
G1 X128.188 Y157.114 E257.66923
G1 X127.801 Y156.729 E257.69193
G1 X127.445 Y156.307 E257.71488
G1 X127.141 Y155.875 E257.73684
G1 X126.862 Y155.393 E257.76000
G1 X126.632 Y154.903 E257.78250
G1 X126.444 Y154.390 E257.80522
G1 X126.300 Y153.854 E257.82829
G1 X126.208 Y153.334 E257.85024
G1 X126.157 Y152.778 E257.87346
G1 X126.151 Y152.499 E257.88506
G1 X126.173 Y151.974 E257.90691
G1 X126.243 Y151.431 E257.92967
G1 X126.361 Y150.896 E257.95245
G1 X126.525 Y150.372 E257.97527
G1 X126.732 Y149.869 E257.99789
G1 X126.983 Y149.384 E258.02059
G1 X127.270 Y148.932 E258.04285
G1 X127.606 Y148.493 E258.06583
G1 X127.980 Y148.083 E258.08891
G1 X128.368 Y147.725 E258.11086
G1 X128.805 Y147.388 E258.13380
G1 X129.270 Y147.092 E258.15672
G1 X129.743 Y146.844 E258.17892
G1 X130.250 Y146.634 E258.20174
G1 X130.772 Y146.468 E258.22451
G1 X131.308 Y146.348 E258.24734
G1 X131.842 Y146.277 E258.26974
G1 X132.399 Y146.251 E258.29292
G1 X172.372 Y146.250 E259.95481
G1 X172.859 Y146.256 E259.97506
G1 X173.397 Y146.302 E259.99751
G1 X173.939 Y146.396 E260.02038
G1 X174.469 Y146.537 E260.04318
G1 X174.981 Y146.723 E260.06582
G1 X175.473 Y146.951 E260.08837
G1 X175.948 Y147.224 E260.11115
G1 X176.390 Y147.532 E260.13354
G1 X176.812 Y147.886 E260.15644
G1 X177.199 Y148.271 E260.17914
G1 X177.555 Y148.693 E260.20209
G1 X177.859 Y149.125 E260.22406
G1 X178.138 Y149.607 E260.24721
G1 X178.368 Y150.097 E260.26971
G1 X178.556 Y150.610 E260.29243
G1 X178.698 Y151.139 E260.31520
G1 X178.792 Y151.666 E260.33746
G1 X178.843 Y152.222 E260.36067
G1 X178.849 Y152.500 E260.37223
G1 X178.827 Y153.026 E260.39412
G1 X178.757 Y153.569 E260.41688
G1 X178.639 Y154.104 E260.43966
G1 X178.475 Y154.628 E260.46249
