;-- START GCODE --
;Sliced for Type A Machines Series 1
;Sliced at: Tue 10-11-2020 16:27:53
;Basic settings: Layer height: 0.2 Walls: 1 Fill: 80
;Print Speed: 45 Support: 0
;Retraction Speed: 40 Retraction Distance: 0.6
;Print time: 14 minutes
;Filament used: 1.086m 3.0g
;Settings based on: Type A Machines ProMatte
G21        ;metric values
G90        ;absolute positioning
G28     ;move to endstops
G29		;allows for auto-levelling
G1 Z15.0 F12000 ;move the platform down 15mm
G1 X150 Y5 F9000 ;center
M140 S50 ;Prep Heat Bed
M109 S210 ;Heat To temp
M190 S50 ;Heat Bed to temp
G1 X150 Y5 Z0.3 ;move the platform to purge extrusion
G92 E0 ;zero the extruded length
G1 F200 X250 E30 ;extrude 30mm of feed stock
G92 E0 ;zero the extruded length again
G1 X150 Y150  Z25 F12000 ;recenter and begin
G1 F9000

;Layer count: 50
;LAYER:0
M107
G0 F9000 X133.250 Y135.750 Z0.200
;TYPE:SKIRT
G1 F1800 X171.750 Y135.750 E1.60064
G1 X171.750 Y169.250 E2.99341
G1 X133.250 Y169.250 E4.59406
G1 X133.250 Y135.750 E5.98682
G0 F9000 X133.750 Y136.250
G1 F1800 X171.250 Y136.250 E7.54589
G1 X171.250 Y168.750 E8.89709
G1 X133.750 Y168.750 E10.45615
G1 X133.750 Y136.250 E11.80735
G1 F2400 E11.20735
G1 Z0.700
G0 F9000 X137.750 Y140.250
;TYPE:WALL-INNER
G1 Z0.200
G1 F2400 E11.80735
G1 F1800 X167.250 Y140.250 E13.03382
G1 X167.250 Y164.750 E14.05241
G1 X137.750 Y164.750 E15.27887
G1 X137.750 Y140.250 E16.29747
G0 F9000 X137.250 Y139.750
;TYPE:WALL-OUTER
G1 F1800 X167.750 Y139.750 E17.56551
G1 X167.750 Y165.250 E18.62568
G1 X137.250 Y165.250 E19.89372
G1 X137.250 Y139.750 E20.95389
G0 F9000 X137.950 Y140.425
;TYPE:SKIN
G1 F1800 X162.099 Y164.574 E22.37375
G0 F9000 X161.392 Y164.574
G1 F1800 X137.924 Y141.106 E23.75358
G0 F9000 X137.924 Y141.813
G1 F1800 X160.685 Y164.574 E25.09184
G1 F2400 E24.49184
G1 Z0.700
G0 F9000 X162.806 Y164.574
G1 Z0.200
G1 F2400 E25.09184
G1 F1800 X138.657 Y140.425 E26.51171
G0 F9000 X139.364 Y140.425
G1 F1800 X163.513 Y164.574 E27.93158
G0 F9000 X164.220 Y164.574
G1 F1800 X140.071 Y140.425 E29.35145
G0 F9000 X140.778 Y140.425
G1 F1800 X164.927 Y164.574 E30.77132
G0 F9000 X165.634 Y164.574
G1 F1800 X141.485 Y140.425 E32.19119
G0 F9000 X142.192 Y140.425
G1 F1800 X166.341 Y164.574 E33.61105
G0 F9000 X167.049 Y164.574
G1 F1800 X142.899 Y140.425 E35.03095
G0 F9000 X143.607 Y140.425
G1 F1800 X167.074 Y163.892 E36.41072
G0 F9000 X167.074 Y163.185
G1 F1800 X144.314 Y140.425 E37.74892
G0 F9000 X145.021 Y140.425
G1 F1800 X167.074 Y162.478 E39.04555
G0 F9000 X167.074 Y161.771
G1 F1800 X145.728 Y140.425 E40.30062
G0 F9000 X146.435 Y140.425
G1 F1800 X167.074 Y161.064 E41.51411
G0 F9000 X167.074 Y160.356
G1 F1800 X147.142 Y140.425 E42.68601
G0 F9000 X147.849 Y140.425
G1 F1800 X167.074 Y159.649 E43.81633
G0 F9000 X167.074 Y158.942
G1 F1800 X148.556 Y140.425 E44.90509
G0 F9000 X149.263 Y140.425
G1 F1800 X167.074 Y158.235 E45.95228
G0 F9000 X167.074 Y157.528
G1 F1800 X149.970 Y140.425 E46.95790
G0 F9000 X150.678 Y140.425
G1 F1800 X167.074 Y156.821 E47.92192
G0 F9000 X167.074 Y156.114
G1 F1800 X151.385 Y140.425 E48.84438
G0 F9000 X152.092 Y140.425
G1 F1800 X167.074 Y155.407 E49.72526
G0 F9000 X167.074 Y154.700
G1 F1800 X152.799 Y140.425 E50.56458
G0 F9000 X153.506 Y140.425
G1 F1800 X167.074 Y153.993 E51.36232
G0 F9000 X167.074 Y153.285
G1 F1800 X154.213 Y140.425 E52.11847
G0 F9000 X154.920 Y140.425
G1 F1800 X167.074 Y152.578 E52.83305
G0 F9000 X167.074 Y151.871
G1 F1800 X155.627 Y140.425 E53.50606
G0 F9000 X156.334 Y140.425
G1 F1800 X167.074 Y151.164 E54.13750
G0 F9000 X167.074 Y150.457
G1 F1800 X157.042 Y140.425 E54.72734
G0 F9000 X157.749 Y140.425
G1 F1800 X167.074 Y149.750 E55.27562
G0 F9000 X167.074 Y149.043
G1 F1800 X158.456 Y140.425 E55.78232
G0 F9000 X159.163 Y140.425
G1 F1800 X167.074 Y148.336 E56.24746
G0 F9000 X167.074 Y147.629
G1 F1800 X159.870 Y140.425 E56.67103
G0 F9000 X160.577 Y140.425
G1 F1800 X167.074 Y146.921 E57.05300
G0 F9000 X167.074 Y146.214
G1 F1800 X161.284 Y140.425 E57.39340
G0 F9000 X161.991 Y140.425
G1 F1800 X167.074 Y145.507 E57.69223
G0 F9000 X167.074 Y144.800
G1 F1800 X162.698 Y140.425 E57.94949
G0 F9000 X163.406 Y140.425
G1 F1800 X167.074 Y144.093 E58.16516
G0 F9000 X167.074 Y143.386
G1 F1800 X164.113 Y140.425 E58.33925
G0 F9000 X164.820 Y140.425
G1 F1800 X167.074 Y142.679 E58.47178
G0 F9000 X167.074 Y141.972
G1 F1800 X165.527 Y140.425 E58.56274
G0 F9000 X166.234 Y140.425
G1 F1800 X167.074 Y141.265 E58.61212
G0 F9000 X167.074 Y140.557
G1 F1800 X166.941 Y140.425 E58.61992
G1 F2400 E58.01992
G1 Z0.700
G0 F9000 X159.977 Y164.574
G1 Z0.200
G1 F2400 E58.61992
G1 F1800 X137.924 Y142.520 E59.91658
G0 F9000 X137.924 Y143.228
G1 F1800 X159.270 Y164.574 E61.17164
G0 F9000 X158.563 Y164.574
G1 F1800 X137.924 Y143.935 E62.38513
G0 F9000 X137.924 Y144.642
G1 F1800 X157.856 Y164.574 E63.55706
G0 F9000 X157.149 Y164.574
G1 F1800 X137.924 Y145.349 E64.68742
G0 F9000 X137.924 Y146.056
G1 F1800 X156.442 Y164.574 E65.77620
G0 F9000 X155.735 Y164.574
G1 F1800 X137.924 Y146.763 E66.82342
G0 F9000 X137.924 Y147.470
G1 F1800 X155.028 Y164.574 E67.82907
G0 F9000 X154.321 Y164.574
G1 F1800 X137.924 Y148.177 E68.79315
G0 F9000 X137.924 Y148.884
G1 F1800 X153.613 Y164.574 E69.71563
G0 F9000 X152.906 Y164.574
G1 F1800 X137.924 Y149.591 E70.59655
G0 F9000 X137.924 Y150.299
G1 F1800 X152.199 Y164.574 E71.43586
G0 F9000 X151.492 Y164.574
G1 F1800 X137.924 Y151.006 E72.23361
G0 F9000 X137.924 Y151.713
G1 F1800 X150.785 Y164.574 E72.98979
G0 F9000 X150.078 Y164.574
G1 F1800 X137.924 Y152.420 E73.70440
G0 F9000 X137.924 Y153.127
G1 F1800 X149.371 Y164.574 E74.37744
G0 F9000 X148.664 Y164.574
G1 F1800 X137.924 Y153.834 E75.00891
G0 F9000 X137.924 Y154.541
G1 F1800 X147.957 Y164.574 E75.59881
G0 F9000 X147.250 Y164.574
G1 F1800 X137.924 Y155.248 E76.14714
G0 F9000 X137.924 Y155.955
G1 F1800 X146.542 Y164.574 E76.65388
G0 F9000 X145.835 Y164.574
G1 F1800 X137.924 Y156.663 E77.11901
G0 F9000 X137.924 Y157.370
G1 F1800 X145.128 Y164.574 E77.54258
G0 F9000 X144.421 Y164.574
G1 F1800 X137.924 Y158.077 E77.92458
G0 F9000 X137.924 Y158.784
G1 F1800 X143.714 Y164.574 E78.26501
G0 F9000 X143.007 Y164.574
G1 F1800 X137.924 Y159.491 E78.56387
G0 F9000 X137.924 Y160.198
G1 F1800 X142.300 Y164.574 E78.82116
G0 F9000 X141.593 Y164.574
G1 F1800 X137.924 Y160.905 E79.03688
G0 F9000 X137.924 Y161.612
G1 F1800 X140.886 Y164.574 E79.21104
G0 F9000 X140.178 Y164.574
G1 F1800 X137.924 Y162.319 E79.34359
G0 F9000 X137.924 Y163.027
G1 F1800 X139.471 Y164.574 E79.43455
G0 F9000 X138.764 Y164.574
G1 F1800 X137.924 Y163.734 E79.48394
G0 F9000 X137.924 Y164.441
G1 F1800 X138.057 Y164.574 E79.49176
;LAYER:1
M106 S10
G0 F9000 X137.750 Y164.750 Z0.400
;TYPE:WALL-INNER
G1 F1980 X137.750 Y140.250 E80.51035
G1 X167.250 Y140.250 E81.73682
G1 X167.250 Y164.750 E82.75541
G1 X137.750 Y164.750 E83.98188
G0 F9000 X137.250 Y165.250
;TYPE:WALL-OUTER
G1 F1980 X137.250 Y139.750 E85.04205
G1 X167.750 Y139.750 E86.31009
G1 X167.750 Y165.250 E87.37026
G1 X137.250 Y165.250 E88.63830
G0 F9000 X137.925 Y164.362
;TYPE:SKIN
G1 F1980 X161.863 Y140.424 E90.04576
G0 F9000 X162.570 Y140.424
G1 F1980 X138.420 Y164.574 E91.46569
G0 F9000 X139.127 Y164.574
G1 F1980 X163.278 Y140.424 E92.88565
G0 F9000 X163.985 Y140.424
G1 F1980 X139.834 Y164.574 E94.30560
G1 F2400 E93.70560
G1 Z0.900
G0 F9000 X137.925 Y163.655
G1 Z0.400
G1 F2400 E94.30560
G1 F1980 X161.156 Y140.424 E95.67150
G0 F9000 X160.449 Y140.424
G1 F1980 X137.925 Y162.948 E96.99582
G0 F9000 X137.925 Y162.241
G1 F1980 X159.742 Y140.424 E98.27858
G0 F9000 X159.035 Y140.424
G1 F1980 X137.925 Y161.534 E99.51976
G0 F9000 X137.925 Y160.827
G1 F1980 X158.328 Y140.424 E100.71938
G0 F9000 X157.621 Y140.424
G1 F1980 X137.925 Y160.120 E101.87743
G0 F9000 X137.925 Y159.412
G1 F1980 X156.914 Y140.424 E102.99388
G0 F9000 X156.206 Y140.424
G1 F1980 X137.925 Y158.705 E104.06874
G0 F9000 X137.925 Y157.998
G1 F1980 X155.499 Y140.424 E105.10202
G0 F9000 X154.792 Y140.424
G1 F1980 X137.925 Y157.291 E106.09373
G0 F9000 X137.925 Y156.584
G1 F1980 X154.085 Y140.424 E107.04388
G0 F9000 X153.378 Y140.424
G1 F1980 X137.925 Y155.877 E107.95246
G0 F9000 X137.925 Y155.170
G1 F1980 X152.671 Y140.424 E108.81947
G0 F9000 X151.964 Y140.424
G1 F1980 X137.925 Y154.463 E109.64490
G0 F9000 X137.925 Y153.756
G1 F1980 X151.257 Y140.424 E110.42878
G0 F9000 X150.550 Y140.424
G1 F1980 X137.925 Y153.049 E111.17108
G0 F9000 X137.925 Y152.341
G1 F1980 X149.842 Y140.424 E111.87175
G0 F9000 X149.135 Y140.424
G1 F1980 X137.925 Y151.634 E112.53086
G0 F9000 X137.925 Y150.927
G1 F1980 X148.428 Y140.424 E113.14839
G0 F9000 X147.721 Y140.424
G1 F1980 X137.925 Y150.220 E113.72436
G0 F9000 X137.925 Y149.513
G1 F1980 X147.014 Y140.424 E114.25876
G0 F9000 X146.307 Y140.424
G1 F1980 X137.925 Y148.806 E114.75159
G0 F9000 X137.925 Y148.099
G1 F1980 X145.600 Y140.424 E115.20285
G0 F9000 X144.893 Y140.424
G1 F1980 X137.925 Y147.392 E115.61254
G0 F9000 X137.925 Y146.685
G1 F1980 X144.186 Y140.424 E115.98066
G0 F9000 X143.479 Y140.424
G1 F1980 X137.925 Y145.977 E116.30719
G0 F9000 X137.925 Y145.270
G1 F1980 X142.771 Y140.424 E116.59211
G0 F9000 X142.064 Y140.424
G1 F1980 X137.925 Y144.563 E116.83547
G0 F9000 X137.925 Y143.856
G1 F1980 X141.357 Y140.424 E117.03726
G0 F9000 X140.650 Y140.424
G1 F1980 X137.925 Y143.149 E117.19748
G0 F9000 X137.925 Y142.442
G1 F1980 X139.943 Y140.424 E117.31613
G0 F9000 X139.236 Y140.424
G1 F1980 X137.925 Y141.735 E117.39321
G0 F9000 X137.925 Y141.028
G1 F1980 X138.529 Y140.424 E117.42872
G1 F2400 E116.82872
G1 Z0.900
G0 F9000 X140.541 Y164.574
G1 Z0.400
G1 F2400 E117.42872
G1 F1980 X164.692 Y140.424 E118.84868
G0 F9000 X165.399 Y140.424
G1 F1980 X141.248 Y164.574 E120.26864
G0 F9000 X141.955 Y164.574
G1 F1980 X166.106 Y140.424 E121.68859
G0 F9000 X166.813 Y140.424
G1 F1980 X142.663 Y164.574 E123.10852
G0 F9000 X143.370 Y164.574
G1 F1980 X167.073 Y140.871 E124.50217
G0 F9000 X167.073 Y141.578
G1 F1980 X144.077 Y164.574 E125.85424
G0 F9000 X144.784 Y164.574
G1 F1980 X167.073 Y142.285 E127.16475
G0 F9000 X167.073 Y142.992
G1 F1980 X145.491 Y164.574 E128.43369
G0 F9000 X146.198 Y164.574
G1 F1980 X167.073 Y143.699 E129.66106
G0 F9000 X167.073 Y144.406
G1 F1980 X146.905 Y164.574 E130.84686
G0 F9000 X147.612 Y164.574
G1 F1980 X167.073 Y145.113 E131.99109
G0 F9000 X167.073 Y145.820
G1 F1980 X148.319 Y164.574 E133.09376
G0 F9000 X149.026 Y164.574
G1 F1980 X167.073 Y146.528 E134.15482
G0 F9000 X167.073 Y147.235
G1 F1980 X149.734 Y164.574 E135.17429
G0 F9000 X150.441 Y164.574
G1 F1980 X167.073 Y147.942 E136.15219
G0 F9000 X167.073 Y148.649
G1 F1980 X151.148 Y164.574 E137.08852
G0 F9000 X151.855 Y164.574
G1 F1980 X167.073 Y149.356 E137.98328
G0 F9000 X167.073 Y150.063
G1 F1980 X152.562 Y164.574 E138.83647
G0 F9000 X153.269 Y164.574
G1 F1980 X167.073 Y150.770 E139.64809
G0 F9000 X167.073 Y151.477
G1 F1980 X153.976 Y164.574 E140.41814
G0 F9000 X154.683 Y164.574
G1 F1980 X167.073 Y152.184 E141.14663
G0 F9000 X167.073 Y152.892
G1 F1980 X155.390 Y164.574 E141.83351
G0 F9000 X156.098 Y164.574
G1 F1980 X167.073 Y153.599 E142.47880
G0 F9000 X167.073 Y154.306
G1 F1980 X156.805 Y164.574 E143.08252
G0 F9000 X157.512 Y164.574
G1 F1980 X167.073 Y155.013 E143.64467
G0 F9000 X167.073 Y155.720
G1 F1980 X158.219 Y164.574 E144.16525
G0 F9000 X158.926 Y164.574
G1 F1980 X167.073 Y156.427 E144.64426
G0 F9000 X167.073 Y157.134
G1 F1980 X159.633 Y164.574 E145.08171
G0 F9000 X160.340 Y164.574
G1 F1980 X167.073 Y157.841 E145.47758
G0 F9000 X167.073 Y158.548
G1 F1980 X161.047 Y164.574 E145.83189
G0 F9000 X161.754 Y164.574
G1 F1980 X167.073 Y159.256 E146.14460
G0 F9000 X167.073 Y159.963
G1 F1980 X162.462 Y164.574 E146.41570
G0 F9000 X163.169 Y164.574
G1 F1980 X167.073 Y160.670 E146.64524
G0 F9000 X167.073 Y161.377
G1 F1980 X163.876 Y164.574 E146.83322
G0 F9000 X164.583 Y164.574
G1 F1980 X167.073 Y162.084 E146.97962
G0 F9000 X167.073 Y162.791
G1 F1980 X165.290 Y164.574 E147.08445
G0 F9000 X165.997 Y164.574
G1 F1980 X167.073 Y163.498 E147.14772
G0 F9000 X167.073 Y164.205
G1 F1980 X166.704 Y164.574 E147.16941
;LAYER:2
M106 S20
G0 F9000 X167.250 Y164.750 Z0.600
;TYPE:WALL-INNER
G1 F2220 X137.750 Y164.750 E148.39588
G1 X137.750 Y140.250 E149.41447
G1 X167.250 Y140.250 E150.64094
G1 X167.250 Y164.750 E151.65953
G0 F9000 X167.750 Y165.250
;TYPE:WALL-OUTER
G1 F2220 X137.250 Y165.250 E152.92757
G1 X137.250 Y139.750 E153.98774
G1 X167.750 Y139.750 E155.25578
G1 X167.750 Y165.250 E156.31595
G0 F9000 X167.049 Y164.574
;TYPE:SKIN
G1 F2220 X142.899 Y140.425 E157.73585
G0 F9000 X142.192 Y140.425
G1 F2220 X166.341 Y164.574 E159.15572
G0 F9000 X165.634 Y164.574
G1 F2220 X141.485 Y140.425 E160.57559
G0 F9000 X140.778 Y140.425
G1 F2220 X164.927 Y164.574 E161.99545
G0 F9000 X164.220 Y164.574
G1 F2220 X140.071 Y140.425 E163.41532
G1 F2400 E162.81532
G1 Z1.100
G0 F9000 X143.607 Y140.425
G1 Z0.600
G1 F2400 E163.41532
G1 F2220 X167.074 Y163.892 E164.79509
G0 F9000 X167.074 Y163.185
G1 F2220 X144.314 Y140.425 E166.13329
G0 F9000 X145.021 Y140.425
G1 F2220 X167.074 Y162.478 E167.42992
G0 F9000 X167.074 Y161.771
G1 F2220 X145.728 Y140.425 E168.68499
G0 F9000 X146.435 Y140.425
G1 F2220 X167.074 Y161.064 E169.89848
G0 F9000 X167.074 Y160.356
G1 F2220 X147.142 Y140.425 E171.07038
G0 F9000 X147.849 Y140.425
G1 F2220 X167.074 Y159.649 E172.20070
G0 F9000 X167.074 Y158.942
G1 F2220 X148.556 Y140.425 E173.28946
G0 F9000 X149.263 Y140.425
G1 F2220 X167.074 Y158.235 E174.33665
G0 F9000 X167.074 Y157.528
G1 F2220 X149.970 Y140.425 E175.34227
G0 F9000 X150.678 Y140.425
G1 F2220 X167.074 Y156.821 E176.30629
G0 F9000 X167.074 Y156.114
G1 F2220 X151.385 Y140.425 E177.22875
G0 F9000 X152.092 Y140.425
G1 F2220 X167.074 Y155.407 E178.10963
G0 F9000 X167.074 Y154.700
G1 F2220 X152.799 Y140.425 E178.94895
G0 F9000 X153.506 Y140.425
G1 F2220 X167.074 Y153.993 E179.74669
G0 F9000 X167.074 Y153.285
G1 F2220 X154.213 Y140.425 E180.50284
G0 F9000 X154.920 Y140.425
G1 F2220 X167.074 Y152.578 E181.21742
G0 F9000 X167.074 Y151.871
G1 F2220 X155.627 Y140.425 E181.89043
G0 F9000 X156.334 Y140.425
G1 F2220 X167.074 Y151.164 E182.52187
G0 F9000 X167.074 Y150.457
G1 F2220 X157.042 Y140.425 E183.11172
G0 F9000 X157.749 Y140.425
G1 F2220 X167.074 Y149.750 E183.65999
G0 F9000 X167.074 Y149.043
G1 F2220 X158.456 Y140.425 E184.16669
G0 F9000 X159.163 Y140.425
G1 F2220 X167.074 Y148.336 E184.63183
G0 F9000 X167.074 Y147.629
G1 F2220 X159.870 Y140.425 E185.05540
G0 F9000 X160.577 Y140.425
G1 F2220 X167.074 Y146.921 E185.43737
G0 F9000 X167.074 Y146.214
G1 F2220 X161.284 Y140.425 E185.77777
G0 F9000 X161.991 Y140.425
G1 F2220 X167.074 Y145.507 E186.07660
G0 F9000 X167.074 Y144.800
G1 F2220 X162.698 Y140.425 E186.33386
G0 F9000 X163.406 Y140.425
G1 F2220 X167.074 Y144.093 E186.54953
G0 F9000 X167.074 Y143.386
G1 F2220 X164.113 Y140.425 E186.72362
G0 F9000 X164.820 Y140.425
G1 F2220 X167.074 Y142.679 E186.85615
G0 F9000 X167.074 Y141.972
G1 F2220 X165.527 Y140.425 E186.94711
G0 F9000 X166.234 Y140.425
G1 F2220 X167.074 Y141.265 E186.99650
G0 F9000 X167.074 Y140.557
G1 F2220 X166.941 Y140.425 E187.00429
G1 F2400 E186.40429
G1 Z1.100
G0 F9000 X163.513 Y164.574
G1 Z0.600
G1 F2400 E187.00429
G1 F2220 X139.364 Y140.425 E188.42415
G0 F9000 X138.657 Y140.425
G1 F2220 X162.806 Y164.574 E189.84402
G0 F9000 X162.099 Y164.574
G1 F2220 X137.950 Y140.425 E191.26389
G0 F9000 X137.924 Y141.106
G1 F2220 X161.392 Y164.574 E192.64372
G0 F9000 X160.685 Y164.574
G1 F2220 X137.924 Y141.813 E193.98198
G0 F9000 X137.924 Y142.520
G1 F2220 X159.977 Y164.574 E195.27864
G0 F9000 X159.270 Y164.574
G1 F2220 X137.924 Y143.228 E196.53370
G0 F9000 X137.924 Y143.935
G1 F2220 X158.563 Y164.574 E197.74720
G0 F9000 X157.856 Y164.574
G1 F2220 X137.924 Y144.642 E198.91912
G0 F9000 X137.924 Y145.349
G1 F2220 X157.149 Y164.574 E200.04948
G0 F9000 X156.442 Y164.574
G1 F2220 X137.924 Y146.056 E201.13827
G0 F9000 X137.924 Y146.763
G1 F2220 X155.735 Y164.574 E202.18549
G0 F9000 X155.028 Y164.574
G1 F2220 X137.924 Y147.470 E203.19114
G0 F9000 X137.924 Y148.177
G1 F2220 X154.321 Y164.574 E204.15522
G0 F9000 X153.613 Y164.574
G1 F2220 X137.924 Y148.884 E205.07770
G0 F9000 X137.924 Y149.591
G1 F2220 X152.906 Y164.574 E205.95861
G0 F9000 X152.199 Y164.574
G1 F2220 X137.924 Y150.299 E206.79793
G0 F9000 X137.924 Y151.006
G1 F2220 X151.492 Y164.574 E207.59567
G0 F9000 X150.785 Y164.574
G1 F2220 X137.924 Y151.713 E208.35185
G0 F9000 X137.924 Y152.420
G1 F2220 X150.078 Y164.574 E209.06646
G0 F9000 X149.371 Y164.574
G1 F2220 X137.924 Y153.127 E209.73950
G0 F9000 X137.924 Y153.834
G1 F2220 X148.664 Y164.574 E210.37097
G0 F9000 X147.957 Y164.574
G1 F2220 X137.924 Y154.541 E210.96087
G0 F9000 X137.924 Y155.248
G1 F2220 X147.250 Y164.574 E211.50921
G0 F9000 X146.542 Y164.574
G1 F2220 X137.924 Y155.955 E212.01594
G0 F9000 X137.924 Y156.663
G1 F2220 X145.835 Y164.574 E212.48108
G0 F9000 X145.128 Y164.574
G1 F2220 X137.924 Y157.370 E212.90464
G0 F9000 X137.924 Y158.077
G1 F2220 X144.421 Y164.574 E213.28664
G0 F9000 X143.714 Y164.574
G1 F2220 X137.924 Y158.784 E213.62707
G0 F9000 X137.924 Y159.491
G1 F2220 X143.007 Y164.574 E213.92593
G0 F9000 X142.300 Y164.574
G1 F2220 X137.924 Y160.198 E214.18323
G0 F9000 X137.924 Y160.905
G1 F2220 X141.593 Y164.574 E214.39895
G0 F9000 X140.886 Y164.574
G1 F2220 X137.924 Y161.612 E214.57310
G0 F9000 X137.924 Y162.319
G1 F2220 X140.178 Y164.574 E214.70566
G0 F9000 X139.471 Y164.574
G1 F2220 X137.924 Y163.027 E214.79662
G0 F9000 X137.924 Y163.734
G1 F2220 X138.764 Y164.574 E214.84601
G0 F9000 X138.057 Y164.574
G1 F2220 X137.924 Y164.441 E214.85383
;LAYER:3
M106 S30
G0 F9000 X137.750 Y164.750 Z0.800
;TYPE:WALL-INNER
G1 F2400 X137.750 Y140.250 E215.87242
G1 X167.250 Y140.250 E217.09889
G1 X167.250 Y164.750 E218.11748
G1 X137.750 Y164.750 E219.34394
G0 F9000 X137.250 Y165.250
;TYPE:WALL-OUTER
G1 F2400 X137.250 Y139.750 E220.40411
G1 X167.750 Y139.750 E221.67215
G1 X167.750 Y165.250 E222.73232
G1 X137.250 Y165.250 E224.00036
G0 F9000 X137.925 Y164.362
;TYPE:SKIN
G1 F2400 X161.863 Y140.424 E225.40783
G0 F9000 X162.570 Y140.424
G1 F2400 X138.420 Y164.574 E226.82775
G0 F9000 X139.127 Y164.574
G1 F2400 X163.278 Y140.424 E228.24771
G0 F9000 X163.985 Y140.424
G1 F2400 X139.834 Y164.574 E229.66767
G1 F2400 E229.06767
G1 Z1.300
G0 F9000 X137.925 Y163.655
G1 Z0.800
G1 F2400 E229.66767
G1 X161.156 Y140.424 E231.03356
G0 F9000 X160.449 Y140.424
G1 F2400 X137.925 Y162.948 E232.35789
G0 F9000 X137.925 Y162.241
G1 F2400 X159.742 Y140.424 E233.64064
G0 F9000 X159.035 Y140.424
G1 F2400 X137.925 Y161.534 E234.88183
G0 F9000 X137.925 Y160.827
G1 F2400 X158.328 Y140.424 E236.08145
G0 F9000 X157.621 Y140.424
G1 F2400 X137.925 Y160.120 E237.23950
G0 F9000 X137.925 Y159.412
G1 F2400 X156.914 Y140.424 E238.35595
G0 F9000 X156.206 Y140.424
G1 F2400 X137.925 Y158.705 E239.43080
G0 F9000 X137.925 Y157.998
G1 F2400 X155.499 Y140.424 E240.46408
G0 F9000 X154.792 Y140.424
G1 F2400 X137.925 Y157.291 E241.45580
G0 F9000 X137.925 Y156.584
G1 F2400 X154.085 Y140.424 E242.40594
G0 F9000 X153.378 Y140.424
G1 F2400 X137.925 Y155.877 E243.31452
G0 F9000 X137.925 Y155.170
G1 F2400 X152.671 Y140.424 E244.18153
G0 F9000 X151.964 Y140.424
G1 F2400 X137.925 Y154.463 E245.00697
G0 F9000 X137.925 Y153.756
G1 F2400 X151.257 Y140.424 E245.79084
G0 F9000 X150.550 Y140.424
G1 F2400 X137.925 Y153.049 E246.53314
G0 F9000 X137.925 Y152.341
G1 F2400 X149.842 Y140.424 E247.23382
G0 F9000 X149.135 Y140.424
G1 F2400 X137.925 Y151.634 E247.89292
G0 F9000 X137.925 Y150.927
G1 F2400 X148.428 Y140.424 E248.51046
G0 F9000 X147.721 Y140.424
G1 F2400 X137.925 Y150.220 E249.08642
G0 F9000 X137.925 Y149.513
G1 F2400 X147.014 Y140.424 E249.62082
G0 F9000 X146.307 Y140.424
G1 F2400 X137.925 Y148.806 E250.11365
G0 F9000 X137.925 Y148.099
G1 F2400 X145.600 Y140.424 E250.56491
G0 F9000 X144.893 Y140.424
G1 F2400 X137.925 Y147.392 E250.97460
G0 F9000 X137.925 Y146.685
G1 F2400 X144.186 Y140.424 E251.34273
G0 F9000 X143.479 Y140.424
G1 F2400 X137.925 Y145.977 E251.66925
G0 F9000 X137.925 Y145.270
G1 F2400 X142.771 Y140.424 E251.95418
G0 F9000 X142.064 Y140.424
G1 F2400 X137.925 Y144.563 E252.19754
G0 F9000 X137.925 Y143.856
G1 F2400 X141.357 Y140.424 E252.39932
G0 F9000 X140.650 Y140.424
G1 F2400 X137.925 Y143.149 E252.55954
G0 F9000 X137.925 Y142.442
G1 F2400 X139.943 Y140.424 E252.67819
G0 F9000 X139.236 Y140.424
G1 F2400 X137.925 Y141.735 E252.75528
G0 F9000 X137.925 Y141.028
G1 F2400 X138.529 Y140.424 E252.79079
G1 F2400 E252.19079
G1 Z1.300
G0 F9000 X140.541 Y164.574
G1 Z0.800
G1 F2400 E252.79079
G1 X164.692 Y140.424 E254.21075
G0 F9000 X165.399 Y140.424
G1 F2400 X141.248 Y164.574 E255.63070
G0 F9000 X141.955 Y164.574
G1 F2400 X166.106 Y140.424 E257.05066
G0 F9000 X166.813 Y140.424
G1 F2400 X142.663 Y164.574 E258.47059
G0 F9000 X143.370 Y164.574
G1 F2400 X167.073 Y140.871 E259.86423
G0 F9000 X167.073 Y141.578
G1 F2400 X144.077 Y164.574 E261.21631
G0 F9000 X144.784 Y164.574
G1 F2400 X167.073 Y142.285 E262.52682
G0 F9000 X167.073 Y142.992
G1 F2400 X145.491 Y164.574 E263.79576
G0 F9000 X146.198 Y164.574
G1 F2400 X167.073 Y143.699 E265.02313
G0 F9000 X167.073 Y144.406
G1 F2400 X146.905 Y164.574 E266.20893
G0 F9000 X147.612 Y164.574
G1 F2400 X167.073 Y145.113 E267.35316
G0 F9000 X167.073 Y145.820
G1 F2400 X148.319 Y164.574 E268.45582
G0 F9000 X149.026 Y164.574
G1 F2400 X167.073 Y146.528 E269.51689
G0 F9000 X167.073 Y147.235
G1 F2400 X149.734 Y164.574 E270.53635
G0 F9000 X150.441 Y164.574
G1 F2400 X167.073 Y147.942 E271.51425
G0 F9000 X167.073 Y148.649
G1 F2400 X151.148 Y164.574 E272.45058
G0 F9000 X151.855 Y164.574
G1 F2400 X167.073 Y149.356 E273.34534
G0 F9000 X167.073 Y150.063
G1 F2400 X152.562 Y164.574 E274.19853
G0 F9000 X153.269 Y164.574
G1 F2400 X167.073 Y150.770 E275.01015
G0 F9000 X167.073 Y151.477
G1 F2400 X153.976 Y164.574 E275.78021
G0 F9000 X154.683 Y164.574
G1 F2400 X167.073 Y152.184 E276.50869
G0 F9000 X167.073 Y152.892
G1 F2400 X155.390 Y164.574 E277.19558
G0 F9000 X156.098 Y164.574
G1 F2400 X167.073 Y153.599 E277.84087
G0 F9000 X167.073 Y154.306
G1 F2400 X156.805 Y164.574 E278.44459
G0 F9000 X157.512 Y164.574
G1 F2400 X167.073 Y155.013 E279.00674
G0 F9000 X167.073 Y155.720
G1 F2400 X158.219 Y164.574 E279.52732
G0 F9000 X158.926 Y164.574
G1 F2400 X167.073 Y156.427 E280.00633
G0 F9000 X167.073 Y157.134
G1 F2400 X159.633 Y164.574 E280.44377
G0 F9000 X160.340 Y164.574
G1 F2400 X167.073 Y157.841 E280.83965
G0 F9000 X167.073 Y158.548
G1 F2400 X161.047 Y164.574 E281.19395
G0 F9000 X161.754 Y164.574
G1 F2400 X167.073 Y159.256 E281.50666
G0 F9000 X167.073 Y159.963
G1 F2400 X162.462 Y164.574 E281.77777
G0 F9000 X163.169 Y164.574
G1 F2400 X167.073 Y160.670 E282.00731
G0 F9000 X167.073 Y161.377
G1 F2400 X163.876 Y164.574 E282.19528
G0 F9000 X164.583 Y164.574
G1 F2400 X167.073 Y162.084 E282.34168
G0 F9000 X167.073 Y162.791
G1 F2400 X165.290 Y164.574 E282.44652
G0 F9000 X165.997 Y164.574
G1 F2400 X167.073 Y163.498 E282.50978
G0 F9000 X167.073 Y164.205
G1 F2400 X166.704 Y164.574 E282.53148
;LAYER:4
M106 S40
G0 F9000 X167.250 Y164.750 Z1.000
;TYPE:WALL-INNER
G1 F2700 X137.750 Y164.750 E283.75795
G1 X137.750 Y140.250 E284.77654
G1 X167.250 Y140.250 E286.00300
G1 X167.250 Y164.750 E287.02160
G0 F9000 X167.750 Y165.250
;TYPE:WALL-OUTER
G1 F2700 X137.250 Y165.250 E288.28964
G1 X137.250 Y139.750 E289.34981
G1 X167.750 Y139.750 E290.61785
G1 X167.750 Y165.250 E291.67801
G0 F9000 X166.783 Y164.574
;TYPE:FILL
G1 F2700 X142.634 Y140.425 E293.09788
G0 F9000 X143.517 Y140.425
G1 F2700 X167.074 Y163.981 E294.48292
G0 F9000 X167.074 Y163.097
G1 F2700 X144.401 Y140.425 E295.81597
G0 F9000 X145.285 Y140.425
G1 F2700 X167.074 Y162.213 E297.09705
G0 F9000 X167.074 Y161.329
G1 F2700 X146.169 Y140.425 E298.32616
G0 F9000 X147.053 Y140.425
G1 F2700 X167.074 Y160.446 E299.50331
G1 F2400 E298.90331
G1 Z1.500
G0 F9000 X165.899 Y164.574
G1 Z1.000
G1 F2400 E299.50331
G1 F2700 X141.750 Y140.425 E300.92318
G0 F9000 X140.866 Y140.425
G1 F2700 X165.015 Y164.574 E302.34305
G0 F9000 X164.131 Y164.574
G1 F2700 X139.982 Y140.425 E303.76292
G0 F9000 X139.098 Y140.425
G1 F2700 X163.247 Y164.574 E305.18279
G0 F9000 X162.363 Y164.574
G1 F2700 X138.214 Y140.425 E306.60266
G0 F9000 X137.924 Y141.019
G1 F2700 X161.479 Y164.574 E307.98760
G0 F9000 X160.595 Y164.574
G1 F2700 X137.924 Y141.902 E309.32060
G0 F9000 X137.924 Y142.786
G1 F2700 X159.712 Y164.574 E310.60165
G0 F9000 X158.828 Y164.574
G1 F2700 X137.924 Y143.670 E311.83072
G0 F9000 X137.924 Y144.554
G1 F2700 X157.944 Y164.574 E313.00782
G0 F9000 X157.060 Y164.574
G1 F2700 X137.924 Y145.438 E314.13295
G0 F9000 X137.924 Y146.322
G1 F2700 X156.176 Y164.574 E315.20609
G0 F9000 X155.292 Y164.574
G1 F2700 X137.924 Y147.206 E316.22727
G0 F9000 X137.924 Y148.090
G1 F2700 X154.408 Y164.574 E317.19646
G0 F9000 X153.524 Y164.574
G1 F2700 X137.924 Y148.973 E318.11371
G0 F9000 X137.924 Y149.857
G1 F2700 X152.641 Y164.574 E318.97902
G0 F9000 X151.757 Y164.574
G1 F2700 X137.924 Y150.741 E319.79234
G0 F9000 X137.924 Y151.625
G1 F2700 X150.873 Y164.574 E320.55369
G0 F9000 X149.989 Y164.574
G1 F2700 X137.924 Y152.509 E321.26307
G0 F9000 X137.924 Y153.393
G1 F2700 X149.105 Y164.574 E321.92047
G0 F9000 X148.221 Y164.574
G1 F2700 X137.924 Y154.277 E322.52589
G0 F9000 X137.924 Y155.161
G1 F2700 X147.337 Y164.574 E323.07934
G0 F9000 X146.453 Y164.574
G1 F2700 X137.924 Y156.045 E323.58082
G0 F9000 X137.924 Y156.928
G1 F2700 X145.569 Y164.574 E324.03034
G0 F9000 X144.686 Y164.574
G1 F2700 X137.924 Y157.812 E324.42792
G0 F9000 X137.924 Y158.696
G1 F2700 X143.802 Y164.574 E324.77352
G0 F9000 X142.918 Y164.574
G1 F2700 X137.924 Y159.580 E325.06715
G0 F9000 X137.924 Y160.464
G1 F2700 X142.034 Y164.574 E325.30881
G0 F9000 X141.150 Y164.574
G1 F2700 X137.924 Y161.348 E325.49848
G0 F9000 X137.924 Y162.232
G1 F2700 X140.266 Y164.574 E325.63618
G0 F9000 X139.382 Y164.574
G1 F2700 X137.924 Y163.116 E325.72191
G0 F9000 X137.924 Y163.999
G1 F2700 X138.498 Y164.574 E325.75569
G1 F2400 E325.15569
G1 Z1.500
G0 F9000 X147.937 Y140.425
G1 Z1.000
G1 F2400 E325.75569
G1 F2700 X167.074 Y159.562 E326.88087
G0 F9000 X167.074 Y158.678
G1 F2700 X148.821 Y140.425 E327.95407
G0 F9000 X149.705 Y140.425
G1 F2700 X167.074 Y157.794 E328.97530
G0 F9000 X167.074 Y156.910
G1 F2700 X150.588 Y140.425 E329.94459
G0 F9000 X151.472 Y140.425
G1 F2700 X167.074 Y156.026 E330.86190
G0 F9000 X167.074 Y155.142
G1 F2700 X152.356 Y140.425 E331.72723
G0 F9000 X153.240 Y140.425
G1 F2700 X167.074 Y154.258 E332.54059
G0 F9000 X167.074 Y153.374
G1 F2700 X154.124 Y140.425 E333.30197
G0 F9000 X155.008 Y140.425
G1 F2700 X167.074 Y152.491 E334.01140
G0 F9000 X167.074 Y151.607
G1 F2700 X155.892 Y140.425 E334.66886
G0 F9000 X156.776 Y140.425
G1 F2700 X167.074 Y150.723 E335.27434
G0 F9000 X167.074 Y149.839
G1 F2700 X157.660 Y140.425 E335.82785
G0 F9000 X158.543 Y140.425
G1 F2700 X167.074 Y148.955 E336.32941
G0 F9000 X167.074 Y148.071
G1 F2700 X159.427 Y140.425 E336.77900
G0 F9000 X160.311 Y140.425
G1 F2700 X167.074 Y147.187 E337.17661
G0 F9000 X167.074 Y146.303
G1 F2700 X161.195 Y140.425 E337.52224
G0 F9000 X162.079 Y140.425
G1 F2700 X167.074 Y145.420 E337.81593
G0 F9000 X167.074 Y144.536
G1 F2700 X162.963 Y140.425 E338.05764
G0 F9000 X163.847 Y140.425
G1 F2700 X167.074 Y143.652 E338.24737
G0 F9000 X167.074 Y142.768
G1 F2700 X164.731 Y140.425 E338.38513
G0 F9000 X165.615 Y140.425
G1 F2700 X167.074 Y141.884 E338.47092
G0 F9000 X167.074 Y141.000
G1 F2700 X166.498 Y140.425 E338.50475
;LAYER:5
M106 S51
G0 F9000 X167.250 Y140.250 Z1.200
;TYPE:WALL-INNER
G1 F2700 X167.250 Y164.750 E339.52334
G1 X137.750 Y164.750 E340.74981
G1 X137.750 Y140.250 E341.76840
G1 X167.250 Y140.250 E342.99487
G0 F9000 X167.750 Y139.750
;TYPE:WALL-OUTER
G1 F2700 X167.750 Y165.250 E344.05504
G1 X137.250 Y165.250 E345.32308
G1 X137.250 Y139.750 E346.38325
G1 X167.750 Y139.750 E347.65129
G0 F9000 X166.725 Y140.424
;TYPE:FILL
G1 F2700 X142.575 Y164.574 E349.07122
G0 F9000 X143.459 Y164.574
G1 F2700 X167.073 Y140.960 E350.45963
G0 F9000 X167.073 Y141.844
G1 F2700 X144.343 Y164.574 E351.79607
G0 F9000 X145.227 Y164.574
G1 F2700 X167.073 Y142.728 E353.08053
G0 F9000 X167.073 Y143.611
G1 F2700 X146.110 Y164.574 E354.31307
G0 F9000 X146.994 Y164.574
G1 F2700 X167.073 Y144.495 E355.49364
G0 F9000 X167.073 Y145.379
G1 F2700 X147.878 Y164.574 E356.62223
G0 F9000 X148.762 Y164.574
G1 F2700 X167.073 Y146.263 E357.69885
G0 F9000 X167.073 Y147.147
G1 F2700 X149.646 Y164.574 E358.72349
G0 F9000 X150.530 Y164.574
G1 F2700 X167.073 Y148.031 E359.69615
G0 F9000 X167.073 Y148.915
G1 F2700 X151.414 Y164.574 E360.61684
G0 F9000 X152.298 Y164.574
G1 F2700 X167.073 Y149.799 E361.48556
G0 F9000 X167.073 Y150.683
G1 F2700 X153.181 Y164.574 E362.30232
G0 F9000 X154.065 Y164.574
G1 F2700 X167.073 Y151.566 E363.06715
G0 F9000 X167.073 Y152.450
G1 F2700 X154.949 Y164.574 E363.77999
G0 F9000 X155.833 Y164.574
G1 F2700 X167.073 Y153.334 E364.44086
G0 F9000 X167.073 Y154.218
G1 F2700 X156.717 Y164.574 E365.04975
G0 F9000 X157.601 Y164.574
G1 F2700 X167.073 Y155.102 E365.60667
G0 F9000 X167.073 Y155.986
G1 F2700 X158.485 Y164.574 E366.11161
G0 F9000 X159.369 Y164.574
G1 F2700 X167.073 Y156.870 E366.56458
G0 F9000 X167.073 Y157.754
G1 F2700 X160.253 Y164.574 E366.96557
G0 F9000 X161.136 Y164.574
G1 F2700 X167.073 Y158.637 E367.31464
G0 F9000 X167.073 Y159.521
G1 F2700 X162.020 Y164.574 E367.61174
G0 F9000 X162.904 Y164.574
G1 F2700 X167.073 Y160.405 E367.85686
G0 F9000 X167.073 Y161.289
G1 F2700 X163.788 Y164.574 E368.05000
G0 F9000 X164.672 Y164.574
G1 F2700 X167.073 Y162.173 E368.19117
G0 F9000 X167.073 Y163.057
G1 F2700 X165.556 Y164.574 E368.28037
G0 F9000 X166.440 Y164.574
G1 F2700 X167.073 Y163.941 E368.31758
G1 F2400 E367.71758
G1 Z1.700
G0 F9000 X165.841 Y140.424
G1 Z1.200
G1 F2400 E368.31758
G1 F2700 X141.691 Y164.574 E369.73751
G0 F9000 X140.807 Y164.574
G1 F2700 X164.958 Y140.424 E371.15747
G0 F9000 X164.074 Y140.424
G1 F2700 X139.923 Y164.574 E372.57743
G0 F9000 X139.039 Y164.574
G1 F2700 X163.190 Y140.424 E373.99738
G0 F9000 X162.306 Y140.424
G1 F2700 X138.155 Y164.574 E375.41734
G0 F9000 X137.925 Y163.921
G1 F2700 X161.422 Y140.424 E376.79887
G0 F9000 X160.538 Y140.424
G1 F2700 X137.925 Y163.037 E378.12843
G0 F9000 X137.925 Y162.153
G1 F2700 X159.654 Y140.424 E379.40601
G0 F9000 X158.770 Y140.424
G1 F2700 X137.925 Y161.269 E380.63162
G0 F9000 X137.925 Y160.385
G1 F2700 X157.887 Y140.424 E381.80528
G0 F9000 X157.003 Y140.424
G1 F2700 X137.925 Y159.502 E382.92699
G0 F9000 X137.925 Y158.618
G1 F2700 X156.119 Y140.424 E383.99673
G0 F9000 X155.235 Y140.424
G1 F2700 X137.925 Y157.734 E385.01449
G0 F9000 X137.925 Y156.850
G1 F2700 X154.351 Y140.424 E385.98028
G0 F9000 X153.467 Y140.424
G1 F2700 X137.925 Y155.966 E386.89409
G0 F9000 X137.925 Y155.082
G1 F2700 X152.583 Y140.424 E387.75592
G0 F9000 X151.699 Y140.424
G1 F2700 X137.925 Y154.198 E388.56578
G0 F9000 X137.925 Y153.314
G1 F2700 X150.815 Y140.424 E389.32366
G0 F9000 X149.932 Y140.424
G1 F2700 X137.925 Y152.431 E390.02963
G0 F9000 X137.925 Y151.547
G1 F2700 X149.048 Y140.424 E390.68362
G0 F9000 X148.164 Y140.424
G1 F2700 X137.925 Y150.663 E391.28563
G0 F9000 X137.925 Y149.779
G1 F2700 X147.280 Y140.424 E391.83567
G0 F9000 X146.396 Y140.424
G1 F2700 X137.925 Y148.895 E392.33373
G0 F9000 X137.925 Y148.011
G1 F2700 X145.512 Y140.424 E392.77982
G0 F9000 X144.628 Y140.424
G1 F2700 X137.925 Y147.127 E393.17393
G0 F9000 X137.925 Y146.243
G1 F2700 X143.744 Y140.424 E393.51606
G0 F9000 X142.861 Y140.424
G1 F2700 X137.925 Y145.359 E393.80625
G0 F9000 X137.925 Y144.476
G1 F2700 X141.977 Y140.424 E394.04449
G0 F9000 X141.093 Y140.424
G1 F2700 X137.925 Y143.592 E394.23076
G0 F9000 X137.925 Y142.708
G1 F2700 X140.209 Y140.424 E394.36505
G0 F9000 X139.325 Y140.424
G1 F2700 X137.925 Y141.824 E394.44737
G0 F9000 X137.925 Y140.940
G1 F2700 X138.441 Y140.424 E394.47770
;LAYER:6
M106 S63
G0 F9000 X137.750 Y140.250 Z1.400
;TYPE:WALL-INNER
G1 F2700 X167.250 Y140.250 E395.70417
G1 X167.250 Y164.750 E396.72276
G1 X137.750 Y164.750 E397.94923
G1 X137.750 Y140.250 E398.96782
G0 F9000 X137.250 Y139.750
;TYPE:WALL-OUTER
G1 F2700 X167.750 Y139.750 E400.23586
G1 X167.750 Y165.250 E401.29603
G1 X137.250 Y165.250 E402.56407
G1 X137.250 Y139.750 E403.62424
G0 F9000 X138.214 Y140.425
;TYPE:FILL
G1 F2700 X139.114 Y141.324 E403.67713
G0 F9000 X139.997 Y141.324
G1 F2700 X139.098 Y140.425 E403.72999
G0 F9000 X139.982 Y140.425
G1 F2700 X140.881 Y141.324 E403.78284
G0 F9000 X141.765 Y141.324
G1 F2700 X140.866 Y140.425 E403.83570
G0 F9000 X141.750 Y140.425
G1 F2700 X142.649 Y141.324 E403.88856
G0 F9000 X143.533 Y141.324
G1 F2700 X142.634 Y140.425 E403.94142
G0 F9000 X143.517 Y140.425
G1 F2700 X144.417 Y141.324 E403.99430
G0 F9000 X145.301 Y141.324
G1 F2700 X144.401 Y140.425 E404.04719
G0 F9000 X145.285 Y140.425
G1 F2700 X146.185 Y141.324 E404.10008
G0 F9000 X147.069 Y141.324
G1 F2700 X146.169 Y140.425 E404.15297
G0 F9000 X147.053 Y140.425
G1 F2700 X147.952 Y141.324 E404.20582
G0 F9000 X148.836 Y141.324
G1 F2700 X147.937 Y140.425 E404.25868
G0 F9000 X148.821 Y140.425
G1 F2700 X149.720 Y141.324 E404.31154
G0 F9000 X150.604 Y141.324
G1 F2700 X149.705 Y140.425 E404.36440
G0 F9000 X150.588 Y140.425
G1 F2700 X151.488 Y141.324 E404.41728
G0 F9000 X152.372 Y141.324
G1 F2700 X151.472 Y140.425 E404.47017
G0 F9000 X152.356 Y140.425
G1 F2700 X153.256 Y141.324 E404.52306
G0 F9000 X154.140 Y141.324
G1 F2700 X153.240 Y140.425 E404.57595
G0 F9000 X154.124 Y140.425
G1 F2700 X155.023 Y141.324 E404.62880
G0 F9000 X155.907 Y141.324
G1 F2700 X155.008 Y140.425 E404.68166
G0 F9000 X155.892 Y140.425
G1 F2700 X156.791 Y141.324 E404.73452
G0 F9000 X157.675 Y141.324
G1 F2700 X156.776 Y140.425 E404.78738
G0 F9000 X157.660 Y140.425
G1 F2700 X158.559 Y141.324 E404.84023
G0 F9000 X159.443 Y141.324
G1 F2700 X158.543 Y140.425 E404.89312
G0 F9000 X159.427 Y140.425
G1 F2700 X160.327 Y141.324 E404.94601
G0 F9000 X161.211 Y141.324
G1 F2700 X160.311 Y140.425 E404.99890
G0 F9000 X161.195 Y140.425
G1 F2700 X162.095 Y141.324 E405.05178
G0 F9000 X162.978 Y141.324
G1 F2700 X162.079 Y140.425 E405.10464
G0 F9000 X162.963 Y140.425
G1 F2700 X163.862 Y141.324 E405.15750
G0 F9000 X164.746 Y141.324
G1 F2700 X163.847 Y140.425 E405.21036
G0 F9000 X164.731 Y140.425
G1 F2700 X165.630 Y141.324 E405.26321
G0 F9000 X166.514 Y141.324
G1 F2700 X165.615 Y140.425 E405.31607
G0 F9000 X166.498 Y140.425
G1 F2700 X167.074 Y141.000 E405.34991
G1 F2400 E404.74991
G1 Z1.900
G0 F9000 X166.767 Y163.674
G1 Z1.400
G1 F2400 E405.34991
G1 F2700 X167.074 Y163.981 E405.36796
G0 F9000 X166.783 Y164.574
G1 F2700 X165.883 Y163.674 E405.42088
G0 F9000 X164.999 Y163.674
G1 F2700 X165.899 Y164.574 E405.47379
G0 F9000 X165.015 Y164.574
G1 F2700 X164.115 Y163.674 E405.52671
G0 F9000 X163.232 Y163.674
G1 F2700 X164.131 Y164.574 E405.57960
G0 F9000 X163.247 Y164.574
G1 F2700 X162.348 Y163.674 E405.63248
G0 F9000 X161.464 Y163.674
G1 F2700 X162.363 Y164.574 E405.68537
G0 F9000 X161.479 Y164.574
G1 F2700 X160.580 Y163.674 E405.73826
G0 F9000 X159.696 Y163.674
G1 F2700 X160.595 Y164.574 E405.79114
G0 F9000 X159.712 Y164.574
G1 F2700 X158.812 Y163.674 E405.84406
G0 F9000 X157.928 Y163.674
G1 F2700 X158.828 Y164.574 E405.89698
G0 F9000 X157.944 Y164.574
G1 F2700 X157.044 Y163.674 E405.94989
G0 F9000 X156.160 Y163.674
G1 F2700 X157.060 Y164.574 E406.00281
G0 F9000 X156.176 Y164.574
G1 F2700 X155.277 Y163.674 E406.05570
G0 F9000 X154.393 Y163.674
G1 F2700 X155.292 Y164.574 E406.10859
G0 F9000 X154.408 Y164.574
G1 F2700 X153.509 Y163.674 E406.16147
G0 F9000 X152.625 Y163.674
G1 F2700 X153.524 Y164.574 E406.21436
G0 F9000 X152.641 Y164.574
G1 F2700 X151.741 Y163.674 E406.26728
G0 F9000 X150.857 Y163.674
G1 F2700 X151.757 Y164.574 E406.32019
G0 F9000 X150.873 Y164.574
G1 F2700 X149.973 Y163.674 E406.37311
G0 F9000 X149.089 Y163.674
G1 F2700 X149.989 Y164.574 E406.42603
G0 F9000 X149.105 Y164.574
G1 F2700 X148.206 Y163.674 E406.47891
G0 F9000 X147.322 Y163.674
G1 F2700 X148.221 Y164.574 E406.53180
G0 F9000 X147.337 Y164.574
G1 F2700 X146.438 Y163.674 E406.58469
G0 F9000 X145.554 Y163.674
G1 F2700 X146.453 Y164.574 E406.63757
G0 F9000 X145.569 Y164.574
G1 F2700 X144.670 Y163.674 E406.69046
G0 F9000 X143.786 Y163.674
G1 F2700 X144.686 Y164.574 E406.74338
G0 F9000 X143.802 Y164.574
G1 F2700 X142.902 Y163.674 E406.79629
G0 F9000 X142.018 Y163.674
G1 F2700 X142.918 Y164.574 E406.84921
G0 F9000 X142.034 Y164.574
G1 F2700 X141.134 Y163.674 E406.90213
G0 F9000 X140.251 Y163.674
G1 F2700 X141.150 Y164.574 E406.95501
G0 F9000 X140.266 Y164.574
G1 F2700 X139.367 Y163.674 E407.00790
G0 F9000 X138.483 Y163.674
G1 F2700 X139.382 Y164.574 E407.06079
G0 F9000 X138.498 Y164.574
G1 F2700 X137.924 Y163.999 E407.09457
G1 F2400 E406.49457
G1 Z1.900
G0 F9000 X138.230 Y141.324
G1 Z1.400
G1 F2400 E407.09457
G1 F2700 X137.924 Y141.019 E407.11253
G0 F9000 X137.924 Y141.106
;TYPE:SKIN
G1 F2700 X161.142 Y164.324 E408.47766
G0 F9000 X160.435 Y164.324
G1 F2700 X137.924 Y141.813 E409.80122
G0 F9000 X137.924 Y142.520
G1 F2700 X159.728 Y164.324 E411.08321
G0 F9000 X159.021 Y164.324
G1 F2700 X137.924 Y143.228 E412.32360
G0 F9000 X137.924 Y143.935
G1 F2700 X158.314 Y164.324 E413.52243
G0 F9000 X157.607 Y164.324
G1 F2700 X137.924 Y144.642 E414.67968
G0 F9000 X137.924 Y145.349
G1 F2700 X156.899 Y164.324 E415.79534
G0 F9000 X156.192 Y164.324
G1 F2700 X137.924 Y146.056 E416.86943
G0 F9000 X137.924 Y146.763
G1 F2700 X155.485 Y164.324 E417.90195
G0 F9000 X154.778 Y164.324
G1 F2700 X137.924 Y147.470 E418.89290
G0 F9000 X137.924 Y148.177
G1 F2700 X154.071 Y164.324 E419.84228
G0 F9000 X153.364 Y164.324
G1 F2700 X137.924 Y148.884 E420.75010
G0 F9000 X137.924 Y149.591
G1 F2700 X152.657 Y164.324 E421.61634
G0 F9000 X151.950 Y164.324
G1 F2700 X137.924 Y150.299 E422.44098
G0 F9000 X137.924 Y151.006
G1 F2700 X151.243 Y164.324 E423.22406
G0 F9000 X150.535 Y164.324
G1 F2700 X137.924 Y151.713 E423.96554
G0 F9000 X137.924 Y152.420
G1 F2700 X149.828 Y164.324 E424.66545
G0 F9000 X149.121 Y164.324
G1 F2700 X137.924 Y153.127 E425.32379
G0 F9000 X137.924 Y153.834
G1 F2700 X148.414 Y164.324 E425.94056
G0 F9000 X147.707 Y164.324
G1 F2700 X137.924 Y154.541 E426.51577
G0 F9000 X137.924 Y155.248
G1 F2700 X147.000 Y164.324 E427.04940
G0 F9000 X146.293 Y164.324
G1 F2700 X137.924 Y155.955 E427.54146
G0 F9000 X137.924 Y156.663
G1 F2700 X145.586 Y164.324 E427.99193
G0 F9000 X144.879 Y164.324
G1 F2700 X137.924 Y157.370 E428.40083
G0 F9000 X137.924 Y158.077
G1 F2700 X144.172 Y164.324 E428.76816
G0 F9000 X143.464 Y164.324
G1 F2700 X137.924 Y158.784 E429.09389
G0 F9000 X137.924 Y159.491
G1 F2700 X142.757 Y164.324 E429.37805
G0 F9000 X142.050 Y164.324
G1 F2700 X137.924 Y160.198 E429.62064
G0 F9000 X137.924 Y160.905
G1 F2700 X141.343 Y164.324 E429.82167
G0 F9000 X140.636 Y164.324
G1 F2700 X137.924 Y161.612 E429.98112
G0 F9000 X137.924 Y162.319
G1 F2700 X139.929 Y164.324 E430.09901
G0 F9000 X139.222 Y164.324
G1 F2700 X137.924 Y163.027 E430.17530
G0 F9000 X137.924 Y163.734
G1 F2700 X138.515 Y164.324 E430.21002
G1 F2400 E429.61002
G1 Z1.900
G0 F9000 X161.849 Y164.324
G1 Z1.400
G1 F2400 E430.21002
G1 F2700 X138.199 Y140.674 E431.60055
G0 F9000 X138.906 Y140.674
G1 F2700 X162.556 Y164.324 E432.99108
G0 F9000 X163.263 Y164.324
G1 F2700 X139.613 Y140.674 E434.38160
G0 F9000 X140.321 Y140.674
G1 F2700 X163.970 Y164.324 E435.77210
G0 F9000 X164.678 Y164.324
G1 F2700 X141.028 Y140.674 E437.16263
G0 F9000 X141.735 Y140.674
G1 F2700 X165.385 Y164.324 E438.55316
G0 F9000 X166.092 Y164.324
G1 F2700 X142.442 Y140.674 E439.94369
G0 F9000 X143.149 Y140.674
G1 F2700 X166.799 Y164.324 E441.33422
G0 F9000 X167.074 Y163.892
G1 F2700 X143.856 Y140.674 E442.69935
G0 F9000 X144.563 Y140.674
G1 F2700 X167.074 Y163.185 E444.02291
G0 F9000 X167.074 Y162.478
G1 F2700 X145.270 Y140.674 E445.30490
G0 F9000 X145.977 Y140.674
G1 F2700 X167.074 Y161.771 E446.54533
G0 F9000 X167.074 Y161.064
G1 F2700 X146.685 Y140.674 E447.74415
G0 F9000 X147.392 Y140.674
G1 F2700 X167.074 Y160.356 E448.90138
G0 F9000 X167.074 Y159.649
G1 F2700 X148.099 Y140.674 E450.01703
G0 F9000 X148.806 Y140.674
G1 F2700 X167.074 Y158.942 E451.09112
G0 F9000 X167.074 Y158.235
G1 F2700 X149.513 Y140.674 E452.12364
G0 F9000 X150.220 Y140.674
G1 F2700 X167.074 Y157.528 E453.11459
G0 F9000 X167.074 Y156.821
G1 F2700 X150.927 Y140.674 E454.06397
G0 F9000 X151.634 Y140.674
G1 F2700 X167.074 Y156.114 E454.97179
G0 F9000 X167.074 Y155.407
G1 F2700 X152.341 Y140.674 E455.83803
G0 F9000 X153.049 Y140.675
G1 F2700 X167.074 Y154.700 E456.66265
G0 F9000 X167.074 Y153.993
G1 F2700 X153.756 Y140.675 E457.44569
G0 F9000 X154.463 Y140.675
G1 F2700 X167.074 Y153.285 E458.18714
G0 F9000 X167.074 Y152.578
G1 F2700 X155.171 Y140.675 E458.88699
G0 F9000 X155.878 Y140.675
G1 F2700 X167.074 Y151.871 E459.54528
G0 F9000 X167.074 Y151.164
G1 F2700 X156.585 Y140.675 E460.16199
G0 F9000 X157.292 Y140.675
G1 F2700 X167.074 Y150.457 E460.73713
G0 F9000 X167.074 Y149.750
G1 F2700 X157.999 Y140.675 E461.27071
G0 F9000 X158.706 Y140.675
G1 F2700 X167.074 Y149.043 E461.76272
G0 F9000 X167.074 Y148.336
G1 F2700 X159.413 Y140.675 E462.21315
G0 F9000 X160.120 Y140.675
G1 F2700 X167.074 Y147.629 E462.62202
G0 F9000 X167.074 Y146.921
G1 F2700 X160.827 Y140.675 E462.98929
G0 F9000 X161.535 Y140.675
G1 F2700 X167.074 Y146.214 E463.31496
G0 F9000 X167.074 Y145.507
G1 F2700 X162.242 Y140.675 E463.59907
G0 F9000 X162.949 Y140.675
G1 F2700 X167.074 Y144.800 E463.84160
G0 F9000 X167.074 Y144.093
G1 F2700 X163.656 Y140.675 E464.04257
G0 F9000 X164.363 Y140.675
G1 F2700 X167.074 Y143.386 E464.20196
G0 F9000 X167.074 Y142.679
G1 F2700 X165.070 Y140.675 E464.31979
G0 F9000 X165.777 Y140.675
G1 F2700 X167.074 Y141.972 E464.39605
G0 F9000 X167.074 Y141.265
G1 F2700 X166.484 Y140.675 E464.43074
;LAYER:7
M106 S73
G0 F9000 X167.250 Y140.250 Z1.600
;TYPE:WALL-INNER
G1 F2700 X167.250 Y164.750 E465.44933
G1 X137.750 Y164.750 E466.67580
G1 X137.750 Y140.250 E467.69439
G1 X167.250 Y140.250 E468.92086
G0 F9000 X167.750 Y139.750
;TYPE:WALL-OUTER
G1 F2700 X167.750 Y165.250 E469.98102
G1 X137.250 Y165.250 E471.24907
G1 X137.250 Y139.750 E472.30923
G1 X167.750 Y139.750 E473.57728
G0 F9000 X166.725 Y140.424
;TYPE:FILL
G1 F2700 X165.825 Y141.325 E473.63022
G0 F9000 X166.708 Y141.325
G1 F2700 X167.073 Y140.960 E473.65168
G0 F9000 X165.841 Y140.424
G1 F2700 X164.941 Y141.325 E473.70463
G0 F9000 X164.057 Y141.325
G1 F2700 X164.958 Y140.424 E473.75760
G0 F9000 X164.074 Y140.424
G1 F2700 X163.173 Y141.325 E473.81058
G0 F9000 X162.289 Y141.325
G1 F2700 X163.190 Y140.424 E473.86355
G0 F9000 X162.306 Y140.424
G1 F2700 X161.405 Y141.325 E473.91653
G0 F9000 X160.521 Y141.325
G1 F2700 X161.422 Y140.424 E473.96950
G0 F9000 X160.538 Y140.424
G1 F2700 X159.637 Y141.325 E474.02248
G0 F9000 X158.753 Y141.325
G1 F2700 X159.654 Y140.424 E474.07546
G0 F9000 X158.770 Y140.424
G1 F2700 X157.870 Y141.325 E474.12840
G0 F9000 X156.986 Y141.325
G1 F2700 X157.887 Y140.424 E474.18138
G0 F9000 X157.003 Y140.424
G1 F2700 X156.102 Y141.325 E474.23435
G0 F9000 X155.218 Y141.325
G1 F2700 X156.119 Y140.424 E474.28733
G0 F9000 X155.235 Y140.424
G1 F2700 X154.334 Y141.325 E474.34030
G0 F9000 X153.450 Y141.325
G1 F2700 X154.351 Y140.424 E474.39328
G0 F9000 X153.467 Y140.424
G1 F2700 X152.566 Y141.325 E474.44625
G0 F9000 X151.682 Y141.325
G1 F2700 X152.583 Y140.424 E474.49923
G0 F9000 X151.699 Y140.424
G1 F2700 X150.799 Y141.325 E474.55217
G0 F9000 X149.915 Y141.325
G1 F2700 X150.815 Y140.424 E474.60512
G0 F9000 X149.932 Y140.424
G1 F2700 X149.031 Y141.325 E474.65810
G0 F9000 X148.147 Y141.325
G1 F2700 X149.048 Y140.424 E474.71107
G0 F9000 X148.164 Y140.424
G1 F2700 X147.263 Y141.325 E474.76405
G0 F9000 X146.379 Y141.325
G1 F2700 X147.280 Y140.424 E474.81702
G0 F9000 X146.396 Y140.424
G1 F2700 X145.495 Y141.325 E474.87000
G0 F9000 X144.611 Y141.325
G1 F2700 X145.512 Y140.424 E474.92297
G0 F9000 X144.628 Y140.424
G1 F2700 X143.727 Y141.325 E474.97595
G0 F9000 X142.844 Y141.325
G1 F2700 X143.744 Y140.424 E475.02889
G0 F9000 X142.861 Y140.424
G1 F2700 X141.960 Y141.325 E475.08187
G0 F9000 X141.076 Y141.325
G1 F2700 X141.977 Y140.424 E475.13484
G0 F9000 X141.093 Y140.424
G1 F2700 X140.192 Y141.325 E475.18782
G0 F9000 X139.308 Y141.325
G1 F2700 X140.209 Y140.424 E475.24080
G0 F9000 X139.325 Y140.424
G1 F2700 X138.424 Y141.325 E475.29377
G0 F9000 X137.925 Y140.940
G1 F2700 X138.441 Y140.424 E475.32411
G1 F2400 E474.72411
G1 Z2.100
G0 F9000 X138.172 Y163.674
G1 Z1.600
G1 F2400 E475.32411
G1 F2700 X137.925 Y163.921 E475.33863
G0 F9000 X138.155 Y164.574
G1 F2700 X139.056 Y163.674 E475.39158
G0 F9000 X139.940 Y163.674
G1 F2700 X139.039 Y164.574 E475.44452
G0 F9000 X139.923 Y164.574
G1 F2700 X140.824 Y163.674 E475.49747
G0 F9000 X141.708 Y163.674
G1 F2700 X140.807 Y164.574 E475.55042
G0 F9000 X141.691 Y164.574
G1 F2700 X142.592 Y163.674 E475.60336
G0 F9000 X143.476 Y163.674
G1 F2700 X142.575 Y164.574 E475.65631
G0 F9000 X143.459 Y164.574
G1 F2700 X144.360 Y163.674 E475.70925
G0 F9000 X145.243 Y163.674
G1 F2700 X144.343 Y164.574 E475.76217
G0 F9000 X145.227 Y164.574
G1 F2700 X146.127 Y163.674 E475.81509
G0 F9000 X147.011 Y163.674
G1 F2700 X146.110 Y164.574 E475.86803
G0 F9000 X146.994 Y164.574
G1 F2700 X147.895 Y163.674 E475.92098
G0 F9000 X148.779 Y163.674
G1 F2700 X147.878 Y164.574 E475.97392
G0 F9000 X148.762 Y164.574
G1 F2700 X149.663 Y163.674 E476.02687
G0 F9000 X150.547 Y163.674
G1 F2700 X149.646 Y164.574 E476.07982
G0 F9000 X150.530 Y164.574
G1 F2700 X151.431 Y163.674 E476.13276
G0 F9000 X152.315 Y163.674
G1 F2700 X151.414 Y164.574 E476.18571
G0 F9000 X152.298 Y164.574
G1 F2700 X153.198 Y163.674 E476.23863
G0 F9000 X154.082 Y163.674
G1 F2700 X153.181 Y164.574 E476.29157
G0 F9000 X154.065 Y164.574
G1 F2700 X154.966 Y163.674 E476.34452
G0 F9000 X155.850 Y163.674
G1 F2700 X154.949 Y164.574 E476.39746
G0 F9000 X155.833 Y164.574
G1 F2700 X156.734 Y163.674 E476.45041
G0 F9000 X157.618 Y163.674
G1 F2700 X156.717 Y164.574 E476.50336
G0 F9000 X157.601 Y164.574
G1 F2700 X158.502 Y163.674 E476.55630
G0 F9000 X159.386 Y163.674
G1 F2700 X158.485 Y164.574 E476.60925
G0 F9000 X159.369 Y164.574
G1 F2700 X160.269 Y163.674 E476.66216
G0 F9000 X161.153 Y163.674
G1 F2700 X160.253 Y164.574 E476.71508
G0 F9000 X161.136 Y164.574
G1 F2700 X162.037 Y163.674 E476.76803
G0 F9000 X162.921 Y163.674
G1 F2700 X162.020 Y164.574 E476.82097
G0 F9000 X162.904 Y164.574
G1 F2700 X163.805 Y163.674 E476.87392
G0 F9000 X164.689 Y163.674
G1 F2700 X163.788 Y164.574 E476.92686
G0 F9000 X164.672 Y164.574
G1 F2700 X165.573 Y163.674 E476.97981
G0 F9000 X166.457 Y163.674
G1 F2700 X165.556 Y164.574 E477.03276
G0 F9000 X166.440 Y164.574
G1 F2700 X167.073 Y164.073 E477.06994
G1 X166.954 Y164.325 E477.08153
G0 F9000 X166.247 Y164.325
;TYPE:SKIN
G1 F2700 X167.074 Y163.497 E477.13018
G0 F9000 X167.074 Y162.790
G1 F2700 X165.540 Y164.325 E477.22041
G0 F9000 X164.832 Y164.325
G1 F2700 X167.074 Y162.083 E477.35223
G0 F9000 X167.074 Y161.376
G1 F2700 X164.125 Y164.325 E477.52562
G0 F9000 X163.418 Y164.325
G1 F2700 X167.074 Y160.669 E477.74058
G0 F9000 X167.074 Y159.962
G1 F2700 X162.711 Y164.325 E477.99710
G0 F9000 X162.004 Y164.325
G1 F2700 X167.074 Y159.255 E478.29520
G0 F9000 X167.074 Y158.548
G1 F2700 X161.297 Y164.325 E478.63487
G0 F9000 X160.590 Y164.325
G1 F2700 X167.074 Y157.841 E479.01610
G0 F9000 X167.074 Y157.133
G1 F2700 X159.883 Y164.325 E479.43893
G0 F9000 X159.176 Y164.325
G1 F2700 X167.074 Y156.426 E479.90333
G0 F9000 X167.074 Y155.719
G1 F2700 X158.468 Y164.325 E480.40933
G0 F9000 X157.761 Y164.325
G1 F2700 X167.074 Y155.012 E480.95690
G0 F9000 X167.074 Y154.305
G1 F2700 X157.054 Y164.325 E481.54604
G0 F9000 X156.347 Y164.325
G1 F2700 X167.074 Y153.598 E482.17675
G0 F9000 X167.074 Y152.891
G1 F2700 X155.640 Y164.325 E482.84902
G0 F9000 X154.933 Y164.325
G1 F2700 X167.074 Y152.184 E483.56287
G0 F9000 X167.074 Y151.477
G1 F2700 X154.226 Y164.325 E484.31828
G0 F9000 X153.519 Y164.325
G1 F2700 X167.074 Y150.770 E485.11526
G0 F9000 X167.074 Y150.062
G1 F2700 X152.812 Y164.325 E485.95384
G0 F9000 X152.105 Y164.325
G1 F2700 X167.074 Y149.355 E486.83399
G0 F9000 X167.074 Y148.648
G1 F2700 X151.397 Y164.325 E487.75574
G0 F9000 X150.690 Y164.325
G1 F2700 X167.074 Y147.941 E488.71905
G0 F9000 X167.074 Y147.234
G1 F2700 X149.983 Y164.325 E489.72394
G0 F9000 X149.276 Y164.325
G1 F2700 X167.074 Y146.527 E490.77039
G0 F9000 X167.074 Y145.820
G1 F2700 X148.569 Y164.325 E491.85842
G0 F9000 X147.862 Y164.325
G1 F2700 X167.074 Y145.113 E492.98801
G0 F9000 X167.074 Y144.406
G1 F2700 X147.155 Y164.325 E494.15917
G0 F9000 X146.448 Y164.325
G1 F2700 X167.074 Y143.698 E495.37193
G0 F9000 X167.074 Y142.991
G1 F2700 X145.741 Y164.325 E496.62626
G0 F9000 X145.033 Y164.325
G1 F2700 X167.074 Y142.284 E497.92218
G0 F9000 X167.074 Y141.577
G1 F2700 X144.326 Y164.325 E499.25968
G0 F9000 X143.619 Y164.325
G1 F2700 X167.074 Y140.870 E500.63874
G0 F9000 X166.563 Y140.674
G1 F2700 X142.912 Y164.325 E502.02933
G0 F9000 X142.205 Y164.325
G1 F2700 X165.856 Y140.674 E503.41992
G0 F9000 X165.149 Y140.674
G1 F2700 X141.498 Y164.325 E504.81051
G0 F9000 X140.791 Y164.325
G1 F2700 X164.441 Y140.674 E506.20107
G0 F9000 X163.734 Y140.674
G1 F2700 X140.084 Y164.325 E507.59163
G0 F9000 X139.377 Y164.325
G1 F2700 X163.027 Y140.674 E508.98218
G0 F9000 X162.320 Y140.674
G1 F2700 X138.670 Y164.325 E510.37274
G0 F9000 X137.962 Y164.325
G1 F2700 X161.613 Y140.674 E511.76333
G0 F9000 X160.906 Y140.674
G1 F2700 X137.925 Y163.655 E513.11453
G0 F9000 X137.925 Y162.948
G1 F2700 X160.199 Y140.674 E514.42415
G0 F9000 X159.492 Y140.674
G1 F2700 X137.925 Y162.241 E515.69221
G0 F9000 X137.925 Y161.534
G1 F2700 X158.785 Y140.674 E516.91870
G0 F9000 X158.077 Y140.674
G1 F2700 X137.925 Y160.827 E518.10359
G0 F9000 X137.925 Y160.120
G1 F2700 X157.370 Y140.674 E519.24691
G0 F9000 X156.663 Y140.674
G1 F2700 X137.925 Y159.412 E520.34863
G0 F9000 X137.925 Y158.705
G1 F2700 X155.956 Y140.674 E521.40878
G0 F9000 X155.249 Y140.674
G1 F2700 X137.925 Y157.998 E522.42737
G0 F9000 X137.925 Y157.291
G1 F2700 X154.542 Y140.674 E523.40438
G0 F9000 X153.835 Y140.674
G1 F2700 X137.925 Y156.584 E524.33983
G0 F9000 X137.925 Y155.877
G1 F2700 X153.128 Y140.674 E525.23371
G0 F9000 X152.421 Y140.673
G1 F2700 X137.925 Y155.170 E526.08605
G0 F9000 X137.925 Y154.463
G1 F2700 X151.714 Y140.673 E526.89682
G0 F9000 X151.007 Y140.673
G1 F2700 X137.925 Y153.756 E527.66602
G0 F9000 X137.925 Y153.049
G1 F2700 X150.300 Y140.673 E528.39365
G0 F9000 X149.593 Y140.673
G1 F2700 X137.925 Y152.341 E529.07968
G0 F9000 X137.925 Y151.634
G1 F2700 X148.886 Y140.673 E529.72415
G0 F9000 X148.179 Y140.673
G1 F2700 X137.925 Y150.927 E530.32704
G0 F9000 X137.925 Y150.220
G1 F2700 X147.472 Y140.673 E530.88837
G0 F9000 X146.764 Y140.673
G1 F2700 X137.925 Y149.513 E531.40810
G0 F9000 X137.925 Y148.806
G1 F2700 X146.057 Y140.673 E531.88626
G0 F9000 X145.350 Y140.673
G1 F2700 X137.925 Y148.099 E532.32285
G0 F9000 X137.925 Y147.392
G1 F2700 X144.643 Y140.673 E532.71787
G0 F9000 X143.936 Y140.673
G1 F2700 X137.925 Y146.685 E533.07133
G0 F9000 X137.925 Y145.977
G1 F2700 X143.229 Y140.673 E533.38318
G0 F9000 X142.522 Y140.673
G1 F2700 X137.925 Y145.270 E533.65347
G0 F9000 X137.925 Y144.563
G1 F2700 X141.815 Y140.673 E533.88218
G0 F9000 X141.108 Y140.673
G1 F2700 X137.925 Y143.856 E534.06933
G0 F9000 X137.925 Y143.149
G1 F2700 X140.401 Y140.673 E534.21491
G0 F9000 X139.693 Y140.673
G1 F2700 X137.925 Y142.442 E534.31889
G0 F9000 X137.925 Y141.735
G1 F2700 X138.986 Y140.673 E534.38131
G0 F9000 X138.279 Y140.673
G1 F2700 X137.925 Y141.028 E534.40215
;LAYER:8
M106 S84
G0 F9000 X137.750 Y140.250 Z1.800
;TYPE:WALL-INNER
G1 F2700 X167.250 Y140.250 E535.62862
G1 X167.250 Y164.750 E536.64721
G1 X137.750 Y164.750 E537.87368
G1 X137.750 Y140.250 E538.89227
G0 F9000 X137.250 Y139.750
;TYPE:WALL-OUTER
G1 F2700 X167.750 Y139.750 E540.16031
G1 X167.750 Y165.250 E541.22048
G1 X137.250 Y165.250 E542.48852
G1 X137.250 Y139.750 E543.54869
G0 F9000 X138.214 Y140.425
;TYPE:FILL
G1 F2700 X139.114 Y141.324 E543.60157
G0 F9000 X139.997 Y141.324
G1 F2700 X139.098 Y140.425 E543.65443
G0 F9000 X139.982 Y140.425
G1 F2700 X140.881 Y141.324 E543.70729
G0 F9000 X141.765 Y141.324
G1 F2700 X140.866 Y140.425 E543.76015
G0 F9000 X141.750 Y140.425
G1 F2700 X142.649 Y141.324 E543.81300
G0 F9000 X143.533 Y141.324
G1 F2700 X142.634 Y140.425 E543.86586
G0 F9000 X143.517 Y140.425
G1 F2700 X144.417 Y141.324 E543.91875
G0 F9000 X145.301 Y141.324
G1 F2700 X144.401 Y140.425 E543.97164
G0 F9000 X145.285 Y140.425
G1 F2700 X146.185 Y141.324 E544.02452
G0 F9000 X147.069 Y141.324
G1 F2700 X146.169 Y140.425 E544.07741
G0 F9000 X147.053 Y140.425
G1 F2700 X147.952 Y141.324 E544.13027
G0 F9000 X148.836 Y141.324
G1 F2700 X147.937 Y140.425 E544.18313
G0 F9000 X148.821 Y140.425
G1 F2700 X149.720 Y141.324 E544.23598
G0 F9000 X150.604 Y141.324
G1 F2700 X149.705 Y140.425 E544.28884
G0 F9000 X150.588 Y140.425
G1 F2700 X151.488 Y141.324 E544.34173
G0 F9000 X152.372 Y141.324
G1 F2700 X151.472 Y140.425 E544.39462
G0 F9000 X152.356 Y140.425
G1 F2700 X153.256 Y141.324 E544.44750
G0 F9000 X154.140 Y141.324
G1 F2700 X153.240 Y140.425 E544.50039
G0 F9000 X154.124 Y140.425
G1 F2700 X155.023 Y141.324 E544.55325
G0 F9000 X155.907 Y141.324
G1 F2700 X155.008 Y140.425 E544.60611
G0 F9000 X155.892 Y140.425
G1 F2700 X156.791 Y141.324 E544.65896
G0 F9000 X157.675 Y141.324
G1 F2700 X156.776 Y140.425 E544.71182
G0 F9000 X157.660 Y140.425
G1 F2700 X158.559 Y141.324 E544.76468
G0 F9000 X159.443 Y141.324
G1 F2700 X158.543 Y140.425 E544.81757
G0 F9000 X159.427 Y140.425
G1 F2700 X160.327 Y141.324 E544.87045
G0 F9000 X161.211 Y141.324
G1 F2700 X160.311 Y140.425 E544.92334
G0 F9000 X161.195 Y140.425
G1 F2700 X162.095 Y141.324 E544.97623
G0 F9000 X162.978 Y141.324
G1 F2700 X162.079 Y140.425 E545.02909
G0 F9000 X162.963 Y140.425
G1 F2700 X163.862 Y141.324 E545.08194
G0 F9000 X164.746 Y141.324
G1 F2700 X163.847 Y140.425 E545.13480
G0 F9000 X164.731 Y140.425
G1 F2700 X165.630 Y141.324 E545.18766
G0 F9000 X166.514 Y141.324
G1 F2700 X165.615 Y140.425 E545.24052
G0 F9000 X166.498 Y140.425
G1 F2700 X167.074 Y141.000 E545.27435
G1 F2400 E544.67435
G1 Z2.300
G0 F9000 X166.767 Y163.674
G1 Z1.800
G1 F2400 E545.27435
G1 F2700 X167.074 Y163.981 E545.29240
G0 F9000 X166.783 Y164.574
G1 F2700 X165.883 Y163.674 E545.34532
G0 F9000 X164.999 Y163.674
G1 F2700 X165.899 Y164.574 E545.39824
G0 F9000 X165.015 Y164.574
G1 F2700 X164.115 Y163.674 E545.45115
G0 F9000 X163.232 Y163.674
G1 F2700 X164.131 Y164.574 E545.50404
G0 F9000 X163.247 Y164.574
G1 F2700 X162.348 Y163.674 E545.55693
G0 F9000 X161.464 Y163.674
G1 F2700 X162.363 Y164.574 E545.60981
G0 F9000 X161.479 Y164.574
G1 F2700 X160.580 Y163.674 E545.66270
G0 F9000 X159.696 Y163.674
G1 F2700 X160.595 Y164.574 E545.71559
G0 F9000 X159.712 Y164.574
G1 F2700 X158.812 Y163.674 E545.76851
G0 F9000 X157.928 Y163.674
G1 F2700 X158.828 Y164.574 E545.82142
G0 F9000 X157.944 Y164.574
G1 F2700 X157.044 Y163.674 E545.87434
G0 F9000 X156.160 Y163.674
G1 F2700 X157.060 Y164.574 E545.92726
G0 F9000 X156.176 Y164.574
G1 F2700 X155.277 Y163.674 E545.98014
G0 F9000 X154.393 Y163.674
G1 F2700 X155.292 Y164.574 E546.03303
G0 F9000 X154.408 Y164.574
G1 F2700 X153.509 Y163.674 E546.08592
G0 F9000 X152.625 Y163.674
G1 F2700 X153.524 Y164.574 E546.13880
G0 F9000 X152.641 Y164.574
G1 F2700 X151.741 Y163.674 E546.19172
G0 F9000 X150.857 Y163.674
G1 F2700 X151.757 Y164.574 E546.24464
G0 F9000 X150.873 Y164.574
G1 F2700 X149.973 Y163.674 E546.29755
G0 F9000 X149.089 Y163.674
G1 F2700 X149.989 Y164.574 E546.35047
G0 F9000 X149.105 Y164.574
G1 F2700 X148.206 Y163.674 E546.40336
G0 F9000 X147.322 Y163.674
G1 F2700 X148.221 Y164.574 E546.45624
G0 F9000 X147.337 Y164.574
G1 F2700 X146.438 Y163.674 E546.50913
G0 F9000 X145.554 Y163.674
G1 F2700 X146.453 Y164.574 E546.56202
G0 F9000 X145.569 Y164.574
G1 F2700 X144.670 Y163.674 E546.61491
G0 F9000 X143.786 Y163.674
G1 F2700 X144.686 Y164.574 E546.66782
G0 F9000 X143.802 Y164.574
G1 F2700 X142.902 Y163.674 E546.72074
G0 F9000 X142.018 Y163.674
G1 F2700 X142.918 Y164.574 E546.77366
G0 F9000 X142.034 Y164.574
G1 F2700 X141.134 Y163.674 E546.82657
G0 F9000 X140.251 Y163.674
G1 F2700 X141.150 Y164.574 E546.87946
G0 F9000 X140.266 Y164.574
G1 F2700 X139.367 Y163.674 E546.93235
G0 F9000 X138.483 Y163.674
G1 F2700 X139.382 Y164.574 E546.98523
G0 F9000 X138.498 Y164.574
G1 F2700 X137.924 Y163.999 E547.01901
G1 F2400 E546.41901
G1 Z2.300
G0 F9000 X138.230 Y141.324
G1 Z1.800
G1 F2400 E547.01901
G1 F2700 X137.924 Y141.019 E547.03697
G0 F9000 X137.924 Y141.106
;TYPE:SKIN
G1 F2700 X161.142 Y164.324 E548.40210
G0 F9000 X160.435 Y164.324
G1 F2700 X137.924 Y141.813 E549.72566
G0 F9000 X137.924 Y142.520
G1 F2700 X159.728 Y164.324 E551.00766
G0 F9000 X159.021 Y164.324
G1 F2700 X137.924 Y143.228 E552.24805
G0 F9000 X137.924 Y143.935
G1 F2700 X158.314 Y164.324 E553.44687
G0 F9000 X157.607 Y164.324
G1 F2700 X137.924 Y144.642 E554.60413
G0 F9000 X137.924 Y145.349
G1 F2700 X156.899 Y164.324 E555.71979
G0 F9000 X156.192 Y164.324
G1 F2700 X137.924 Y146.056 E556.79388
G0 F9000 X137.924 Y146.763
G1 F2700 X155.485 Y164.324 E557.82639
G0 F9000 X154.778 Y164.324
G1 F2700 X137.924 Y147.470 E558.81735
G0 F9000 X137.924 Y148.177
G1 F2700 X154.071 Y164.324 E559.76673
G0 F9000 X153.364 Y164.324
G1 F2700 X137.924 Y148.884 E560.67454
G0 F9000 X137.924 Y149.591
G1 F2700 X152.657 Y164.324 E561.54078
G0 F9000 X151.950 Y164.324
G1 F2700 X137.924 Y150.299 E562.36543
G0 F9000 X137.924 Y151.006
G1 F2700 X151.243 Y164.324 E563.14851
G0 F9000 X150.535 Y164.324
G1 F2700 X137.924 Y151.713 E563.88998
G0 F9000 X137.924 Y152.420
G1 F2700 X149.828 Y164.324 E564.58989
G0 F9000 X149.121 Y164.324
G1 F2700 X137.924 Y153.127 E565.24823
G0 F9000 X137.924 Y153.834
G1 F2700 X148.414 Y164.324 E565.86501
G0 F9000 X147.707 Y164.324
G1 F2700 X137.924 Y154.541 E566.44021
G0 F9000 X137.924 Y155.248
G1 F2700 X147.000 Y164.324 E566.97384
G0 F9000 X146.293 Y164.324
G1 F2700 X137.924 Y155.955 E567.46591
G0 F9000 X137.924 Y156.663
G1 F2700 X145.586 Y164.324 E567.91638
G0 F9000 X144.879 Y164.324
G1 F2700 X137.924 Y157.370 E568.32527
G0 F9000 X137.924 Y158.077
G1 F2700 X144.172 Y164.324 E568.69260
G0 F9000 X143.464 Y164.324
G1 F2700 X137.924 Y158.784 E569.01833
G0 F9000 X137.924 Y159.491
G1 F2700 X142.757 Y164.324 E569.30250
G0 F9000 X142.050 Y164.324
G1 F2700 X137.924 Y160.198 E569.54509
G0 F9000 X137.924 Y160.905
G1 F2700 X141.343 Y164.324 E569.74611
G0 F9000 X140.636 Y164.324
G1 F2700 X137.924 Y161.612 E569.90557
G0 F9000 X137.924 Y162.319
G1 F2700 X139.929 Y164.324 E570.02345
G0 F9000 X139.222 Y164.324
G1 F2700 X137.924 Y163.027 E570.09974
G0 F9000 X137.924 Y163.734
G1 F2700 X138.515 Y164.324 E570.13446
G1 F2400 E569.53446
G1 Z2.300
G0 F9000 X161.849 Y164.324
G1 Z1.800
G1 F2400 E570.13446
G1 F2700 X138.199 Y140.674 E571.52499
G0 F9000 X138.906 Y140.674
G1 F2700 X162.556 Y164.324 E572.91552
G0 F9000 X163.263 Y164.324
G1 F2700 X139.613 Y140.674 E574.30605
G0 F9000 X140.321 Y140.674
G1 F2700 X163.970 Y164.324 E575.69655
G0 F9000 X164.678 Y164.324
G1 F2700 X141.028 Y140.674 E577.08708
G0 F9000 X141.735 Y140.674
G1 F2700 X165.385 Y164.324 E578.47761
G0 F9000 X166.092 Y164.324
G1 F2700 X142.442 Y140.674 E579.86814
G0 F9000 X143.149 Y140.674
G1 F2700 X166.799 Y164.324 E581.25867
G0 F9000 X167.074 Y163.892
G1 F2700 X143.856 Y140.674 E582.62380
G0 F9000 X144.563 Y140.674
G1 F2700 X167.074 Y163.185 E583.94736
G0 F9000 X167.074 Y162.478
G1 F2700 X145.270 Y140.674 E585.22935
G0 F9000 X145.977 Y140.674
G1 F2700 X167.074 Y161.771 E586.46977
G0 F9000 X167.074 Y161.064
G1 F2700 X146.685 Y140.674 E587.66860
G0 F9000 X147.392 Y140.674
G1 F2700 X167.074 Y160.356 E588.82582
G0 F9000 X167.074 Y159.649
G1 F2700 X148.099 Y140.674 E589.94148
G0 F9000 X148.806 Y140.674
G1 F2700 X167.074 Y158.942 E591.01557
G0 F9000 X167.074 Y158.235
G1 F2700 X149.513 Y140.674 E592.04809
G0 F9000 X150.220 Y140.674
G1 F2700 X167.074 Y157.528 E593.03904
G0 F9000 X167.074 Y156.821
G1 F2700 X150.927 Y140.674 E593.98842
G0 F9000 X151.634 Y140.674
G1 F2700 X167.074 Y156.114 E594.89623
G0 F9000 X167.074 Y155.407
G1 F2700 X152.341 Y140.674 E595.76248
G0 F9000 X153.049 Y140.675
G1 F2700 X167.074 Y154.700 E596.58709
G0 F9000 X167.074 Y153.993
G1 F2700 X153.756 Y140.675 E597.37014
G0 F9000 X154.463 Y140.675
G1 F2700 X167.074 Y153.285 E598.11159
G0 F9000 X167.074 Y152.578
G1 F2700 X155.171 Y140.675 E598.81144
G0 F9000 X155.878 Y140.675
G1 F2700 X167.074 Y151.871 E599.46972
G0 F9000 X167.074 Y151.164
G1 F2700 X156.585 Y140.675 E600.08643
G0 F9000 X157.292 Y140.675
G1 F2700 X167.074 Y150.457 E600.66158
G0 F9000 X167.074 Y149.750
G1 F2700 X157.999 Y140.675 E601.19515
G0 F9000 X158.706 Y140.675
G1 F2700 X167.074 Y149.043 E601.68716
G0 F9000 X167.074 Y148.336
G1 F2700 X159.413 Y140.675 E602.13760
G0 F9000 X160.120 Y140.675
G1 F2700 X167.074 Y147.629 E602.54647
G0 F9000 X167.074 Y146.921
G1 F2700 X160.827 Y140.675 E602.91374
G0 F9000 X161.535 Y140.675
G1 F2700 X167.074 Y146.214 E603.23941
G0 F9000 X167.074 Y145.507
G1 F2700 X162.242 Y140.675 E603.52351
G0 F9000 X162.949 Y140.675
G1 F2700 X167.074 Y144.800 E603.76605
G0 F9000 X167.074 Y144.093
G1 F2700 X163.656 Y140.675 E603.96701
G0 F9000 X164.363 Y140.675
G1 F2700 X167.074 Y143.386 E604.12641
G0 F9000 X167.074 Y142.679
G1 F2700 X165.070 Y140.675 E604.24423
G0 F9000 X165.777 Y140.675
G1 F2700 X167.074 Y141.972 E604.32049
G0 F9000 X167.074 Y141.265
G1 F2700 X166.484 Y140.675 E604.35518
;LAYER:9
M106 S94
G0 F9000 X167.250 Y140.250 Z2.000
;TYPE:WALL-INNER
G1 F2700 X167.250 Y164.750 E605.37377
G1 X137.750 Y164.750 E606.60024
G1 X137.750 Y140.250 E607.61883
G1 X167.250 Y140.250 E608.84530
G0 F9000 X167.750 Y139.750
;TYPE:WALL-OUTER
G1 F2700 X167.750 Y165.250 E609.90547
G1 X137.250 Y165.250 E611.17351
G1 X137.250 Y139.750 E612.23368
G1 X167.750 Y139.750 E613.50172
G0 F9000 X166.725 Y140.424
;TYPE:FILL
G1 F2700 X165.825 Y141.325 E613.55467
G0 F9000 X166.708 Y141.325
G1 F2700 X167.073 Y140.960 E613.57613
G0 F9000 X165.841 Y140.424
G1 F2700 X164.941 Y141.325 E613.62907
G0 F9000 X164.057 Y141.325
G1 F2700 X164.958 Y140.424 E613.68205
G0 F9000 X164.074 Y140.424
G1 F2700 X163.173 Y141.325 E613.73502
G0 F9000 X162.289 Y141.325
G1 F2700 X163.190 Y140.424 E613.78800
G0 F9000 X162.306 Y140.424
G1 F2700 X161.405 Y141.325 E613.84097
G0 F9000 X160.521 Y141.325
G1 F2700 X161.422 Y140.424 E613.89395
G0 F9000 X160.538 Y140.424
G1 F2700 X159.637 Y141.325 E613.94692
G0 F9000 X158.753 Y141.325
G1 F2700 X159.654 Y140.424 E613.99990
G0 F9000 X158.770 Y140.424
G1 F2700 X157.870 Y141.325 E614.05285
G0 F9000 X156.986 Y141.325
G1 F2700 X157.887 Y140.424 E614.10582
G0 F9000 X157.003 Y140.424
G1 F2700 X156.102 Y141.325 E614.15880
G0 F9000 X155.218 Y141.325
G1 F2700 X156.119 Y140.424 E614.21177
G0 F9000 X155.235 Y140.424
G1 F2700 X154.334 Y141.325 E614.26475
G0 F9000 X153.450 Y141.325
G1 F2700 X154.351 Y140.424 E614.31772
G0 F9000 X153.467 Y140.424
G1 F2700 X152.566 Y141.325 E614.37070
G0 F9000 X151.682 Y141.325
G1 F2700 X152.583 Y140.424 E614.42367
G0 F9000 X151.699 Y140.424
G1 F2700 X150.799 Y141.325 E614.47662
G0 F9000 X149.915 Y141.325
G1 F2700 X150.815 Y140.424 E614.52957
G0 F9000 X149.932 Y140.424
G1 F2700 X149.031 Y141.325 E614.58254
G0 F9000 X148.147 Y141.325
G1 F2700 X149.048 Y140.424 E614.63552
G0 F9000 X148.164 Y140.424
G1 F2700 X147.263 Y141.325 E614.68849
G0 F9000 X146.379 Y141.325
G1 F2700 X147.280 Y140.424 E614.74147
G0 F9000 X146.396 Y140.424
G1 F2700 X145.495 Y141.325 E614.79444
G0 F9000 X144.611 Y141.325
G1 F2700 X145.512 Y140.424 E614.84742
G0 F9000 X144.628 Y140.424
G1 F2700 X143.727 Y141.325 E614.90039
G0 F9000 X142.844 Y141.325
G1 F2700 X143.744 Y140.424 E614.95334
G0 F9000 X142.861 Y140.424
G1 F2700 X141.960 Y141.325 E615.00631
G0 F9000 X141.076 Y141.325
G1 F2700 X141.977 Y140.424 E615.05929
G0 F9000 X141.093 Y140.424
G1 F2700 X140.192 Y141.325 E615.11226
G0 F9000 X139.308 Y141.325
G1 F2700 X140.209 Y140.424 E615.16524
G0 F9000 X139.325 Y140.424
G1 F2700 X138.424 Y141.325 E615.21822
G0 F9000 X137.925 Y140.940
G1 F2700 X138.441 Y140.424 E615.24855
G1 F2400 E614.64855
G1 Z2.500
G0 F9000 X138.172 Y163.674
G1 Z2.000
G1 F2400 E615.24855
G1 F2700 X137.925 Y163.921 E615.26308
G0 F9000 X138.155 Y164.574
G1 F2700 X139.056 Y163.674 E615.31602
G0 F9000 X139.940 Y163.674
G1 F2700 X139.039 Y164.574 E615.36897
G0 F9000 X139.923 Y164.574
G1 F2700 X140.824 Y163.674 E615.42191
G0 F9000 X141.708 Y163.674
G1 F2700 X140.807 Y164.574 E615.47486
G0 F9000 X141.691 Y164.574
G1 F2700 X142.592 Y163.674 E615.52781
G0 F9000 X143.476 Y163.674
G1 F2700 X142.575 Y164.574 E615.58075
G0 F9000 X143.459 Y164.574
G1 F2700 X144.360 Y163.674 E615.63370
G0 F9000 X145.243 Y163.674
G1 F2700 X144.343 Y164.574 E615.68661
G0 F9000 X145.227 Y164.574
G1 F2700 X146.127 Y163.674 E615.73953
G0 F9000 X147.011 Y163.674
G1 F2700 X146.110 Y164.574 E615.79248
G0 F9000 X146.994 Y164.574
G1 F2700 X147.895 Y163.674 E615.84542
G0 F9000 X148.779 Y163.674
G1 F2700 X147.878 Y164.574 E615.89837
G0 F9000 X148.762 Y164.574
G1 F2700 X149.663 Y163.674 E615.95132
G0 F9000 X150.547 Y163.674
G1 F2700 X149.646 Y164.574 E616.00426
G0 F9000 X150.530 Y164.574
G1 F2700 X151.431 Y163.674 E616.05721
G0 F9000 X152.315 Y163.674
G1 F2700 X151.414 Y164.574 E616.11015
G0 F9000 X152.298 Y164.574
G1 F2700 X153.198 Y163.674 E616.16307
G0 F9000 X154.082 Y163.674
G1 F2700 X153.181 Y164.574 E616.21602
G0 F9000 X154.065 Y164.574
G1 F2700 X154.966 Y163.674 E616.26896
G0 F9000 X155.850 Y163.674
G1 F2700 X154.949 Y164.574 E616.32191
G0 F9000 X155.833 Y164.574
G1 F2700 X156.734 Y163.674 E616.37485
G0 F9000 X157.618 Y163.674
G1 F2700 X156.717 Y164.574 E616.42780
G0 F9000 X157.601 Y164.574
G1 F2700 X158.502 Y163.674 E616.48075
G0 F9000 X159.386 Y163.674
G1 F2700 X158.485 Y164.574 E616.53369
G0 F9000 X159.369 Y164.574
G1 F2700 X160.269 Y163.674 E616.58661
G0 F9000 X161.153 Y163.674
G1 F2700 X160.253 Y164.574 E616.63952
G0 F9000 X161.136 Y164.574
G1 F2700 X162.037 Y163.674 E616.69247
G0 F9000 X162.921 Y163.674
G1 F2700 X162.020 Y164.574 E616.74542
G0 F9000 X162.904 Y164.574
G1 F2700 X163.805 Y163.674 E616.79836
G0 F9000 X164.689 Y163.674
G1 F2700 X163.788 Y164.574 E616.85131
G0 F9000 X164.672 Y164.574
G1 F2700 X165.573 Y163.674 E616.90425
G0 F9000 X166.457 Y163.674
G1 F2700 X165.556 Y164.574 E616.95720
G0 F9000 X166.440 Y164.574
G1 F2700 X167.073 Y164.073 E616.99439
G1 X166.954 Y164.325 E617.00597
G0 F9000 X166.247 Y164.325
;TYPE:SKIN
G1 F2700 X167.074 Y163.497 E617.05463
G0 F9000 X167.074 Y162.790
G1 F2700 X165.540 Y164.325 E617.14485
G0 F9000 X164.832 Y164.325
G1 F2700 X167.074 Y162.083 E617.27667
G0 F9000 X167.074 Y161.376
G1 F2700 X164.125 Y164.325 E617.45006
G0 F9000 X163.418 Y164.325
G1 F2700 X167.074 Y160.669 E617.66502
G0 F9000 X167.074 Y159.962
G1 F2700 X162.711 Y164.325 E617.92155
G0 F9000 X162.004 Y164.325
G1 F2700 X167.074 Y159.255 E618.21964
G0 F9000 X167.074 Y158.548
G1 F2700 X161.297 Y164.325 E618.55931
G0 F9000 X160.590 Y164.325
G1 F2700 X167.074 Y157.841 E618.94054
G0 F9000 X167.074 Y157.133
G1 F2700 X159.883 Y164.325 E619.36338
G0 F9000 X159.176 Y164.325
G1 F2700 X167.074 Y156.426 E619.82778
G0 F9000 X167.074 Y155.719
G1 F2700 X158.468 Y164.325 E620.33378
G0 F9000 X157.761 Y164.325
G1 F2700 X167.074 Y155.012 E620.88135
G0 F9000 X167.074 Y154.305
G1 F2700 X157.054 Y164.325 E621.47048
G0 F9000 X156.347 Y164.325
G1 F2700 X167.074 Y153.598 E622.10119
G0 F9000 X167.074 Y152.891
G1 F2700 X155.640 Y164.325 E622.77347
G0 F9000 X154.933 Y164.325
G1 F2700 X167.074 Y152.184 E623.48731
G0 F9000 X167.074 Y151.477
G1 F2700 X154.226 Y164.325 E624.24272
G0 F9000 X153.519 Y164.325
G1 F2700 X167.074 Y150.770 E625.03971
G0 F9000 X167.074 Y150.062
G1 F2700 X152.812 Y164.325 E625.87829
G0 F9000 X152.105 Y164.325
G1 F2700 X167.074 Y149.355 E626.75844
G0 F9000 X167.074 Y148.648
G1 F2700 X151.397 Y164.325 E627.68018
G0 F9000 X150.690 Y164.325
G1 F2700 X167.074 Y147.941 E628.64350
G0 F9000 X167.074 Y147.234
G1 F2700 X149.983 Y164.325 E629.64838
G0 F9000 X149.276 Y164.325
G1 F2700 X167.074 Y146.527 E630.69484
G0 F9000 X167.074 Y145.820
G1 F2700 X148.569 Y164.325 E631.78286
G0 F9000 X147.862 Y164.325
G1 F2700 X167.074 Y145.113 E632.91245
G0 F9000 X167.074 Y144.406
G1 F2700 X147.155 Y164.325 E634.08361
G0 F9000 X146.448 Y164.325
G1 F2700 X167.074 Y143.698 E635.29637
G0 F9000 X167.074 Y142.991
G1 F2700 X145.741 Y164.325 E636.55070
G0 F9000 X145.033 Y164.325
G1 F2700 X167.074 Y142.284 E637.84663
G0 F9000 X167.074 Y141.577
G1 F2700 X144.326 Y164.325 E639.18412
G0 F9000 X143.619 Y164.325
G1 F2700 X167.074 Y140.870 E640.56319
G0 F9000 X166.563 Y140.674
G1 F2700 X142.912 Y164.325 E641.95378
G0 F9000 X142.205 Y164.325
G1 F2700 X165.856 Y140.674 E643.34436
G0 F9000 X165.149 Y140.674
G1 F2700 X141.498 Y164.325 E644.73495
G0 F9000 X140.791 Y164.325
G1 F2700 X164.441 Y140.674 E646.12551
G0 F9000 X163.734 Y140.674
G1 F2700 X140.084 Y164.325 E647.51607
G0 F9000 X139.377 Y164.325
G1 F2700 X163.027 Y140.674 E648.90663
G0 F9000 X162.320 Y140.674
G1 F2700 X138.670 Y164.325 E650.29719
G0 F9000 X137.962 Y164.325
G1 F2700 X161.613 Y140.674 E651.68778
G0 F9000 X160.906 Y140.674
G1 F2700 X137.925 Y163.655 E653.03897
G0 F9000 X137.925 Y162.948
G1 F2700 X160.199 Y140.674 E654.34860
G0 F9000 X159.492 Y140.674
G1 F2700 X137.925 Y162.241 E655.61665
G0 F9000 X137.925 Y161.534
G1 F2700 X158.785 Y140.674 E656.84314
G0 F9000 X158.077 Y140.674
G1 F2700 X137.925 Y160.827 E658.02803
G0 F9000 X137.925 Y160.120
G1 F2700 X157.370 Y140.674 E659.17135
G0 F9000 X156.663 Y140.674
G1 F2700 X137.925 Y159.412 E660.27307
G0 F9000 X137.925 Y158.705
G1 F2700 X155.956 Y140.674 E661.33323
G0 F9000 X155.249 Y140.674
G1 F2700 X137.925 Y157.998 E662.35181
G0 F9000 X137.925 Y157.291
G1 F2700 X154.542 Y140.674 E663.32883
G0 F9000 X153.835 Y140.674
G1 F2700 X137.925 Y156.584 E664.26428
G0 F9000 X137.925 Y155.877
G1 F2700 X153.128 Y140.674 E665.15815
G0 F9000 X152.421 Y140.673
G1 F2700 X137.925 Y155.170 E666.01049
G0 F9000 X137.925 Y154.463
G1 F2700 X151.714 Y140.673 E666.82126
G0 F9000 X151.007 Y140.673
G1 F2700 X137.925 Y153.756 E667.59046
G0 F9000 X137.925 Y153.049
G1 F2700 X150.300 Y140.673 E668.31809
G0 F9000 X149.593 Y140.673
G1 F2700 X137.925 Y152.341 E669.00413
G0 F9000 X137.925 Y151.634
G1 F2700 X148.886 Y140.673 E669.64859
G0 F9000 X148.179 Y140.673
G1 F2700 X137.925 Y150.927 E670.25149
G0 F9000 X137.925 Y150.220
G1 F2700 X147.472 Y140.673 E670.81282
G0 F9000 X146.764 Y140.673
G1 F2700 X137.925 Y149.513 E671.33255
G0 F9000 X137.925 Y148.806
G1 F2700 X146.057 Y140.673 E671.81070
G0 F9000 X145.350 Y140.673
G1 F2700 X137.925 Y148.099 E672.24730
G0 F9000 X137.925 Y147.392
G1 F2700 X144.643 Y140.673 E672.64232
G0 F9000 X143.936 Y140.673
G1 F2700 X137.925 Y146.685 E672.99577
G0 F9000 X137.925 Y145.977
G1 F2700 X143.229 Y140.673 E673.30763
G0 F9000 X142.522 Y140.673
G1 F2700 X137.925 Y145.270 E673.57791
G0 F9000 X137.925 Y144.563
G1 F2700 X141.815 Y140.673 E673.80663
G0 F9000 X141.108 Y140.673
G1 F2700 X137.925 Y143.856 E673.99378
G0 F9000 X137.925 Y143.149
G1 F2700 X140.401 Y140.673 E674.13936
G0 F9000 X139.693 Y140.673
G1 F2700 X137.925 Y142.442 E674.24334
G0 F9000 X137.925 Y141.735
G1 F2700 X138.986 Y140.673 E674.30575
G0 F9000 X138.279 Y140.673
G1 F2700 X137.925 Y141.028 E674.32659
;LAYER:10
M106 S104
G0 F9000 X137.750 Y140.750 Z2.200
;TYPE:WALL-INNER
G1 F1860 X137.750 Y140.250 E674.34738
G1 X167.250 Y140.250 E675.57385
G1 X167.250 Y140.750 E675.59464
G1 X137.750 Y140.750 E676.82110
G0 F9000 X137.250 Y141.250
;TYPE:WALL-OUTER
G1 F1860 X137.250 Y139.750 E676.88347
G1 X167.750 Y139.750 E678.15151
G1 X167.750 Y141.250 E678.21387
G1 X137.250 Y141.250 E679.48191
G1 F2400 E678.88191
G1 Z2.700
G0 F9000 X137.750 Y164.250
;TYPE:WALL-INNER
G1 Z2.200
G1 F2400 E679.48191
G1 F1860 X167.250 Y164.250 E680.70838
G1 X167.250 Y164.750 E680.72917
G1 X137.750 Y164.750 E681.95564
G1 X137.750 Y164.250 E681.97642
G0 F9000 X137.250 Y163.750
;TYPE:WALL-OUTER
G1 F1860 X167.750 Y163.750 E683.24447
G1 X167.750 Y165.250 E683.30683
G1 X137.250 Y165.250 E684.57487
G1 X137.250 Y163.750 E684.63723
;LAYER:11
M106 S114
G1 F2400 E684.03723
G1 Z2.700
G0 F9000 X137.750 Y140.750 Z2.400
;TYPE:WALL-INNER
G1 Z2.400
G1 F2400 E684.63723
G1 F1860 X137.750 Y140.250 E684.65802
G1 X167.250 Y140.250 E685.88449
G1 X167.250 Y140.750 E685.90528
G1 X137.750 Y140.750 E687.13174
G0 F9000 X137.250 Y141.250
;TYPE:WALL-OUTER
G1 F1860 X137.250 Y139.750 E687.19411
G1 X167.750 Y139.750 E688.46215
G1 X167.750 Y141.250 E688.52451
G1 X137.250 Y141.250 E689.79256
G1 F2400 E689.19256
G1 Z2.900
G0 F9000 X137.750 Y164.250
;TYPE:WALL-INNER
G1 Z2.400
G1 F2400 E689.79256
G1 F1860 X167.250 Y164.250 E691.01902
G1 X167.250 Y164.750 E691.03981
G1 X137.750 Y164.750 E692.26628
G1 X137.750 Y164.250 E692.28707
G0 F9000 X137.250 Y163.750
;TYPE:WALL-OUTER
G1 F1860 X167.750 Y163.750 E693.55511
G1 X167.750 Y165.250 E693.61747
G1 X137.250 Y165.250 E694.88551
G1 X137.250 Y163.750 E694.94788
;LAYER:12
M106 S127
G1 F2400 E694.34788
G1 Z2.900
G0 F9000 X137.750 Y140.750 Z2.600
;TYPE:WALL-INNER
G1 Z2.600
G1 F2400 E694.94788
G1 F1860 X137.750 Y140.250 E694.96866
G1 X167.250 Y140.250 E696.19513
G1 X167.250 Y140.750 E696.21592
G1 X137.750 Y140.750 E697.44239
G0 F9000 X137.250 Y141.250
;TYPE:WALL-OUTER
G1 F1860 X137.250 Y139.750 E697.50475
G1 X167.750 Y139.750 E698.77279
G1 X167.750 Y141.250 E698.83515
G1 X137.250 Y141.250 E700.10320
G1 F2400 E699.50320
G1 Z3.100
G0 F9000 X137.750 Y164.250
;TYPE:WALL-INNER
G1 Z2.600
G1 F2400 E700.10320
G1 F1860 X167.250 Y164.250 E701.32967
G1 X167.250 Y164.750 E701.35045
G1 X137.750 Y164.750 E702.57692
G1 X137.750 Y164.250 E702.59771
G0 F9000 X137.250 Y163.750
;TYPE:WALL-OUTER
G1 F1860 X167.750 Y163.750 E703.86575
G1 X167.750 Y165.250 E703.92811
G1 X137.250 Y165.250 E705.19616
G1 X137.250 Y163.750 E705.25852
;LAYER:13
M106 S137
G1 F2400 E704.65852
G1 Z3.100
G0 F9000 X137.750 Y140.750 Z2.800
;TYPE:WALL-INNER
G1 Z2.800
G1 F2400 E705.25852
G1 F1860 X137.750 Y140.250 E705.27931
G1 X167.250 Y140.250 E706.50577
G1 X167.250 Y140.750 E706.52656
G1 X137.750 Y140.750 E707.75303
G0 F9000 X137.250 Y141.250
;TYPE:WALL-OUTER
G1 F1860 X137.250 Y139.750 E707.81539
G1 X167.750 Y139.750 E709.08343
G1 X167.750 Y141.250 E709.14580
G1 X137.250 Y141.250 E710.41384
G1 F2400 E709.81384
G1 Z3.300
G0 F9000 X137.750 Y164.250
;TYPE:WALL-INNER
G1 Z2.800
G1 F2400 E710.41384
G1 F1860 X167.250 Y164.250 E711.64031
G1 X167.250 Y164.750 E711.66109
G1 X137.750 Y164.750 E712.88756
G1 X137.750 Y164.250 E712.90835
G0 F9000 X137.250 Y163.750
;TYPE:WALL-OUTER
G1 F1860 X167.750 Y163.750 E714.17639
G1 X167.750 Y165.250 E714.23875
G1 X137.250 Y165.250 E715.50680
G1 X137.250 Y163.750 E715.56916
;LAYER:14
M106 S147
G1 F2400 E714.96916
G1 Z3.300
G0 F9000 X137.750 Y140.750 Z3.000
;TYPE:WALL-INNER
G1 Z3.000
G1 F2400 E715.56916
G1 F1860 X137.750 Y140.250 E715.58995
G1 X167.250 Y140.250 E716.81642
G1 X167.250 Y140.750 E716.83720
G1 X137.750 Y140.750 E718.06367
G0 F9000 X137.250 Y141.250
;TYPE:WALL-OUTER
G1 F1860 X137.250 Y139.750 E718.12603
G1 X167.750 Y139.750 E719.39408
G1 X167.750 Y141.250 E719.45644
G1 X137.250 Y141.250 E720.72448
G1 F2400 E720.12448
G1 Z3.500
G0 F9000 X137.750 Y164.250
;TYPE:WALL-INNER
G1 Z3.000
G1 F2400 E720.72448
G1 F1860 X167.250 Y164.250 E721.95095
G1 X167.250 Y164.750 E721.97174
G1 X137.750 Y164.750 E723.19820
G1 X137.750 Y164.250 E723.21899
G0 F9000 X137.250 Y163.750
;TYPE:WALL-OUTER
G1 F1860 X167.750 Y163.750 E724.48703
G1 X167.750 Y165.250 E724.54940
G1 X137.250 Y165.250 E725.81744
G1 X137.250 Y163.750 E725.87980
;LAYER:15
M106 S158
G1 F2400 E725.27980
G1 Z3.500
G0 F9000 X137.750 Y140.750 Z3.200
;TYPE:WALL-INNER
G1 Z3.200
G1 F2400 E725.87980
G1 F1860 X137.750 Y140.250 E725.90059
G1 X167.250 Y140.250 E727.12706
G1 X167.250 Y140.750 E727.14784
G1 X137.750 Y140.750 E728.37431
G0 F9000 X137.250 Y141.250
;TYPE:WALL-OUTER
G1 F1860 X137.250 Y139.750 E728.43668
G1 X167.750 Y139.750 E729.70472
G1 X167.750 Y141.250 E729.76708
G1 X137.250 Y141.250 E731.03512
G1 F2400 E730.43512
G1 Z3.700
G0 F9000 X137.750 Y164.250
;TYPE:WALL-INNER
G1 Z3.200
G1 F2400 E731.03512
G1 F1860 X167.250 Y164.250 E732.26159
G1 X167.250 Y164.750 E732.28238
G1 X137.750 Y164.750 E733.50885
G1 X137.750 Y164.250 E733.52963
G0 F9000 X137.250 Y163.750
;TYPE:WALL-OUTER
G1 F1860 X167.750 Y163.750 E734.79768
G1 X167.750 Y165.250 E734.86004
G1 X137.250 Y165.250 E736.12808
G1 X137.250 Y163.750 E736.19044
;LAYER:16
M106 S168
G1 F2400 E735.59044
G1 Z3.700
G0 F9000 X137.750 Y140.750 Z3.400
;TYPE:WALL-INNER
G1 Z3.400
G1 F2400 E736.19044
G1 F1860 X137.750 Y140.250 E736.21123
G1 X167.250 Y140.250 E737.43770
G1 X167.250 Y140.750 E737.45849
G1 X137.750 Y140.750 E738.68495
G0 F9000 X137.250 Y141.250
;TYPE:WALL-OUTER
G1 F1860 X137.250 Y139.750 E738.74732
G1 X167.750 Y139.750 E740.01536
G1 X167.750 Y141.250 E740.07772
G1 X137.250 Y141.250 E741.34577
G1 F2400 E740.74577
G1 Z3.900
G0 F9000 X137.750 Y164.250
;TYPE:WALL-INNER
G1 Z3.400
G1 F2400 E741.34577
G1 F1860 X167.250 Y164.250 E742.57223
G1 X167.250 Y164.750 E742.59302
G1 X137.750 Y164.750 E743.81949
G1 X137.750 Y164.250 E743.84028
G0 F9000 X137.250 Y163.750
;TYPE:WALL-OUTER
G1 F1860 X167.750 Y163.750 E745.10832
G1 X167.750 Y165.250 E745.17068
G1 X137.250 Y165.250 E746.43872
G1 X137.250 Y163.750 E746.50109
;LAYER:17
M106 S178
G1 F2400 E745.90109
G1 Z3.900
G0 F9000 X137.750 Y140.750 Z3.600
;TYPE:WALL-INNER
G1 Z3.600
G1 F2400 E746.50109
G1 F1860 X137.750 Y140.250 E746.52187
G1 X167.250 Y140.250 E747.74834
G1 X167.250 Y140.750 E747.76913
G1 X137.750 Y140.750 E748.99560
G0 F9000 X137.250 Y141.250
;TYPE:WALL-OUTER
G1 F1860 X137.250 Y139.750 E749.05796
G1 X167.750 Y139.750 E750.32600
G1 X167.750 Y141.250 E750.38836
G1 X137.250 Y141.250 E751.65641
G1 F2400 E751.05641
G1 Z4.100
G0 F9000 X137.750 Y164.250
;TYPE:WALL-INNER
G1 Z3.600
G1 F2400 E751.65641
G1 F1860 X167.250 Y164.250 E752.88287
G1 X167.250 Y164.750 E752.90366
G1 X137.750 Y164.750 E754.13013
G1 X137.750 Y164.250 E754.15092
G0 F9000 X137.250 Y163.750
;TYPE:WALL-OUTER
G1 F1860 X167.750 Y163.750 E755.41896
G1 X167.750 Y165.250 E755.48132
G1 X137.250 Y165.250 E756.74937
G1 X137.250 Y163.750 E756.81173
;LAYER:18
M106 S191
G1 F2400 E756.21173
G1 Z4.100
G0 F9000 X137.750 Y140.750 Z3.800
;TYPE:WALL-INNER
G1 Z3.800
G1 F2400 E756.81173
G1 F1860 X137.750 Y140.250 E756.83252
G1 X167.250 Y140.250 E758.05898
G1 X167.250 Y140.750 E758.07977
G1 X137.750 Y140.750 E759.30624
G0 F9000 X137.250 Y141.250
;TYPE:WALL-OUTER
G1 F1860 X137.250 Y139.750 E759.36860
G1 X167.750 Y139.750 E760.63664
G1 X167.750 Y141.250 E760.69901
G1 X137.250 Y141.250 E761.96705
G1 F2400 E761.36705
G1 Z4.300
G0 F9000 X137.750 Y164.250
;TYPE:WALL-INNER
G1 Z3.800
G1 F2400 E761.96705
G1 F1860 X167.250 Y164.250 E763.19352
G1 X167.250 Y164.750 E763.21430
G1 X137.750 Y164.750 E764.44077
G1 X137.750 Y164.250 E764.46156
G0 F9000 X137.250 Y163.750
;TYPE:WALL-OUTER
G1 F1860 X167.750 Y163.750 E765.72960
G1 X167.750 Y165.250 E765.79196
G1 X137.250 Y165.250 E767.06001
G1 X137.250 Y163.750 E767.12237
;LAYER:19
M106 S201
G1 F2400 E766.52237
G1 Z4.300
G0 F9000 X137.750 Y140.750 Z4.000
;TYPE:WALL-INNER
G1 Z4.000
G1 F2400 E767.12237
G1 F1860 X137.750 Y140.250 E767.14316
G1 X167.250 Y140.250 E768.36962
G1 X167.250 Y140.750 E768.39041
G1 X137.750 Y140.750 E769.61688
G0 F9000 X137.250 Y141.250
;TYPE:WALL-OUTER
G1 F1860 X137.250 Y139.750 E769.67924
G1 X167.750 Y139.750 E770.94729
G1 X167.750 Y141.250 E771.00965
G1 X137.250 Y141.250 E772.27769
G1 F2400 E771.67769
G1 Z4.500
G0 F9000 X137.750 Y164.250
;TYPE:WALL-INNER
G1 Z4.000
G1 F2400 E772.27769
G1 F1860 X167.250 Y164.250 E773.50416
G1 X167.250 Y164.750 E773.52495
G1 X137.750 Y164.750 E774.75141
G1 X137.750 Y164.250 E774.77220
G0 F9000 X137.250 Y163.750
;TYPE:WALL-OUTER
G1 F1860 X167.750 Y163.750 E776.04024
G1 X167.750 Y165.250 E776.10261
G1 X137.250 Y165.250 E777.37065
G1 X137.250 Y163.750 E777.43301
;LAYER:20
M106 S211
G1 F2400 E776.83301
G1 Z4.500
G0 F9000 X137.750 Y140.750 Z4.200
;TYPE:WALL-INNER
G1 Z4.200
G1 F2400 E777.43301
G1 F1860 X137.750 Y140.250 E777.45380
G1 X167.250 Y140.250 E778.68027
G1 X167.250 Y140.750 E778.70105
G1 X137.750 Y140.750 E779.92752
G0 F9000 X137.250 Y141.250
;TYPE:WALL-OUTER
G1 F1860 X137.250 Y139.750 E779.98988
G1 X167.750 Y139.750 E781.25793
G1 X167.750 Y141.250 E781.32029
G1 X137.250 Y141.250 E782.58833
G1 F2400 E781.98833
G1 Z4.700
G0 F9000 X137.750 Y164.250
;TYPE:WALL-INNER
G1 Z4.200
G1 F2400 E782.58833
G1 F1860 X167.250 Y164.250 E783.81480
G1 X167.250 Y164.750 E783.83559
G1 X137.750 Y164.750 E785.06206
G1 X137.750 Y164.250 E785.08284
G0 F9000 X137.250 Y163.750
;TYPE:WALL-OUTER
G1 F1860 X167.750 Y163.750 E786.35089
G1 X167.750 Y165.250 E786.41325
G1 X137.250 Y165.250 E787.68129
G1 X137.250 Y163.750 E787.74365
;LAYER:21
M106 S221
G1 F2400 E787.14365
G1 Z4.700
G0 F9000 X137.750 Y140.750 Z4.400
;TYPE:WALL-INNER
G1 Z4.400
G1 F2400 E787.74365
G1 F1860 X137.750 Y140.250 E787.76444
G1 X167.250 Y140.250 E788.99091
G1 X167.250 Y140.750 E789.01170
G1 X137.750 Y140.750 E790.23816
G0 F9000 X137.250 Y141.250
;TYPE:WALL-OUTER
G1 F1860 X137.250 Y139.750 E790.30053
G1 X167.750 Y139.750 E791.56857
G1 X167.750 Y141.250 E791.63093
G1 X137.250 Y141.250 E792.89897
G1 F2400 E792.29897
G1 Z4.900
G0 F9000 X137.750 Y164.250
;TYPE:WALL-INNER
G1 Z4.400
G1 F2400 E792.89897
G1 F1860 X167.250 Y164.250 E794.12544
G1 X167.250 Y164.750 E794.14623
G1 X137.750 Y164.750 E795.37270
G1 X137.750 Y164.250 E795.39348
G0 F9000 X137.250 Y163.750
;TYPE:WALL-OUTER
G1 F1860 X167.750 Y163.750 E796.66153
G1 X167.750 Y165.250 E796.72389
G1 X137.250 Y165.250 E797.99193
G1 X137.250 Y163.750 E798.05430
;LAYER:22
M106 S232
G1 F2400 E797.45430
G1 Z4.900
G0 F9000 X137.750 Y140.750 Z4.600
;TYPE:WALL-INNER
G1 Z4.600
G1 F2400 E798.05430
G1 F1860 X137.750 Y140.250 E798.07508
G1 X167.250 Y140.250 E799.30155
G1 X167.250 Y140.750 E799.32234
G1 X137.750 Y140.750 E800.54881
G0 F9000 X137.250 Y141.250
;TYPE:WALL-OUTER
G1 F1860 X137.250 Y139.750 E800.61117
G1 X167.750 Y139.750 E801.87921
G1 X167.750 Y141.250 E801.94157
G1 X137.250 Y141.250 E803.20962
G1 F2400 E802.60962
G1 Z5.100
G0 F9000 X137.750 Y164.250
;TYPE:WALL-INNER
G1 Z4.600
G1 F2400 E803.20962
G1 F1860 X167.250 Y164.250 E804.43608
G1 X167.250 Y164.750 E804.45687
G1 X137.750 Y164.750 E805.68334
G1 X137.750 Y164.250 E805.70413
G0 F9000 X137.250 Y163.750
;TYPE:WALL-OUTER
G1 F1860 X167.750 Y163.750 E806.97217
G1 X167.750 Y165.250 E807.03453
G1 X137.250 Y165.250 E808.30257
G1 X137.250 Y163.750 E808.36494
;LAYER:23
M106 S242
G1 F2400 E807.76494
G1 Z5.100
G0 F9000 X137.750 Y140.750 Z4.800
;TYPE:WALL-INNER
G1 Z4.800
G1 F2400 E808.36494
G1 F1860 X137.750 Y140.250 E808.38572
G1 X167.250 Y140.250 E809.61219
G1 X167.250 Y140.750 E809.63298
G1 X137.750 Y140.750 E810.85945
G0 F9000 X137.250 Y141.250
;TYPE:WALL-OUTER
G1 F1860 X137.250 Y139.750 E810.92181
G1 X167.750 Y139.750 E812.18985
G1 X167.750 Y141.250 E812.25222
G1 X137.250 Y141.250 E813.52026
G1 F2400 E812.92026
G1 Z5.300
G0 F9000 X137.750 Y164.250
;TYPE:WALL-INNER
G1 Z4.800
G1 F2400 E813.52026
G1 F1860 X167.250 Y164.250 E814.74673
G1 X167.250 Y164.750 E814.76751
G1 X137.750 Y164.750 E815.99398
G1 X137.750 Y164.250 E816.01477
G0 F9000 X137.250 Y163.750
;TYPE:WALL-OUTER
G1 F1860 X167.750 Y163.750 E817.28281
G1 X167.750 Y165.250 E817.34517
G1 X137.250 Y165.250 E818.61322
G1 X137.250 Y163.750 E818.67558
;LAYER:24
M106 S255
G1 F2400 E818.07558
G1 Z5.300
G0 F9000 X137.750 Y140.750 Z5.000
;TYPE:WALL-INNER
G1 Z5.000
G1 F2400 E818.67558
G1 F1860 X137.750 Y140.250 E818.69637
G1 X167.250 Y140.250 E819.92283
G1 X167.250 Y140.750 E819.94362
G1 X137.750 Y140.750 E821.17009
G0 F9000 X137.250 Y141.250
;TYPE:WALL-OUTER
G1 F1860 X137.250 Y139.750 E821.23245
G1 X167.750 Y139.750 E822.50049
G1 X167.750 Y141.250 E822.56286
G1 X137.250 Y141.250 E823.83090
G1 F2400 E823.23090
G1 Z5.500
G0 F9000 X137.750 Y164.250
;TYPE:WALL-INNER
G1 Z5.000
G1 F2400 E823.83090
G1 F1860 X167.250 Y164.250 E825.05737
G1 X167.250 Y164.750 E825.07816
G1 X137.750 Y164.750 E826.30462
G1 X137.750 Y164.250 E826.32541
G0 F9000 X137.250 Y163.750
;TYPE:WALL-OUTER
G1 F1860 X167.750 Y163.750 E827.59345
G1 X167.750 Y165.250 E827.65582
G1 X137.250 Y165.250 E828.92386
G1 X137.250 Y163.750 E828.98622
;LAYER:25
G1 F2400 E828.38622
G1 Z5.500
G0 F9000 X137.750 Y140.750 Z5.200
;TYPE:WALL-INNER
G1 Z5.200
G1 F2400 E828.98622
G1 F1860 X137.750 Y140.250 E829.00701
G1 X167.250 Y140.250 E830.23348
G1 X167.250 Y140.750 E830.25426
G1 X137.750 Y140.750 E831.48073
G0 F9000 X137.250 Y141.250
;TYPE:WALL-OUTER
G1 F1860 X137.250 Y139.750 E831.54309
G1 X167.750 Y139.750 E832.81114
G1 X167.750 Y141.250 E832.87350
G1 X137.250 Y141.250 E834.14154
G1 F2400 E833.54154
G1 Z5.700
G0 F9000 X137.750 Y164.250
;TYPE:WALL-INNER
G1 Z5.200
G1 F2400 E834.14154
G1 F1860 X167.250 Y164.250 E835.36801
G1 X167.250 Y164.750 E835.38880
G1 X137.750 Y164.750 E836.61526
G1 X137.750 Y164.250 E836.63605
G0 F9000 X137.250 Y163.750
;TYPE:WALL-OUTER
G1 F1860 X167.750 Y163.750 E837.90409
G1 X167.750 Y165.250 E837.96646
G1 X137.250 Y165.250 E839.23450
G1 X137.250 Y163.750 E839.29686
;LAYER:26
G1 F2400 E838.69686
G1 Z5.700
G0 F9000 X137.750 Y140.750 Z5.400
;TYPE:WALL-INNER
G1 Z5.400
G1 F2400 E839.29686
G1 F1860 X137.750 Y140.250 E839.31765
G1 X167.250 Y140.250 E840.54412
G1 X167.250 Y140.750 E840.56491
G1 X137.750 Y140.750 E841.79137
G0 F9000 X137.250 Y141.250
;TYPE:WALL-OUTER
G1 F1860 X137.250 Y139.750 E841.85374
G1 X167.750 Y139.750 E843.12178
G1 X167.750 Y141.250 E843.18414
G1 X137.250 Y141.250 E844.45218
G1 F2400 E843.85218
G1 Z5.900
G0 F9000 X137.750 Y164.250
;TYPE:WALL-INNER
G1 Z5.400
G1 F2400 E844.45218
G1 F1860 X167.250 Y164.250 E845.67865
G1 X167.250 Y164.750 E845.69944
G1 X137.750 Y164.750 E846.92591
G1 X137.750 Y164.250 E846.94669
G0 F9000 X137.250 Y163.750
;TYPE:WALL-OUTER
G1 F1860 X167.750 Y163.750 E848.21474
G1 X167.750 Y165.250 E848.27710
G1 X137.250 Y165.250 E849.54514
G1 X137.250 Y163.750 E849.60750
;LAYER:27
G1 F2400 E849.00750
G1 Z5.900
G0 F9000 X137.750 Y140.750 Z5.600
;TYPE:WALL-INNER
G1 Z5.600
G1 F2400 E849.60750
G1 F1860 X137.750 Y140.250 E849.62829
G1 X167.250 Y140.250 E850.85476
G1 X167.250 Y140.750 E850.87555
G1 X137.750 Y140.750 E852.10201
G0 F9000 X137.250 Y141.250
;TYPE:WALL-OUTER
G1 F1860 X137.250 Y139.750 E852.16438
G1 X167.750 Y139.750 E853.43242
G1 X167.750 Y141.250 E853.49478
G1 X137.250 Y141.250 E854.76283
G1 F2400 E854.16283
G1 Z6.100
G0 F9000 X137.750 Y164.250
;TYPE:WALL-INNER
G1 Z5.600
G1 F2400 E854.76283
G1 F1860 X167.250 Y164.250 E855.98929
G1 X167.250 Y164.750 E856.01008
G1 X137.750 Y164.750 E857.23655
G1 X137.750 Y164.250 E857.25734
G0 F9000 X137.250 Y163.750
;TYPE:WALL-OUTER
G1 F1860 X167.750 Y163.750 E858.52538
G1 X167.750 Y165.250 E858.58774
G1 X137.250 Y165.250 E859.85578
G1 X137.250 Y163.750 E859.91815
;LAYER:28
G1 F2400 E859.31815
G1 Z6.100
G0 F9000 X137.750 Y140.750 Z5.800
;TYPE:WALL-INNER
G1 Z5.800
G1 F2400 E859.91815
G1 F1860 X137.750 Y140.250 E859.93893
G1 X167.250 Y140.250 E861.16540
G1 X167.250 Y140.750 E861.18619
G1 X137.750 Y140.750 E862.41266
G0 F9000 X137.250 Y141.250
;TYPE:WALL-OUTER
G1 F1860 X137.250 Y139.750 E862.47502
G1 X167.750 Y139.750 E863.74306
G1 X167.750 Y141.250 E863.80542
G1 X137.250 Y141.250 E865.07347
G1 F2400 E864.47347
G1 Z6.300
G0 F9000 X137.750 Y164.250
;TYPE:WALL-INNER
G1 Z5.800
G1 F2400 E865.07347
G1 F1860 X167.250 Y164.250 E866.29993
G1 X167.250 Y164.750 E866.32072
G1 X137.750 Y164.750 E867.54719
G1 X137.750 Y164.250 E867.56798
G0 F9000 X137.250 Y163.750
;TYPE:WALL-OUTER
G1 F1860 X167.750 Y163.750 E868.83602
G1 X167.750 Y165.250 E868.89838
G1 X137.250 Y165.250 E870.16643
G1 X137.250 Y163.750 E870.22879
;LAYER:29
G1 F2400 E869.62879
G1 Z6.300
G0 F9000 X137.750 Y140.750 Z6.000
;TYPE:WALL-INNER
G1 Z6.000
G1 F2400 E870.22879
G1 F1860 X137.750 Y140.250 E870.24958
G1 X167.250 Y140.250 E871.47604
G1 X167.250 Y140.750 E871.49683
G1 X137.750 Y140.750 E872.72330
G0 F9000 X137.250 Y141.250
;TYPE:WALL-OUTER
G1 F1860 X137.250 Y139.750 E872.78566
G1 X167.750 Y139.750 E874.05370
G1 X167.750 Y141.250 E874.11607
G1 X137.250 Y141.250 E875.38411
G1 F2400 E874.78411
G1 Z6.500
G0 F9000 X137.750 Y164.250
;TYPE:WALL-INNER
G1 Z6.000
G1 F2400 E875.38411
G1 F1860 X167.250 Y164.250 E876.61058
G1 X167.250 Y164.750 E876.63136
G1 X137.750 Y164.750 E877.85783
G1 X137.750 Y164.250 E877.87862
G0 F9000 X137.250 Y163.750
;TYPE:WALL-OUTER
G1 F1860 X167.750 Y163.750 E879.14666
G1 X167.750 Y165.250 E879.20902
G1 X137.250 Y165.250 E880.47707
G1 X137.250 Y163.750 E880.53943
;LAYER:30
G1 F2400 E879.93943
G1 Z6.500
G0 F9000 X137.750 Y140.750 Z6.200
;TYPE:WALL-INNER
G1 Z6.200
G1 F2400 E880.53943
G1 F1860 X137.750 Y140.250 E880.56022
G1 X167.250 Y140.250 E881.78669
G1 X167.250 Y140.750 E881.80747
G1 X137.750 Y140.750 E883.03394
G0 F9000 X137.250 Y141.250
;TYPE:WALL-OUTER
G1 F1860 X137.250 Y139.750 E883.09630
G1 X167.750 Y139.750 E884.36435
G1 X167.750 Y141.250 E884.42671
G1 X137.250 Y141.250 E885.69475
G1 F2400 E885.09475
G1 Z6.700
G0 F9000 X137.750 Y164.250
;TYPE:WALL-INNER
G1 Z6.200
G1 F2400 E885.69475
G1 F1860 X167.250 Y164.250 E886.92122
G1 X167.250 Y164.750 E886.94201
G1 X137.750 Y164.750 E888.16847
G1 X137.750 Y164.250 E888.18926
G0 F9000 X137.250 Y163.750
;TYPE:WALL-OUTER
G1 F1860 X167.750 Y163.750 E889.45730
G1 X167.750 Y165.250 E889.51967
G1 X137.250 Y165.250 E890.78771
G1 X137.250 Y163.750 E890.85007
;LAYER:31
G1 F2400 E890.25007
G1 Z6.700
G0 F9000 X137.750 Y140.750 Z6.400
;TYPE:WALL-INNER
G1 Z6.400
G1 F2400 E890.85007
G1 F1860 X137.750 Y140.250 E890.87086
G1 X167.250 Y140.250 E892.09733
G1 X167.250 Y140.750 E892.11811
G1 X137.750 Y140.750 E893.34458
G0 F9000 X137.250 Y141.250
;TYPE:WALL-OUTER
G1 F1860 X137.250 Y139.750 E893.40694
G1 X167.750 Y139.750 E894.67499
G1 X167.750 Y141.250 E894.73735
G1 X137.250 Y141.250 E896.00539
G1 F2400 E895.40539
G1 Z6.900
G0 F9000 X137.750 Y164.250
;TYPE:WALL-INNER
G1 Z6.400
G1 F2400 E896.00539
G1 F1860 X167.250 Y164.250 E897.23186
G1 X167.250 Y164.750 E897.25265
G1 X137.750 Y164.750 E898.47912
G1 X137.750 Y164.250 E898.49990
G0 F9000 X137.250 Y163.750
;TYPE:WALL-OUTER
G1 F1860 X167.750 Y163.750 E899.76795
G1 X167.750 Y165.250 E899.83031
G1 X137.250 Y165.250 E901.09835
G1 X137.250 Y163.750 E901.16071
;LAYER:32
G1 F2400 E900.56071
G1 Z6.900
G0 F9000 X137.750 Y140.750 Z6.600
;TYPE:WALL-INNER
G1 Z6.600
G1 F2400 E901.16071
G1 F1860 X137.750 Y140.250 E901.18150
G1 X167.250 Y140.250 E902.40797
G1 X167.250 Y140.750 E902.42876
G1 X137.750 Y140.750 E903.65522
G0 F9000 X137.250 Y141.250
;TYPE:WALL-OUTER
G1 F1860 X137.250 Y139.750 E903.71759
G1 X167.750 Y139.750 E904.98563
G1 X167.750 Y141.250 E905.04799
G1 X137.250 Y141.250 E906.31603
G1 F2400 E905.71603
G1 Z7.100
G0 F9000 X137.750 Y164.250
;TYPE:WALL-INNER
G1 Z6.600
G1 F2400 E906.31603
G1 F1860 X167.250 Y164.250 E907.54250
G1 X167.250 Y164.750 E907.56329
G1 X137.750 Y164.750 E908.78976
G1 X137.750 Y164.250 E908.81055
G0 F9000 X137.250 Y163.750
;TYPE:WALL-OUTER
G1 F1860 X167.750 Y163.750 E910.07859
G1 X167.750 Y165.250 E910.14095
G1 X137.250 Y165.250 E911.40899
G1 X137.250 Y163.750 E911.47136
;LAYER:33
G1 F2400 E910.87136
G1 Z7.100
G0 F9000 X137.750 Y140.750 Z6.800
;TYPE:WALL-INNER
G1 Z6.800
G1 F2400 E911.47136
G1 F1860 X137.750 Y140.250 E911.49214
G1 X167.250 Y140.250 E912.71861
G1 X167.250 Y140.750 E912.73940
G1 X137.750 Y140.750 E913.96587
G0 F9000 X137.250 Y141.250
;TYPE:WALL-OUTER
G1 F1860 X137.250 Y139.750 E914.02823
G1 X167.750 Y139.750 E915.29627
G1 X167.750 Y141.250 E915.35863
G1 X137.250 Y141.250 E916.62668
G1 F2400 E916.02668
G1 Z7.300
G0 F9000 X137.750 Y164.250
;TYPE:WALL-INNER
G1 Z6.800
G1 F2400 E916.62668
G1 F1860 X167.250 Y164.250 E917.85314
G1 X167.250 Y164.750 E917.87393
G1 X137.750 Y164.750 E919.10040
G1 X137.750 Y164.250 E919.12119
G0 F9000 X137.250 Y163.750
;TYPE:WALL-OUTER
G1 F1860 X167.750 Y163.750 E920.38923
G1 X167.750 Y165.250 E920.45159
G1 X137.250 Y165.250 E921.71963
G1 X137.250 Y163.750 E921.78200
;LAYER:34
G1 F2400 E921.18200
G1 Z7.300
G0 F9000 X137.750 Y140.750 Z7.000
;TYPE:WALL-INNER
G1 Z7.000
G1 F2400 E921.78200
G1 F1860 X137.750 Y140.250 E921.80279
G1 X167.250 Y140.250 E923.02925
G1 X167.250 Y140.750 E923.05004
G1 X137.750 Y140.750 E924.27651
G0 F9000 X137.250 Y141.250
;TYPE:WALL-OUTER
G1 F1860 X137.250 Y139.750 E924.33887
G1 X167.750 Y139.750 E925.60691
G1 X167.750 Y141.250 E925.66928
G1 X137.250 Y141.250 E926.93732
G1 F2400 E926.33732
G1 Z7.500
G0 F9000 X137.750 Y164.250
;TYPE:WALL-INNER
G1 Z7.000
G1 F2400 E926.93732
G1 F1860 X167.250 Y164.250 E928.16379
G1 X167.250 Y164.750 E928.18457
G1 X137.750 Y164.750 E929.41104
G1 X137.750 Y164.250 E929.43183
G0 F9000 X137.250 Y163.750
;TYPE:WALL-OUTER
G1 F1860 X167.750 Y163.750 E930.69987
G1 X167.750 Y165.250 E930.76223
G1 X137.250 Y165.250 E932.03028
G1 X137.250 Y163.750 E932.09264
;LAYER:35
G1 F2400 E931.49264
G1 Z7.500
G0 F9000 X137.750 Y140.750 Z7.200
;TYPE:WALL-INNER
G1 Z7.200
G1 F2400 E932.09264
G1 F1860 X137.750 Y140.250 E932.11343
G1 X167.250 Y140.250 E933.33989
G1 X167.250 Y140.750 E933.36068
G1 X137.750 Y140.750 E934.58715
G0 F9000 X137.250 Y141.250
;TYPE:WALL-OUTER
G1 F1860 X137.250 Y139.750 E934.64951
G1 X167.750 Y139.750 E935.91756
G1 X167.750 Y141.250 E935.97992
G1 X137.250 Y141.250 E937.24796
G1 F2400 E936.64796
G1 Z7.700
G0 F9000 X137.750 Y164.250
;TYPE:WALL-INNER
G1 Z7.200
G1 F2400 E937.24796
G1 F1860 X167.250 Y164.250 E938.47443
G1 X167.250 Y164.750 E938.49522
G1 X137.750 Y164.750 E939.72168
G1 X137.750 Y164.250 E939.74247
G0 F9000 X137.250 Y163.750
;TYPE:WALL-OUTER
G1 F1860 X167.750 Y163.750 E941.01051
G1 X167.750 Y165.250 E941.07288
G1 X137.250 Y165.250 E942.34092
G1 X137.250 Y163.750 E942.40328
;LAYER:36
G1 F2400 E941.80328
G1 Z7.700
G0 F9000 X137.750 Y140.750 Z7.400
;TYPE:WALL-INNER
G1 Z7.400
G1 F2400 E942.40328
G1 F1860 X137.750 Y140.250 E942.42407
G1 X167.250 Y140.250 E943.65054
G1 X167.250 Y140.750 E943.67132
G1 X137.750 Y140.750 E944.89779
G0 F9000 X137.250 Y141.250
;TYPE:WALL-OUTER
G1 F1860 X137.250 Y139.750 E944.96015
G1 X167.750 Y139.750 E946.22820
G1 X167.750 Y141.250 E946.29056
G1 X137.250 Y141.250 E947.55860
G1 F2400 E946.95860
G1 Z7.900
G0 F9000 X137.750 Y164.250
;TYPE:WALL-INNER
G1 Z7.400
G1 F2400 E947.55860
G1 F1860 X167.250 Y164.250 E948.78507
G1 X167.250 Y164.750 E948.80586
G1 X137.750 Y164.750 E950.03232
G1 X137.750 Y164.250 E950.05311
G0 F9000 X137.250 Y163.750
;TYPE:WALL-OUTER
G1 F1860 X167.750 Y163.750 E951.32116
G1 X167.750 Y165.250 E951.38352
G1 X137.250 Y165.250 E952.65156
G1 X137.250 Y163.750 E952.71392
;LAYER:37
G1 F2400 E952.11392
G1 Z7.900
G0 F9000 X137.750 Y140.750 Z7.600
;TYPE:WALL-INNER
G1 Z7.600
G1 F2400 E952.71392
G1 F1860 X137.750 Y140.250 E952.73471
G1 X167.250 Y140.250 E953.96118
G1 X167.250 Y140.750 E953.98197
G1 X137.750 Y140.750 E955.20843
G0 F9000 X137.250 Y141.250
;TYPE:WALL-OUTER
G1 F1860 X137.250 Y139.750 E955.27080
G1 X167.750 Y139.750 E956.53884
G1 X167.750 Y141.250 E956.60120
G1 X137.250 Y141.250 E957.86924
G1 F2400 E957.26924
G1 Z8.100
G0 F9000 X137.750 Y164.250
;TYPE:WALL-INNER
G1 Z7.600
G1 F2400 E957.86924
G1 F1860 X167.250 Y164.250 E959.09571
G1 X167.250 Y164.750 E959.11650
G1 X137.750 Y164.750 E960.34297
G1 X137.750 Y164.250 E960.36375
G0 F9000 X137.250 Y163.750
;TYPE:WALL-OUTER
G1 F1860 X167.750 Y163.750 E961.63180
G1 X167.750 Y165.250 E961.69416
G1 X137.250 Y165.250 E962.96220
G1 X137.250 Y163.750 E963.02457
;LAYER:38
G1 F2400 E962.42457
G1 Z8.100
G0 F9000 X137.750 Y140.750 Z7.800
;TYPE:WALL-INNER
G1 Z7.800
G1 F2400 E963.02457
G1 F1860 X137.750 Y140.250 E963.04535
G1 X167.250 Y140.250 E964.27182
G1 X167.250 Y140.750 E964.29261
G1 X137.750 Y140.750 E965.51908
G0 F9000 X137.250 Y141.250
;TYPE:WALL-OUTER
G1 F1860 X137.250 Y139.750 E965.58144
G1 X167.750 Y139.750 E966.84948
G1 X167.750 Y141.250 E966.91184
G1 X137.250 Y141.250 E968.17989
G1 F2400 E967.57989
G1 Z8.300
G0 F9000 X137.750 Y164.250
;TYPE:WALL-INNER
G1 Z7.800
G1 F2400 E968.17989
G1 F1860 X167.250 Y164.250 E969.40635
G1 X167.250 Y164.750 E969.42714
G1 X137.750 Y164.750 E970.65361
G1 X137.750 Y164.250 E970.67440
G0 F9000 X137.250 Y163.750
;TYPE:WALL-OUTER
G1 F1860 X167.750 Y163.750 E971.94244
G1 X167.750 Y165.250 E972.00480
G1 X137.250 Y165.250 E973.27284
G1 X137.250 Y163.750 E973.33521
;LAYER:39
G1 F2400 E972.73521
G1 Z8.300
G0 F9000 X137.750 Y140.750 Z8.000
;TYPE:WALL-INNER
G1 Z8.000
G1 F2400 E973.33521
G1 F1860 X137.750 Y140.250 E973.35599
G1 X167.250 Y140.250 E974.58246
G1 X167.250 Y140.750 E974.60325
G1 X137.750 Y140.750 E975.82972
G0 F9000 X137.250 Y141.250
;TYPE:WALL-OUTER
G1 F1860 X137.250 Y139.750 E975.89208
G1 X167.750 Y139.750 E977.16012
G1 X167.750 Y141.250 E977.22249
G1 X137.250 Y141.250 E978.49053
G1 F2400 E977.89053
G1 Z8.500
G0 F9000 X137.750 Y164.250
;TYPE:WALL-INNER
G1 Z8.000
G1 F2400 E978.49053
G1 F1860 X167.250 Y164.250 E979.71700
G1 X167.250 Y164.750 E979.73778
G1 X137.750 Y164.750 E980.96425
G1 X137.750 Y164.250 E980.98504
G0 F9000 X137.250 Y163.750
;TYPE:WALL-OUTER
G1 F1860 X167.750 Y163.750 E982.25308
G1 X167.750 Y165.250 E982.31544
G1 X137.250 Y165.250 E983.58349
G1 X137.250 Y163.750 E983.64585
;LAYER:40
G1 F2400 E983.04585
G1 Z8.500
G0 F9000 X137.750 Y140.750 Z8.200
;TYPE:WALL-INNER
G1 Z8.200
G1 F2400 E983.64585
G1 F1860 X137.750 Y140.250 E983.66664
G1 X167.250 Y140.250 E984.89310
G1 X167.250 Y140.750 E984.91389
G1 X137.750 Y140.750 E986.14036
G0 F9000 X137.250 Y141.250
;TYPE:WALL-OUTER
G1 F1860 X137.250 Y139.750 E986.20272
G1 X167.750 Y139.750 E987.47076
G1 X167.750 Y141.250 E987.53313
G1 X137.250 Y141.250 E988.80117
G1 F2400 E988.20117
G1 Z8.700
G0 F9000 X137.750 Y164.250
;TYPE:WALL-INNER
G1 Z8.200
G1 F2400 E988.80117
G1 F1860 X167.250 Y164.250 E990.02764
G1 X167.250 Y164.750 E990.04842
G1 X137.750 Y164.750 E991.27489
G1 X137.750 Y164.250 E991.29568
G0 F9000 X137.250 Y163.750
;TYPE:WALL-OUTER
G1 F1860 X167.750 Y163.750 E992.56372
G1 X167.750 Y165.250 E992.62609
G1 X137.250 Y165.250 E993.89413
G1 X137.250 Y163.750 E993.95649
;LAYER:41
G1 F2400 E993.35649
G1 Z8.700
G0 F9000 X137.750 Y140.750 Z8.400
;TYPE:WALL-INNER
G1 Z8.400
G1 F2400 E993.95649
G1 F1860 X137.750 Y140.250 E993.97728
G1 X167.250 Y140.250 E995.20375
G1 X167.250 Y140.750 E995.22453
G1 X137.750 Y140.750 E996.45100
G0 F9000 X137.250 Y141.250
;TYPE:WALL-OUTER
G1 F1860 X137.250 Y139.750 E996.51336
G1 X167.750 Y139.750 E997.78141
G1 X167.750 Y141.250 E997.84377
G1 X137.250 Y141.250 E999.11181
G1 F2400 E998.51181
G1 Z8.900
G0 F9000 X137.750 Y164.250
;TYPE:WALL-INNER
G1 Z8.400
G1 F2400 E999.11181
G1 F1860 X167.250 Y164.250 E1000.33828
G1 X167.250 Y164.750 E1000.35907
G1 X137.750 Y164.750 E1001.58553
G1 X137.750 Y164.250 E1001.60632
G0 F9000 X137.250 Y163.750
;TYPE:WALL-OUTER
G1 F1860 X167.750 Y163.750 E1002.87436
G1 X167.750 Y165.250 E1002.93673
G1 X137.250 Y165.250 E1004.20477
G1 X137.250 Y163.750 E1004.26713
;LAYER:42
G1 F2400 E1003.66713
G1 Z8.900
G0 F9000 X137.750 Y140.750 Z8.600
;TYPE:WALL-INNER
G1 Z8.600
G1 F2400 E1004.26713
G1 F1860 X137.750 Y140.250 E1004.28792
G1 X167.250 Y140.250 E1005.51439
G1 X167.250 Y140.750 E1005.53518
G1 X137.750 Y140.750 E1006.76164
G0 F9000 X137.250 Y141.250
;TYPE:WALL-OUTER
G1 F1860 X137.250 Y139.750 E1006.82401
G1 X167.750 Y139.750 E1008.09205
G1 X167.750 Y141.250 E1008.15441
G1 X137.250 Y141.250 E1009.42245
G1 F2400 E1008.82245
G1 Z9.100
G0 F9000 X137.750 Y164.250
;TYPE:WALL-INNER
G1 Z8.600
G1 F2400 E1009.42245
G1 F1860 X167.250 Y164.250 E1010.64892
G1 X167.250 Y164.750 E1010.66971
G1 X137.750 Y164.750 E1011.89618
G1 X137.750 Y164.250 E1011.91696
G0 F9000 X137.250 Y163.750
;TYPE:WALL-OUTER
G1 F1860 X167.750 Y163.750 E1013.18501
G1 X167.750 Y165.250 E1013.24737
G1 X137.250 Y165.250 E1014.51541
G1 X137.250 Y163.750 E1014.57777
;LAYER:43
G1 F2400 E1013.97777
G1 Z9.100
G0 F9000 X137.750 Y140.750 Z8.800
;TYPE:WALL-INNER
G1 Z8.800
G1 F2400 E1014.57777
G1 F1860 X137.750 Y140.250 E1014.59856
G1 X167.250 Y140.250 E1015.82503
G1 X167.250 Y140.750 E1015.84582
G1 X137.750 Y140.750 E1017.07228
G0 F9000 X137.250 Y141.250
;TYPE:WALL-OUTER
G1 F1860 X137.250 Y139.750 E1017.13465
G1 X167.750 Y139.750 E1018.40269
G1 X167.750 Y141.250 E1018.46505
G1 X137.250 Y141.250 E1019.73310
G1 F2400 E1019.13310
G1 Z9.300
G0 F9000 X137.750 Y164.250
;TYPE:WALL-INNER
G1 Z8.800
G1 F2400 E1019.73310
G1 F1860 X167.250 Y164.250 E1020.95956
G1 X167.250 Y164.750 E1020.98035
G1 X137.750 Y164.750 E1022.20682
G1 X137.750 Y164.250 E1022.22761
G0 F9000 X137.250 Y163.750
;TYPE:WALL-OUTER
G1 F1860 X167.750 Y163.750 E1023.49565
G1 X167.750 Y165.250 E1023.55801
G1 X137.250 Y165.250 E1024.82605
G1 X137.250 Y163.750 E1024.88842
;LAYER:44
G1 F2400 E1024.28842
G1 Z9.300
G0 F9000 X137.750 Y140.750 Z9.000
;TYPE:WALL-INNER
G1 Z9.000
G1 F2400 E1024.88842
G1 F1860 X137.750 Y140.250 E1024.90920
G1 X167.250 Y140.250 E1026.13567
G1 X167.250 Y140.750 E1026.15646
G1 X137.750 Y140.750 E1027.38293
G0 F9000 X137.250 Y141.250
;TYPE:WALL-OUTER
G1 F1860 X137.250 Y139.750 E1027.44529
G1 X167.750 Y139.750 E1028.71333
