;-- START GCODE --
;Sliced for Type A Machines Series 1
;Sliced at: Tue 10-11-2020 18:35:43
;Basic settings: Layer height: 0.2 Walls: 1 Fill: 80
;Print Speed: 45 Support: 0
;Retraction Speed: 40 Retraction Distance: 0.6
;Print time: 22 minutes
;Filament used: 2.02m 6.0g
;Settings based on: Type A Machines ProMatte
G21        ;metric values
G90        ;absolute positioning
G28     ;move to endstops
G29		;allows for auto-levelling
G1 Z15.0 F12000 ;move the platform down 15mm
G1 X150 Y5 F9000 ;center
M140 S50 ;Prep Heat Bed
M109 S210 ;Heat To temp
M190 S50 ;Heat Bed to temp
G1 X150 Y5 Z0.3 ;move the platform to purge extrusion
G92 E0 ;zero the extruded length
G1 F200 X250 E30 ;extrude 30mm of feed stock
G92 E0 ;zero the extruded length again
G1 X150 Y150  Z25 F12000 ;recenter and begin
G1 F9000

;Layer count: 90
;LAYER:0
M107
G0 F9000 X128.250 Y136.250 Z0.200
;TYPE:SKIRT
G1 F1800 X176.750 Y136.250 E2.01640
G1 X176.750 Y168.750 E3.36759
G1 X128.250 Y168.750 E5.38398
G1 X128.250 Y136.250 E6.73518
G1 F2400 E6.13518
G1 Z0.700
G0 F9000 X132.250 Y140.250
;TYPE:WALL-INNER
G1 Z0.200
G1 F2400 E6.73518
G1 F1800 X172.750 Y140.250 E8.41897
G1 X172.750 Y164.750 E9.43756
G1 X132.250 Y164.750 E11.12136
G1 X132.250 Y140.250 E12.13995
G0 F9000 X131.750 Y139.750
;TYPE:WALL-OUTER
G1 F1800 X173.250 Y139.750 E13.86532
G1 X173.250 Y165.250 E14.92549
G1 X131.750 Y165.250 E16.65086
G1 X131.750 Y139.750 E17.71102
G0 F9000 X132.424 Y140.556
;TYPE:SKIN
G1 F1800 X156.443 Y164.574 E19.12322
G0 F9000 X155.736 Y164.574
G1 F1800 X132.424 Y141.263 E20.49384
G0 F9000 X132.424 Y141.970
G1 F1800 X155.028 Y164.574 E21.82287
G0 F9000 X154.321 Y164.574
G1 F1800 X132.424 Y142.677 E23.11033
G0 F9000 X132.424 Y143.384
G1 F1800 X153.614 Y164.574 E24.35622
G0 F9000 X152.907 Y164.574
G1 F1800 X132.424 Y144.092 E25.56052
G0 F9000 X132.424 Y144.799
G1 F1800 X152.199 Y164.574 E26.72321
G0 F9000 X151.492 Y164.574
G1 F1800 X132.424 Y145.506 E27.84434
G0 F9000 X132.424 Y146.213
G1 F1800 X150.785 Y164.574 E28.92389
G0 F9000 X150.078 Y164.574
G1 F1800 X132.424 Y146.920 E29.96188
G0 F9000 X132.424 Y147.627
G1 F1800 X149.371 Y164.574 E30.95830
G0 F9000 X148.664 Y164.574
G1 F1800 X132.424 Y148.334 E31.91315
G0 F9000 X132.424 Y149.041
G1 F1800 X147.957 Y164.574 E32.82643
G0 F9000 X147.250 Y164.574
G1 F1800 X132.424 Y149.748 E33.69814
G0 F9000 X132.424 Y150.456
G1 F1800 X146.542 Y164.574 E34.52823
G0 F9000 X145.835 Y164.574
G1 F1800 X132.424 Y151.163 E35.31674
G0 F9000 X132.424 Y151.870
G1 F1800 X145.128 Y164.574 E36.06369
G0 F9000 X144.421 Y164.574
G1 F1800 X132.424 Y152.577 E36.76906
G0 F9000 X132.424 Y153.284
G1 F1800 X143.714 Y164.574 E37.43287
G0 F9000 X143.007 Y164.574
G1 F1800 X132.424 Y153.991 E38.05511
G0 F9000 X132.424 Y154.698
G1 F1800 X142.300 Y164.574 E38.63578
G0 F9000 X141.593 Y164.574
G1 F1800 X132.424 Y155.405 E39.17489
G0 F9000 X132.424 Y156.112
G1 F1800 X140.886 Y164.574 E39.67242
G0 F9000 X140.178 Y164.574
G1 F1800 X132.424 Y156.820 E40.12832
G0 F9000 X132.424 Y157.527
G1 F1800 X139.471 Y164.574 E40.54266
G0 F9000 X138.764 Y164.574
G1 F1800 X132.424 Y158.234 E40.91543
G0 F9000 X132.424 Y158.941
G1 F1800 X138.057 Y164.574 E41.24663
G0 F9000 X137.350 Y164.574
G1 F1800 X132.424 Y159.648 E41.53626
G1 F2400 E40.93626
G1 Z0.700
G0 F9000 X133.000 Y140.425
G1 Z0.200
G1 F2400 E41.53626
G1 F1800 X157.150 Y164.574 E42.95616
G0 F9000 X157.857 Y164.574
G1 F1800 X133.707 Y140.425 E44.37605
G0 F9000 X134.414 Y140.425
G1 F1800 X158.564 Y164.574 E45.79595
G0 F9000 X159.271 Y164.574
G1 F1800 X135.121 Y140.425 E47.21585
G0 F9000 X135.828 Y140.425
G1 F1800 X159.978 Y164.574 E48.63575
G0 F9000 X160.685 Y164.574
G1 F1800 X136.535 Y140.425 E50.05565
G0 F9000 X137.243 Y140.425
G1 F1800 X161.392 Y164.574 E51.47551
G0 F9000 X162.099 Y164.574
G1 F1800 X137.950 Y140.425 E52.89538
G0 F9000 X138.657 Y140.425
G1 F1800 X162.807 Y164.574 E54.31528
G0 F9000 X163.514 Y164.574
G1 F1800 X139.364 Y140.425 E55.73518
G0 F9000 X140.071 Y140.425
G1 F1800 X164.221 Y164.574 E57.15508
G0 F9000 X164.928 Y164.574
G1 F1800 X140.778 Y140.425 E58.57498
G0 F9000 X141.485 Y140.425
G1 F1800 X165.635 Y164.574 E59.99487
G0 F9000 X166.342 Y164.574
G1 F1800 X142.192 Y140.425 E61.41477
G0 F9000 X142.899 Y140.425
G1 F1800 X167.049 Y164.574 E62.83467
G0 F9000 X167.756 Y164.574
G1 F1800 X143.607 Y140.425 E64.25454
G0 F9000 X144.314 Y140.425
G1 F1800 X168.463 Y164.574 E65.67441
G0 F9000 X169.171 Y164.574
G1 F1800 X145.021 Y140.425 E67.09431
G0 F9000 X145.728 Y140.425
G1 F1800 X169.878 Y164.574 E68.51420
G0 F9000 X170.585 Y164.574
G1 F1800 X146.435 Y140.425 E69.93410
G0 F9000 X147.142 Y140.425
G1 F1800 X171.292 Y164.574 E71.35400
G0 F9000 X171.999 Y164.574
G1 F1800 X147.849 Y140.425 E72.77390
G0 F9000 X148.556 Y140.425
G1 F1800 X172.574 Y164.442 E74.18603
G0 F9000 X172.574 Y163.735
G1 F1800 X149.263 Y140.425 E75.55660
G0 F9000 X149.970 Y140.425
G1 F1800 X172.574 Y163.028 E76.88560
G0 F9000 X172.574 Y162.321
G1 F1800 X150.678 Y140.425 E78.17300
G0 F9000 X151.385 Y140.425
G1 F1800 X172.574 Y161.614 E79.41883
G0 F9000 X172.574 Y160.907
G1 F1800 X152.092 Y140.425 E80.62310
G0 F9000 X152.799 Y140.425
G1 F1800 X172.574 Y160.199 E81.78576
G0 F9000 X172.574 Y159.492
G1 F1800 X153.506 Y140.425 E82.90686
G0 F9000 X154.213 Y140.425
G1 F1800 X172.574 Y158.785 E83.98639
G0 F9000 X172.574 Y158.078
G1 F1800 X154.920 Y140.425 E85.02434
G0 F9000 X155.627 Y140.425
G1 F1800 X172.574 Y157.371 E86.02073
G0 F9000 X172.574 Y156.664
G1 F1800 X156.334 Y140.425 E86.97555
G0 F9000 X157.042 Y140.425
G1 F1800 X172.574 Y155.957 E87.88878
G0 F9000 X172.574 Y155.250
G1 F1800 X157.749 Y140.425 E88.76043
G0 F9000 X158.456 Y140.425
G1 F1800 X172.574 Y154.543 E89.59051
G0 F9000 X172.574 Y153.836
G1 F1800 X159.163 Y140.425 E90.37903
G0 F9000 X159.870 Y140.425
G1 F1800 X172.574 Y153.128 E91.12595
G0 F9000 X172.574 Y152.421
G1 F1800 X160.577 Y140.425 E91.83129
G0 F9000 X161.284 Y140.425
G1 F1800 X172.574 Y151.714 E92.49507
G0 F9000 X172.574 Y151.007
G1 F1800 X161.991 Y140.425 E93.11728
G0 F9000 X162.698 Y140.425
G1 F1800 X172.574 Y150.300 E93.69792
G0 F9000 X172.574 Y149.593
G1 F1800 X163.406 Y140.425 E94.23697
G0 F9000 X164.113 Y140.425
G1 F1800 X172.574 Y148.886 E94.73444
G0 F9000 X172.574 Y148.179
G1 F1800 X164.820 Y140.425 E95.19035
G0 F9000 X165.527 Y140.425
G1 F1800 X172.574 Y147.472 E95.60468
G0 F9000 X172.574 Y146.764
G1 F1800 X166.234 Y140.425 E95.97742
G0 F9000 X166.941 Y140.425
G1 F1800 X172.574 Y146.057 E96.30859
G0 F9000 X172.574 Y145.350
G1 F1800 X167.648 Y140.425 E96.59819
G0 F9000 X168.355 Y140.425
G1 F1800 X172.574 Y144.643 E96.84622
G0 F9000 X172.574 Y143.936
G1 F1800 X169.062 Y140.425 E97.05269
G0 F9000 X169.769 Y140.425
G1 F1800 X172.574 Y143.229 E97.21758
G0 F9000 X172.574 Y142.522
G1 F1800 X170.477 Y140.425 E97.34088
G0 F9000 X171.184 Y140.425
G1 F1800 X172.574 Y141.815 E97.42260
G0 F9000 X172.574 Y141.108
G1 F1800 X171.891 Y140.425 E97.46276
G1 F2400 E96.86276
G1 Z0.700
G0 F9000 X136.643 Y164.574
G1 Z0.200
G1 F2400 E97.46276
G1 F1800 X132.424 Y160.355 E97.71082
G0 F9000 X132.424 Y161.062
G1 F1800 X135.936 Y164.574 E97.91731
G0 F9000 X135.229 Y164.574
G1 F1800 X132.424 Y161.769 E98.08224
G0 F9000 X132.424 Y162.476
G1 F1800 X134.522 Y164.574 E98.20559
G0 F9000 X133.815 Y164.574
G1 F1800 X132.424 Y163.183 E98.28738
G0 F9000 X132.424 Y163.891
G1 F1800 X133.107 Y164.574 E98.32754
;LAYER:1
M106 S10
G0 F9000 X132.250 Y164.750 Z0.400
;TYPE:WALL-INNER
G1 F1980 X132.250 Y140.250 E99.34613
G1 X172.750 Y140.250 E101.02992
G1 X172.750 Y164.750 E102.04851
G1 X132.250 Y164.750 E103.73231
G0 F9000 X131.750 Y165.250
;TYPE:WALL-OUTER
G1 F1980 X131.750 Y139.750 E104.79247
G1 X173.250 Y139.750 E106.51784
G1 X173.250 Y165.250 E107.57801
G1 X131.750 Y165.250 E109.30338
G0 F9000 X132.763 Y164.574
;TYPE:SKIN
G1 F1980 X156.914 Y140.424 E110.72334
G0 F9000 X157.621 Y140.424
G1 F1980 X133.470 Y164.574 E112.14329
G0 F9000 X134.177 Y164.574
G1 F1980 X158.328 Y140.424 E113.56325
G0 F9000 X159.035 Y140.424
G1 F1980 X134.884 Y164.574 E114.98321
G0 F9000 X135.591 Y164.574
G1 F1980 X159.742 Y140.424 E116.40316
G1 F2400 E115.80316
G1 Z0.900
G0 F9000 X156.206 Y140.424
G1 Z0.400
G1 F2400 E116.40316
G1 F1980 X132.425 Y164.205 E117.80140
G0 F9000 X132.425 Y163.498
G1 F1980 X155.499 Y140.424 E119.15806
G0 F9000 X154.792 Y140.424
G1 F1980 X132.425 Y162.791 E120.47315
G0 F9000 X132.425 Y162.084
G1 F1980 X154.085 Y140.424 E121.74668
G0 F9000 X153.378 Y140.424
G1 F1980 X132.425 Y161.377 E122.97863
G0 F9000 X132.425 Y160.670
G1 F1980 X152.671 Y140.424 E124.16902
G0 F9000 X151.964 Y140.424
G1 F1980 X132.425 Y159.963 E125.31784
G0 F9000 X132.425 Y159.256
G1 F1980 X151.257 Y140.424 E126.42509
G0 F9000 X150.550 Y140.424
G1 F1980 X132.425 Y158.548 E127.49074
G0 F9000 X132.425 Y157.841
G1 F1980 X149.842 Y140.424 E128.51479
G0 F9000 X149.135 Y140.424
G1 F1980 X132.425 Y157.134 E129.49728
G0 F9000 X132.425 Y156.427
G1 F1980 X148.428 Y140.424 E130.43819
G0 F9000 X147.721 Y140.424
G1 F1980 X132.425 Y155.720 E131.33754
G0 F9000 X132.425 Y155.013
G1 F1980 X147.014 Y140.424 E132.19531
G0 F9000 X146.307 Y140.424
G1 F1980 X132.425 Y154.306 E133.01152
G0 F9000 X132.425 Y153.599
G1 F1980 X145.600 Y140.424 E133.78616
G0 F9000 X144.893 Y140.424
G1 F1980 X132.425 Y152.892 E134.51923
G0 F9000 X132.425 Y152.184
G1 F1980 X144.186 Y140.424 E135.21071
G0 F9000 X143.479 Y140.424
G1 F1980 X132.425 Y151.477 E135.86061
G0 F9000 X132.425 Y150.770
G1 F1980 X142.771 Y140.424 E136.46891
G0 F9000 X142.064 Y140.424
G1 F1980 X132.425 Y150.063 E137.03565
G0 F9000 X132.425 Y149.356
G1 F1980 X141.357 Y140.424 E137.56082
G0 F9000 X140.650 Y140.424
G1 F1980 X132.425 Y148.649 E138.04442
G0 F9000 X132.425 Y147.942
G1 F1980 X139.943 Y140.424 E138.48645
G0 F9000 X139.236 Y140.424
G1 F1980 X132.425 Y147.235 E138.88691
G0 F9000 X132.425 Y146.528
G1 F1980 X138.529 Y140.424 E139.24580
G0 F9000 X137.822 Y140.424
G1 F1980 X132.425 Y145.820 E139.56309
G0 F9000 X132.425 Y145.113
G1 F1980 X137.115 Y140.424 E139.83882
G0 F9000 X136.407 Y140.424
G1 F1980 X132.425 Y144.406 E140.07294
G0 F9000 X132.425 Y143.699
G1 F1980 X135.700 Y140.424 E140.26550
G0 F9000 X134.993 Y140.424
G1 F1980 X132.425 Y142.992 E140.41649
G0 F9000 X132.425 Y142.285
G1 F1980 X134.286 Y140.424 E140.52591
G0 F9000 X133.579 Y140.424
G1 F1980 X132.425 Y141.578 E140.59376
G0 F9000 X132.425 Y140.871
G1 F1980 X132.872 Y140.424 E140.62004
G1 F2400 E140.02004
G1 Z0.900
G0 F9000 X136.299 Y164.574
G1 Z0.400
G1 F2400 E140.62004
G1 F1980 X160.449 Y140.424 E142.03997
G0 F9000 X161.156 Y140.424
G1 F1980 X137.006 Y164.574 E143.45990
G0 F9000 X137.713 Y164.574
G1 F1980 X161.863 Y140.424 E144.87982
G0 F9000 X162.570 Y140.424
G1 F1980 X138.420 Y164.574 E146.29975
G0 F9000 X139.127 Y164.574
G1 F1980 X163.278 Y140.424 E147.71971
G0 F9000 X163.985 Y140.424
G1 F1980 X139.834 Y164.574 E149.13966
G0 F9000 X140.541 Y164.574
G1 F1980 X164.692 Y140.424 E150.55962
G0 F9000 X165.399 Y140.424
G1 F1980 X141.248 Y164.574 E151.97958
G0 F9000 X141.955 Y164.574
G1 F1980 X166.106 Y140.424 E153.39954
G0 F9000 X166.813 Y140.424
G1 F1980 X142.663 Y164.574 E154.81946
G0 F9000 X143.370 Y164.574
G1 F1980 X167.520 Y140.424 E156.23939
G0 F9000 X168.227 Y140.424
G1 F1980 X144.077 Y164.574 E157.65932
G0 F9000 X144.784 Y164.574
G1 F1980 X168.934 Y140.424 E159.07924
G0 F9000 X169.641 Y140.424
G1 F1980 X145.491 Y164.574 E160.49917
G0 F9000 X146.198 Y164.574
G1 F1980 X170.349 Y140.424 E161.91913
G0 F9000 X171.056 Y140.424
G1 F1980 X146.905 Y164.574 E163.33909
G0 F9000 X147.612 Y164.574
G1 F1980 X171.763 Y140.424 E164.75904
G0 F9000 X172.470 Y140.424
G1 F1980 X148.319 Y164.574 E166.17900
G0 F9000 X149.026 Y164.574
G1 F1980 X172.574 Y141.027 E167.56350
G0 F9000 X172.574 Y141.734
G1 F1980 X149.734 Y164.574 E168.90641
G0 F9000 X150.441 Y164.574
G1 F1980 X172.574 Y142.441 E170.20774
G0 F9000 X172.574 Y143.148
G1 F1980 X151.148 Y164.574 E171.46751
G0 F9000 X151.855 Y164.574
G1 F1980 X172.574 Y143.855 E172.68571
G0 F9000 X172.574 Y144.563
G1 F1980 X152.561 Y164.575 E173.86237
G0 F9000 X153.268 Y164.575
G1 F1980 X172.574 Y145.270 E174.99745
G0 F9000 X172.574 Y145.977
G1 F1980 X153.976 Y164.575 E176.09095
G0 F9000 X154.683 Y164.575
G1 F1980 X172.574 Y146.684 E177.14287
G0 F9000 X172.574 Y147.391
G1 F1980 X155.390 Y164.575 E178.15322
G0 F9000 X156.097 Y164.575
G1 F1980 X172.574 Y148.098 E179.12201
G0 F9000 X172.574 Y148.805
G1 F1980 X156.804 Y164.575 E180.04922
G0 F9000 X157.511 Y164.575
G1 F1980 X172.574 Y149.512 E180.93487
G0 F9000 X172.574 Y150.219
G1 F1980 X158.218 Y164.575 E181.77895
G0 F9000 X158.925 Y164.575
G1 F1980 X172.574 Y150.926 E182.58145
G0 F9000 X172.574 Y151.634
G1 F1980 X159.632 Y164.575 E183.34237
G0 F9000 X160.339 Y164.575
G1 F1980 X172.574 Y152.341 E184.06171
G0 F9000 X172.574 Y153.048
G1 F1980 X161.047 Y164.575 E184.73945
G0 F9000 X161.754 Y164.575
G1 F1980 X172.574 Y153.755 E185.37563
G0 F9000 X172.574 Y154.462
G1 F1980 X162.461 Y164.575 E185.97023
G0 F9000 X163.168 Y164.575
G1 F1980 X172.574 Y155.169 E186.52327
G0 F9000 X172.574 Y155.876
G1 F1980 X163.875 Y164.575 E187.03474
G0 F9000 X164.582 Y164.575
G1 F1980 X172.574 Y156.583 E187.50463
G0 F9000 X172.574 Y157.290
G1 F1980 X165.289 Y164.575 E187.93296
G0 F9000 X165.996 Y164.575
G1 F1980 X172.574 Y157.998 E188.31970
G0 F9000 X172.574 Y158.705
G1 F1980 X166.703 Y164.575 E188.66486
G0 F9000 X167.411 Y164.575
G1 F1980 X172.574 Y159.412 E188.96842
G0 F9000 X172.574 Y160.119
G1 F1980 X168.118 Y164.575 E189.23042
G0 F9000 X168.825 Y164.575
G1 F1980 X172.574 Y160.826 E189.45085
G0 F9000 X172.574 Y161.533
G1 F1980 X169.532 Y164.575 E189.62970
G0 F9000 X170.239 Y164.575
G1 F1980 X172.574 Y162.240 E189.76699
G0 F9000 X172.574 Y162.947
G1 F1980 X170.946 Y164.575 E189.86271
G0 F9000 X171.653 Y164.575
G1 F1980 X172.574 Y163.654 E189.91686
G0 F9000 X172.574 Y164.362
G1 F1980 X172.360 Y164.575 E189.92942
;LAYER:2
M106 S20
G0 F9000 X172.750 Y164.750 Z0.600
;TYPE:WALL-INNER
G1 F2220 X132.250 Y164.750 E191.61321
G1 X132.250 Y140.250 E192.63180
G1 X172.750 Y140.250 E194.31560
G1 X172.750 Y164.750 E195.33419
G0 F9000 X173.250 Y165.250
;TYPE:WALL-OUTER
G1 F2220 X131.750 Y165.250 E197.05956
G1 X131.750 Y139.750 E198.11973
G1 X173.250 Y139.750 E199.84510
G1 X173.250 Y165.250 E200.90526
G0 F9000 X172.574 Y164.442
;TYPE:SKIN
G1 F2220 X148.556 Y140.425 E202.31740
G0 F9000 X147.849 Y140.425
G1 F2220 X171.999 Y164.574 E203.73730
G0 F9000 X171.292 Y164.574
G1 F2220 X147.142 Y140.425 E205.15720
G0 F9000 X146.435 Y140.425
G1 F2220 X170.585 Y164.574 E206.57709
G0 F9000 X169.878 Y164.574
G1 F2220 X145.728 Y140.425 E207.99699
G0 F9000 X145.021 Y140.425
G1 F2220 X169.171 Y164.574 E209.41689
G0 F9000 X168.463 Y164.574
G1 F2220 X144.314 Y140.425 E210.83676
G0 F9000 X143.607 Y140.425
G1 F2220 X167.756 Y164.574 E212.25663
G0 F9000 X167.049 Y164.574
G1 F2220 X142.899 Y140.425 E213.67652
G0 F9000 X142.192 Y140.425
G1 F2220 X166.342 Y164.574 E215.09642
G0 F9000 X165.635 Y164.574
G1 F2220 X141.485 Y140.425 E216.51632
G0 F9000 X140.778 Y140.425
G1 F2220 X164.928 Y164.574 E217.93622
G0 F9000 X164.221 Y164.574
G1 F2220 X140.071 Y140.425 E219.35612
G1 F2400 E218.75612
G1 Z1.100
G0 F9000 X149.263 Y140.425
G1 Z0.600
G1 F2400 E219.35612
G1 F2220 X172.574 Y163.735 E220.72669
G0 F9000 X172.574 Y163.028
G1 F2220 X149.970 Y140.425 E222.05568
G0 F9000 X150.678 Y140.425
G1 F2220 X172.574 Y162.321 E223.34309
G0 F9000 X172.574 Y161.614
G1 F2220 X151.385 Y140.425 E224.58892
G0 F9000 X152.092 Y140.425
G1 F2220 X172.574 Y160.907 E225.79318
G0 F9000 X172.574 Y160.199
G1 F2220 X152.799 Y140.425 E226.95585
G0 F9000 X153.506 Y140.425
G1 F2220 X172.574 Y159.492 E228.07694
G0 F9000 X172.574 Y158.785
G1 F2220 X154.213 Y140.425 E229.15647
G0 F9000 X154.920 Y140.425
G1 F2220 X172.574 Y158.078 E230.19443
G0 F9000 X172.574 Y157.371
G1 F2220 X155.627 Y140.425 E231.19082
G0 F9000 X156.334 Y140.425
G1 F2220 X172.574 Y156.664 E232.14564
G0 F9000 X172.574 Y155.957
G1 F2220 X157.042 Y140.425 E233.05886
G0 F9000 X157.749 Y140.425
G1 F2220 X172.574 Y155.250 E233.93051
G0 F9000 X172.574 Y154.543
G1 F2220 X158.456 Y140.425 E234.76060
G0 F9000 X159.163 Y140.425
G1 F2220 X172.574 Y153.836 E235.54911
G0 F9000 X172.574 Y153.128
G1 F2220 X159.870 Y140.425 E236.29603
G0 F9000 X160.577 Y140.425
G1 F2220 X172.574 Y152.421 E237.00138
G0 F9000 X172.574 Y151.714
G1 F2220 X161.284 Y140.425 E237.66516
G0 F9000 X161.991 Y140.425
G1 F2220 X172.574 Y151.007 E238.28737
G0 F9000 X172.574 Y150.300
G1 F2220 X162.698 Y140.425 E238.86801
G0 F9000 X163.406 Y140.425
G1 F2220 X172.574 Y149.593 E239.40705
G0 F9000 X172.574 Y148.886
G1 F2220 X164.113 Y140.425 E239.90453
G0 F9000 X164.820 Y140.425
G1 F2220 X172.574 Y148.179 E240.36043
G0 F9000 X172.574 Y147.472
G1 F2220 X165.527 Y140.425 E240.77477
G0 F9000 X166.234 Y140.425
G1 F2220 X172.574 Y146.764 E241.14751
G0 F9000 X172.574 Y146.057
G1 F2220 X166.941 Y140.425 E241.47867
G0 F9000 X167.648 Y140.425
G1 F2220 X172.574 Y145.350 E241.76828
G0 F9000 X172.574 Y144.643
G1 F2220 X168.355 Y140.425 E242.01631
G0 F9000 X169.062 Y140.425
G1 F2220 X172.574 Y143.936 E242.22277
G0 F9000 X172.574 Y143.229
G1 F2220 X169.769 Y140.425 E242.38766
G0 F9000 X170.477 Y140.425
G1 F2220 X172.574 Y142.522 E242.51096
G0 F9000 X172.574 Y141.815
G1 F2220 X171.184 Y140.425 E242.59269
G0 F9000 X171.891 Y140.425
G1 F2220 X172.574 Y141.108 E242.63284
G1 F2400 E242.03284
G1 Z1.100
G0 F9000 X163.514 Y164.574
G1 Z0.600
G1 F2400 E242.63284
G1 F2220 X139.364 Y140.425 E244.05274
G0 F9000 X138.657 Y140.425
G1 F2220 X162.807 Y164.574 E245.47264
G0 F9000 X162.099 Y164.574
G1 F2220 X137.950 Y140.425 E246.89251
G0 F9000 X137.243 Y140.425
G1 F2220 X161.392 Y164.574 E248.31238
G0 F9000 X160.685 Y164.574
G1 F2220 X136.535 Y140.425 E249.73228
G0 F9000 X135.828 Y140.425
G1 F2220 X159.978 Y164.574 E251.15217
G0 F9000 X159.271 Y164.574
G1 F2220 X135.121 Y140.425 E252.57207
G0 F9000 X134.414 Y140.425
G1 F2220 X158.564 Y164.574 E253.99197
G0 F9000 X157.857 Y164.574
G1 F2220 X133.707 Y140.425 E255.41187
G0 F9000 X133.000 Y140.425
G1 F2220 X157.150 Y164.574 E256.83177
G0 F9000 X156.443 Y164.574
G1 F2220 X132.424 Y140.556 E258.24396
G0 F9000 X132.424 Y141.263
G1 F2220 X155.736 Y164.574 E259.61459
G0 F9000 X155.028 Y164.574
G1 F2220 X132.424 Y141.970 E260.94362
G0 F9000 X132.424 Y142.677
G1 F2220 X154.321 Y164.574 E262.23108
G0 F9000 X153.614 Y164.574
G1 F2220 X132.424 Y143.384 E263.47697
G0 F9000 X132.424 Y144.092
G1 F2220 X152.907 Y164.574 E264.68126
G0 F9000 X152.199 Y164.574
G1 F2220 X132.424 Y144.799 E265.84395
G0 F9000 X132.424 Y145.506
G1 F2220 X151.492 Y164.574 E266.96508
G0 F9000 X150.785 Y164.574
G1 F2220 X132.424 Y146.213 E268.04464
G0 F9000 X132.424 Y146.920
G1 F2220 X150.078 Y164.574 E269.08262
G0 F9000 X149.371 Y164.574
G1 F2220 X132.424 Y147.627 E270.07904
G0 F9000 X132.424 Y148.334
G1 F2220 X148.664 Y164.574 E271.03389
G0 F9000 X147.957 Y164.574
G1 F2220 X132.424 Y149.041 E271.94717
G0 F9000 X132.424 Y149.748
G1 F2220 X147.250 Y164.574 E272.81888
G0 F9000 X146.542 Y164.574
G1 F2220 X132.424 Y150.456 E273.64897
G0 F9000 X132.424 Y151.163
G1 F2220 X145.835 Y164.574 E274.43748
G0 F9000 X145.128 Y164.574
G1 F2220 X132.424 Y151.870 E275.18443
G0 F9000 X132.424 Y152.577
G1 F2220 X144.421 Y164.574 E275.88981
G0 F9000 X143.714 Y164.574
G1 F2220 X132.424 Y153.284 E276.55362
G0 F9000 X132.424 Y153.991
G1 F2220 X143.007 Y164.574 E277.17586
G0 F9000 X142.300 Y164.574
G1 F2220 X132.424 Y154.698 E277.75653
G0 F9000 X132.424 Y155.405
G1 F2220 X141.593 Y164.574 E278.29563
G0 F9000 X140.886 Y164.574
G1 F2220 X132.424 Y156.112 E278.79316
G0 F9000 X132.424 Y156.820
G1 F2220 X140.178 Y164.574 E279.24907
G0 F9000 X139.471 Y164.574
G1 F2220 X132.424 Y157.527 E279.66340
G0 F9000 X132.424 Y158.234
G1 F2220 X138.764 Y164.574 E280.03617
G0 F9000 X138.057 Y164.574
G1 F2220 X132.424 Y158.941 E280.36737
G0 F9000 X132.424 Y159.648
G1 F2220 X137.350 Y164.574 E280.65700
G0 F9000 X136.643 Y164.574
G1 F2220 X132.424 Y160.355 E280.90506
G0 F9000 X132.424 Y161.062
G1 F2220 X135.936 Y164.574 E281.11155
G0 F9000 X135.229 Y164.574
G1 F2220 X132.424 Y161.769 E281.27648
G0 F9000 X132.424 Y162.476
G1 F2220 X134.522 Y164.574 E281.39983
G0 F9000 X133.815 Y164.574
G1 F2220 X132.424 Y163.183 E281.48162
G0 F9000 X132.424 Y163.891
G1 F2220 X133.107 Y164.574 E281.52178
;LAYER:3
M106 S30
G0 F9000 X132.250 Y164.750 Z0.800
;TYPE:WALL-INNER
G1 F2400 X132.250 Y140.250 E282.54037
G1 X172.750 Y140.250 E284.22416
G1 X172.750 Y164.750 E285.24275
G1 X132.250 Y164.750 E286.92655
G0 F9000 X131.750 Y165.250
;TYPE:WALL-OUTER
G1 F2400 X131.750 Y139.750 E287.98671
G1 X173.250 Y139.750 E289.71208
G1 X173.250 Y165.250 E290.77225
G1 X131.750 Y165.250 E292.49762
G0 F9000 X132.763 Y164.574
;TYPE:SKIN
G1 F2400 X156.914 Y140.424 E293.91758
G0 F9000 X157.621 Y140.424
G1 F2400 X133.470 Y164.574 E295.33753
G0 F9000 X134.177 Y164.574
G1 F2400 X158.328 Y140.424 E296.75749
G0 F9000 X159.035 Y140.424
G1 F2400 X134.884 Y164.574 E298.17745
G0 F9000 X135.591 Y164.574
G1 F2400 X159.742 Y140.424 E299.59740
G1 F2400 E298.99740
G1 Z1.300
G0 F9000 X156.206 Y140.424
G1 Z0.800
G1 F2400 E299.59740
G1 X132.425 Y164.205 E300.99564
G0 F9000 X132.425 Y163.498
G1 F2400 X155.499 Y140.424 E302.35230
G0 F9000 X154.792 Y140.424
G1 F2400 X132.425 Y162.791 E303.66739
G0 F9000 X132.425 Y162.084
G1 F2400 X154.085 Y140.424 E304.94092
G0 F9000 X153.378 Y140.424
G1 F2400 X132.425 Y161.377 E306.17287
G0 F9000 X132.425 Y160.670
G1 F2400 X152.671 Y140.424 E307.36326
G0 F9000 X151.964 Y140.424
G1 F2400 X132.425 Y159.963 E308.51208
G0 F9000 X132.425 Y159.256
G1 F2400 X151.257 Y140.424 E309.61933
G0 F9000 X150.550 Y140.424
G1 F2400 X132.425 Y158.548 E310.68498
G0 F9000 X132.425 Y157.841
G1 F2400 X149.842 Y140.424 E311.70903
G0 F9000 X149.135 Y140.424
G1 F2400 X132.425 Y157.134 E312.69152
G0 F9000 X132.425 Y156.427
G1 F2400 X148.428 Y140.424 E313.63243
G0 F9000 X147.721 Y140.424
G1 F2400 X132.425 Y155.720 E314.53178
G0 F9000 X132.425 Y155.013
G1 F2400 X147.014 Y140.424 E315.38956
G0 F9000 X146.307 Y140.424
G1 F2400 X132.425 Y154.306 E316.20576
G0 F9000 X132.425 Y153.599
G1 F2400 X145.600 Y140.424 E316.98040
G0 F9000 X144.893 Y140.424
G1 F2400 X132.425 Y152.892 E317.71347
G0 F9000 X132.425 Y152.184
G1 F2400 X144.186 Y140.424 E318.40495
G0 F9000 X143.479 Y140.424
G1 F2400 X132.425 Y151.477 E319.05485
G0 F9000 X132.425 Y150.770
G1 F2400 X142.771 Y140.424 E319.66315
G0 F9000 X142.064 Y140.424
G1 F2400 X132.425 Y150.063 E320.22989
G0 F9000 X132.425 Y149.356
G1 F2400 X141.357 Y140.424 E320.75506
G0 F9000 X140.650 Y140.424
G1 F2400 X132.425 Y148.649 E321.23866
G0 F9000 X132.425 Y147.942
G1 F2400 X139.943 Y140.424 E321.68069
G0 F9000 X139.236 Y140.424
G1 F2400 X132.425 Y147.235 E322.08115
G0 F9000 X132.425 Y146.528
G1 F2400 X138.529 Y140.424 E322.44004
G0 F9000 X137.822 Y140.424
G1 F2400 X132.425 Y145.820 E322.75733
G0 F9000 X132.425 Y145.113
G1 F2400 X137.115 Y140.424 E323.03306
G0 F9000 X136.407 Y140.424
G1 F2400 X132.425 Y144.406 E323.26718
G0 F9000 X132.425 Y143.699
G1 F2400 X135.700 Y140.424 E323.45974
G0 F9000 X134.993 Y140.424
G1 F2400 X132.425 Y142.992 E323.61073
G0 F9000 X132.425 Y142.285
G1 F2400 X134.286 Y140.424 E323.72015
G0 F9000 X133.579 Y140.424
G1 F2400 X132.425 Y141.578 E323.78800
G0 F9000 X132.425 Y140.871
G1 F2400 X132.872 Y140.424 E323.81428
G1 F2400 E323.21428
G1 Z1.300
G0 F9000 X136.299 Y164.574
G1 Z0.800
G1 F2400 E323.81428
G1 X160.449 Y140.424 E325.23421
G0 F9000 X161.156 Y140.424
G1 F2400 X137.006 Y164.574 E326.65414
G0 F9000 X137.713 Y164.574
G1 F2400 X161.863 Y140.424 E328.07406
G0 F9000 X162.570 Y140.424
G1 F2400 X138.420 Y164.574 E329.49399
G0 F9000 X139.127 Y164.574
G1 F2400 X163.278 Y140.424 E330.91395
G0 F9000 X163.985 Y140.424
G1 F2400 X139.834 Y164.574 E332.33391
G0 F9000 X140.541 Y164.574
G1 F2400 X164.692 Y140.424 E333.75386
G0 F9000 X165.399 Y140.424
G1 F2400 X141.248 Y164.574 E335.17382
G0 F9000 X141.955 Y164.574
G1 F2400 X166.106 Y140.424 E336.59378
G0 F9000 X166.813 Y140.424
G1 F2400 X142.663 Y164.574 E338.01370
G0 F9000 X143.370 Y164.574
G1 F2400 X167.520 Y140.424 E339.43363
G0 F9000 X168.227 Y140.424
G1 F2400 X144.077 Y164.574 E340.85356
G0 F9000 X144.784 Y164.574
G1 F2400 X168.934 Y140.424 E342.27349
G0 F9000 X169.641 Y140.424
G1 F2400 X145.491 Y164.574 E343.69341
G0 F9000 X146.198 Y164.574
G1 F2400 X170.349 Y140.424 E345.11337
G0 F9000 X171.056 Y140.424
G1 F2400 X146.905 Y164.574 E346.53333
G0 F9000 X147.612 Y164.574
G1 F2400 X171.763 Y140.424 E347.95328
G0 F9000 X172.470 Y140.424
G1 F2400 X148.319 Y164.574 E349.37324
G0 F9000 X149.026 Y164.574
G1 F2400 X172.574 Y141.027 E350.75774
G0 F9000 X172.574 Y141.734
G1 F2400 X149.734 Y164.574 E352.10065
G0 F9000 X150.441 Y164.574
G1 F2400 X172.574 Y142.441 E353.40198
G0 F9000 X172.574 Y143.148
G1 F2400 X151.148 Y164.574 E354.66175
G0 F9000 X151.855 Y164.574
G1 F2400 X172.574 Y143.855 E355.87995
G0 F9000 X172.574 Y144.563
G1 F2400 X152.561 Y164.575 E357.05661
G0 F9000 X153.268 Y164.575
G1 F2400 X172.574 Y145.270 E358.19170
G0 F9000 X172.574 Y145.977
G1 F2400 X153.976 Y164.575 E359.28519
G0 F9000 X154.683 Y164.575
G1 F2400 X172.574 Y146.684 E360.33711
G0 F9000 X172.574 Y147.391
G1 F2400 X155.390 Y164.575 E361.34746
G0 F9000 X156.097 Y164.575
G1 F2400 X172.574 Y148.098 E362.31625
G0 F9000 X172.574 Y148.805
G1 F2400 X156.804 Y164.575 E363.24346
G0 F9000 X157.511 Y164.575
G1 F2400 X172.574 Y149.512 E364.12911
G0 F9000 X172.574 Y150.219
G1 F2400 X158.218 Y164.575 E364.97319
G0 F9000 X158.925 Y164.575
G1 F2400 X172.574 Y150.926 E365.77570
G0 F9000 X172.574 Y151.634
G1 F2400 X159.632 Y164.575 E366.53661
G0 F9000 X160.339 Y164.575
G1 F2400 X172.574 Y152.341 E367.25595
G0 F9000 X172.574 Y153.048
G1 F2400 X161.047 Y164.575 E367.93369
G0 F9000 X161.754 Y164.575
G1 F2400 X172.574 Y153.755 E368.56987
G0 F9000 X172.574 Y154.462
G1 F2400 X162.461 Y164.575 E369.16447
G0 F9000 X163.168 Y164.575
G1 F2400 X172.574 Y155.169 E369.71751
G0 F9000 X172.574 Y155.876
G1 F2400 X163.875 Y164.575 E370.22898
G0 F9000 X164.582 Y164.575
G1 F2400 X172.574 Y156.583 E370.69887
G0 F9000 X172.574 Y157.290
G1 F2400 X165.289 Y164.575 E371.12720
G0 F9000 X165.996 Y164.575
G1 F2400 X172.574 Y157.998 E371.51394
G0 F9000 X172.574 Y158.705
G1 F2400 X166.703 Y164.575 E371.85910
G0 F9000 X167.411 Y164.575
G1 F2400 X172.574 Y159.412 E372.16266
G0 F9000 X172.574 Y160.119
G1 F2400 X168.118 Y164.575 E372.42466
G0 F9000 X168.825 Y164.575
G1 F2400 X172.574 Y160.826 E372.64509
G0 F9000 X172.574 Y161.533
G1 F2400 X169.532 Y164.575 E372.82394
G0 F9000 X170.239 Y164.575
G1 F2400 X172.574 Y162.240 E372.96123
G0 F9000 X172.574 Y162.947
G1 F2400 X170.946 Y164.575 E373.05695
G0 F9000 X171.653 Y164.575
G1 F2400 X172.574 Y163.654 E373.11111
G0 F9000 X172.574 Y164.362
G1 F2400 X172.360 Y164.575 E373.12366
;LAYER:4
M106 S40
G0 F9000 X172.750 Y164.750 Z1.000
;TYPE:WALL-INNER
G1 F2700 X132.250 Y164.750 E374.80745
G1 X132.250 Y140.250 E375.82604
G1 X172.750 Y140.250 E377.50984
G1 X172.750 Y164.750 E378.52843
G0 F9000 X173.250 Y165.250
;TYPE:WALL-OUTER
G1 F2700 X131.750 Y165.250 E380.25380
G1 X131.750 Y139.750 E381.31397
G1 X173.250 Y139.750 E383.03934
G1 X173.250 Y165.250 E384.09950
G0 F9000 X172.574 Y164.178
;TYPE:FILL
G1 F2700 X148.821 Y140.425 E385.49609
G0 F9000 X147.937 Y140.425
G1 F2700 X172.087 Y164.574 E386.91599
G0 F9000 X171.203 Y164.574
G1 F2700 X147.053 Y140.425 E388.33588
G0 F9000 X146.169 Y140.425
G1 F2700 X170.319 Y164.574 E389.75578
G0 F9000 X169.435 Y164.574
G1 F2700 X145.285 Y140.425 E391.17568
G0 F9000 X144.401 Y140.425
G1 F2700 X168.551 Y164.574 E392.59558
G0 F9000 X167.667 Y164.574
G1 F2700 X143.517 Y140.425 E394.01548
G0 F9000 X142.634 Y140.425
G1 F2700 X166.783 Y164.574 E395.43535
G0 F9000 X165.899 Y164.574
G1 F2700 X141.750 Y140.425 E396.85521
G0 F9000 X140.866 Y140.425
G1 F2700 X165.016 Y164.574 E398.27511
G0 F9000 X164.132 Y164.574
G1 F2700 X139.982 Y140.425 E399.69501
G0 F9000 X139.098 Y140.425
G1 F2700 X163.248 Y164.574 E401.11491
G0 F9000 X162.364 Y164.574
G1 F2700 X138.214 Y140.425 E402.53481
G0 F9000 X137.330 Y140.425
G1 F2700 X161.480 Y164.574 E403.95470
G0 F9000 X160.596 Y164.574
G1 F2700 X136.446 Y140.425 E405.37460
G0 F9000 X135.562 Y140.425
G1 F2700 X159.712 Y164.574 E406.79450
G0 F9000 X158.828 Y164.574
G1 F2700 X134.679 Y140.425 E408.21437
G0 F9000 X133.795 Y140.425
G1 F2700 X157.945 Y164.574 E409.63427
G0 F9000 X157.061 Y164.574
G1 F2700 X132.911 Y140.425 E411.05416
G0 F9000 X132.424 Y140.822
G1 F2700 X156.177 Y164.574 E412.45072
G0 F9000 X155.293 Y164.574
G1 F2700 X132.424 Y141.706 E413.79530
G0 F9000 X132.424 Y142.590
G1 F2700 X154.409 Y164.574 E415.08791
G0 F9000 X153.525 Y164.574
G1 F2700 X132.424 Y143.474 E416.32853
G0 F9000 X132.424 Y144.357
G1 F2700 X152.641 Y164.574 E417.51722
G0 F9000 X151.757 Y164.574
G1 F2700 X132.424 Y145.241 E418.65392
G0 F9000 X132.424 Y146.125
G1 F2700 X150.873 Y164.574 E419.73865
G0 F9000 X149.989 Y164.574
G1 F2700 X132.424 Y147.009 E420.77141
G0 F9000 X132.424 Y147.893
G1 F2700 X149.105 Y164.574 E421.75219
G0 F9000 X148.221 Y164.574
G1 F2700 X132.424 Y148.777 E422.68099
G0 F9000 X132.424 Y149.661
G1 F2700 X147.337 Y164.574 E423.55782
G0 F9000 X146.453 Y164.574
G1 F2700 X132.424 Y150.545 E424.38267
G0 F9000 X132.424 Y151.429
G1 F2700 X145.569 Y164.574 E425.15554
G0 F9000 X144.686 Y164.574
G1 F2700 X132.424 Y152.312 E425.87650
G0 F9000 X132.424 Y153.196
G1 F2700 X143.802 Y164.574 E426.54549
G0 F9000 X142.918 Y164.574
G1 F2700 X132.424 Y154.080 E427.16249
G0 F9000 X132.424 Y154.964
G1 F2700 X142.034 Y164.574 E427.72752
G0 F9000 X141.150 Y164.574
G1 F2700 X132.424 Y155.848 E428.24058
G0 F9000 X132.424 Y156.732
G1 F2700 X140.266 Y164.574 E428.70166
G0 F9000 X139.382 Y164.574
G1 F2700 X132.424 Y157.616 E429.11076
G0 F9000 X132.424 Y158.500
G1 F2700 X138.498 Y164.574 E429.46789
G0 F9000 X137.615 Y164.574
G1 F2700 X132.424 Y159.383 E429.77310
G0 F9000 X132.424 Y160.267
G1 F2700 X136.731 Y164.574 E430.02634
G0 F9000 X135.847 Y164.574
G1 F2700 X132.424 Y161.151 E430.22760
G0 F9000 X132.424 Y162.035
G1 F2700 X134.963 Y164.574 E430.37688
G0 F9000 X134.079 Y164.574
G1 F2700 X132.424 Y162.919 E430.47419
G0 F9000 X132.424 Y163.803
G1 F2700 X133.195 Y164.574 E430.51952
G1 F2400 E429.91952
G1 Z1.500
G0 F9000 X149.705 Y140.425
G1 Z1.000
G1 F2400 E430.51952
G1 F2700 X172.574 Y163.294 E431.86413
G0 F9000 X172.574 Y162.410
G1 F2700 X150.588 Y140.425 E433.15679
G0 F9000 X151.472 Y140.425
G1 F2700 X172.574 Y161.526 E434.39748
G0 F9000 X172.574 Y160.642
G1 F2700 X152.356 Y140.425 E435.58619
G0 F9000 X153.240 Y140.425
G1 F2700 X172.574 Y159.758 E436.72293
G0 F9000 X172.574 Y158.874
G1 F2700 X154.124 Y140.425 E437.80769
G0 F9000 X155.008 Y140.425
G1 F2700 X172.574 Y157.990 E438.84047
G0 F9000 X172.574 Y157.107
G1 F2700 X155.892 Y140.425 E439.82131
G0 F9000 X156.776 Y140.425
G1 F2700 X172.574 Y156.223 E440.75017
G0 F9000 X172.574 Y155.339
G1 F2700 X157.660 Y140.425 E441.62705
G0 F9000 X158.543 Y140.425
G1 F2700 X172.574 Y154.455 E442.45199
G0 F9000 X172.574 Y153.571
G1 F2700 X159.427 Y140.425 E443.22496
G0 F9000 X160.311 Y140.425
G1 F2700 X172.574 Y152.687 E443.94595
G0 F9000 X172.574 Y151.803
G1 F2700 X161.195 Y140.425 E444.61496
G0 F9000 X162.079 Y140.425
G1 F2700 X172.574 Y150.919 E445.23199
G0 F9000 X172.574 Y150.036
G1 F2700 X162.963 Y140.425 E445.79708
G0 F9000 X163.847 Y140.425
G1 F2700 X172.574 Y149.152 E446.31020
G0 F9000 X172.574 Y148.268
G1 F2700 X164.731 Y140.425 E446.77134
G0 F9000 X165.615 Y140.425
G1 F2700 X172.574 Y147.384 E447.18050
G0 F9000 X172.574 Y146.500
G1 F2700 X166.498 Y140.425 E447.53772
G0 F9000 X167.382 Y140.425
G1 F2700 X172.574 Y145.616 E447.84296
G0 F9000 X172.574 Y144.732
G1 F2700 X168.266 Y140.425 E448.09622
G0 F9000 X169.150 Y140.425
G1 F2700 X172.574 Y143.848 E448.29751
G0 F9000 X172.574 Y142.964
G1 F2700 X170.034 Y140.425 E448.44682
G0 F9000 X170.918 Y140.425
G1 F2700 X172.574 Y142.081 E448.54419
G0 F9000 X172.574 Y141.197
G1 F2700 X171.802 Y140.425 E448.58958
;LAYER:5
M106 S51
G0 F9000 X172.750 Y140.250 Z1.200
;TYPE:WALL-INNER
G1 F2700 X172.750 Y164.750 E449.60817
G1 X132.250 Y164.750 E451.29197
G1 X132.250 Y140.250 E452.31056
G1 X172.750 Y140.250 E453.99435
G0 F9000 X173.250 Y139.750
;TYPE:WALL-OUTER
G1 F2700 X173.250 Y165.250 E455.05452
G1 X131.750 Y165.250 E456.77989
G1 X131.750 Y139.750 E457.84005
G1 X173.250 Y139.750 E459.56542
G0 F9000 X172.574 Y140.763
;TYPE:FILL
G1 F2700 X148.762 Y164.574 E460.96545
G0 F9000 X149.646 Y164.574
G1 F2700 X172.574 Y141.646 E462.31353
G0 F9000 X172.574 Y142.530
G1 F2700 X150.530 Y164.574 E463.60963
G0 F9000 X151.414 Y164.574
G1 F2700 X172.574 Y143.414 E464.85376
G0 F9000 X172.574 Y144.298
G1 F2700 X152.298 Y164.574 E466.04591
G0 F9000 X153.181 Y164.575
G1 F2700 X172.574 Y145.182 E467.18614
G0 F9000 X172.574 Y146.066
G1 F2700 X154.065 Y164.575 E468.27440
G0 F9000 X154.949 Y164.575
G1 F2700 X172.574 Y146.950 E469.31068
G0 F9000 X172.574 Y147.834
G1 F2700 X155.832 Y164.575 E470.29502
G0 F9000 X156.716 Y164.575
G1 F2700 X172.574 Y148.717 E471.22741
G0 F9000 X172.574 Y149.601
G1 F2700 X157.600 Y164.575 E472.10782
G0 F9000 X158.484 Y164.575
G1 F2700 X172.574 Y150.485 E472.93626
G0 F9000 X172.574 Y151.369
G1 F2700 X159.368 Y164.575 E473.71272
G1 F2400 E473.11272
G1 Z1.700
G0 F9000 X147.878 Y164.574
G1 Z1.200
G1 F2400 E473.71272
G1 F2700 X172.029 Y140.424 E475.13268
G0 F9000 X171.145 Y140.424
G1 F2700 X146.994 Y164.574 E476.55264
G0 F9000 X146.110 Y164.574
G1 F2700 X170.261 Y140.424 E477.97259
G0 F9000 X169.377 Y140.424
G1 F2700 X145.227 Y164.574 E479.39252
G0 F9000 X144.343 Y164.574
G1 F2700 X168.493 Y140.424 E480.81245
G0 F9000 X167.609 Y140.424
G1 F2700 X143.459 Y164.574 E482.23238
G0 F9000 X142.575 Y164.574
G1 F2700 X166.725 Y140.424 E483.65230
G0 F9000 X165.841 Y140.424
G1 F2700 X141.691 Y164.574 E485.07223
G0 F9000 X140.807 Y164.574
G1 F2700 X164.958 Y140.424 E486.49219
G0 F9000 X164.074 Y140.424
G1 F2700 X139.923 Y164.574 E487.91214
G0 F9000 X139.039 Y164.574
G1 F2700 X163.190 Y140.424 E489.33210
G0 F9000 X162.306 Y140.424
G1 F2700 X138.155 Y164.574 E490.75206
G0 F9000 X137.272 Y164.574
G1 F2700 X161.422 Y140.424 E492.17199
G0 F9000 X160.538 Y140.424
G1 F2700 X136.388 Y164.574 E493.59191
G0 F9000 X135.504 Y164.574
G1 F2700 X159.654 Y140.424 E495.01184
G0 F9000 X158.770 Y140.424
G1 F2700 X134.620 Y164.574 E496.43177
G0 F9000 X133.736 Y164.574
G1 F2700 X157.887 Y140.424 E497.85172
G0 F9000 X157.003 Y140.424
G1 F2700 X132.852 Y164.574 E499.27168
G0 F9000 X132.425 Y164.118
G1 F2700 X156.119 Y140.424 E500.66480
G0 F9000 X155.235 Y140.424
G1 F2700 X132.425 Y163.234 E502.00594
G0 F9000 X132.425 Y162.350
G1 F2700 X154.351 Y140.424 E503.29510
G0 F9000 X153.467 Y140.424
G1 F2700 X132.425 Y161.466 E504.53229
G0 F9000 X132.425 Y160.582
G1 F2700 X152.583 Y140.424 E505.71751
G0 F9000 X151.699 Y140.424
G1 F2700 X132.425 Y159.698 E506.85074
G0 F9000 X132.425 Y158.814
G1 F2700 X150.815 Y140.424 E507.93200
G0 F9000 X149.932 Y140.424
G1 F2700 X132.425 Y157.930 E508.96132
G0 F9000 X132.425 Y157.047
G1 F2700 X149.048 Y140.424 E509.93869
G0 F9000 X148.164 Y140.424
G1 F2700 X132.425 Y156.163 E510.86408
G0 F9000 X132.425 Y155.279
G1 F2700 X147.280 Y140.424 E511.73750
G0 F9000 X146.396 Y140.424
G1 F2700 X132.425 Y154.395 E512.55894
G0 F9000 X132.425 Y153.511
G1 F2700 X145.512 Y140.424 E513.32840
G0 F9000 X144.628 Y140.424
G1 F2700 X132.425 Y152.627 E514.04589
G0 F9000 X132.425 Y151.743
G1 F2700 X143.744 Y140.424 E514.71141
G0 F9000 X142.861 Y140.424
G1 F2700 X132.425 Y150.859 E515.32498
G0 F9000 X132.425 Y149.975
G1 F2700 X141.977 Y140.424 E515.88657
G0 F9000 X141.093 Y140.424
G1 F2700 X132.425 Y149.092 E516.39621
G0 F9000 X132.425 Y148.208
G1 F2700 X140.209 Y140.424 E516.85388
G0 F9000 X139.325 Y140.424
G1 F2700 X132.425 Y147.324 E517.25957
G0 F9000 X132.425 Y146.440
G1 F2700 X138.441 Y140.424 E517.61329
G0 F9000 X137.557 Y140.424
G1 F2700 X132.425 Y145.556 E517.91503
G0 F9000 X132.425 Y144.672
G1 F2700 X136.673 Y140.424 E518.16480
G0 F9000 X135.789 Y140.424
G1 F2700 X132.425 Y143.788 E518.36259
G0 F9000 X132.425 Y142.904
G1 F2700 X134.906 Y140.424 E518.50843
G0 F9000 X134.022 Y140.424
G1 F2700 X132.425 Y142.020 E518.60230
G0 F9000 X132.425 Y141.137
G1 F2700 X133.138 Y140.424 E518.64422
G1 F2400 E518.04422
G1 Z1.700
G0 F9000 X160.252 Y164.575
G1 Z1.200
G1 F2400 E518.64422
G1 F2700 X172.574 Y152.253 E519.36871
G0 F9000 X172.574 Y153.137
G1 F2700 X161.136 Y164.575 E520.04122
G0 F9000 X162.020 Y164.575
G1 F2700 X172.574 Y154.021 E520.66176
G0 F9000 X172.574 Y154.905
G1 F2700 X162.903 Y164.575 E521.23034
G0 F9000 X163.787 Y164.575
G1 F2700 X172.574 Y155.789 E521.74696
G0 F9000 X172.574 Y156.672
G1 F2700 X164.671 Y164.575 E522.21162
G0 F9000 X165.555 Y164.575
G1 F2700 X172.574 Y157.556 E522.62431
G0 F9000 X172.574 Y158.440
G1 F2700 X166.439 Y164.575 E522.98503
G0 F9000 X167.323 Y164.575
G1 F2700 X172.574 Y159.324 E523.29377
G0 F9000 X172.574 Y160.208
G1 F2700 X168.207 Y164.575 E523.55053
G0 F9000 X169.091 Y164.575
G1 F2700 X172.574 Y161.092 E523.75532
G0 F9000 X172.574 Y161.976
G1 F2700 X169.975 Y164.575 E523.90813
G0 F9000 X170.858 Y164.575
G1 F2700 X172.574 Y162.860 E524.00899
G0 F9000 X172.574 Y163.744
G1 F2700 X171.742 Y164.575 E524.05788
;LAYER:6
M106 S63
G0 F9000 X172.750 Y164.750 Z1.400
;TYPE:WALL-INNER
G1 F2700 X132.250 Y164.750 E525.74168
G1 X132.250 Y140.250 E526.76027
G1 X172.750 Y140.250 E528.44406
G1 X172.750 Y164.750 E529.46265
G0 F9000 X173.250 Y165.250
;TYPE:WALL-OUTER
G1 F2700 X131.750 Y165.250 E531.18802
G1 X131.750 Y139.750 E532.24819
G1 X173.250 Y139.750 E533.97356
G1 X173.250 Y165.250 E535.03373
G0 F9000 X172.574 Y164.178
;TYPE:FILL
G1 F2700 X172.070 Y163.674 E535.06336
G0 F9000 X171.187 Y163.674
G1 F2700 X172.087 Y164.574 E535.11628
G0 F9000 X171.203 Y164.574
G1 F2700 X170.303 Y163.674 E535.16919
G0 F9000 X169.419 Y163.674
G1 F2700 X170.319 Y164.574 E535.22211
G0 F9000 X169.435 Y164.574
G1 F2700 X168.535 Y163.674 E535.27503
G0 F9000 X167.651 Y163.674
G1 F2700 X168.551 Y164.574 E535.32794
G0 F9000 X167.667 Y164.574
G1 F2700 X166.767 Y163.674 E535.38086
G0 F9000 X165.883 Y163.674
G1 F2700 X166.783 Y164.574 E535.43378
G0 F9000 X165.899 Y164.574
G1 F2700 X164.999 Y163.674 E535.48669
G0 F9000 X164.115 Y163.674
G1 F2700 X165.016 Y164.574 E535.53964
G0 F9000 X164.132 Y164.574
G1 F2700 X163.232 Y163.674 E535.59255
G0 F9000 X162.348 Y163.674
G1 F2700 X163.248 Y164.574 E535.64547
G0 F9000 X162.364 Y164.574
G1 F2700 X161.464 Y163.674 E535.69839
G0 F9000 X160.580 Y163.674
G1 F2700 X161.480 Y164.574 E535.75130
G0 F9000 X160.596 Y164.574
G1 F2700 X159.696 Y163.674 E535.80422
G0 F9000 X158.812 Y163.674
G1 F2700 X159.712 Y164.574 E535.85714
G0 F9000 X158.828 Y164.574
G1 F2700 X157.928 Y163.674 E535.91005
G0 F9000 X157.044 Y163.674
G1 F2700 X157.945 Y164.574 E535.96300
G0 F9000 X157.061 Y164.574
G1 F2700 X156.160 Y163.674 E536.01595
G0 F9000 X155.277 Y163.674
G1 F2700 X156.177 Y164.574 E536.06886
G0 F9000 X155.293 Y164.574
G1 F2700 X154.393 Y163.674 E536.12178
G0 F9000 X153.509 Y163.674
G1 F2700 X154.409 Y164.574 E536.17470
G0 F9000 X153.525 Y164.574
G1 F2700 X152.625 Y163.674 E536.22761
G0 F9000 X151.741 Y163.674
G1 F2700 X152.641 Y164.574 E536.28053
G0 F9000 X151.757 Y164.574
G1 F2700 X150.857 Y163.674 E536.33345
G0 F9000 X149.973 Y163.674
G1 F2700 X150.873 Y164.574 E536.38636
G0 F9000 X149.989 Y164.574
G1 F2700 X149.089 Y163.674 E536.43928
G0 F9000 X148.206 Y163.674
G1 F2700 X149.105 Y164.574 E536.49217
G0 F9000 X148.221 Y164.574
G1 F2700 X147.322 Y163.674 E536.54505
G0 F9000 X146.438 Y163.674
G1 F2700 X147.337 Y164.574 E536.59794
G0 F9000 X146.453 Y164.574
G1 F2700 X145.554 Y163.674 E536.65083
G0 F9000 X144.670 Y163.674
G1 F2700 X145.569 Y164.574 E536.70371
G0 F9000 X144.686 Y164.574
G1 F2700 X143.786 Y163.674 E536.75663
G0 F9000 X142.902 Y163.674
G1 F2700 X143.802 Y164.574 E536.80955
G0 F9000 X142.918 Y164.574
G1 F2700 X142.018 Y163.674 E536.86246
G0 F9000 X141.134 Y163.674
G1 F2700 X142.034 Y164.574 E536.91538
G0 F9000 X141.150 Y164.574
G1 F2700 X140.251 Y163.674 E536.96827
G0 F9000 X139.367 Y163.674
G1 F2700 X140.266 Y164.574 E537.02115
G0 F9000 X139.382 Y164.574
G1 F2700 X138.483 Y163.674 E537.07404
G0 F9000 X137.599 Y163.674
G1 F2700 X138.498 Y164.574 E537.12693
G0 F9000 X137.615 Y164.574
G1 F2700 X136.715 Y163.674 E537.17985
G0 F9000 X135.831 Y163.674
G1 F2700 X136.731 Y164.574 E537.23276
G0 F9000 X135.847 Y164.574
G1 F2700 X134.947 Y163.674 E537.28568
G0 F9000 X134.063 Y163.674
G1 F2700 X134.963 Y164.574 E537.33860
G0 F9000 X134.079 Y164.574
G1 F2700 X133.180 Y163.674 E537.39148
G0 F9000 X132.424 Y163.803
G1 F2700 X133.195 Y164.574 E537.43681
G1 F2400 E536.83681
G1 Z1.900
G0 F9000 X132.926 Y141.324
G1 Z1.400
G1 F2400 E537.43681
G1 F2700 X132.424 Y140.822 E537.46633
G0 F9000 X132.911 Y140.425
G1 F2700 X133.810 Y141.324 E537.51919
G0 F9000 X134.694 Y141.324
G1 F2700 X133.795 Y140.425 E537.57205
G0 F9000 X134.679 Y140.425
G1 F2700 X135.578 Y141.324 E537.62490
G0 F9000 X136.462 Y141.324
G1 F2700 X135.562 Y140.425 E537.67779
G0 F9000 X136.446 Y140.425
G1 F2700 X137.346 Y141.324 E537.73068
G0 F9000 X138.230 Y141.324
G1 F2700 X137.330 Y140.425 E537.78356
G0 F9000 X138.214 Y140.425
G1 F2700 X139.114 Y141.324 E537.83645
G0 F9000 X139.997 Y141.324
G1 F2700 X139.098 Y140.425 E537.88931
G0 F9000 X139.982 Y140.425
G1 F2700 X140.881 Y141.324 E537.94217
G0 F9000 X141.765 Y141.324
G1 F2700 X140.866 Y140.425 E537.99502
G0 F9000 X141.750 Y140.425
G1 F2700 X142.649 Y141.324 E538.04788
G0 F9000 X143.533 Y141.324
G1 F2700 X142.634 Y140.425 E538.10074
G0 F9000 X143.517 Y140.425
G1 F2700 X144.417 Y141.324 E538.15363
G0 F9000 X145.301 Y141.324
G1 F2700 X144.401 Y140.425 E538.20651
G0 F9000 X145.285 Y140.425
G1 F2700 X146.185 Y141.324 E538.25940
G0 F9000 X147.069 Y141.324
G1 F2700 X146.169 Y140.425 E538.31229
G0 F9000 X147.053 Y140.425
G1 F2700 X147.952 Y141.324 E538.36515
G0 F9000 X148.836 Y141.324
G1 F2700 X147.937 Y140.425 E538.41800
G0 F9000 X148.821 Y140.425
G1 F2700 X149.720 Y141.324 E538.47086
G0 F9000 X150.604 Y141.324
G1 F2700 X149.705 Y140.425 E538.52372
G0 F9000 X150.588 Y140.425
G1 F2700 X151.488 Y141.324 E538.57661
G0 F9000 X152.372 Y141.324
G1 F2700 X151.472 Y140.425 E538.62949
G0 F9000 X152.356 Y140.425
G1 F2700 X153.256 Y141.324 E538.68238
G0 F9000 X154.140 Y141.324
G1 F2700 X153.240 Y140.425 E538.73527
G0 F9000 X154.124 Y140.425
G1 F2700 X155.023 Y141.324 E538.78813
G0 F9000 X155.907 Y141.324
G1 F2700 X155.008 Y140.425 E538.84098
G0 F9000 X155.892 Y140.425
G1 F2700 X156.791 Y141.324 E538.89384
G0 F9000 X157.675 Y141.324
G1 F2700 X156.776 Y140.425 E538.94670
G0 F9000 X157.660 Y140.425
G1 F2700 X158.559 Y141.324 E538.99956
G0 F9000 X159.443 Y141.324
G1 F2700 X158.543 Y140.425 E539.05244
G0 F9000 X159.427 Y140.425
G1 F2700 X160.327 Y141.324 E539.10533
G0 F9000 X161.211 Y141.324
G1 F2700 X160.311 Y140.425 E539.15822
G0 F9000 X161.195 Y140.425
G1 F2700 X162.095 Y141.324 E539.21111
G0 F9000 X162.978 Y141.324
G1 F2700 X162.079 Y140.425 E539.26396
G0 F9000 X162.963 Y140.425
G1 F2700 X163.862 Y141.324 E539.31682
G0 F9000 X164.746 Y141.324
G1 F2700 X163.847 Y140.425 E539.36968
G0 F9000 X164.731 Y140.425
G1 F2700 X165.630 Y141.324 E539.42254
G0 F9000 X166.514 Y141.324
G1 F2700 X165.615 Y140.425 E539.47539
G0 F9000 X166.498 Y140.425
G1 F2700 X167.398 Y141.324 E539.52828
G0 F9000 X168.282 Y141.324
G1 F2700 X167.382 Y140.425 E539.58117
G0 F9000 X168.266 Y140.425
G1 F2700 X169.166 Y141.324 E539.63406
G0 F9000 X170.049 Y141.324
G1 F2700 X169.150 Y140.425 E539.68691
G0 F9000 X170.034 Y140.425
G1 F2700 X170.933 Y141.324 E539.73977
G0 F9000 X171.817 Y141.324
G1 F2700 X170.918 Y140.425 E539.79263
G0 F9000 X171.802 Y140.425
G1 F2700 X172.574 Y141.197 E539.83802
G0 F9000 X172.574 Y141.108
;TYPE:SKIN
G1 F2700 X172.141 Y140.675 E539.86348
G0 F9000 X171.434 Y140.675
G1 F2700 X172.574 Y141.815 E539.93051
G0 F9000 X172.574 Y142.522
G1 F2700 X170.727 Y140.675 E540.03910
G0 F9000 X170.020 Y140.675
G1 F2700 X172.574 Y143.229 E540.18927
G0 F9000 X172.574 Y143.936
G1 F2700 X169.313 Y140.675 E540.38100
G0 F9000 X168.606 Y140.675
G1 F2700 X172.574 Y144.643 E540.61431
G0 F9000 X172.574 Y145.350
G1 F2700 X167.898 Y140.675 E540.88921
G0 F9000 X167.191 Y140.675
G1 F2700 X172.574 Y146.057 E541.20568
G0 F9000 X172.574 Y146.764
G1 F2700 X166.484 Y140.675 E541.56372
G0 F9000 X165.777 Y140.675
G1 F2700 X172.574 Y147.472 E541.96335
G0 F9000 X172.574 Y148.179
G1 F2700 X165.070 Y140.675 E542.40456
G0 F9000 X164.363 Y140.675
G1 F2700 X172.574 Y148.886 E542.88734
G0 F9000 X172.574 Y149.593
G1 F2700 X163.656 Y140.675 E543.41168
G0 F9000 X162.949 Y140.675
G1 F2700 X172.574 Y150.300 E543.97759
G0 F9000 X172.574 Y151.007
G1 F2700 X162.242 Y140.675 E544.58508
G0 F9000 X161.535 Y140.675
G1 F2700 X172.574 Y151.714 E545.23413
G0 F9000 X172.574 Y152.421
G1 F2700 X160.827 Y140.675 E545.92478
G0 F9000 X160.120 Y140.675
G1 F2700 X172.574 Y153.128 E546.65699
G0 F9000 X172.574 Y153.836
G1 F2700 X159.413 Y140.675 E547.43081
G0 F9000 X158.706 Y140.675
G1 F2700 X172.574 Y154.543 E548.24620
G0 F9000 X172.574 Y155.250
G1 F2700 X157.999 Y140.675 E549.10315
G0 F9000 X157.292 Y140.675
G1 F2700 X172.574 Y155.957 E550.00167
G0 F9000 X172.574 Y156.664
G1 F2700 X156.585 Y140.675 E550.94176
G0 F9000 X155.878 Y140.675
G1 F2700 X172.574 Y157.371 E551.92343
G0 F9000 X172.574 Y158.078
G1 F2700 X155.171 Y140.675 E552.94666
G0 F9000 X154.463 Y140.675
G1 F2700 X172.574 Y158.785 E554.01148
G0 F9000 X172.574 Y159.492
G1 F2700 X153.756 Y140.675 E555.11788
G0 F9000 X153.049 Y140.675
G1 F2700 X172.574 Y160.199 E556.26585
G0 F9000 X172.574 Y160.907
G1 F2700 X152.341 Y140.674 E557.45547
G0 F9000 X151.634 Y140.674
G1 F2700 X172.574 Y161.614 E558.68666
G0 F9000 X172.574 Y162.321
G1 F2700 X150.927 Y140.674 E559.95942
G0 F9000 X150.220 Y140.674
G1 F2700 X172.574 Y163.028 E561.27375
G0 F9000 X172.574 Y163.735
G1 F2700 X149.513 Y140.674 E562.62965
G0 F9000 X148.806 Y140.674
G1 F2700 X172.456 Y164.324 E564.02018
G0 F9000 X171.749 Y164.324
G1 F2700 X148.099 Y140.674 E565.41071
G0 F9000 X147.392 Y140.674
G1 F2700 X171.042 Y164.324 E566.80124
G0 F9000 X170.334 Y164.324
G1 F2700 X146.685 Y140.674 E568.19174
G0 F9000 X145.977 Y140.674
G1 F2700 X169.627 Y164.324 E569.58227
G0 F9000 X168.920 Y164.324
G1 F2700 X145.270 Y140.674 E570.97280
G0 F9000 X144.563 Y140.674
G1 F2700 X168.213 Y164.324 E572.36333
G0 F9000 X167.506 Y164.324
G1 F2700 X143.856 Y140.674 E573.75385
G0 F9000 X143.149 Y140.674
G1 F2700 X166.799 Y164.324 E575.14438
G0 F9000 X166.092 Y164.324
G1 F2700 X142.442 Y140.674 E576.53491
G0 F9000 X141.735 Y140.674
G1 F2700 X165.385 Y164.324 E577.92544
G0 F9000 X164.678 Y164.324
G1 F2700 X141.028 Y140.674 E579.31597
G0 F9000 X140.321 Y140.674
G1 F2700 X163.970 Y164.324 E580.70647
G0 F9000 X163.263 Y164.324
G1 F2700 X139.613 Y140.674 E582.09700
G0 F9000 X138.906 Y140.674
G1 F2700 X162.556 Y164.324 E583.48753
G0 F9000 X161.849 Y164.324
G1 F2700 X138.199 Y140.674 E584.87806
G0 F9000 X137.492 Y140.674
G1 F2700 X161.142 Y164.324 E586.26859
G0 F9000 X160.435 Y164.324
G1 F2700 X136.785 Y140.674 E587.65912
G0 F9000 X136.078 Y140.674
G1 F2700 X159.728 Y164.324 E589.04965
G0 F9000 X159.021 Y164.324
G1 F2700 X135.371 Y140.674 E590.44018
G0 F9000 X134.664 Y140.674
G1 F2700 X158.314 Y164.324 E591.83071
G0 F9000 X157.607 Y164.324
G1 F2700 X133.957 Y140.674 E593.22124
G0 F9000 X133.250 Y140.674
G1 F2700 X156.899 Y164.324 E594.61174
G0 F9000 X156.192 Y164.324
G1 F2700 X132.542 Y140.674 E596.00227
G0 F9000 X132.424 Y141.263
G1 F2700 X155.485 Y164.324 E597.35816
G0 F9000 X154.778 Y164.324
G1 F2700 X132.424 Y141.970 E598.67249
G0 F9000 X132.424 Y142.677
G1 F2700 X154.071 Y164.324 E599.94525
G0 F9000 X153.364 Y164.324
G1 F2700 X132.424 Y143.384 E601.17645
G0 F9000 X132.424 Y144.092
G1 F2700 X152.657 Y164.324 E602.36604
G0 F9000 X151.949 Y164.323
G1 F2700 X132.424 Y144.799 E603.51401
G0 F9000 X132.424 Y145.506
G1 F2700 X151.242 Y164.323 E604.62040
G0 F9000 X150.535 Y164.323
G1 F2700 X132.424 Y146.213 E605.68523
G0 F9000 X132.424 Y146.920
G1 F2700 X149.828 Y164.323 E606.70849
G0 F9000 X149.121 Y164.323
G1 F2700 X132.424 Y147.627 E607.69018
G0 F9000 X132.424 Y148.334
G1 F2700 X148.413 Y164.323 E608.63027
G0 F9000 X147.706 Y164.323
G1 F2700 X132.424 Y149.041 E609.52879
G0 F9000 X132.424 Y149.748
G1 F2700 X146.999 Y164.323 E610.38575
G0 F9000 X146.292 Y164.323
G1 F2700 X132.424 Y150.456 E611.20110
G0 F9000 X132.424 Y151.163
G1 F2700 X145.585 Y164.323 E611.97489
G0 F9000 X144.878 Y164.323
G1 F2700 X132.424 Y151.870 E612.70711
G0 F9000 X132.424 Y152.577
G1 F2700 X144.171 Y164.323 E613.39776
G0 F9000 X143.464 Y164.323
G1 F2700 X132.424 Y153.284 E614.04684
G0 F9000 X132.424 Y153.991
G1 F2700 X142.757 Y164.323 E614.65435
G0 F9000 X142.049 Y164.323
G1 F2700 X132.424 Y154.698 E615.22026
G0 F9000 X132.424 Y155.405
G1 F2700 X141.342 Y164.323 E615.74461
G0 F9000 X140.635 Y164.323
G1 F2700 X132.424 Y156.112 E616.22738
G0 F9000 X132.424 Y156.820
G1 F2700 X139.928 Y164.323 E616.66856
G0 F9000 X139.221 Y164.323
G1 F2700 X132.424 Y157.527 E617.06817
G0 F9000 X132.424 Y158.234
G1 F2700 X138.514 Y164.323 E617.42621
G0 F9000 X137.807 Y164.323
G1 F2700 X132.424 Y158.941 E617.74268
G0 F9000 X132.424 Y159.648
G1 F2700 X137.100 Y164.323 E618.01758
G0 F9000 X136.393 Y164.323
G1 F2700 X132.424 Y160.355 E618.25091
G0 F9000 X132.424 Y161.062
G1 F2700 X135.686 Y164.323 E618.44268
G0 F9000 X134.978 Y164.323
G1 F2700 X132.424 Y161.769 E618.59284
G0 F9000 X132.424 Y162.476
G1 F2700 X134.271 Y164.323 E618.70144
G0 F9000 X133.564 Y164.323
G1 F2700 X132.424 Y163.183 E618.76847
G0 F9000 X132.424 Y163.891
G1 F2700 X132.857 Y164.323 E618.79389
;LAYER:7
M106 S73
G0 F9000 X132.250 Y164.750 Z1.600
;TYPE:WALL-INNER
G1 F2700 X132.250 Y140.250 E619.81249
G1 X172.750 Y140.250 E621.49628
G1 X172.750 Y164.750 E622.51487
G1 X132.250 Y164.750 E624.19867
G0 F9000 X131.750 Y165.250
;TYPE:WALL-OUTER
G1 F2700 X131.750 Y139.750 E625.25883
G1 X173.250 Y139.750 E626.98420
G1 X173.250 Y165.250 E628.04437
G1 X131.750 Y165.250 E629.76974
G0 F9000 X132.852 Y164.574
;TYPE:FILL
G1 F2700 X133.752 Y163.674 E629.82266
G0 F9000 X134.636 Y163.674
G1 F2700 X133.736 Y164.574 E629.87557
G0 F9000 X134.620 Y164.574
G1 F2700 X135.520 Y163.674 E629.92849
G0 F9000 X136.404 Y163.674
G1 F2700 X135.504 Y164.574 E629.98141
G0 F9000 X136.388 Y164.574
G1 F2700 X137.288 Y163.674 E630.03432
G0 F9000 X138.172 Y163.674
G1 F2700 X137.272 Y164.574 E630.08724
G0 F9000 X138.155 Y164.574
G1 F2700 X139.056 Y163.674 E630.14018
G0 F9000 X139.939 Y163.674
G1 F2700 X139.039 Y164.574 E630.19310
G0 F9000 X139.923 Y164.574
G1 F2700 X140.823 Y163.674 E630.24602
G0 F9000 X141.707 Y163.674
G1 F2700 X140.807 Y164.574 E630.29893
G0 F9000 X141.691 Y164.574
G1 F2700 X142.591 Y163.674 E630.35185
G0 F9000 X143.475 Y163.674
G1 F2700 X142.575 Y164.574 E630.40477
G0 F9000 X143.459 Y164.574
G1 F2700 X144.359 Y163.674 E630.45768
G0 F9000 X145.243 Y163.674
G1 F2700 X144.343 Y164.574 E630.51060
G0 F9000 X145.227 Y164.574
G1 F2700 X146.127 Y163.674 E630.56352
G0 F9000 X147.011 Y163.674
G1 F2700 X146.110 Y164.574 E630.61646
G0 F9000 X146.994 Y164.574
G1 F2700 X147.894 Y163.674 E630.66938
G0 F9000 X148.778 Y163.674
G1 F2700 X147.878 Y164.574 E630.72230
G0 F9000 X148.762 Y164.574
G1 F2700 X149.662 Y163.674 E630.77521
G0 F9000 X150.546 Y163.674
G1 F2700 X149.646 Y164.574 E630.82813
G0 F9000 X150.530 Y164.574
G1 F2700 X151.430 Y163.674 E630.88105
G0 F9000 X152.314 Y163.674
G1 F2700 X151.414 Y164.574 E630.93396
G0 F9000 X152.298 Y164.574
G1 F2700 X153.198 Y163.674 E630.98688
G0 F9000 X154.082 Y163.674
G1 F2700 X153.181 Y164.575 E631.03985
G0 F9000 X154.065 Y164.575
G1 F2700 X154.965 Y163.674 E631.09280
G0 F9000 X155.849 Y163.674
G1 F2700 X154.949 Y164.575 E631.14575
G0 F9000 X155.832 Y164.575
G1 F2700 X156.733 Y163.674 E631.19872
G0 F9000 X157.617 Y163.674
G1 F2700 X156.716 Y164.575 E631.25170
G0 F9000 X157.600 Y164.575
G1 F2700 X158.501 Y163.674 E631.30467
G0 F9000 X159.385 Y163.674
G1 F2700 X158.484 Y164.575 E631.35765
G0 F9000 X159.368 Y164.575
G1 F2700 X160.269 Y163.674 E631.41062
G0 F9000 X161.153 Y163.674
G1 F2700 X160.252 Y164.575 E631.46360
G0 F9000 X161.136 Y164.575
G1 F2700 X162.037 Y163.674 E631.51657
G0 F9000 X162.920 Y163.674
G1 F2700 X162.020 Y164.575 E631.56952
G0 F9000 X162.903 Y164.575
G1 F2700 X163.804 Y163.674 E631.62249
G0 F9000 X164.688 Y163.674
G1 F2700 X163.787 Y164.575 E631.67547
G0 F9000 X164.671 Y164.575
G1 F2700 X165.572 Y163.674 E631.72845
G0 F9000 X166.456 Y163.674
G1 F2700 X165.555 Y164.575 E631.78142
G0 F9000 X166.439 Y164.575
G1 F2700 X167.340 Y163.674 E631.83440
G0 F9000 X168.224 Y163.674
G1 F2700 X167.323 Y164.575 E631.88737
G0 F9000 X168.207 Y164.575
G1 F2700 X169.108 Y163.674 E631.94035
G0 F9000 X169.992 Y163.674
G1 F2700 X169.091 Y164.575 E631.99332
G0 F9000 X169.975 Y164.575
G1 F2700 X170.875 Y163.674 E632.04627
G0 F9000 X171.759 Y163.674
G1 F2700 X170.858 Y164.575 E632.09924
G0 F9000 X171.742 Y164.575
G1 F2700 X172.574 Y163.744 E632.14813
G1 F2400 E631.54813
G1 Z2.100
G0 F9000 X172.012 Y141.324
G1 Z1.600
G1 F2400 E632.14813
G1 F2700 X172.574 Y140.763 E632.18115
G0 F9000 X172.029 Y140.424
G1 F2700 X171.129 Y141.324 E632.23406
G0 F9000 X170.245 Y141.324
G1 F2700 X171.145 Y140.424 E632.28698
G0 F9000 X170.261 Y140.424
G1 F2700 X169.361 Y141.324 E632.33990
G0 F9000 X168.477 Y141.324
G1 F2700 X169.377 Y140.424 E632.39281
G0 F9000 X168.493 Y140.424
G1 F2700 X167.593 Y141.324 E632.44573
G0 F9000 X166.709 Y141.324
G1 F2700 X167.609 Y140.424 E632.49865
G0 F9000 X166.725 Y140.424
G1 F2700 X165.825 Y141.324 E632.55156
G0 F9000 X164.941 Y141.324
G1 F2700 X165.841 Y140.424 E632.60448
G0 F9000 X164.958 Y140.424
G1 F2700 X164.057 Y141.324 E632.65742
G0 F9000 X163.174 Y141.324
G1 F2700 X164.074 Y140.424 E632.71034
G0 F9000 X163.190 Y140.424
G1 F2700 X162.290 Y141.324 E632.76326
G0 F9000 X161.406 Y141.324
G1 F2700 X162.306 Y140.424 E632.81617
G0 F9000 X161.422 Y140.424
G1 F2700 X160.522 Y141.324 E632.86909
G0 F9000 X159.638 Y141.324
G1 F2700 X160.538 Y140.424 E632.92201
G0 F9000 X159.654 Y140.424
G1 F2700 X158.754 Y141.324 E632.97492
G0 F9000 X157.870 Y141.324
G1 F2700 X158.770 Y140.424 E633.02784
G0 F9000 X157.887 Y140.424
G1 F2700 X156.986 Y141.324 E633.08079
G0 F9000 X156.103 Y141.324
G1 F2700 X157.003 Y140.424 E633.13370
G0 F9000 X156.119 Y140.424
G1 F2700 X155.219 Y141.324 E633.18662
G0 F9000 X154.335 Y141.324
G1 F2700 X155.235 Y140.424 E633.23954
G0 F9000 X154.351 Y140.424
G1 F2700 X153.451 Y141.324 E633.29245
G0 F9000 X152.567 Y141.324
G1 F2700 X153.467 Y140.424 E633.34537
G0 F9000 X152.583 Y140.424
G1 F2700 X151.683 Y141.324 E633.39829
G0 F9000 X150.799 Y141.324
G1 F2700 X151.699 Y140.424 E633.45120
G0 F9000 X150.815 Y140.424
G1 F2700 X149.915 Y141.324 E633.50412
G0 F9000 X149.031 Y141.324
G1 F2700 X149.932 Y140.424 E633.55706
G0 F9000 X149.048 Y140.424
G1 F2700 X148.148 Y141.324 E633.60998
G0 F9000 X147.264 Y141.324
G1 F2700 X148.164 Y140.424 E633.66290
G0 F9000 X147.280 Y140.424
G1 F2700 X146.380 Y141.324 E633.71581
G0 F9000 X145.496 Y141.324
G1 F2700 X146.396 Y140.424 E633.76873
G0 F9000 X145.512 Y140.424
G1 F2700 X144.612 Y141.324 E633.82165
G0 F9000 X143.728 Y141.324
G1 F2700 X144.628 Y140.424 E633.87456
G0 F9000 X143.744 Y140.424
G1 F2700 X142.844 Y141.324 E633.92748
G0 F9000 X141.960 Y141.324
G1 F2700 X142.861 Y140.424 E633.98043
G0 F9000 X141.977 Y140.424
G1 F2700 X141.076 Y141.324 E634.03337
G0 F9000 X140.193 Y141.324
G1 F2700 X141.093 Y140.424 E634.08629
G0 F9000 X140.209 Y140.424
G1 F2700 X139.309 Y141.324 E634.13921
G0 F9000 X138.425 Y141.324
G1 F2700 X139.325 Y140.424 E634.19212
G0 F9000 X138.441 Y140.424
G1 F2700 X137.541 Y141.324 E634.24504
G0 F9000 X136.657 Y141.324
G1 F2700 X137.557 Y140.424 E634.29796
G0 F9000 X136.673 Y140.424
G1 F2700 X135.773 Y141.324 E634.35087
G0 F9000 X134.889 Y141.324
G1 F2700 X135.789 Y140.424 E634.40379
G0 F9000 X134.906 Y140.424
G1 F2700 X134.005 Y141.324 E634.45673
G0 F9000 X133.122 Y141.324
G1 F2700 X134.022 Y140.424 E634.50965
G0 F9000 X133.138 Y140.424
G1 F2700 X132.425 Y141.137 E634.55157
G1 F2400 E633.95157
G1 Z2.100
G0 F9000 X132.868 Y163.674
G1 Z1.600
G1 F2400 E634.55157
G1 F2700 X132.424 Y164.118 E634.57768
G0 F9000 X132.424 Y164.206
;TYPE:SKIN
G1 F2700 X155.956 Y140.674 E635.96127
G0 F9000 X156.663 Y140.674
G1 F2700 X133.013 Y164.324 E637.35180
G0 F9000 X133.720 Y164.324
G1 F2700 X157.370 Y140.674 E638.74233
G0 F9000 X158.077 Y140.674
G1 F2700 X134.428 Y164.324 E640.13283
G0 F9000 X135.135 Y164.324
G1 F2700 X158.785 Y140.674 E641.52336
G0 F9000 X159.492 Y140.674
G1 F2700 X135.842 Y164.324 E642.91389
G0 F9000 X136.549 Y164.324
G1 F2700 X160.199 Y140.674 E644.30442
G0 F9000 X160.906 Y140.674
G1 F2700 X137.256 Y164.324 E645.69495
G0 F9000 X137.963 Y164.324
G1 F2700 X161.613 Y140.674 E647.08548
G0 F9000 X162.320 Y140.674
G1 F2700 X138.670 Y164.324 E648.47600
G0 F9000 X139.377 Y164.324
G1 F2700 X163.027 Y140.674 E649.86653
G0 F9000 X163.734 Y140.674
G1 F2700 X140.084 Y164.324 E651.25706
G0 F9000 X140.792 Y164.324
G1 F2700 X164.441 Y140.674 E652.64756
G0 F9000 X165.149 Y140.674
G1 F2700 X141.499 Y164.324 E654.03809
G0 F9000 X142.206 Y164.324
G1 F2700 X165.856 Y140.674 E655.42862
G0 F9000 X166.563 Y140.674
G1 F2700 X142.913 Y164.324 E656.81915
G0 F9000 X143.620 Y164.324
G1 F2700 X167.270 Y140.674 E658.20968
G0 F9000 X167.977 Y140.674
G1 F2700 X144.327 Y164.324 E659.60021
G0 F9000 X145.034 Y164.324
G1 F2700 X168.684 Y140.674 E660.99074
G0 F9000 X169.391 Y140.674
G1 F2700 X145.741 Y164.324 E662.38127
G0 F9000 X146.448 Y164.324
G1 F2700 X170.098 Y140.674 E663.77180
G0 F9000 X170.805 Y140.674
G1 F2700 X147.155 Y164.324 E665.16233
G0 F9000 X147.863 Y164.324
G1 F2700 X171.512 Y140.674 E666.55283
G0 F9000 X172.220 Y140.674
G1 F2700 X148.570 Y164.324 E667.94336
G0 F9000 X149.277 Y164.324
G1 F2700 X172.574 Y141.027 E669.31313
G0 F9000 X172.574 Y141.734
G1 F2700 X149.984 Y164.324 E670.64134
G0 F9000 X150.691 Y164.324
G1 F2700 X172.574 Y142.441 E671.92797
G0 F9000 X172.574 Y143.148
G1 F2700 X151.398 Y164.324 E673.17304
G0 F9000 X152.105 Y164.324
G1 F2700 X172.574 Y143.855 E674.37654
G0 F9000 X172.574 Y144.563
G1 F2700 X152.812 Y164.325 E675.53847
G0 F9000 X153.519 Y164.325
G1 F2700 X172.574 Y145.270 E676.65883
G0 F9000 X172.574 Y145.977
G1 F2700 X154.226 Y164.325 E677.73762
G0 F9000 X154.933 Y164.325
G1 F2700 X172.574 Y146.684 E678.77485
G0 F9000 X172.574 Y147.391
G1 F2700 X155.640 Y164.325 E679.77050
G0 F9000 X156.347 Y164.325
G1 F2700 X172.574 Y148.098 E680.72459
G0 F9000 X172.574 Y148.805
G1 F2700 X157.054 Y164.325 E681.63710
G0 F9000 X157.761 Y164.325
G1 F2700 X172.574 Y149.512 E682.50805
G0 F9000 X172.574 Y150.219
G1 F2700 X158.468 Y164.325 E683.33743
G0 F9000 X159.176 Y164.325
G1 F2700 X172.574 Y150.926 E684.12521
G0 F9000 X172.574 Y151.634
G1 F2700 X159.883 Y164.325 E684.87139
G0 F9000 X160.590 Y164.325
G1 F2700 X172.574 Y152.341 E685.57600
G0 F9000 X172.574 Y153.048
G1 F2700 X161.297 Y164.325 E686.23905
G0 F9000 X162.004 Y164.325
G1 F2700 X172.574 Y153.755 E686.86052
G0 F9000 X172.574 Y154.462
G1 F2700 X162.711 Y164.325 E687.44043
G0 F9000 X163.418 Y164.325
G1 F2700 X172.574 Y155.169 E687.97877
G0 F9000 X172.574 Y155.876
G1 F2700 X164.125 Y164.325 E688.47554
G0 F9000 X164.832 Y164.325
G1 F2700 X172.574 Y156.583 E688.93074
G0 F9000 X172.574 Y157.290
G1 F2700 X165.540 Y164.325 E689.34434
G0 F9000 X166.247 Y164.325
G1 F2700 X172.574 Y157.998 E689.71634
G0 F9000 X172.574 Y158.705
G1 F2700 X166.954 Y164.325 E690.04678
G0 F9000 X167.661 Y164.325
G1 F2700 X172.574 Y159.412 E690.33564
G0 F9000 X172.574 Y160.119
G1 F2700 X168.368 Y164.325 E690.58294
G0 F9000 X169.075 Y164.325
G1 F2700 X172.574 Y160.826 E690.78867
G0 F9000 X172.574 Y161.533
G1 F2700 X169.782 Y164.325 E690.95283
G0 F9000 X170.489 Y164.325
G1 F2700 X172.574 Y162.240 E691.07542
G0 F9000 X172.574 Y162.947
G1 F2700 X171.196 Y164.325 E691.15644
G0 F9000 X171.904 Y164.325
G1 F2700 X172.574 Y163.654 E691.19586
G1 F2400 E690.59586
G1 Z2.100
G0 F9000 X155.249 Y140.674
G1 Z1.600
G1 F2400 E691.19586
G1 F2700 X132.424 Y163.499 E692.53788
G0 F9000 X132.424 Y162.792
G1 F2700 X154.542 Y140.674 E693.83834
G0 F9000 X153.835 Y140.674
G1 F2700 X132.424 Y162.085 E695.09722
G0 F9000 X132.424 Y161.378
G1 F2700 X153.128 Y140.674 E696.31454
G0 F9000 X152.421 Y140.673
G1 F2700 X132.424 Y160.670 E697.49028
G0 F9000 X132.424 Y159.963
G1 F2700 X151.714 Y140.673 E698.62446
G0 F9000 X151.007 Y140.673
G1 F2700 X132.424 Y159.256 E699.71707
G0 F9000 X132.424 Y158.549
G1 F2700 X150.300 Y140.673 E700.76811
G0 F9000 X149.593 Y140.673
G1 F2700 X132.424 Y157.842 E701.77758
G0 F9000 X132.424 Y157.135
G1 F2700 X148.886 Y140.673 E702.74548
G0 F9000 X148.179 Y140.673
G1 F2700 X132.424 Y156.428 E703.67182
G0 F9000 X132.424 Y155.721
G1 F2700 X147.472 Y140.673 E704.55658
G0 F9000 X146.764 Y140.673
G1 F2700 X132.424 Y155.014 E705.39975
G0 F9000 X132.424 Y154.306
G1 F2700 X146.057 Y140.673 E706.20132
G0 F9000 X145.350 Y140.673
G1 F2700 X132.424 Y153.599 E706.96132
G0 F9000 X132.424 Y152.892
G1 F2700 X144.643 Y140.673 E707.67975
G0 F9000 X143.936 Y140.673
G1 F2700 X132.424 Y152.185 E708.35661
G0 F9000 X132.424 Y151.478
G1 F2700 X143.229 Y140.673 E708.99190
G0 F9000 X142.522 Y140.673
G1 F2700 X132.424 Y150.771 E709.58562
G0 F9000 X132.424 Y150.064
G1 F2700 X141.815 Y140.673 E710.13778
G0 F9000 X141.108 Y140.673
G1 F2700 X132.424 Y149.357 E710.64837
G0 F9000 X132.424 Y148.650
G1 F2700 X140.401 Y140.673 E711.11738
G0 F9000 X139.693 Y140.673
G1 F2700 X132.424 Y147.943 E711.54480
G0 F9000 X132.424 Y147.235
G1 F2700 X138.986 Y140.673 E711.93062
G0 F9000 X138.279 Y140.673
G1 F2700 X132.424 Y146.528 E712.27487
G0 F9000 X132.424 Y145.821
G1 F2700 X137.572 Y140.673 E712.57756
G0 F9000 X136.865 Y140.673
G1 F2700 X132.424 Y145.114 E712.83867
G0 F9000 X132.424 Y144.407
G1 F2700 X136.158 Y140.673 E713.05821
G0 F9000 X135.451 Y140.673
G1 F2700 X132.424 Y143.700 E713.23619
G0 F9000 X132.424 Y142.993
G1 F2700 X134.744 Y140.673 E713.37260
G0 F9000 X134.037 Y140.673
G1 F2700 X132.424 Y142.286 E713.46744
G0 F9000 X132.424 Y141.579
G1 F2700 X133.329 Y140.673 E713.52068
G0 F9000 X132.622 Y140.673
G1 F2700 X132.424 Y140.871 E713.53232
;LAYER:8
M106 S84
G0 F9000 X132.250 Y140.250 Z1.800
;TYPE:WALL-INNER
G1 F2700 X172.750 Y140.250 E715.21611
G1 X172.750 Y164.750 E716.23470
G1 X132.250 Y164.750 E717.91850
G1 X132.250 Y140.250 E718.93709
G0 F9000 X131.750 Y139.750
;TYPE:WALL-OUTER
G1 F2700 X173.250 Y139.750 E720.66246
G1 X173.250 Y165.250 E721.72263
G1 X131.750 Y165.250 E723.44800
G1 X131.750 Y139.750 E724.50816
G0 F9000 X132.424 Y140.822
;TYPE:FILL
G1 F2700 X132.926 Y141.324 E724.53768
G0 F9000 X133.810 Y141.324
G1 F2700 X132.911 Y140.425 E724.59054
G0 F9000 X133.795 Y140.425
G1 F2700 X134.694 Y141.324 E724.64339
G0 F9000 X135.578 Y141.324
G1 F2700 X134.679 Y140.425 E724.69625
G0 F9000 X135.562 Y140.425
G1 F2700 X136.462 Y141.324 E724.74914
G0 F9000 X137.346 Y141.324
G1 F2700 X136.446 Y140.425 E724.80203
G0 F9000 X137.330 Y140.425
G1 F2700 X138.230 Y141.324 E724.85491
G0 F9000 X139.114 Y141.324
G1 F2700 X138.214 Y140.425 E724.90780
G0 F9000 X139.098 Y140.425
G1 F2700 X139.997 Y141.324 E724.96066
G0 F9000 X140.881 Y141.324
G1 F2700 X139.982 Y140.425 E725.01352
G0 F9000 X140.866 Y140.425
G1 F2700 X141.765 Y141.324 E725.06637
G0 F9000 X142.649 Y141.324
G1 F2700 X141.750 Y140.425 E725.11923
G0 F9000 X142.634 Y140.425
G1 F2700 X143.533 Y141.324 E725.17209
G0 F9000 X144.417 Y141.324
G1 F2700 X143.517 Y140.425 E725.22498
G0 F9000 X144.401 Y140.425
G1 F2700 X145.301 Y141.324 E725.27786
G0 F9000 X146.185 Y141.324
G1 F2700 X145.285 Y140.425 E725.33075
G0 F9000 X146.169 Y140.425
G1 F2700 X147.069 Y141.324 E725.38364
G0 F9000 X147.952 Y141.324
G1 F2700 X147.053 Y140.425 E725.43649
G0 F9000 X147.937 Y140.425
G1 F2700 X148.836 Y141.324 E725.48935
G0 F9000 X149.720 Y141.324
G1 F2700 X148.821 Y140.425 E725.54221
G0 F9000 X149.705 Y140.425
G1 F2700 X150.604 Y141.324 E725.59507
G0 F9000 X151.488 Y141.324
G1 F2700 X150.588 Y140.425 E725.64796
G0 F9000 X151.472 Y140.425
G1 F2700 X152.372 Y141.324 E725.70084
G0 F9000 X153.256 Y141.324
G1 F2700 X152.356 Y140.425 E725.75373
G0 F9000 X153.240 Y140.425
G1 F2700 X154.140 Y141.324 E725.80662
G0 F9000 X155.023 Y141.324
G1 F2700 X154.124 Y140.425 E725.85947
G0 F9000 X155.008 Y140.425
G1 F2700 X155.907 Y141.324 E725.91233
G0 F9000 X156.791 Y141.324
G1 F2700 X155.892 Y140.425 E725.96519
G0 F9000 X156.776 Y140.425
G1 F2700 X157.675 Y141.324 E726.01805
G0 F9000 X158.559 Y141.324
G1 F2700 X157.660 Y140.425 E726.07091
G0 F9000 X158.543 Y140.425
G1 F2700 X159.443 Y141.324 E726.12379
G0 F9000 X160.327 Y141.324
G1 F2700 X159.427 Y140.425 E726.17668
G0 F9000 X160.311 Y140.425
G1 F2700 X161.211 Y141.324 E726.22957
G0 F9000 X162.095 Y141.324
G1 F2700 X161.195 Y140.425 E726.28245
G0 F9000 X162.079 Y140.425
G1 F2700 X162.978 Y141.324 E726.33531
G0 F9000 X163.862 Y141.324
G1 F2700 X162.963 Y140.425 E726.38817
G0 F9000 X163.847 Y140.425
G1 F2700 X164.746 Y141.324 E726.44103
G0 F9000 X165.630 Y141.324
G1 F2700 X164.731 Y140.425 E726.49389
G0 F9000 X165.615 Y140.425
G1 F2700 X166.514 Y141.324 E726.54674
G0 F9000 X167.398 Y141.324
G1 F2700 X166.498 Y140.425 E726.59963
G0 F9000 X167.382 Y140.425
G1 F2700 X168.282 Y141.324 E726.65252
G0 F9000 X169.166 Y141.324
G1 F2700 X168.266 Y140.425 E726.70540
G0 F9000 X169.150 Y140.425
G1 F2700 X170.049 Y141.324 E726.75826
G0 F9000 X170.933 Y141.324
G1 F2700 X170.034 Y140.425 E726.81112
G0 F9000 X170.918 Y140.425
G1 F2700 X171.817 Y141.324 E726.86398
G0 F9000 X172.574 Y141.197
G1 F2700 X171.802 Y140.425 E726.90937
G1 F2400 E726.30937
G1 Z2.300
G0 F9000 X172.070 Y163.674
G1 Z1.800
G1 F2400 E726.90937
G1 F2700 X172.574 Y164.178 E726.93900
G0 F9000 X172.087 Y164.574
G1 F2700 X171.187 Y163.674 E726.99192
G0 F9000 X170.303 Y163.674
G1 F2700 X171.203 Y164.574 E727.04483
G0 F9000 X170.319 Y164.574
G1 F2700 X169.419 Y163.674 E727.09775
G0 F9000 X168.535 Y163.674
G1 F2700 X169.435 Y164.574 E727.15067
G0 F9000 X168.551 Y164.574
G1 F2700 X167.651 Y163.674 E727.20358
G0 F9000 X166.767 Y163.674
G1 F2700 X167.667 Y164.574 E727.25650
G0 F9000 X166.783 Y164.574
G1 F2700 X165.883 Y163.674 E727.30942
G0 F9000 X164.999 Y163.674
G1 F2700 X165.899 Y164.574 E727.36233
G0 F9000 X165.016 Y164.574
G1 F2700 X164.115 Y163.674 E727.41528
G0 F9000 X163.232 Y163.674
G1 F2700 X164.132 Y164.574 E727.46820
G0 F9000 X163.248 Y164.574
G1 F2700 X162.348 Y163.674 E727.52111
G0 F9000 X161.464 Y163.674
G1 F2700 X162.364 Y164.574 E727.57403
G0 F9000 X161.480 Y164.574
G1 F2700 X160.580 Y163.674 E727.62695
G0 F9000 X159.696 Y163.674
G1 F2700 X160.596 Y164.574 E727.67986
G0 F9000 X159.712 Y164.574
G1 F2700 X158.812 Y163.674 E727.73278
G0 F9000 X157.928 Y163.674
G1 F2700 X158.828 Y164.574 E727.78570
G0 F9000 X157.945 Y164.574
G1 F2700 X157.044 Y163.674 E727.83864
G0 F9000 X156.160 Y163.674
G1 F2700 X157.061 Y164.574 E727.89159
G0 F9000 X156.177 Y164.574
G1 F2700 X155.277 Y163.674 E727.94450
G0 F9000 X154.393 Y163.674
G1 F2700 X155.293 Y164.574 E727.99742
G0 F9000 X154.409 Y164.574
G1 F2700 X153.509 Y163.674 E728.05034
G0 F9000 X152.625 Y163.674
G1 F2700 X153.525 Y164.574 E728.10325
G0 F9000 X152.641 Y164.574
G1 F2700 X151.741 Y163.674 E728.15617
G0 F9000 X150.857 Y163.674
G1 F2700 X151.757 Y164.574 E728.20909
G0 F9000 X150.873 Y164.574
G1 F2700 X149.973 Y163.674 E728.26200
G0 F9000 X149.089 Y163.674
G1 F2700 X149.989 Y164.574 E728.31492
G0 F9000 X149.105 Y164.574
G1 F2700 X148.206 Y163.674 E728.36781
G0 F9000 X147.322 Y163.674
G1 F2700 X148.221 Y164.574 E728.42069
G0 F9000 X147.337 Y164.574
G1 F2700 X146.438 Y163.674 E728.47358
G0 F9000 X145.554 Y163.674
G1 F2700 X146.453 Y164.574 E728.52647
G0 F9000 X145.569 Y164.574
G1 F2700 X144.670 Y163.674 E728.57936
G0 F9000 X143.786 Y163.674
G1 F2700 X144.686 Y164.574 E728.63227
G0 F9000 X143.802 Y164.574
G1 F2700 X142.902 Y163.674 E728.68519
G0 F9000 X142.018 Y163.674
G1 F2700 X142.918 Y164.574 E728.73811
G0 F9000 X142.034 Y164.574
G1 F2700 X141.134 Y163.674 E728.79102
G0 F9000 X140.251 Y163.674
G1 F2700 X141.150 Y164.574 E728.84391
G0 F9000 X140.266 Y164.574
G1 F2700 X139.367 Y163.674 E728.89680
G0 F9000 X138.483 Y163.674
G1 F2700 X139.382 Y164.574 E728.94968
G0 F9000 X138.498 Y164.574
G1 F2700 X137.599 Y163.674 E729.00257
G0 F9000 X136.715 Y163.674
G1 F2700 X137.615 Y164.574 E729.05549
G0 F9000 X136.731 Y164.574
G1 F2700 X135.831 Y163.674 E729.10840
G0 F9000 X134.947 Y163.674
G1 F2700 X135.847 Y164.574 E729.16132
G0 F9000 X134.963 Y164.574
G1 F2700 X134.063 Y163.674 E729.21424
G0 F9000 X133.180 Y163.674
G1 F2700 X134.079 Y164.574 E729.26712
G0 F9000 X133.195 Y164.574
G1 F2700 X132.424 Y163.803 E729.31246
G0 F9000 X132.424 Y163.891
;TYPE:SKIN
G1 F2700 X132.857 Y164.323 E729.33789
G0 F9000 X133.564 Y164.323
G1 F2700 X132.424 Y163.183 E729.40491
G0 F9000 X132.424 Y162.476
G1 F2700 X134.271 Y164.323 E729.51351
G0 F9000 X134.978 Y164.323
G1 F2700 X132.424 Y161.769 E729.66368
G0 F9000 X132.424 Y161.062
G1 F2700 X135.686 Y164.323 E729.85544
G0 F9000 X136.393 Y164.323
G1 F2700 X132.424 Y160.355 E730.08877
G0 F9000 X132.424 Y159.648
G1 F2700 X137.100 Y164.323 E730.36367
G0 F9000 X137.807 Y164.323
G1 F2700 X132.424 Y158.941 E730.68014
G0 F9000 X132.424 Y158.234
G1 F2700 X138.514 Y164.323 E731.03818
G0 F9000 X139.221 Y164.323
G1 F2700 X132.424 Y157.527 E731.43779
G0 F9000 X132.424 Y156.820
G1 F2700 X139.928 Y164.323 E731.87897
G0 F9000 X140.635 Y164.323
G1 F2700 X132.424 Y156.112 E732.36174
G0 F9000 X132.424 Y155.405
G1 F2700 X141.342 Y164.323 E732.88609
G0 F9000 X142.049 Y164.323
G1 F2700 X132.424 Y154.698 E733.45200
G0 F9000 X132.424 Y153.991
G1 F2700 X142.757 Y164.323 E734.05951
G0 F9000 X143.464 Y164.323
G1 F2700 X132.424 Y153.284 E734.70859
G0 F9000 X132.424 Y152.577
G1 F2700 X144.171 Y164.323 E735.39924
G0 F9000 X144.878 Y164.323
G1 F2700 X132.424 Y151.870 E736.13146
G0 F9000 X132.424 Y151.163
G1 F2700 X145.585 Y164.323 E736.90525
G0 F9000 X146.292 Y164.323
G1 F2700 X132.424 Y150.456 E737.72060
G0 F9000 X132.424 Y149.748
G1 F2700 X146.999 Y164.323 E738.57756
G0 F9000 X147.706 Y164.323
G1 F2700 X132.424 Y149.041 E739.47608
G0 F9000 X132.424 Y148.334
G1 F2700 X148.413 Y164.323 E740.41617
G0 F9000 X149.121 Y164.323
G1 F2700 X132.424 Y147.627 E741.39786
G0 F9000 X132.424 Y146.920
G1 F2700 X149.828 Y164.323 E742.42112
G0 F9000 X150.535 Y164.323
G1 F2700 X132.424 Y146.213 E743.48595
G0 F9000 X132.424 Y145.506
G1 F2700 X151.242 Y164.323 E744.59235
G0 F9000 X151.949 Y164.323
G1 F2700 X132.424 Y144.799 E745.74031
G0 F9000 X132.424 Y144.092
G1 F2700 X152.657 Y164.324 E746.92990
G0 F9000 X153.364 Y164.324
G1 F2700 X132.424 Y143.384 E748.16110
G0 F9000 X132.424 Y142.677
G1 F2700 X154.071 Y164.324 E749.43386
G0 F9000 X154.778 Y164.324
G1 F2700 X132.424 Y141.970 E750.74819
G0 F9000 X132.424 Y141.263
G1 F2700 X155.485 Y164.324 E752.10408
G0 F9000 X156.192 Y164.324
G1 F2700 X132.542 Y140.674 E753.49461
G0 F9000 X133.250 Y140.674
G1 F2700 X156.899 Y164.324 E754.88511
G0 F9000 X157.607 Y164.324
G1 F2700 X133.957 Y140.674 E756.27564
G0 F9000 X134.664 Y140.674
G1 F2700 X158.314 Y164.324 E757.66617
G0 F9000 X159.021 Y164.324
G1 F2700 X135.371 Y140.674 E759.05670
G0 F9000 X136.078 Y140.674
G1 F2700 X159.728 Y164.324 E760.44723
G0 F9000 X160.435 Y164.324
G1 F2700 X136.785 Y140.674 E761.83776
G0 F9000 X137.492 Y140.674
G1 F2700 X161.142 Y164.324 E763.22829
G0 F9000 X161.849 Y164.324
G1 F2700 X138.199 Y140.674 E764.61882
G0 F9000 X138.906 Y140.674
G1 F2700 X162.556 Y164.324 E766.00935
G0 F9000 X163.263 Y164.324
G1 F2700 X139.613 Y140.674 E767.39988
G0 F9000 X140.321 Y140.674
G1 F2700 X163.970 Y164.324 E768.79038
G0 F9000 X164.678 Y164.324
G1 F2700 X141.028 Y140.674 E770.18091
G0 F9000 X141.735 Y140.674
G1 F2700 X165.385 Y164.324 E771.57144
G0 F9000 X166.092 Y164.324
G1 F2700 X142.442 Y140.674 E772.96197
G0 F9000 X143.149 Y140.674
G1 F2700 X166.799 Y164.324 E774.35250
G0 F9000 X167.506 Y164.324
G1 F2700 X143.856 Y140.674 E775.74303
G0 F9000 X144.563 Y140.674
G1 F2700 X168.213 Y164.324 E777.13355
G0 F9000 X168.920 Y164.324
G1 F2700 X145.270 Y140.674 E778.52408
G0 F9000 X145.977 Y140.674
G1 F2700 X169.627 Y164.324 E779.91461
G0 F9000 X170.334 Y164.324
G1 F2700 X146.685 Y140.674 E781.30511
G0 F9000 X147.392 Y140.674
G1 F2700 X171.042 Y164.324 E782.69564
G0 F9000 X171.749 Y164.324
G1 F2700 X148.099 Y140.674 E784.08617
G0 F9000 X148.806 Y140.674
G1 F2700 X172.456 Y164.324 E785.47670
G0 F9000 X172.574 Y163.735
G1 F2700 X149.513 Y140.674 E786.83260
G0 F9000 X150.220 Y140.674
G1 F2700 X172.574 Y163.028 E788.14693
G0 F9000 X172.574 Y162.321
G1 F2700 X150.927 Y140.674 E789.41969
G0 F9000 X151.634 Y140.674
G1 F2700 X172.574 Y161.614 E790.65088
G0 F9000 X172.574 Y160.907
G1 F2700 X152.341 Y140.674 E791.84050
G0 F9000 X153.049 Y140.675
G1 F2700 X172.574 Y160.199 E792.98847
G0 F9000 X172.574 Y159.492
G1 F2700 X153.756 Y140.675 E794.09487
G0 F9000 X154.463 Y140.675
G1 F2700 X172.574 Y158.785 E795.15970
G0 F9000 X172.574 Y158.078
G1 F2700 X155.171 Y140.675 E796.18293
G0 F9000 X155.878 Y140.675
G1 F2700 X172.574 Y157.371 E797.16459
G0 F9000 X172.574 Y156.664
G1 F2700 X156.585 Y140.675 E798.10468
G0 F9000 X157.292 Y140.675
G1 F2700 X172.574 Y155.957 E799.00320
G0 F9000 X172.574 Y155.250
G1 F2700 X157.999 Y140.675 E799.86015
G0 F9000 X158.706 Y140.675
G1 F2700 X172.574 Y154.543 E800.67554
G0 F9000 X172.574 Y153.836
G1 F2700 X159.413 Y140.675 E801.44936
G0 F9000 X160.120 Y140.675
G1 F2700 X172.574 Y153.128 E802.18157
G0 F9000 X172.574 Y152.421
G1 F2700 X160.827 Y140.675 E802.87222
G0 F9000 X161.535 Y140.675
G1 F2700 X172.574 Y151.714 E803.52127
G0 F9000 X172.574 Y151.007
G1 F2700 X162.242 Y140.675 E804.12876
G0 F9000 X162.949 Y140.675
G1 F2700 X172.574 Y150.300 E804.69467
G0 F9000 X172.574 Y149.593
G1 F2700 X163.656 Y140.675 E805.21901
G0 F9000 X164.363 Y140.675
G1 F2700 X172.574 Y148.886 E805.70179
G0 F9000 X172.574 Y148.179
G1 F2700 X165.070 Y140.675 E806.14300
G0 F9000 X165.777 Y140.675
G1 F2700 X172.574 Y147.472 E806.54263
G0 F9000 X172.574 Y146.764
G1 F2700 X166.484 Y140.675 E806.90067
G0 F9000 X167.191 Y140.675
G1 F2700 X172.574 Y146.057 E807.21714
G0 F9000 X172.574 Y145.350
G1 F2700 X167.898 Y140.675 E807.49204
G0 F9000 X168.606 Y140.675
G1 F2700 X172.574 Y144.643 E807.72535
G0 F9000 X172.574 Y143.936
G1 F2700 X169.313 Y140.675 E807.91708
G0 F9000 X170.020 Y140.675
G1 F2700 X172.574 Y143.229 E808.06725
G0 F9000 X172.574 Y142.522
G1 F2700 X170.727 Y140.675 E808.17584
G0 F9000 X171.434 Y140.675
G1 F2700 X172.574 Y141.815 E808.24287
G0 F9000 X172.574 Y141.108
G1 F2700 X172.141 Y140.675 E808.26833
;LAYER:9
M106 S94
G0 F9000 X172.750 Y140.250 Z2.000
;TYPE:WALL-INNER
G1 F2700 X172.750 Y164.750 E809.28692
G1 X132.250 Y164.750 E810.97072
G1 X132.250 Y140.250 E811.98931
G1 X172.750 Y140.250 E813.67310
G0 F9000 X173.250 Y139.750
;TYPE:WALL-OUTER
G1 F2700 X173.250 Y165.250 E814.73327
G1 X131.750 Y165.250 E816.45864
G1 X131.750 Y139.750 E817.51881
G1 X173.250 Y139.750 E819.24417
G0 F9000 X172.574 Y140.763
;TYPE:FILL
G1 F2700 X172.012 Y141.324 E819.27719
G0 F9000 X171.129 Y141.324
G1 F2700 X172.029 Y140.424 E819.33011
G0 F9000 X171.145 Y140.424
G1 F2700 X170.245 Y141.324 E819.38302
G0 F9000 X169.361 Y141.324
G1 F2700 X170.261 Y140.424 E819.43594
G0 F9000 X169.377 Y140.424
G1 F2700 X168.477 Y141.324 E819.48886
G0 F9000 X167.593 Y141.324
G1 F2700 X168.493 Y140.424 E819.54177
G0 F9000 X167.609 Y140.424
G1 F2700 X166.709 Y141.324 E819.59469
G0 F9000 X165.825 Y141.324
G1 F2700 X166.725 Y140.424 E819.64760
G0 F9000 X165.841 Y140.424
G1 F2700 X164.941 Y141.324 E819.70052
G0 F9000 X164.057 Y141.324
G1 F2700 X164.958 Y140.424 E819.75347
G0 F9000 X164.074 Y140.424
G1 F2700 X163.174 Y141.324 E819.80638
G0 F9000 X162.290 Y141.324
G1 F2700 X163.190 Y140.424 E819.85930
G0 F9000 X162.306 Y140.424
G1 F2700 X161.406 Y141.324 E819.91222
G0 F9000 X160.522 Y141.324
G1 F2700 X161.422 Y140.424 E819.96513
G0 F9000 X160.538 Y140.424
G1 F2700 X159.638 Y141.324 E820.01805
G0 F9000 X158.754 Y141.324
G1 F2700 X159.654 Y140.424 E820.07097
G0 F9000 X158.770 Y140.424
G1 F2700 X157.870 Y141.324 E820.12388
G0 F9000 X156.986 Y141.324
G1 F2700 X157.887 Y140.424 E820.17683
G0 F9000 X157.003 Y140.424
G1 F2700 X156.103 Y141.324 E820.22975
G0 F9000 X155.219 Y141.324
G1 F2700 X156.119 Y140.424 E820.28266
G0 F9000 X155.235 Y140.424
G1 F2700 X154.335 Y141.324 E820.33558
G0 F9000 X153.451 Y141.324
G1 F2700 X154.351 Y140.424 E820.38850
G0 F9000 X153.467 Y140.424
G1 F2700 X152.567 Y141.324 E820.44141
G0 F9000 X151.683 Y141.324
G1 F2700 X152.583 Y140.424 E820.49433
G0 F9000 X151.699 Y140.424
G1 F2700 X150.799 Y141.324 E820.54724
G0 F9000 X149.915 Y141.324
G1 F2700 X150.815 Y140.424 E820.60016
G0 F9000 X149.932 Y140.424
G1 F2700 X149.031 Y141.324 E820.65311
G0 F9000 X148.148 Y141.324
G1 F2700 X149.048 Y140.424 E820.70602
G0 F9000 X148.164 Y140.424
G1 F2700 X147.264 Y141.324 E820.75894
G0 F9000 X146.380 Y141.324
G1 F2700 X147.280 Y140.424 E820.81186
G0 F9000 X146.396 Y140.424
G1 F2700 X145.496 Y141.324 E820.86477
G0 F9000 X144.612 Y141.324
G1 F2700 X145.512 Y140.424 E820.91769
G0 F9000 X144.628 Y140.424
G1 F2700 X143.728 Y141.324 E820.97061
G0 F9000 X142.844 Y141.324
G1 F2700 X143.744 Y140.424 E821.02352
G0 F9000 X142.861 Y140.424
G1 F2700 X141.960 Y141.324 E821.07647
G0 F9000 X141.076 Y141.324
G1 F2700 X141.977 Y140.424 E821.12942
G0 F9000 X141.093 Y140.424
G1 F2700 X140.193 Y141.324 E821.18233
G0 F9000 X139.309 Y141.324
G1 F2700 X140.209 Y140.424 E821.23525
G0 F9000 X139.325 Y140.424
G1 F2700 X138.425 Y141.324 E821.28816
G0 F9000 X137.541 Y141.324
G1 F2700 X138.441 Y140.424 E821.34108
G0 F9000 X137.557 Y140.424
G1 F2700 X136.657 Y141.324 E821.39400
G0 F9000 X135.773 Y141.324
G1 F2700 X136.673 Y140.424 E821.44691
G0 F9000 X135.789 Y140.424
G1 F2700 X134.889 Y141.324 E821.49983
G0 F9000 X134.005 Y141.324
G1 F2700 X134.906 Y140.424 E821.55278
G0 F9000 X134.022 Y140.424
G1 F2700 X133.122 Y141.324 E821.60569
G0 F9000 X132.425 Y141.137
G1 F2700 X133.138 Y140.424 E821.64762
G1 F2400 E821.04762
G1 Z2.500
G0 F9000 X132.868 Y163.674
G1 Z2.000
G1 F2400 E821.64762
G1 F2700 X132.424 Y164.118 E821.67372
G0 F9000 X132.852 Y164.574
G1 F2700 X133.752 Y163.674 E821.72664
G0 F9000 X134.636 Y163.674
G1 F2700 X133.736 Y164.574 E821.77955
G0 F9000 X134.620 Y164.574
G1 F2700 X135.520 Y163.674 E821.83247
G0 F9000 X136.404 Y163.674
G1 F2700 X135.504 Y164.574 E821.88539
G0 F9000 X136.388 Y164.574
G1 F2700 X137.288 Y163.674 E821.93830
G0 F9000 X138.172 Y163.674
G1 F2700 X137.272 Y164.574 E821.99122
G0 F9000 X138.155 Y164.574
G1 F2700 X139.056 Y163.674 E822.04417
G0 F9000 X139.939 Y163.674
G1 F2700 X139.039 Y164.574 E822.09708
G0 F9000 X139.923 Y164.574
G1 F2700 X140.823 Y163.674 E822.15000
G0 F9000 X141.707 Y163.674
G1 F2700 X140.807 Y164.574 E822.20292
G0 F9000 X141.691 Y164.574
G1 F2700 X142.591 Y163.674 E822.25583
G0 F9000 X143.475 Y163.674
G1 F2700 X142.575 Y164.574 E822.30875
G0 F9000 X143.459 Y164.574
G1 F2700 X144.359 Y163.674 E822.36167
G0 F9000 X145.243 Y163.674
G1 F2700 X144.343 Y164.574 E822.41458
G0 F9000 X145.227 Y164.574
G1 F2700 X146.127 Y163.674 E822.46750
G0 F9000 X147.011 Y163.674
G1 F2700 X146.110 Y164.574 E822.52044
G0 F9000 X146.994 Y164.574
G1 F2700 X147.894 Y163.674 E822.57336
G0 F9000 X148.778 Y163.674
G1 F2700 X147.878 Y164.574 E822.62628
G0 F9000 X148.762 Y164.574
G1 F2700 X149.662 Y163.674 E822.67919
G0 F9000 X150.546 Y163.674
G1 F2700 X149.646 Y164.574 E822.73211
G0 F9000 X150.530 Y164.574
G1 F2700 X151.430 Y163.674 E822.78503
G0 F9000 X152.314 Y163.674
G1 F2700 X151.414 Y164.574 E822.83794
G0 F9000 X152.298 Y164.574
G1 F2700 X153.198 Y163.674 E822.89086
G0 F9000 X154.082 Y163.674
G1 F2700 X153.181 Y164.575 E822.94384
G0 F9000 X154.065 Y164.575
G1 F2700 X154.965 Y163.674 E822.99678
G0 F9000 X155.849 Y163.674
G1 F2700 X154.949 Y164.575 E823.04973
G0 F9000 X155.832 Y164.575
G1 F2700 X156.733 Y163.674 E823.10270
G0 F9000 X157.617 Y163.674
G1 F2700 X156.716 Y164.575 E823.15568
G0 F9000 X157.600 Y164.575
G1 F2700 X158.501 Y163.674 E823.20865
G0 F9000 X159.385 Y163.674
G1 F2700 X158.484 Y164.575 E823.26163
G0 F9000 X159.368 Y164.575
G1 F2700 X160.269 Y163.674 E823.31460
G0 F9000 X161.153 Y163.674
G1 F2700 X160.252 Y164.575 E823.36758
G0 F9000 X161.136 Y164.575
G1 F2700 X162.037 Y163.674 E823.42055
G0 F9000 X162.920 Y163.674
G1 F2700 X162.020 Y164.575 E823.47350
G0 F9000 X162.903 Y164.575
G1 F2700 X163.804 Y163.674 E823.52648
G0 F9000 X164.688 Y163.674
G1 F2700 X163.787 Y164.575 E823.57945
G0 F9000 X164.671 Y164.575
G1 F2700 X165.572 Y163.674 E823.63243
G0 F9000 X166.456 Y163.674
G1 F2700 X165.555 Y164.575 E823.68540
G0 F9000 X166.439 Y164.575
G1 F2700 X167.340 Y163.674 E823.73838
G0 F9000 X168.224 Y163.674
G1 F2700 X167.323 Y164.575 E823.79135
G0 F9000 X168.207 Y164.575
G1 F2700 X169.108 Y163.674 E823.84433
G0 F9000 X169.992 Y163.674
G1 F2700 X169.091 Y164.575 E823.89730
G0 F9000 X169.975 Y164.575
G1 F2700 X170.875 Y163.674 E823.95025
G0 F9000 X171.759 Y163.674
G1 F2700 X170.858 Y164.575 E824.00323
G0 F9000 X171.742 Y164.575
G1 F2700 X172.574 Y163.744 E824.05211
G0 F9000 X172.574 Y163.654
;TYPE:SKIN
G1 F2700 X171.904 Y164.325 E824.09154
G0 F9000 X171.196 Y164.325
G1 F2700 X172.574 Y162.947 E824.17256
G0 F9000 X172.574 Y162.240
G1 F2700 X170.489 Y164.325 E824.29515
G0 F9000 X169.782 Y164.325
G1 F2700 X172.574 Y161.533 E824.45931
G0 F9000 X172.574 Y160.826
G1 F2700 X169.075 Y164.325 E824.66503
G0 F9000 X168.368 Y164.325
G1 F2700 X172.574 Y160.119 E824.91233
G0 F9000 X172.574 Y159.412
G1 F2700 X167.661 Y164.325 E825.20120
G0 F9000 X166.954 Y164.325
G1 F2700 X172.574 Y158.705 E825.53163
G0 F9000 X172.574 Y157.998
G1 F2700 X166.247 Y164.325 E825.90363
G0 F9000 X165.540 Y164.325
G1 F2700 X172.574 Y157.290 E826.31724
G0 F9000 X172.574 Y156.583
G1 F2700 X164.832 Y164.325 E826.77244
G0 F9000 X164.125 Y164.325
G1 F2700 X172.574 Y155.876 E827.26921
G0 F9000 X172.574 Y155.169
G1 F2700 X163.418 Y164.325 E827.80754
G0 F9000 X162.711 Y164.325
G1 F2700 X172.574 Y154.462 E828.38745
G0 F9000 X172.574 Y153.755
G1 F2700 X162.004 Y164.325 E829.00892
G0 F9000 X161.297 Y164.325
G1 F2700 X172.574 Y153.048 E829.67197
G0 F9000 X172.574 Y152.341
G1 F2700 X160.590 Y164.325 E830.37658
G0 F9000 X159.883 Y164.325
G1 F2700 X172.574 Y151.634 E831.12276
G0 F9000 X172.574 Y150.926
G1 F2700 X159.176 Y164.325 E831.91055
G0 F9000 X158.468 Y164.325
G1 F2700 X172.574 Y150.219 E832.73992
G0 F9000 X172.574 Y149.512
G1 F2700 X157.761 Y164.325 E833.61087
G0 F9000 X157.054 Y164.325
G1 F2700 X172.574 Y148.805 E834.52339
G0 F9000 X172.574 Y148.098
G1 F2700 X156.347 Y164.325 E835.47747
G0 F9000 X155.640 Y164.325
G1 F2700 X172.574 Y147.391 E836.47313
G0 F9000 X172.574 Y146.684
G1 F2700 X154.933 Y164.325 E837.51035
G0 F9000 X154.226 Y164.325
G1 F2700 X172.574 Y145.977 E838.58914
G0 F9000 X172.574 Y145.270
G1 F2700 X153.519 Y164.325 E839.70950
G0 F9000 X152.812 Y164.325
G1 F2700 X172.574 Y144.563 E840.87143
G0 F9000 X172.574 Y143.855
G1 F2700 X152.105 Y164.324 E842.07493
G0 F9000 X151.398 Y164.324
G1 F2700 X172.574 Y143.148 E843.32000
G0 F9000 X172.574 Y142.441
G1 F2700 X150.691 Y164.324 E844.60664
G0 F9000 X149.984 Y164.324
G1 F2700 X172.574 Y141.734 E845.93484
G0 F9000 X172.574 Y141.027
G1 F2700 X149.277 Y164.324 E847.30462
G0 F9000 X148.570 Y164.324
G1 F2700 X172.220 Y140.674 E848.69515
G0 F9000 X171.512 Y140.674
G1 F2700 X147.863 Y164.324 E850.08565
G0 F9000 X147.155 Y164.324
G1 F2700 X170.805 Y140.674 E851.47618
G0 F9000 X170.098 Y140.674
G1 F2700 X146.448 Y164.324 E852.86670
G0 F9000 X145.741 Y164.324
G1 F2700 X169.391 Y140.674 E854.25723
G0 F9000 X168.684 Y140.674
G1 F2700 X145.034 Y164.324 E855.64776
G0 F9000 X144.327 Y164.324
G1 F2700 X167.977 Y140.674 E857.03829
G0 F9000 X167.270 Y140.674
G1 F2700 X143.620 Y164.324 E858.42882
G0 F9000 X142.913 Y164.324
G1 F2700 X166.563 Y140.674 E859.81935
G0 F9000 X165.856 Y140.674
G1 F2700 X142.206 Y164.324 E861.20988
G0 F9000 X141.499 Y164.324
G1 F2700 X165.149 Y140.674 E862.60041
G0 F9000 X164.441 Y140.674
G1 F2700 X140.792 Y164.324 E863.99091
G0 F9000 X140.084 Y164.324
G1 F2700 X163.734 Y140.674 E865.38144
G0 F9000 X163.027 Y140.674
G1 F2700 X139.377 Y164.324 E866.77197
G0 F9000 X138.670 Y164.324
G1 F2700 X162.320 Y140.674 E868.16250
G0 F9000 X161.613 Y140.674
G1 F2700 X137.963 Y164.324 E869.55303
G0 F9000 X137.256 Y164.324
G1 F2700 X160.906 Y140.674 E870.94356
G0 F9000 X160.199 Y140.674
G1 F2700 X136.549 Y164.324 E872.33409
G0 F9000 X135.842 Y164.324
G1 F2700 X159.492 Y140.674 E873.72462
G0 F9000 X158.785 Y140.674
G1 F2700 X135.135 Y164.324 E875.11515
G0 F9000 X134.428 Y164.324
G1 F2700 X158.077 Y140.674 E876.50565
G0 F9000 X157.370 Y140.674
G1 F2700 X133.720 Y164.324 E877.89617
G0 F9000 X133.013 Y164.324
G1 F2700 X156.663 Y140.674 E879.28670
G0 F9000 X155.956 Y140.674
G1 F2700 X132.424 Y164.206 E880.67030
G0 F9000 X132.424 Y163.499
G1 F2700 X155.249 Y140.674 E882.01232
G0 F9000 X154.542 Y140.674
G1 F2700 X132.424 Y162.792 E883.31277
G0 F9000 X132.424 Y162.085
G1 F2700 X153.835 Y140.674 E884.57166
G0 F9000 X153.128 Y140.674
G1 F2700 X132.424 Y161.378 E885.78897
G0 F9000 X132.424 Y160.670
G1 F2700 X152.421 Y140.673 E886.96472
G0 F9000 X151.714 Y140.673
G1 F2700 X132.424 Y159.963 E888.09890
G0 F9000 X132.424 Y159.256
G1 F2700 X151.007 Y140.673 E889.19151
G0 F9000 X150.300 Y140.673
G1 F2700 X132.424 Y158.549 E890.24255
G0 F9000 X132.424 Y157.842
G1 F2700 X149.593 Y140.673 E891.25202
G0 F9000 X148.886 Y140.673
G1 F2700 X132.424 Y157.135 E892.21992
G0 F9000 X132.424 Y156.428
G1 F2700 X148.179 Y140.673 E893.14625
G0 F9000 X147.472 Y140.673
G1 F2700 X132.424 Y155.721 E894.03102
G0 F9000 X132.424 Y155.014
G1 F2700 X146.764 Y140.673 E894.87419
G0 F9000 X146.057 Y140.673
G1 F2700 X132.424 Y154.306 E895.67575
G0 F9000 X132.424 Y153.599
G1 F2700 X145.350 Y140.673 E896.43575
G0 F9000 X144.643 Y140.673
G1 F2700 X132.424 Y152.892 E897.15418
G0 F9000 X132.424 Y152.185
G1 F2700 X143.936 Y140.673 E897.83104
G0 F9000 X143.229 Y140.673
G1 F2700 X132.424 Y151.478 E898.46634
G0 F9000 X132.424 Y150.771
G1 F2700 X142.522 Y140.673 E899.06006
G0 F9000 X141.815 Y140.673
G1 F2700 X132.424 Y150.064 E899.61222
G0 F9000 X132.424 Y149.357
G1 F2700 X141.108 Y140.673 E900.12280
G0 F9000 X140.401 Y140.673
G1 F2700 X132.424 Y148.650 E900.59182
G0 F9000 X132.424 Y147.943
G1 F2700 X139.693 Y140.673 E901.01924
G0 F9000 X138.986 Y140.673
G1 F2700 X132.424 Y147.235 E901.40506
G0 F9000 X132.424 Y146.528
G1 F2700 X138.279 Y140.673 E901.74931
G0 F9000 X137.572 Y140.673
G1 F2700 X132.424 Y145.821 E902.05199
G0 F9000 X132.424 Y145.114
G1 F2700 X136.865 Y140.673 E902.31311
G0 F9000 X136.158 Y140.673
G1 F2700 X132.424 Y144.407 E902.53265
G0 F9000 X132.424 Y143.700
G1 F2700 X135.451 Y140.673 E902.71063
G0 F9000 X134.744 Y140.673
G1 F2700 X132.424 Y142.993 E902.84703
G0 F9000 X132.424 Y142.286
G1 F2700 X134.037 Y140.673 E902.94187
G0 F9000 X133.329 Y140.673
G1 F2700 X132.424 Y141.579 E902.99511
G0 F9000 X132.424 Y140.871
G1 F2700 X132.622 Y140.673 E903.00675
;LAYER:10
M106 S104
G0 F9000 X132.250 Y140.750 Z2.200
;TYPE:WALL-INNER
G1 F2520 X132.250 Y140.250 E903.02754
G1 X172.750 Y140.250 E904.71134
G1 X172.750 Y140.750 E904.73212
G1 X132.250 Y140.750 E906.41592
G0 F9000 X131.750 Y141.250
;TYPE:WALL-OUTER
G1 F2520 X131.750 Y139.750 E906.47828
G1 X173.250 Y139.750 E908.20365
G1 X173.250 Y141.250 E908.26601
G1 X131.750 Y141.250 E909.99138
G1 F2400 E909.39138
G1 Z2.700
G0 F9000 X132.250 Y164.250
;TYPE:WALL-INNER
G1 Z2.200
G1 F2400 E909.99138
G1 F2520 X172.750 Y164.250 E911.67518
G1 X172.750 Y164.750 E911.69596
G1 X132.250 Y164.750 E913.37976
G1 X132.250 Y164.250 E913.40055
G0 F9000 X131.750 Y163.750
;TYPE:WALL-OUTER
G1 F2520 X173.250 Y163.750 E915.12592
G1 X173.250 Y165.250 E915.18828
G1 X131.750 Y165.250 E916.91365
G1 X131.750 Y163.750 E916.97601
;LAYER:11
M106 S114
G1 F2400 E916.37601
G1 Z2.700
G0 F9000 X132.250 Y140.750 Z2.400
;TYPE:WALL-INNER
G1 Z2.400
G1 F2400 E916.97601
G1 F2580 X132.250 Y140.250 E916.99680
G1 X172.750 Y140.250 E918.68059
G1 X172.750 Y140.750 E918.70138
G1 X132.250 Y140.750 E920.38517
G0 F9000 X131.750 Y141.250
;TYPE:WALL-OUTER
G1 F2580 X131.750 Y139.750 E920.44754
G1 X173.250 Y139.750 E922.17291
G1 X173.250 Y141.250 E922.23527
G1 X131.750 Y141.250 E923.96064
G1 F2400 E923.36064
G1 Z2.900
G0 F9000 X132.250 Y164.250
;TYPE:WALL-INNER
G1 Z2.400
G1 F2400 E923.96064
G1 F2580 X172.750 Y164.250 E925.64443
G1 X172.750 Y164.750 E925.66522
G1 X132.250 Y164.750 E927.34901
G1 X132.250 Y164.250 E927.36980
G0 F9000 X131.750 Y163.750
;TYPE:WALL-OUTER
G1 F2580 X173.250 Y163.750 E929.09517
G1 X173.250 Y165.250 E929.15753
G1 X131.750 Y165.250 E930.88290
G1 X131.750 Y163.750 E930.94527
;LAYER:12
M106 S127
G1 F2400 E930.34527
G1 Z2.900
G0 F9000 X132.250 Y140.750 Z2.600
;TYPE:WALL-INNER
G1 Z2.600
G1 F2400 E930.94527
G1 F2580 X132.250 Y140.250 E930.96605
G1 X172.750 Y140.250 E932.64985
G1 X172.750 Y140.750 E932.67064
G1 X132.250 Y140.750 E934.35443
G0 F9000 X131.750 Y141.250
;TYPE:WALL-OUTER
G1 F2580 X131.750 Y139.750 E934.41679
G1 X173.250 Y139.750 E936.14216
G1 X173.250 Y141.250 E936.20453
G1 X131.750 Y141.250 E937.92990
G1 F2400 E937.32990
G1 Z3.100
G0 F9000 X132.250 Y164.250
;TYPE:WALL-INNER
G1 Z2.600
G1 F2400 E937.92990
G1 F2580 X172.750 Y164.250 E939.61369
G1 X172.750 Y164.750 E939.63448
G1 X132.250 Y164.750 E941.31827
G1 X132.250 Y164.250 E941.33906
G0 F9000 X131.750 Y163.750
;TYPE:WALL-OUTER
G1 F2580 X173.250 Y163.750 E943.06443
G1 X173.250 Y165.250 E943.12679
G1 X131.750 Y165.250 E944.85216
G1 X131.750 Y163.750 E944.91452
;LAYER:13
M106 S137
G1 F2400 E944.31452
G1 Z3.100
G0 F9000 X132.250 Y140.750 Z2.800
;TYPE:WALL-INNER
G1 Z2.800
G1 F2400 E944.91452
G1 F2580 X132.250 Y140.250 E944.93531
G1 X172.750 Y140.250 E946.61911
G1 X172.750 Y140.750 E946.63989
G1 X132.250 Y140.750 E948.32369
G0 F9000 X131.750 Y141.250
;TYPE:WALL-OUTER
G1 F2580 X131.750 Y139.750 E948.38605
G1 X173.250 Y139.750 E950.11142
G1 X173.250 Y141.250 E950.17378
G1 X131.750 Y141.250 E951.89915
G1 F2400 E951.29915
G1 Z3.300
G0 F9000 X132.250 Y164.250
;TYPE:WALL-INNER
G1 Z2.800
G1 F2400 E951.89915
G1 F2580 X172.750 Y164.250 E953.58295
G1 X172.750 Y164.750 E953.60373
G1 X132.250 Y164.750 E955.28753
G1 X132.250 Y164.250 E955.30832
G0 F9000 X131.750 Y163.750
;TYPE:WALL-OUTER
G1 F2580 X173.250 Y163.750 E957.03369
G1 X173.250 Y165.250 E957.09605
G1 X131.750 Y165.250 E958.82142
G1 X131.750 Y163.750 E958.88378
;LAYER:14
M106 S147
G1 F2400 E958.28378
G1 Z3.300
G0 F9000 X132.250 Y140.750 Z3.000
;TYPE:WALL-INNER
G1 Z3.000
G1 F2400 E958.88378
G1 F2580 X132.250 Y140.250 E958.90457
G1 X172.750 Y140.250 E960.58836
G1 X172.750 Y140.750 E960.60915
G1 X132.250 Y140.750 E962.29294
G0 F9000 X131.750 Y141.250
;TYPE:WALL-OUTER
G1 F2580 X131.750 Y139.750 E962.35531
G1 X173.250 Y139.750 E964.08068
G1 X173.250 Y141.250 E964.14304
G1 X131.750 Y141.250 E965.86841
G1 F2400 E965.26841
G1 Z3.500
G0 F9000 X132.250 Y164.250
;TYPE:WALL-INNER
G1 Z3.000
G1 F2400 E965.86841
G1 F2580 X172.750 Y164.250 E967.55220
G1 X172.750 Y164.750 E967.57299
G1 X132.250 Y164.750 E969.25678
G1 X132.250 Y164.250 E969.27757
G0 F9000 X131.750 Y163.750
;TYPE:WALL-OUTER
G1 F2580 X173.250 Y163.750 E971.00294
G1 X173.250 Y165.250 E971.06530
G1 X131.750 Y165.250 E972.79067
G1 X131.750 Y163.750 E972.85304
;LAYER:15
M106 S158
G1 F2400 E972.25304
G1 Z3.500
G0 F9000 X132.250 Y140.750 Z3.200
;TYPE:WALL-INNER
G1 Z3.200
G1 F2400 E972.85304
G1 F2580 X132.250 Y140.250 E972.87382
G1 X172.750 Y140.250 E974.55762
G1 X172.750 Y140.750 E974.57841
G1 X132.250 Y140.750 E976.26220
G0 F9000 X131.750 Y141.250
;TYPE:WALL-OUTER
G1 F2580 X131.750 Y139.750 E976.32456
G1 X173.250 Y139.750 E978.04993
G1 X173.250 Y141.250 E978.11230
G1 X131.750 Y141.250 E979.83767
G1 F2400 E979.23767
G1 Z3.700
G0 F9000 X132.250 Y164.250
;TYPE:WALL-INNER
G1 Z3.200
G1 F2400 E979.83767
G1 F2580 X172.750 Y164.250 E981.52146
G1 X172.750 Y164.750 E981.54225
G1 X132.250 Y164.750 E983.22604
G1 X132.250 Y164.250 E983.24683
G0 F9000 X131.750 Y163.750
;TYPE:WALL-OUTER
G1 F2580 X173.250 Y163.750 E984.97220
G1 X173.250 Y165.250 E985.03456
G1 X131.750 Y165.250 E986.75993
G1 X131.750 Y163.750 E986.82229
;LAYER:16
M106 S168
G1 F2400 E986.22229
G1 Z3.700
G0 F9000 X132.250 Y140.750 Z3.400
;TYPE:WALL-INNER
G1 Z3.400
G1 F2400 E986.82229
G1 F2580 X132.250 Y140.250 E986.84308
G1 X172.750 Y140.250 E988.52688
G1 X172.750 Y140.750 E988.54766
G1 X132.250 Y140.750 E990.23146
G0 F9000 X131.750 Y141.250
;TYPE:WALL-OUTER
G1 F2580 X131.750 Y139.750 E990.29382
G1 X173.250 Y139.750 E992.01919
G1 X173.250 Y141.250 E992.08155
G1 X131.750 Y141.250 E993.80692
G1 F2400 E993.20692
G1 Z3.900
G0 F9000 X132.250 Y164.250
;TYPE:WALL-INNER
G1 Z3.400
G1 F2400 E993.80692
G1 F2580 X172.750 Y164.250 E995.49072
G1 X172.750 Y164.750 E995.51150
G1 X132.250 Y164.750 E997.19530
G1 X132.250 Y164.250 E997.21609
G0 F9000 X131.750 Y163.750
;TYPE:WALL-OUTER
G1 F2580 X173.250 Y163.750 E998.94146
G1 X173.250 Y165.250 E999.00382
G1 X131.750 Y165.250 E1000.72919
G1 X131.750 Y163.750 E1000.79155
;LAYER:17
M106 S178
G1 F2400 E1000.19155
G1 Z3.900
G0 F9000 X132.250 Y140.750 Z3.600
;TYPE:WALL-INNER
G1 Z3.600
G1 F2400 E1000.79155
G1 F2580 X132.250 Y140.250 E1000.81234
G1 X172.750 Y140.250 E1002.49613
G1 X172.750 Y140.750 E1002.51692
G1 X132.250 Y140.750 E1004.20071
G0 F9000 X131.750 Y141.250
;TYPE:WALL-OUTER
G1 F2580 X131.750 Y139.750 E1004.26308
G1 X173.250 Y139.750 E1005.98845
G1 X173.250 Y141.250 E1006.05081
G1 X131.750 Y141.250 E1007.77618
G1 F2400 E1007.17618
G1 Z4.100
G0 F9000 X132.250 Y164.250
;TYPE:WALL-INNER
G1 Z3.600
G1 F2400 E1007.77618
G1 F2580 X172.750 Y164.250 E1009.45997
G1 X172.750 Y164.750 E1009.48076
G1 X132.250 Y164.750 E1011.16456
G1 X132.250 Y164.250 E1011.18534
G0 F9000 X131.750 Y163.750
;TYPE:WALL-OUTER
G1 F2580 X173.250 Y163.750 E1012.91071
G1 X173.250 Y165.250 E1012.97307
G1 X131.750 Y165.250 E1014.69844
G1 X131.750 Y163.750 E1014.76081
;LAYER:18
M106 S191
G1 F2400 E1014.16081
G1 Z4.100
G0 F9000 X132.250 Y140.750 Z3.800
;TYPE:WALL-INNER
G1 Z3.800
G1 F2400 E1014.76081
G1 F2580 X132.250 Y140.250 E1014.78159
G1 X172.750 Y140.250 E1016.46539
G1 X172.750 Y140.750 E1016.48618
G1 X132.250 Y140.750 E1018.16997
G0 F9000 X131.750 Y141.250
;TYPE:WALL-OUTER
G1 F2580 X131.750 Y139.750 E1018.23233
G1 X173.250 Y139.750 E1019.95770
G1 X173.250 Y141.250 E1020.02007
G1 X131.750 Y141.250 E1021.74544
G1 F2400 E1021.14544
G1 Z4.300
G0 F9000 X132.250 Y164.250
;TYPE:WALL-INNER
G1 Z3.800
G1 F2400 E1021.74544
G1 F2580 X172.750 Y164.250 E1023.42923
G1 X172.750 Y164.750 E1023.45002
G1 X132.250 Y164.750 E1025.13381
G1 X132.250 Y164.250 E1025.15460
G0 F9000 X131.750 Y163.750
;TYPE:WALL-OUTER
G1 F2580 X173.250 Y163.750 E1026.87997
G1 X173.250 Y165.250 E1026.94233
G1 X131.750 Y165.250 E1028.66770
G1 X131.750 Y163.750 E1028.73006
;LAYER:19
M106 S201
G1 F2400 E1028.13006
G1 Z4.300
G0 F9000 X132.250 Y140.750 Z4.000
;TYPE:WALL-INNER
G1 Z4.000
G1 F2400 E1028.73006
G1 F2580 X132.250 Y140.250 E1028.75085
G1 X172.750 Y140.250 E1030.43465
G1 X172.750 Y140.750 E1030.45543
G1 X132.250 Y140.750 E1032.13923
G0 F9000 X131.750 Y141.250
;TYPE:WALL-OUTER
G1 F2580 X131.750 Y139.750 E1032.20159
G1 X173.250 Y139.750 E1033.92696
G1 X173.250 Y141.250 E1033.98932
G1 X131.750 Y141.250 E1035.71469
G1 F2400 E1035.11469
G1 Z4.500
G0 F9000 X132.250 Y164.250
;TYPE:WALL-INNER
G1 Z4.000
G1 F2400 E1035.71469
G1 F2580 X172.750 Y164.250 E1037.39849
G1 X172.750 Y164.750 E1037.41927
G1 X132.250 Y164.750 E1039.10307
G1 X132.250 Y164.250 E1039.12386
G0 F9000 X131.750 Y163.750
;TYPE:WALL-OUTER
G1 F2580 X173.250 Y163.750 E1040.84923
G1 X173.250 Y165.250 E1040.91159
G1 X131.750 Y165.250 E1042.63696
G1 X131.750 Y163.750 E1042.69932
;LAYER:20
M106 S211
G1 F2400 E1042.09932
G1 Z4.500
G0 F9000 X132.250 Y140.750 Z4.200
;TYPE:WALL-INNER
G1 Z4.200
G1 F2400 E1042.69932
G1 F2580 X132.250 Y140.250 E1042.72011
G1 X172.750 Y140.250 E1044.40390
G1 X172.750 Y140.750 E1044.42469
G1 X132.250 Y140.750 E1046.10848
G0 F9000 X131.750 Y141.250
;TYPE:WALL-OUTER
G1 F2580 X131.750 Y139.750 E1046.17085
G1 X173.250 Y139.750 E1047.89622
G1 X173.250 Y141.250 E1047.95858
G1 X131.750 Y141.250 E1049.68395
G1 F2400 E1049.08395
G1 Z4.700
G0 F9000 X132.250 Y164.250
;TYPE:WALL-INNER
G1 Z4.200
G1 F2400 E1049.68395
G1 F2580 X172.750 Y164.250 E1051.36774
G1 X172.750 Y164.750 E1051.38853
G1 X132.250 Y164.750 E1053.07233
G1 X132.250 Y164.250 E1053.09311
G0 F9000 X131.750 Y163.750
;TYPE:WALL-OUTER
G1 F2580 X173.250 Y163.750 E1054.81848
G1 X173.250 Y165.250 E1054.88085
G1 X131.750 Y165.250 E1056.60621
G1 X131.750 Y163.750 E1056.66858
;LAYER:21
M106 S221
G1 F2400 E1056.06858
G1 Z4.700
G0 F9000 X132.250 Y140.750 Z4.400
;TYPE:WALL-INNER
G1 Z4.400
G1 F2400 E1056.66858
G1 F2580 X132.250 Y140.250 E1056.68936
G1 X172.750 Y140.250 E1058.37316
G1 X172.750 Y140.750 E1058.39395
G1 X132.250 Y140.750 E1060.07774
G0 F9000 X131.750 Y141.250
;TYPE:WALL-OUTER
G1 F2580 X131.750 Y139.750 E1060.14010
G1 X173.250 Y139.750 E1061.86547
G1 X173.250 Y141.250 E1061.92784
G1 X131.750 Y141.250 E1063.65321
G1 F2400 E1063.05321
G1 Z4.900
G0 F9000 X132.250 Y164.250
;TYPE:WALL-INNER
G1 Z4.400
G1 F2400 E1063.65321
G1 F2580 X172.750 Y164.250 E1065.33700
G1 X172.750 Y164.750 E1065.35779
G1 X132.250 Y164.750 E1067.04158
G1 X132.250 Y164.250 E1067.06237
G0 F9000 X131.750 Y163.750
;TYPE:WALL-OUTER
G1 F2580 X173.250 Y163.750 E1068.78774
G1 X173.250 Y165.250 E1068.85010
G1 X131.750 Y165.250 E1070.57547
G1 X131.750 Y163.750 E1070.63783
;LAYER:22
M106 S232
G1 F2400 E1070.03783
G1 Z4.900
G0 F9000 X132.250 Y140.750 Z4.600
;TYPE:WALL-INNER
G1 Z4.600
G1 F2400 E1070.63783
G1 F2580 X132.250 Y140.250 E1070.65862
G1 X172.750 Y140.250 E1072.34242
G1 X172.750 Y140.750 E1072.36320
G1 X132.250 Y140.750 E1074.04700
G0 F9000 X131.750 Y141.250
;TYPE:WALL-OUTER
G1 F2580 X131.750 Y139.750 E1074.10936
G1 X173.250 Y139.750 E1075.83473
G1 X173.250 Y141.250 E1075.89709
G1 X131.750 Y141.250 E1077.62246
G1 F2400 E1077.02246
G1 Z5.100
G0 F9000 X132.250 Y164.250
;TYPE:WALL-INNER
G1 Z4.600
G1 F2400 E1077.62246
G1 F2580 X172.750 Y164.250 E1079.30626
G1 X172.750 Y164.750 E1079.32704
G1 X132.250 Y164.750 E1081.01084
G1 X132.250 Y164.250 E1081.03163
G0 F9000 X131.750 Y163.750
;TYPE:WALL-OUTER
G1 F2580 X173.250 Y163.750 E1082.75700
G1 X173.250 Y165.250 E1082.81936
G1 X131.750 Y165.250 E1084.54473
G1 X131.750 Y163.750 E1084.60709
;LAYER:23
M106 S242
G1 F2400 E1084.00709
G1 Z5.100
G0 F9000 X132.250 Y140.750 Z4.800
;TYPE:WALL-INNER
G1 Z4.800
G1 F2400 E1084.60709
G1 F2580 X132.250 Y140.250 E1084.62788
G1 X172.750 Y140.250 E1086.31167
G1 X172.750 Y140.750 E1086.33246
G1 X132.250 Y140.750 E1088.01625
G0 F9000 X131.750 Y141.250
;TYPE:WALL-OUTER
G1 F2580 X131.750 Y139.750 E1088.07862
G1 X173.250 Y139.750 E1089.80399
G1 X173.250 Y141.250 E1089.86635
G1 X131.750 Y141.250 E1091.59172
G1 F2400 E1090.99172
G1 Z5.300
G0 F9000 X132.250 Y164.250
;TYPE:WALL-INNER
G1 Z4.800
G1 F2400 E1091.59172
G1 F2580 X172.750 Y164.250 E1093.27551
G1 X172.750 Y164.750 E1093.29630
G1 X132.250 Y164.750 E1094.98010
G1 X132.250 Y164.250 E1095.00088
G0 F9000 X131.750 Y163.750
;TYPE:WALL-OUTER
G1 F2580 X173.250 Y163.750 E1096.72625
G1 X173.250 Y165.250 E1096.78862
G1 X131.750 Y165.250 E1098.51398
G1 X131.750 Y163.750 E1098.57635
;LAYER:24
M106 S255
G1 F2400 E1097.97635
G1 Z5.300
G0 F9000 X132.250 Y140.750 Z5.000
;TYPE:WALL-INNER
G1 Z5.000
G1 F2400 E1098.57635
G1 F2580 X132.250 Y140.250 E1098.59714
G1 X172.750 Y140.250 E1100.28093
G1 X172.750 Y140.750 E1100.30172
G1 X132.250 Y140.750 E1101.98551
G0 F9000 X131.750 Y141.250
;TYPE:WALL-OUTER
G1 F2580 X131.750 Y139.750 E1102.04787
G1 X173.250 Y139.750 E1103.77324
G1 X173.250 Y141.250 E1103.83561
G1 X131.750 Y141.250 E1105.56098
G1 F2400 E1104.96098
G1 Z5.500
G0 F9000 X132.250 Y164.250
;TYPE:WALL-INNER
G1 Z5.000
G1 F2400 E1105.56098
G1 F2580 X172.750 Y164.250 E1107.24477
G1 X172.750 Y164.750 E1107.26556
G1 X132.250 Y164.750 E1108.94935
G1 X132.250 Y164.250 E1108.97014
G0 F9000 X131.750 Y163.750
;TYPE:WALL-OUTER
G1 F2580 X173.250 Y163.750 E1110.69551
G1 X173.250 Y165.250 E1110.75787
G1 X131.750 Y165.250 E1112.48324
G1 X131.750 Y163.750 E1112.54560
;LAYER:25
G1 F2400 E1111.94560
G1 Z5.500
G0 F9000 X132.250 Y140.750 Z5.200
;TYPE:WALL-INNER
G1 Z5.200
G1 F2400 E1112.54560
G1 F2580 X132.250 Y140.250 E1112.56639
G1 X172.750 Y140.250 E1114.25019
G1 X172.750 Y140.750 E1114.27097
G1 X132.250 Y140.750 E1115.95477
G0 F9000 X131.750 Y141.250
;TYPE:WALL-OUTER
G1 F2580 X131.750 Y139.750 E1116.01713
G1 X173.250 Y139.750 E1117.74250
G1 X173.250 Y141.250 E1117.80486
G1 X131.750 Y141.250 E1119.53023
G1 F2400 E1118.93023
G1 Z5.700
G0 F9000 X132.250 Y164.250
;TYPE:WALL-INNER
G1 Z5.200
G1 F2400 E1119.53023
G1 F2580 X172.750 Y164.250 E1121.21403
G1 X172.750 Y164.750 E1121.23481
G1 X132.250 Y164.750 E1122.91861
G1 X132.250 Y164.250 E1122.93940
G0 F9000 X131.750 Y163.750
;TYPE:WALL-OUTER
G1 F2580 X173.250 Y163.750 E1124.66477
G1 X173.250 Y165.250 E1124.72713
G1 X131.750 Y165.250 E1126.45250
G1 X131.750 Y163.750 E1126.51486
;LAYER:26
