;-- START GCODE --
;Sliced for Type A Machines Series 1
;Sliced at: Tue 10-11-2020 17:32:20
;Basic settings: Layer height: 0.2 Walls: 1 Fill: 80
;Print Speed: 45 Support: 0
;Retraction Speed: 40 Retraction Distance: 0.6
;Print time: 16 minutes
;Filament used: 1.35m 4.0g
;Settings based on: Type A Machines ProMatte
G21        ;metric values
G90        ;absolute positioning
G28     ;move to endstops
G29		;allows for auto-levelling
G1 Z15.0 F12000 ;move the platform down 15mm
G1 X150 Y5 F9000 ;center
M140 S50 ;Prep Heat Bed
M109 S210 ;Heat To temp
M190 S50 ;Heat Bed to temp
G1 X150 Y5 Z0.3 ;move the platform to purge extrusion
G92 E0 ;zero the extruded length
G1 F200 X250 E30 ;extrude 30mm of feed stock
G92 E0 ;zero the extruded length again
G1 X150 Y150  Z25 F12000 ;recenter and begin
G1 F9000

;Layer count: 60
;LAYER:0
M107
G0 F9000 X132.250 Y135.750 Z0.200
;TYPE:SKIRT
G1 F1800 X172.750 Y135.750 E1.68379
G1 X172.750 Y169.250 E3.07656
G1 X132.250 Y169.250 E4.76036
G1 X132.250 Y135.750 E6.15312
G0 F9000 X132.750 Y136.250
G1 F1800 X172.250 Y136.250 E7.79534
G1 X172.250 Y168.750 E9.14654
G1 X132.750 Y168.750 E10.78876
G1 X132.750 Y136.250 E12.13995
G1 F2400 E11.53995
G1 Z0.700
G0 F9000 X136.750 Y140.250
;TYPE:WALL-INNER
G1 Z0.200
G1 F2400 E12.13995
G1 F1800 X168.250 Y140.250 E13.44957
G1 X168.250 Y164.750 E14.46816
G1 X136.750 Y164.750 E15.77778
G1 X136.750 Y140.250 E16.79637
G0 F9000 X136.250 Y139.750
;TYPE:WALL-OUTER
G1 F1800 X168.750 Y139.750 E18.14756
G1 X168.750 Y165.250 E19.20773
G1 X136.250 Y165.250 E20.55892
G1 X136.250 Y139.750 E21.61909
G0 F9000 X137.243 Y140.425
;TYPE:SKIN
G1 F1800 X161.392 Y164.574 E23.03896
G0 F9000 X160.685 Y164.574
G1 F1800 X136.924 Y140.813 E24.43601
G0 F9000 X136.924 Y141.521
G1 F1800 X159.978 Y164.574 E25.79147
G0 F9000 X159.271 Y164.574
G1 F1800 X136.924 Y142.228 E27.10536
G0 F9000 X136.924 Y142.935
G1 F1800 X158.564 Y164.574 E28.37768
G0 F9000 X157.857 Y164.574
G1 F1800 X136.924 Y143.642 E29.60843
G0 F9000 X136.924 Y144.349
G1 F1800 X157.150 Y164.574 E30.79761
G0 F9000 X156.443 Y164.574
G1 F1800 X136.924 Y145.056 E31.94522
G0 F9000 X136.924 Y145.763
G1 F1800 X155.736 Y164.574 E33.05127
G0 F9000 X155.028 Y164.574
G1 F1800 X136.924 Y146.470 E34.11571
G0 F9000 X136.924 Y147.177
G1 F1800 X154.321 Y164.574 E35.13859
G0 F9000 X153.614 Y164.574
G1 F1800 X136.924 Y147.885 E36.11987
G0 F9000 X136.924 Y148.592
G1 F1800 X152.907 Y164.574 E37.05958
G0 F9000 X152.199 Y164.574
G1 F1800 X136.924 Y149.299 E37.95769
G0 F9000 X136.924 Y150.006
G1 F1800 X151.492 Y164.574 E38.81423
G0 F9000 X150.785 Y164.574
G1 F1800 X136.924 Y150.713 E39.62921
G0 F9000 X136.924 Y151.420
G1 F1800 X150.078 Y164.574 E40.40261
G0 F9000 X149.371 Y164.574
G1 F1800 X136.924 Y152.127 E41.13445
G0 F9000 X136.924 Y152.834
G1 F1800 X148.664 Y164.574 E41.82471
G0 F9000 X147.957 Y164.574
G1 F1800 X136.924 Y153.541 E42.47341
G0 F9000 X136.924 Y154.248
G1 F1800 X147.250 Y164.574 E43.08054
G0 F9000 X146.542 Y164.574
G1 F1800 X136.924 Y154.956 E43.64604
G0 F9000 X136.924 Y155.663
G1 F1800 X145.835 Y164.574 E44.16998
G0 F9000 X145.128 Y164.574
G1 F1800 X136.924 Y156.370 E44.65234
G0 F9000 X136.924 Y157.077
G1 F1800 X144.421 Y164.574 E45.09313
G0 F9000 X143.714 Y164.574
G1 F1800 X136.924 Y157.784 E45.49236
G0 F9000 X136.924 Y158.491
G1 F1800 X143.007 Y164.574 E45.85002
G0 F9000 X142.300 Y164.574
G1 F1800 X136.924 Y159.198 E46.16611
G0 F9000 X136.924 Y159.905
G1 F1800 X141.593 Y164.574 E46.44062
G0 F9000 X140.886 Y164.574
G1 F1800 X136.924 Y160.612 E46.67358
G0 F9000 X136.924 Y161.320
G1 F1800 X140.178 Y164.574 E46.86490
G0 F9000 X139.471 Y164.574
G1 F1800 X136.924 Y162.027 E47.01465
G0 F9000 X136.924 Y162.734
G1 F1800 X138.764 Y164.574 E47.12284
G0 F9000 X138.057 Y164.574
G1 F1800 X136.924 Y163.441 E47.18945
G0 F9000 X136.924 Y164.148
G1 F1800 X137.350 Y164.574 E47.21450
G1 F2400 E46.61450
G1 Z0.700
G0 F9000 X137.950 Y140.425
G1 Z0.200
G1 F2400 E47.21450
G1 F1800 X162.099 Y164.574 E48.63437
G0 F9000 X162.807 Y164.574
G1 F1800 X138.657 Y140.425 E50.05427
G0 F9000 X139.364 Y140.425
G1 F1800 X163.514 Y164.574 E51.47416
G0 F9000 X164.221 Y164.574
G1 F1800 X140.071 Y140.425 E52.89406
G0 F9000 X140.778 Y140.425
G1 F1800 X164.928 Y164.574 E54.31396
G0 F9000 X165.635 Y164.574
G1 F1800 X141.485 Y140.425 E55.73386
G0 F9000 X142.192 Y140.425
G1 F1800 X166.342 Y164.574 E57.15376
G0 F9000 X167.049 Y164.574
G1 F1800 X142.899 Y140.425 E58.57366
G0 F9000 X143.607 Y140.425
G1 F1800 X167.756 Y164.574 E59.99352
G0 F9000 X168.074 Y164.185
G1 F1800 X144.314 Y140.425 E61.39052
G0 F9000 X145.021 Y140.425
G1 F1800 X168.074 Y163.478 E62.74595
G0 F9000 X168.074 Y162.771
G1 F1800 X145.728 Y140.425 E64.05981
G0 F9000 X146.435 Y140.425
G1 F1800 X168.074 Y162.063 E65.33207
G0 F9000 X168.074 Y161.356
G1 F1800 X147.142 Y140.425 E66.56276
G0 F9000 X147.849 Y140.425
G1 F1800 X168.074 Y160.649 E67.75188
G0 F9000 X168.074 Y159.942
G1 F1800 X148.556 Y140.425 E68.89944
G0 F9000 X149.263 Y140.425
G1 F1800 X168.074 Y159.235 E70.00542
G0 F9000 X168.074 Y158.528
G1 F1800 X149.970 Y140.425 E71.06984
G0 F9000 X150.678 Y140.425
G1 F1800 X168.074 Y157.821 E72.09266
G0 F9000 X168.074 Y157.114
G1 F1800 X151.385 Y140.425 E73.07391
G0 F9000 X152.092 Y140.425
G1 F1800 X168.074 Y156.407 E74.01359
G0 F9000 X168.074 Y155.699
G1 F1800 X152.799 Y140.425 E74.91167
G0 F9000 X153.506 Y140.425
G1 F1800 X168.074 Y154.992 E75.76818
G0 F9000 X168.074 Y154.285
G1 F1800 X154.213 Y140.425 E76.58313
G0 F9000 X154.920 Y140.425
G1 F1800 X168.074 Y153.578 E77.35650
G0 F9000 X168.074 Y152.871
G1 F1800 X155.627 Y140.425 E78.08831
G0 F9000 X156.334 Y140.425
G1 F1800 X168.074 Y152.164 E78.77855
G0 F9000 X168.074 Y151.457
G1 F1800 X157.042 Y140.425 E79.42719
G0 F9000 X157.749 Y140.425
G1 F1800 X168.074 Y150.750 E80.03426
G0 F9000 X168.074 Y150.043
G1 F1800 X158.456 Y140.425 E80.59976
G0 F9000 X159.163 Y140.425
G1 F1800 X168.074 Y149.336 E81.12369
G0 F9000 X168.074 Y148.628
G1 F1800 X159.870 Y140.425 E81.60602
G0 F9000 X160.577 Y140.425
G1 F1800 X168.074 Y147.921 E82.04679
G0 F9000 X168.074 Y147.214
G1 F1800 X161.284 Y140.425 E82.44599
G0 F9000 X161.991 Y140.425
G1 F1800 X168.074 Y146.507 E82.80361
G0 F9000 X168.074 Y145.800
G1 F1800 X162.698 Y140.425 E83.11967
G0 F9000 X163.406 Y140.425
G1 F1800 X168.074 Y145.093 E83.39413
G0 F9000 X168.074 Y144.386
G1 F1800 X164.113 Y140.425 E83.62703
G0 F9000 X164.820 Y140.425
G1 F1800 X168.074 Y143.679 E83.81835
G0 F9000 X168.074 Y142.972
G1 F1800 X165.527 Y140.425 E83.96810
G0 F9000 X166.234 Y140.425
G1 F1800 X168.074 Y142.264 E84.07626
G0 F9000 X168.074 Y141.557
G1 F1800 X166.941 Y140.425 E84.14284
G0 F9000 X167.648 Y140.425
G1 F1800 X168.074 Y140.850 E84.16786
;LAYER:1
M106 S10
G0 F9000 X168.250 Y140.250 Z0.400
;TYPE:WALL-INNER
G1 F1980 X168.250 Y164.750 E85.18645
G1 X136.750 Y164.750 E86.49607
G1 X136.750 Y140.250 E87.51466
G1 X168.250 Y140.250 E88.82428
G0 F9000 X168.750 Y139.750
;TYPE:WALL-OUTER
G1 F1980 X168.750 Y165.250 E89.88445
G1 X136.250 Y165.250 E91.23564
G1 X136.250 Y139.750 E92.29581
G1 X168.750 Y139.750 E93.64700
G0 F9000 X168.074 Y140.577
;TYPE:SKIN
G1 F1980 X144.077 Y164.574 E95.05793
G0 F9000 X144.784 Y164.574
G1 F1980 X168.074 Y141.284 E96.42729
G0 F9000 X168.074 Y141.991
G1 F1980 X145.491 Y164.574 E97.75509
G0 F9000 X146.198 Y164.574
G1 F1980 X168.074 Y142.699 E99.04128
G0 F9000 X168.074 Y143.406
G1 F1980 X146.905 Y164.574 E100.28591
G0 F9000 X147.612 Y164.574
G1 F1980 X168.074 Y144.113 E101.48897
G0 F9000 X168.074 Y144.820
G1 F1980 X148.319 Y164.574 E102.65046
G0 F9000 X149.026 Y164.574
G1 F1980 X168.074 Y145.527 E103.77038
G0 F9000 X168.074 Y146.234
G1 F1980 X149.734 Y164.574 E104.84870
G0 F9000 X150.441 Y164.574
G1 F1980 X168.074 Y146.941 E105.88545
G0 F9000 X168.074 Y147.648
G1 F1980 X151.148 Y164.574 E106.88064
G0 F9000 X151.855 Y164.574
G1 F1980 X168.074 Y148.355 E107.83425
G0 F9000 X168.074 Y149.063
G1 F1980 X152.561 Y164.575 E108.74633
G0 F9000 X153.268 Y164.575
G1 F1980 X168.074 Y149.770 E109.61683
G0 F9000 X168.074 Y150.477
G1 F1980 X153.976 Y164.575 E110.44574
G0 F9000 X154.683 Y164.575
G1 F1980 X168.074 Y151.184 E111.23308
G0 F9000 X168.074 Y151.891
G1 F1980 X155.390 Y164.575 E111.97885
G0 F9000 X156.097 Y164.575
G1 F1980 X168.074 Y152.598 E112.68305
G0 F9000 X168.074 Y153.305
G1 F1980 X156.804 Y164.575 E113.34569
G0 F9000 X157.511 Y164.575
G1 F1980 X168.074 Y154.012 E113.96675
G0 F9000 X168.074 Y154.719
G1 F1980 X158.218 Y164.575 E114.54625
G0 F9000 X158.925 Y164.575
G1 F1980 X168.074 Y155.427 E115.08414
G0 F9000 X168.074 Y156.134
G1 F1980 X159.632 Y164.575 E115.58047
G1 F2400 E114.98047
G1 Z0.900
G0 F9000 X143.370 Y164.574
G1 Z0.400
G1 F2400 E115.58047
G1 F1980 X167.520 Y140.424 E117.00040
G0 F9000 X166.813 Y140.424
G1 F1980 X142.663 Y164.574 E118.42032
G0 F9000 X141.955 Y164.574
G1 F1980 X166.106 Y140.424 E119.84028
G0 F9000 X165.399 Y140.424
G1 F1980 X141.248 Y164.574 E121.26024
G0 F9000 X140.541 Y164.574
G1 F1980 X164.692 Y140.424 E122.68020
G0 F9000 X163.985 Y140.424
G1 F1980 X139.834 Y164.574 E124.10015
G0 F9000 X139.127 Y164.574
G1 F1980 X163.278 Y140.424 E125.52011
G0 F9000 X162.570 Y140.424
G1 F1980 X138.420 Y164.574 E126.94004
G0 F9000 X137.713 Y164.574
G1 F1980 X161.863 Y140.424 E128.35996
G0 F9000 X161.156 Y140.424
G1 F1980 X137.006 Y164.574 E129.77989
G0 F9000 X136.925 Y163.948
G1 F1980 X160.449 Y140.424 E131.16301
G1 F2400 E130.56301
G1 Z0.900
G0 F9000 X168.074 Y156.841
G1 Z0.400
G1 F2400 E131.16301
G1 F1980 X160.339 Y164.575 E131.61777
G0 F9000 X161.047 Y164.575
G1 F1980 X168.074 Y157.548 E132.03093
G0 F9000 X168.074 Y158.255
G1 F1980 X161.754 Y164.575 E132.40252
G0 F9000 X162.461 Y164.575
G1 F1980 X168.074 Y158.962 E132.73255
G0 F9000 X168.074 Y159.669
G1 F1980 X163.168 Y164.575 E133.02100
G0 F9000 X163.875 Y164.575
G1 F1980 X168.074 Y160.376 E133.26789
G0 F9000 X168.074 Y161.083
G1 F1980 X164.582 Y164.575 E133.47320
G0 F9000 X165.289 Y164.575
G1 F1980 X168.074 Y161.790 E133.63695
G0 F9000 X168.074 Y162.498
G1 F1980 X165.996 Y164.575 E133.75910
G0 F9000 X166.703 Y164.575
G1 F1980 X168.074 Y163.205 E133.83968
G0 F9000 X168.074 Y163.912
G1 F1980 X167.411 Y164.575 E133.87866
G1 F2400 E133.27866
G1 Z0.900
G0 F9000 X159.742 Y140.424
G1 Z0.400
G1 F2400 E133.87866
G1 F1980 X136.925 Y163.241 E135.22021
G0 F9000 X136.925 Y162.534
G1 F1980 X159.035 Y140.424 E136.52020
G0 F9000 X158.328 Y140.424
G1 F1980 X136.925 Y161.827 E137.77861
G0 F9000 X136.925 Y161.119
G1 F1980 X157.621 Y140.424 E138.99543
G0 F9000 X156.914 Y140.424
G1 F1980 X136.925 Y160.412 E140.17067
G0 F9000 X136.925 Y159.705
G1 F1980 X156.206 Y140.424 E141.30432
G0 F9000 X155.499 Y140.424
G1 F1980 X136.925 Y158.998 E142.39640
G0 F9000 X136.925 Y158.291
G1 F1980 X154.792 Y140.424 E143.44691
G0 F9000 X154.085 Y140.424
G1 F1980 X136.925 Y157.584 E144.45586
G0 F9000 X136.925 Y156.877
G1 F1980 X153.378 Y140.424 E145.42323
G0 F9000 X152.671 Y140.424
G1 F1980 X136.925 Y156.170 E146.34903
G0 F9000 X136.925 Y155.463
G1 F1980 X151.964 Y140.424 E147.23327
G0 F9000 X151.257 Y140.424
G1 F1980 X136.925 Y154.755 E148.07591
G0 F9000 X136.925 Y154.048
G1 F1980 X150.550 Y140.424 E148.87697
G0 F9000 X149.842 Y140.424
G1 F1980 X136.925 Y153.341 E149.63644
G0 F9000 X136.925 Y152.634
G1 F1980 X149.135 Y140.424 E150.35435
G0 F9000 X148.428 Y140.424
G1 F1980 X136.925 Y151.927 E151.03068
G0 F9000 X136.925 Y151.220
G1 F1980 X147.721 Y140.424 E151.66544
G0 F9000 X147.014 Y140.424
G1 F1980 X136.925 Y150.513 E152.25864
G0 F9000 X136.925 Y149.806
G1 F1980 X146.307 Y140.424 E152.81026
G0 F9000 X145.600 Y140.424
G1 F1980 X136.925 Y149.099 E153.32032
G0 F9000 X136.925 Y148.392
G1 F1980 X144.893 Y140.424 E153.78881
G0 F9000 X144.186 Y140.424
G1 F1980 X136.925 Y147.684 E154.21570
G0 F9000 X136.925 Y146.977
G1 F1980 X143.479 Y140.424 E154.60102
G0 F9000 X142.771 Y140.424
G1 F1980 X136.925 Y146.270 E154.94474
G0 F9000 X136.925 Y145.563
G1 F1980 X142.064 Y140.424 E155.24689
G0 F9000 X141.357 Y140.424
G1 F1980 X136.925 Y144.856 E155.50748
G0 F9000 X136.925 Y144.149
G1 F1980 X140.650 Y140.424 E155.72649
G0 F9000 X139.943 Y140.424
G1 F1980 X136.925 Y143.442 E155.90394
G0 F9000 X136.925 Y142.735
G1 F1980 X139.236 Y140.424 E156.03982
G0 F9000 X138.529 Y140.424
G1 F1980 X136.925 Y142.028 E156.13413
G0 F9000 X136.925 Y141.320
G1 F1980 X137.822 Y140.424 E156.18684
G0 F9000 X137.115 Y140.424
G1 F1980 X136.925 Y140.613 E156.19798
;LAYER:2
M106 S20
G0 F9000 X136.750 Y140.250 Z0.600
;TYPE:WALL-INNER
G1 F2220 X168.250 Y140.250 E157.50760
G1 X168.250 Y164.750 E158.52619
G1 X136.750 Y164.750 E159.83581
G1 X136.750 Y140.250 E160.85440
G0 F9000 X136.250 Y139.750
;TYPE:WALL-OUTER
G1 F2220 X168.750 Y139.750 E162.20559
G1 X168.750 Y165.250 E163.26576
G1 X136.250 Y165.250 E164.61695
G1 X136.250 Y139.750 E165.67712
G0 F9000 X137.243 Y140.425
;TYPE:SKIN
G1 F2220 X161.392 Y164.574 E167.09699
G0 F9000 X160.685 Y164.574
G1 F2220 X136.924 Y140.813 E168.49404
G0 F9000 X136.924 Y141.521
G1 F2220 X159.978 Y164.574 E169.84950
G0 F9000 X159.271 Y164.574
G1 F2220 X136.924 Y142.228 E171.16339
G0 F9000 X136.924 Y142.935
G1 F2220 X158.564 Y164.574 E172.43571
G0 F9000 X157.857 Y164.574
G1 F2220 X136.924 Y143.642 E173.66646
G0 F9000 X136.924 Y144.349
G1 F2220 X157.150 Y164.574 E174.85564
G0 F9000 X156.443 Y164.574
G1 F2220 X136.924 Y145.056 E176.00325
G0 F9000 X136.924 Y145.763
G1 F2220 X155.736 Y164.574 E177.10930
G0 F9000 X155.028 Y164.574
G1 F2220 X136.924 Y146.470 E178.17374
G0 F9000 X136.924 Y147.177
G1 F2220 X154.321 Y164.574 E179.19662
G0 F9000 X153.614 Y164.574
G1 F2220 X136.924 Y147.885 E180.17790
G0 F9000 X136.924 Y148.592
G1 F2220 X152.907 Y164.574 E181.11761
G0 F9000 X152.199 Y164.574
G1 F2220 X136.924 Y149.299 E182.01572
G0 F9000 X136.924 Y150.006
G1 F2220 X151.492 Y164.574 E182.87226
G0 F9000 X150.785 Y164.574
G1 F2220 X136.924 Y150.713 E183.68724
G0 F9000 X136.924 Y151.420
G1 F2220 X150.078 Y164.574 E184.46064
G0 F9000 X149.371 Y164.574
G1 F2220 X136.924 Y152.127 E185.19248
G0 F9000 X136.924 Y152.834
G1 F2220 X148.664 Y164.574 E185.88274
G0 F9000 X147.957 Y164.574
G1 F2220 X136.924 Y153.541 E186.53144
G0 F9000 X136.924 Y154.248
G1 F2220 X147.250 Y164.574 E187.13857
G0 F9000 X146.542 Y164.574
G1 F2220 X136.924 Y154.956 E187.70407
G0 F9000 X136.924 Y155.663
G1 F2220 X145.835 Y164.574 E188.22801
G0 F9000 X145.128 Y164.574
G1 F2220 X136.924 Y156.370 E188.71037
G0 F9000 X136.924 Y157.077
G1 F2220 X144.421 Y164.574 E189.15116
G0 F9000 X143.714 Y164.574
G1 F2220 X136.924 Y157.784 E189.55039
G0 F9000 X136.924 Y158.491
G1 F2220 X143.007 Y164.574 E189.90805
G0 F9000 X142.300 Y164.574
G1 F2220 X136.924 Y159.198 E190.22414
G0 F9000 X136.924 Y159.905
G1 F2220 X141.593 Y164.574 E190.49866
G0 F9000 X140.886 Y164.574
G1 F2220 X136.924 Y160.612 E190.73161
G0 F9000 X136.924 Y161.320
G1 F2220 X140.178 Y164.574 E190.92293
G0 F9000 X139.471 Y164.574
G1 F2220 X136.924 Y162.027 E191.07268
G0 F9000 X136.924 Y162.734
G1 F2220 X138.764 Y164.574 E191.18087
G0 F9000 X138.057 Y164.574
G1 F2220 X136.924 Y163.441 E191.24748
G0 F9000 X136.924 Y164.148
G1 F2220 X137.350 Y164.574 E191.27253
G1 F2400 E190.67253
G1 Z1.100
G0 F9000 X137.950 Y140.425
G1 Z0.600
G1 F2400 E191.27253
G1 F2220 X162.099 Y164.574 E192.69240
G0 F9000 X162.807 Y164.574
G1 F2220 X138.657 Y140.425 E194.11230
G0 F9000 X139.364 Y140.425
G1 F2220 X163.514 Y164.574 E195.53220
G0 F9000 X164.221 Y164.574
G1 F2220 X140.071 Y140.425 E196.95209
G0 F9000 X140.778 Y140.425
G1 F2220 X164.928 Y164.574 E198.37199
G0 F9000 X165.635 Y164.574
G1 F2220 X141.485 Y140.425 E199.79189
G0 F9000 X142.192 Y140.425
G1 F2220 X166.342 Y164.574 E201.21179
G0 F9000 X167.049 Y164.574
G1 F2220 X142.899 Y140.425 E202.63169
G0 F9000 X143.607 Y140.425
G1 F2220 X167.756 Y164.574 E204.05155
G0 F9000 X168.074 Y164.185
G1 F2220 X144.314 Y140.425 E205.44855
G0 F9000 X145.021 Y140.425
G1 F2220 X168.074 Y163.478 E206.80398
G0 F9000 X168.074 Y162.771
G1 F2220 X145.728 Y140.425 E208.11784
G0 F9000 X146.435 Y140.425
G1 F2220 X168.074 Y162.063 E209.39010
G0 F9000 X168.074 Y161.356
G1 F2220 X147.142 Y140.425 E210.62079
G0 F9000 X147.849 Y140.425
G1 F2220 X168.074 Y160.649 E211.80991
G0 F9000 X168.074 Y159.942
G1 F2220 X148.556 Y140.425 E212.95747
G0 F9000 X149.263 Y140.425
G1 F2220 X168.074 Y159.235 E214.06345
G0 F9000 X168.074 Y158.528
G1 F2220 X149.970 Y140.425 E215.12787
G0 F9000 X150.678 Y140.425
G1 F2220 X168.074 Y157.821 E216.15069
G0 F9000 X168.074 Y157.114
G1 F2220 X151.385 Y140.425 E217.13194
G0 F9000 X152.092 Y140.425
G1 F2220 X168.074 Y156.407 E218.07162
G0 F9000 X168.074 Y155.699
G1 F2220 X152.799 Y140.425 E218.96970
G0 F9000 X153.506 Y140.425
G1 F2220 X168.074 Y154.992 E219.82621
G0 F9000 X168.074 Y154.285
G1 F2220 X154.213 Y140.425 E220.64116
G0 F9000 X154.920 Y140.425
G1 F2220 X168.074 Y153.578 E221.41453
G0 F9000 X168.074 Y152.871
G1 F2220 X155.627 Y140.425 E222.14634
G0 F9000 X156.334 Y140.425
G1 F2220 X168.074 Y152.164 E222.83658
G0 F9000 X168.074 Y151.457
G1 F2220 X157.042 Y140.425 E223.48522
G0 F9000 X157.749 Y140.425
G1 F2220 X168.074 Y150.750 E224.09229
G0 F9000 X168.074 Y150.043
G1 F2220 X158.456 Y140.425 E224.65779
G0 F9000 X159.163 Y140.425
G1 F2220 X168.074 Y149.336 E225.18172
G0 F9000 X168.074 Y148.628
G1 F2220 X159.870 Y140.425 E225.66406
G0 F9000 X160.577 Y140.425
G1 F2220 X168.074 Y147.921 E226.10482
G0 F9000 X168.074 Y147.214
G1 F2220 X161.284 Y140.425 E226.50402
G0 F9000 X161.991 Y140.425
G1 F2220 X168.074 Y146.507 E226.86164
G0 F9000 X168.074 Y145.800
G1 F2220 X162.698 Y140.425 E227.17770
G0 F9000 X163.406 Y140.425
G1 F2220 X168.074 Y145.093 E227.45216
G0 F9000 X168.074 Y144.386
G1 F2220 X164.113 Y140.425 E227.68506
G0 F9000 X164.820 Y140.425
G1 F2220 X168.074 Y143.679 E227.87638
G0 F9000 X168.074 Y142.972
G1 F2220 X165.527 Y140.425 E228.02613
G0 F9000 X166.234 Y140.425
G1 F2220 X168.074 Y142.264 E228.13429
G0 F9000 X168.074 Y141.557
G1 F2220 X166.941 Y140.425 E228.20087
G0 F9000 X167.648 Y140.425
G1 F2220 X168.074 Y140.850 E228.22589
;LAYER:3
M106 S30
G0 F9000 X168.250 Y140.250 Z0.800
;TYPE:WALL-INNER
G1 F2400 X168.250 Y164.750 E229.24448
G1 X136.750 Y164.750 E230.55410
G1 X136.750 Y140.250 E231.57269
G1 X168.250 Y140.250 E232.88231
G0 F9000 X168.750 Y139.750
;TYPE:WALL-OUTER
G1 F2400 X168.750 Y165.250 E233.94248
G1 X136.250 Y165.250 E235.29367
G1 X136.250 Y139.750 E236.35384
G1 X168.750 Y139.750 E237.70503
G0 F9000 X168.074 Y140.577
;TYPE:SKIN
G1 F2400 X144.077 Y164.574 E239.11596
G0 F9000 X144.784 Y164.574
G1 F2400 X168.074 Y141.284 E240.48533
G0 F9000 X168.074 Y141.991
G1 F2400 X145.491 Y164.574 E241.81312
G0 F9000 X146.198 Y164.574
G1 F2400 X168.074 Y142.699 E243.09931
G0 F9000 X168.074 Y143.406
G1 F2400 X146.905 Y164.574 E244.34394
G0 F9000 X147.612 Y164.574
G1 F2400 X168.074 Y144.113 E245.54700
G0 F9000 X168.074 Y144.820
G1 F2400 X148.319 Y164.574 E246.70849
G0 F9000 X149.026 Y164.574
G1 F2400 X168.074 Y145.527 E247.82841
G0 F9000 X168.074 Y146.234
G1 F2400 X149.734 Y164.574 E248.90673
G0 F9000 X150.441 Y164.574
G1 F2400 X168.074 Y146.941 E249.94348
G0 F9000 X168.074 Y147.648
G1 F2400 X151.148 Y164.574 E250.93867
G0 F9000 X151.855 Y164.574
G1 F2400 X168.074 Y148.355 E251.89228
G0 F9000 X168.074 Y149.063
G1 F2400 X152.561 Y164.575 E252.80436
G0 F9000 X153.268 Y164.575
G1 F2400 X168.074 Y149.770 E253.67486
G0 F9000 X168.074 Y150.477
G1 F2400 X153.976 Y164.575 E254.50377
G0 F9000 X154.683 Y164.575
G1 F2400 X168.074 Y151.184 E255.29111
G0 F9000 X168.074 Y151.891
G1 F2400 X155.390 Y164.575 E256.03688
G0 F9000 X156.097 Y164.575
G1 F2400 X168.074 Y152.598 E256.74108
G0 F9000 X168.074 Y153.305
G1 F2400 X156.804 Y164.575 E257.40372
G0 F9000 X157.511 Y164.575
G1 F2400 X168.074 Y154.012 E258.02478
G0 F9000 X168.074 Y154.719
G1 F2400 X158.218 Y164.575 E258.60428
G0 F9000 X158.925 Y164.575
G1 F2400 X168.074 Y155.427 E259.14217
G0 F9000 X168.074 Y156.134
G1 F2400 X159.632 Y164.575 E259.63850
G1 F2400 E259.03850
G1 Z1.300
G0 F9000 X143.370 Y164.574
G1 Z0.800
G1 F2400 E259.63850
G1 X167.520 Y140.424 E261.05843
G0 F9000 X166.813 Y140.424
G1 F2400 X142.663 Y164.574 E262.47836
G0 F9000 X141.955 Y164.574
G1 F2400 X166.106 Y140.424 E263.89831
G0 F9000 X165.399 Y140.424
G1 F2400 X141.248 Y164.574 E265.31827
G0 F9000 X140.541 Y164.574
G1 F2400 X164.692 Y140.424 E266.73823
G0 F9000 X163.985 Y140.424
G1 F2400 X139.834 Y164.574 E268.15818
G0 F9000 X139.127 Y164.574
G1 F2400 X163.278 Y140.424 E269.57814
G0 F9000 X162.570 Y140.424
G1 F2400 X138.420 Y164.574 E270.99807
G0 F9000 X137.713 Y164.574
G1 F2400 X161.863 Y140.424 E272.41799
G0 F9000 X161.156 Y140.424
G1 F2400 X137.006 Y164.574 E273.83792
G0 F9000 X136.925 Y163.948
G1 F2400 X160.449 Y140.424 E275.22104
G1 F2400 E274.62104
G1 Z1.300
G0 F9000 X168.074 Y156.841
G1 Z0.800
G1 F2400 E275.22104
G1 X160.339 Y164.575 E275.67580
G0 F9000 X161.047 Y164.575
G1 F2400 X168.074 Y157.548 E276.08896
G0 F9000 X168.074 Y158.255
G1 F2400 X161.754 Y164.575 E276.46055
G0 F9000 X162.461 Y164.575
G1 F2400 X168.074 Y158.962 E276.79058
G0 F9000 X168.074 Y159.669
G1 F2400 X163.168 Y164.575 E277.07903
G0 F9000 X163.875 Y164.575
G1 F2400 X168.074 Y160.376 E277.32592
G0 F9000 X168.074 Y161.083
G1 F2400 X164.582 Y164.575 E277.53123
G0 F9000 X165.289 Y164.575
G1 F2400 X168.074 Y161.790 E277.69498
G0 F9000 X168.074 Y162.498
G1 F2400 X165.996 Y164.575 E277.81713
G0 F9000 X166.703 Y164.575
G1 F2400 X168.074 Y163.205 E277.89771
G0 F9000 X168.074 Y163.912
G1 F2400 X167.411 Y164.575 E277.93669
G1 F2400 E277.33669
G1 Z1.300
G0 F9000 X159.742 Y140.424
G1 Z0.800
G1 F2400 E277.93669
G1 X136.925 Y163.241 E279.27824
G0 F9000 X136.925 Y162.534
G1 F2400 X159.035 Y140.424 E280.57823
G0 F9000 X158.328 Y140.424
G1 F2400 X136.925 Y161.827 E281.83664
G0 F9000 X136.925 Y161.119
G1 F2400 X157.621 Y140.424 E283.05346
G0 F9000 X156.914 Y140.424
G1 F2400 X136.925 Y160.412 E284.22870
G0 F9000 X136.925 Y159.705
G1 F2400 X156.206 Y140.424 E285.36235
G0 F9000 X155.499 Y140.424
G1 F2400 X136.925 Y158.998 E286.45443
G0 F9000 X136.925 Y158.291
G1 F2400 X154.792 Y140.424 E287.50494
G0 F9000 X154.085 Y140.424
G1 F2400 X136.925 Y157.584 E288.51389
G0 F9000 X136.925 Y156.877
G1 F2400 X153.378 Y140.424 E289.48126
G0 F9000 X152.671 Y140.424
G1 F2400 X136.925 Y156.170 E290.40706
G0 F9000 X136.925 Y155.463
G1 F2400 X151.964 Y140.424 E291.29130
G0 F9000 X151.257 Y140.424
G1 F2400 X136.925 Y154.755 E292.13394
G0 F9000 X136.925 Y154.048
G1 F2400 X150.550 Y140.424 E292.93501
G0 F9000 X149.842 Y140.424
G1 F2400 X136.925 Y153.341 E293.69448
G0 F9000 X136.925 Y152.634
G1 F2400 X149.135 Y140.424 E294.41238
G0 F9000 X148.428 Y140.424
G1 F2400 X136.925 Y151.927 E295.08871
G0 F9000 X136.925 Y151.220
G1 F2400 X147.721 Y140.424 E295.72347
G0 F9000 X147.014 Y140.424
G1 F2400 X136.925 Y150.513 E296.31667
G0 F9000 X136.925 Y149.806
G1 F2400 X146.307 Y140.424 E296.86829
G0 F9000 X145.600 Y140.424
G1 F2400 X136.925 Y149.099 E297.37835
G0 F9000 X136.925 Y148.392
G1 F2400 X144.893 Y140.424 E297.84684
G0 F9000 X144.186 Y140.424
G1 F2400 X136.925 Y147.684 E298.27373
G0 F9000 X136.925 Y146.977
G1 F2400 X143.479 Y140.424 E298.65905
G0 F9000 X142.771 Y140.424
G1 F2400 X136.925 Y146.270 E299.00277
G0 F9000 X136.925 Y145.563
G1 F2400 X142.064 Y140.424 E299.30492
G0 F9000 X141.357 Y140.424
G1 F2400 X136.925 Y144.856 E299.56551
G0 F9000 X136.925 Y144.149
G1 F2400 X140.650 Y140.424 E299.78452
G0 F9000 X139.943 Y140.424
G1 F2400 X136.925 Y143.442 E299.96197
G0 F9000 X136.925 Y142.735
G1 F2400 X139.236 Y140.424 E300.09785
G0 F9000 X138.529 Y140.424
G1 F2400 X136.925 Y142.028 E300.19216
G0 F9000 X136.925 Y141.320
G1 F2400 X137.822 Y140.424 E300.24487
G0 F9000 X137.115 Y140.424
G1 F2400 X136.925 Y140.613 E300.25601
;LAYER:4
M106 S40
G0 F9000 X136.750 Y140.250 Z1.000
;TYPE:WALL-INNER
G1 F2700 X168.250 Y140.250 E301.56563
G1 X168.250 Y164.750 E302.58422
G1 X136.750 Y164.750 E303.89384
G1 X136.750 Y140.250 E304.91243
G0 F9000 X136.250 Y139.750
;TYPE:WALL-OUTER
G1 F2700 X168.750 Y139.750 E306.26362
G1 X168.750 Y165.250 E307.32379
G1 X136.250 Y165.250 E308.67498
G1 X136.250 Y139.750 E309.73515
G0 F9000 X137.330 Y140.425
;TYPE:FILL
G1 F2700 X161.480 Y164.574 E311.15505
G0 F9000 X160.596 Y164.574
G1 F2700 X136.924 Y140.903 E312.54684
G0 F9000 X136.924 Y141.786
G1 F2700 X159.712 Y164.574 E313.88669
G0 F9000 X158.828 Y164.574
G1 F2700 X136.924 Y142.670 E315.17456
G0 F9000 X136.924 Y143.554
G1 F2700 X157.945 Y164.574 E316.41048
G0 F9000 X157.061 Y164.574
G1 F2700 X136.924 Y144.438 E317.59443
G0 F9000 X136.924 Y145.322
G1 F2700 X156.177 Y164.574 E318.72641
G0 F9000 X155.293 Y164.574
G1 F2700 X136.924 Y146.206 E319.80640
G0 F9000 X136.924 Y147.090
G1 F2700 X154.409 Y164.574 E320.83442
G0 F9000 X153.525 Y164.574
G1 F2700 X136.924 Y147.974 E321.81047
G0 F9000 X136.924 Y148.857
G1 F2700 X152.641 Y164.574 E322.73457
G0 F9000 X151.757 Y164.574
G1 F2700 X136.924 Y149.741 E323.60669
G0 F9000 X136.924 Y150.625
G1 F2700 X150.873 Y164.574 E324.42684
G0 F9000 X149.989 Y164.574
G1 F2700 X136.924 Y151.509 E325.19501
G0 F9000 X136.924 Y152.393
G1 F2700 X149.105 Y164.574 E325.91121
G0 F9000 X148.221 Y164.574
G1 F2700 X136.924 Y153.277 E326.57543
G0 F9000 X136.924 Y154.161
G1 F2700 X147.337 Y164.574 E327.18767
G0 F9000 X146.453 Y164.574
G1 F2700 X136.924 Y155.045 E327.74794
G0 F9000 X136.924 Y155.929
G1 F2700 X145.569 Y164.574 E328.25624
G0 F9000 X144.686 Y164.574
G1 F2700 X136.924 Y156.812 E328.71261
G0 F9000 X136.924 Y157.696
G1 F2700 X143.802 Y164.574 E329.11701
G0 F9000 X142.918 Y164.574
G1 F2700 X136.924 Y158.580 E329.46944
G0 F9000 X136.924 Y159.464
G1 F2700 X142.034 Y164.574 E329.76988
G0 F9000 X141.150 Y164.574
G1 F2700 X136.924 Y160.348 E330.01836
G0 F9000 X136.924 Y161.232
G1 F2700 X140.266 Y164.574 E330.21485
G0 F9000 X139.382 Y164.574
G1 F2700 X136.924 Y162.116 E330.35937
G0 F9000 X136.924 Y163.000
G1 F2700 X138.498 Y164.574 E330.45192
G0 F9000 X137.615 Y164.574
G1 F2700 X136.924 Y163.884 E330.49252
G1 F2400 E329.89252
G1 Z1.500
G0 F9000 X138.214 Y140.425
G1 Z1.000
G1 F2400 E330.49252
G1 F2700 X162.364 Y164.574 E331.91242
G0 F9000 X163.248 Y164.574
G1 F2700 X139.098 Y140.425 E333.33231
G0 F9000 X139.982 Y140.425
G1 F2700 X164.132 Y164.574 E334.75221
G0 F9000 X165.016 Y164.574
G1 F2700 X140.866 Y140.425 E336.17211
G0 F9000 X141.750 Y140.425
G1 F2700 X165.899 Y164.574 E337.59198
G0 F9000 X166.783 Y164.574
G1 F2700 X142.634 Y140.425 E339.01185
G0 F9000 X143.517 Y140.425
G1 F2700 X167.667 Y164.574 E340.43175
G0 F9000 X168.074 Y164.097
G1 F2700 X144.401 Y140.425 E341.82360
G0 F9000 X145.285 Y140.425
G1 F2700 X168.074 Y163.213 E343.16347
G0 F9000 X168.074 Y162.329
G1 F2700 X146.169 Y140.425 E344.45137
G0 F9000 X147.053 Y140.425
G1 F2700 X168.074 Y161.445 E345.68730
G0 F9000 X168.074 Y160.562
G1 F2700 X147.937 Y140.425 E346.87128
G0 F9000 X148.821 Y140.425
G1 F2700 X168.074 Y159.678 E348.00328
G0 F9000 X168.074 Y158.794
G1 F2700 X149.705 Y140.425 E349.08331
G0 F9000 X150.588 Y140.425
G1 F2700 X168.074 Y157.910 E350.11139
G0 F9000 X168.074 Y157.026
G1 F2700 X151.472 Y140.425 E351.08749
G0 F9000 X152.356 Y140.425
G1 F2700 X168.074 Y156.142 E352.01162
G0 F9000 X168.074 Y155.258
G1 F2700 X153.240 Y140.425 E352.88377
G0 F9000 X154.124 Y140.425
G1 F2700 X168.074 Y154.374 E353.70395
G0 F9000 X168.074 Y153.490
G1 F2700 X155.008 Y140.425 E354.47215
G0 F9000 X155.892 Y140.425
G1 F2700 X168.074 Y152.607 E355.18841
G0 F9000 X168.074 Y151.723
G1 F2700 X156.776 Y140.425 E355.85269
G0 F9000 X157.660 Y140.425
G1 F2700 X168.074 Y150.839 E356.46499
G0 F9000 X168.074 Y149.955
G1 F2700 X158.543 Y140.425 E357.02535
G0 F9000 X159.427 Y140.425
G1 F2700 X168.074 Y149.071 E357.53373
G0 F9000 X168.074 Y148.187
G1 F2700 X160.311 Y140.425 E357.99013
G0 F9000 X161.195 Y140.425
G1 F2700 X168.074 Y147.303 E358.39456
G0 F9000 X168.074 Y146.419
G1 F2700 X162.079 Y140.425 E358.74702
G0 F9000 X162.963 Y140.425
G1 F2700 X168.074 Y145.536 E359.04752
G0 F9000 X168.074 Y144.652
G1 F2700 X163.847 Y140.425 E359.29605
G0 F9000 X164.731 Y140.425
G1 F2700 X168.074 Y143.768 E359.49261
G0 F9000 X168.074 Y142.884
G1 F2700 X165.615 Y140.425 E359.63719
G0 F9000 X166.498 Y140.425
G1 F2700 X168.074 Y142.000 E359.72982
G0 F9000 X168.074 Y141.116
G1 F2700 X167.382 Y140.425 E359.77048
;LAYER:5
M106 S51
G0 F9000 X168.250 Y140.250 Z1.200
;TYPE:WALL-INNER
G1 F2700 X168.250 Y164.750 E360.78907
G1 X136.750 Y164.750 E362.09869
G1 X136.750 Y140.250 E363.11728
G1 X168.250 Y140.250 E364.42690
G0 F9000 X168.750 Y139.750
;TYPE:WALL-OUTER
G1 F2700 X168.750 Y165.250 E365.48707
G1 X136.250 Y165.250 E366.83826
G1 X136.250 Y139.750 E367.89843
G1 X168.750 Y139.750 E369.24962
G0 F9000 X168.074 Y140.843
;TYPE:FILL
G1 F2700 X144.343 Y164.574 E370.64491
G0 F9000 X145.227 Y164.574
G1 F2700 X168.074 Y141.727 E371.98823
G0 F9000 X168.074 Y142.611
G1 F2700 X146.110 Y164.574 E373.27960
G0 F9000 X146.994 Y164.574
G1 F2700 X168.074 Y143.495 E374.51899
G0 F9000 X168.074 Y144.379
G1 F2700 X147.878 Y164.574 E375.70641
G0 F9000 X148.762 Y164.574
G1 F2700 X168.074 Y145.263 E376.84185
G0 F9000 X168.074 Y146.146
G1 F2700 X149.646 Y164.574 E377.92535
G0 F9000 X150.530 Y164.574
G1 F2700 X168.074 Y147.030 E378.95687
G0 F9000 X168.074 Y147.914
G1 F2700 X151.414 Y164.574 E379.93641
G0 F9000 X152.298 Y164.574
G1 F2700 X168.074 Y148.798 E380.86398
G0 F9000 X168.074 Y149.682
G1 F2700 X153.181 Y164.575 E381.73963
G0 F9000 X154.065 Y164.575
G1 F2700 X168.074 Y150.566 E382.56331
G0 F9000 X168.074 Y151.450
G1 F2700 X154.949 Y164.575 E383.33501
G0 F9000 X155.832 Y164.575
G1 F2700 X168.074 Y152.334 E384.05476
G0 F9000 X168.074 Y153.218
G1 F2700 X156.716 Y164.575 E384.72254
G0 F9000 X157.600 Y164.575
G1 F2700 X168.074 Y154.101 E385.33837
G0 F9000 X168.074 Y154.985
G1 F2700 X158.484 Y164.575 E385.90222
G0 F9000 X159.368 Y164.575
G1 F2700 X168.074 Y155.869 E386.41410
G0 F9000 X168.074 Y156.753
G1 F2700 X160.252 Y164.575 E386.87401
G0 F9000 X161.136 Y164.575
G1 F2700 X168.074 Y157.637 E387.28193
G0 F9000 X168.074 Y158.521
G1 F2700 X162.020 Y164.575 E387.63789
G0 F9000 X162.903 Y164.575
G1 F2700 X168.074 Y159.405 E387.94189
G1 F2400 E387.34189
G1 Z1.700
G0 F9000 X167.609 Y140.424
G1 Z1.200
G1 F2400 E387.94189
G1 F2700 X143.459 Y164.574 E389.36182
G0 F9000 X142.575 Y164.574
G1 F2700 X166.725 Y140.424 E390.78175
G0 F9000 X165.841 Y140.424
G1 F2700 X141.691 Y164.574 E392.20167
G0 F9000 X140.807 Y164.574
G1 F2700 X164.958 Y140.424 E393.62163
G0 F9000 X164.074 Y140.424
G1 F2700 X139.923 Y164.574 E395.04159
G0 F9000 X139.039 Y164.574
G1 F2700 X163.190 Y140.424 E396.46154
G0 F9000 X162.306 Y140.424
G1 F2700 X138.155 Y164.574 E397.88150
G0 F9000 X137.272 Y164.574
G1 F2700 X161.422 Y140.424 E399.30143
G0 F9000 X160.538 Y140.424
G1 F2700 X136.925 Y164.037 E400.68978
G0 F9000 X136.925 Y163.153
G1 F2700 X159.654 Y140.424 E402.02616
G0 F9000 X158.770 Y140.424
G1 F2700 X136.925 Y162.269 E403.31056
G0 F9000 X136.925 Y161.385
G1 F2700 X157.887 Y140.424 E404.54302
G0 F9000 X157.003 Y140.424
G1 F2700 X136.925 Y160.501 E405.72350
G0 F9000 X136.925 Y159.618
G1 F2700 X156.119 Y140.424 E406.85203
G0 F9000 X155.235 Y140.424
G1 F2700 X136.925 Y158.734 E407.92859
G0 F9000 X136.925 Y157.850
G1 F2700 X154.351 Y140.424 E408.95317
G0 F9000 X153.467 Y140.424
G1 F2700 X136.925 Y156.966 E409.92578
G0 F9000 X136.925 Y156.082
G1 F2700 X152.583 Y140.424 E410.84641
G0 F9000 X151.699 Y140.424
G1 F2700 X136.925 Y155.198 E411.71506
G0 F9000 X136.925 Y154.314
G1 F2700 X150.815 Y140.424 E412.53174
G0 F9000 X149.932 Y140.424
G1 F2700 X136.925 Y153.430 E413.29647
G0 F9000 X136.925 Y152.546
G1 F2700 X149.048 Y140.424 E414.00923
G0 F9000 X148.164 Y140.424
G1 F2700 X136.925 Y151.663 E414.67004
G0 F9000 X136.925 Y150.779
G1 F2700 X147.280 Y140.424 E415.27888
G0 F9000 X146.396 Y140.424
G1 F2700 X136.925 Y149.895 E415.83573
G0 F9000 X136.925 Y149.011
G1 F2700 X145.512 Y140.424 E416.34062
G0 F9000 X144.628 Y140.424
G1 F2700 X136.925 Y148.127 E416.79352
G0 F9000 X136.925 Y147.243
G1 F2700 X143.744 Y140.424 E417.19445
G0 F9000 X142.861 Y140.424
G1 F2700 X136.925 Y146.359 E417.54344
G0 F9000 X136.925 Y145.475
G1 F2700 X141.977 Y140.424 E417.84045
G0 F9000 X141.093 Y140.424
G1 F2700 X136.925 Y144.592 E418.08551
G0 F9000 X136.925 Y143.708
G1 F2700 X140.209 Y140.424 E418.27860
G0 F9000 X139.325 Y140.424
G1 F2700 X136.925 Y142.824 E418.41971
G0 F9000 X136.925 Y141.940
G1 F2700 X138.441 Y140.424 E418.50884
G0 F9000 X137.557 Y140.424
G1 F2700 X136.925 Y141.056 E418.54600
G1 F2400 E417.94600
G1 Z1.700
G0 F9000 X163.787 Y164.575
G1 Z1.200
G1 F2400 E418.54600
G1 F2700 X168.074 Y160.289 E418.79803
G0 F9000 X168.074 Y161.172
G1 F2700 X164.671 Y164.575 E418.99812
G0 F9000 X165.555 Y164.575
G1 F2700 X168.074 Y162.056 E419.14622
G0 F9000 X168.074 Y162.940
G1 F2700 X166.439 Y164.575 E419.24235
G0 F9000 X167.323 Y164.575
G1 F2700 X168.074 Y163.824 E419.28651
;LAYER:6
M106 S63
G0 F9000 X168.250 Y164.750 Z1.400
;TYPE:WALL-INNER
G1 F2700 X136.750 Y164.750 E420.59613
G1 X136.750 Y140.250 E421.61472
G1 X168.250 Y140.250 E422.92434
G1 X168.250 Y164.750 E423.94293
G0 F9000 X168.750 Y165.250
;TYPE:WALL-OUTER
G1 F2700 X136.250 Y165.250 E425.29412
G1 X136.250 Y139.750 E426.35429
G1 X168.750 Y139.750 E427.70548
G1 X168.750 Y165.250 E428.76565
G0 F9000 X167.667 Y164.574
;TYPE:FILL
G1 F2700 X166.767 Y163.674 E428.81857
G0 F9000 X165.883 Y163.674
G1 F2700 X166.783 Y164.574 E428.87148
G0 F9000 X165.899 Y164.574
G1 F2700 X164.999 Y163.674 E428.92440
G0 F9000 X164.115 Y163.674
G1 F2700 X165.016 Y164.574 E428.97734
G0 F9000 X164.132 Y164.574
G1 F2700 X163.232 Y163.674 E429.03026
G0 F9000 X162.348 Y163.674
G1 F2700 X163.248 Y164.574 E429.08318
G0 F9000 X162.364 Y164.574
G1 F2700 X161.464 Y163.674 E429.13609
G0 F9000 X160.580 Y163.674
G1 F2700 X161.480 Y164.574 E429.18901
G0 F9000 X160.596 Y164.574
G1 F2700 X159.696 Y163.674 E429.24193
G0 F9000 X158.812 Y163.674
G1 F2700 X159.712 Y164.574 E429.29484
G0 F9000 X158.828 Y164.574
G1 F2700 X157.928 Y163.674 E429.34776
G0 F9000 X157.044 Y163.674
G1 F2700 X157.945 Y164.574 E429.40071
G0 F9000 X157.061 Y164.574
G1 F2700 X156.160 Y163.674 E429.45365
G0 F9000 X155.277 Y163.674
G1 F2700 X156.177 Y164.574 E429.50657
G0 F9000 X155.293 Y164.574
G1 F2700 X154.393 Y163.674 E429.55949
G0 F9000 X153.509 Y163.674
G1 F2700 X154.409 Y164.574 E429.61240
G0 F9000 X153.525 Y164.574
G1 F2700 X152.625 Y163.674 E429.66532
G0 F9000 X151.741 Y163.674
G1 F2700 X152.641 Y164.574 E429.71824
G0 F9000 X151.757 Y164.574
G1 F2700 X150.857 Y163.674 E429.77115
G0 F9000 X149.973 Y163.674
G1 F2700 X150.873 Y164.574 E429.82407
G0 F9000 X149.989 Y164.574
G1 F2700 X149.089 Y163.674 E429.87698
G0 F9000 X148.206 Y163.674
G1 F2700 X149.105 Y164.574 E429.92987
G0 F9000 X148.221 Y164.574
G1 F2700 X147.322 Y163.674 E429.98276
G0 F9000 X146.438 Y163.674
G1 F2700 X147.337 Y164.574 E430.03565
G0 F9000 X146.453 Y164.574
G1 F2700 X145.554 Y163.674 E430.08853
G0 F9000 X144.670 Y163.674
G1 F2700 X145.569 Y164.574 E430.14142
G0 F9000 X144.686 Y164.574
G1 F2700 X143.786 Y163.674 E430.19434
G0 F9000 X142.902 Y163.674
G1 F2700 X143.802 Y164.574 E430.24725
G0 F9000 X142.918 Y164.574
G1 F2700 X142.018 Y163.674 E430.30017
G0 F9000 X141.134 Y163.674
G1 F2700 X142.034 Y164.574 E430.35309
G0 F9000 X141.150 Y164.574
G1 F2700 X140.251 Y163.674 E430.40597
G0 F9000 X139.367 Y163.674
G1 F2700 X140.266 Y164.574 E430.45886
G0 F9000 X139.382 Y164.574
G1 F2700 X138.483 Y163.674 E430.51175
G0 F9000 X138.498 Y164.574
G1 F2700 X136.924 Y163.000 E430.60429
G0 F9000 X136.924 Y163.884
G1 F2700 X137.615 Y164.574 E430.64489
G1 F2400 E430.04489
G1 Z1.900
G0 F9000 X137.825 Y163.016
G1 Z1.400
G1 F2400 E430.64489
G1 F2700 X136.924 Y162.116 E430.69784
G0 F9000 X136.924 Y161.232
G1 F2700 X137.825 Y162.132 E430.75078
G0 F9000 X137.825 Y161.248
G1 F2700 X136.924 Y160.348 E430.80373
G0 F9000 X136.924 Y159.464
G1 F2700 X137.825 Y160.364 E430.85668
G0 F9000 X137.825 Y159.480
G1 F2700 X137.018 Y158.674 E430.90410
G1 F2400 E430.30410
G1 Z1.900
G0 F9000 X137.042 Y146.323
G1 Z1.400
G1 F2400 E430.90410
G1 F2700 X136.924 Y146.206 E430.91100
G0 F9000 X136.924 Y145.322
G1 F2700 X137.825 Y146.222 E430.96395
G0 F9000 X137.825 Y145.338
G1 F2700 X136.924 Y144.438 E431.01690
G0 F9000 X136.924 Y143.554
G1 F2700 X137.825 Y144.454 E431.06984
G0 F9000 X137.825 Y143.570
G1 F2700 X136.924 Y142.670 E431.12279
G0 F9000 X136.924 Y141.786
G1 F2700 X137.825 Y142.687 E431.17576
G0 F9000 X137.825 Y141.803
G1 F2700 X136.924 Y140.903 E431.22871
G0 F9000 X137.330 Y140.425
G1 F2700 X138.229 Y141.323 E431.28154
G0 F9000 X139.113 Y141.323
G1 F2700 X138.214 Y140.425 E431.33437
G0 F9000 X139.098 Y140.425
G1 F2700 X139.997 Y141.323 E431.38719
G0 F9000 X140.881 Y141.323
G1 F2700 X139.982 Y140.425 E431.44002
G0 F9000 X140.866 Y140.425
G1 F2700 X141.765 Y141.323 E431.49285
G0 F9000 X142.648 Y141.323
G1 F2700 X141.750 Y140.425 E431.54565
G0 F9000 X142.634 Y140.425
G1 F2700 X143.532 Y141.323 E431.59845
G0 F9000 X144.416 Y141.323
G1 F2700 X143.517 Y140.425 E431.65128
G0 F9000 X144.401 Y140.425
G1 F2700 X145.300 Y141.323 E431.70411
G0 F9000 X146.184 Y141.323
G1 F2700 X145.285 Y140.425 E431.75693
G0 F9000 X146.169 Y140.425
G1 F2700 X147.068 Y141.323 E431.80976
G0 F9000 X147.952 Y141.323
G1 F2700 X147.053 Y140.425 E431.86259
G0 F9000 X147.937 Y140.425
G1 F2700 X148.836 Y141.323 E431.91542
G0 F9000 X149.719 Y141.323
G1 F2700 X148.821 Y140.425 E431.96822
G0 F9000 X149.705 Y140.425
G1 F2700 X150.603 Y141.323 E432.02102
G0 F9000 X151.487 Y141.323
G1 F2700 X150.588 Y140.425 E432.07385
G0 F9000 X151.472 Y140.425
G1 F2700 X152.371 Y141.323 E432.12667
G0 F9000 X153.255 Y141.323
G1 F2700 X152.356 Y140.425 E432.17950
G0 F9000 X153.240 Y140.425
G1 F2700 X154.139 Y141.323 E432.23233
G0 F9000 X155.023 Y141.323
G1 F2700 X154.124 Y140.425 E432.28516
G0 F9000 X155.008 Y140.425
G1 F2700 X155.907 Y141.323 E432.33799
G0 F9000 X156.791 Y141.323
G1 F2700 X155.892 Y140.425 E432.39082
G0 F9000 X156.776 Y140.425
G1 F2700 X157.674 Y141.323 E432.44361
G0 F9000 X158.558 Y141.323
G1 F2700 X157.660 Y140.425 E432.49641
G0 F9000 X158.543 Y140.425
G1 F2700 X159.442 Y141.323 E432.54924
G0 F9000 X160.326 Y141.323
G1 F2700 X159.427 Y140.425 E432.60207
G0 F9000 X160.311 Y140.425
G1 F2700 X161.210 Y141.323 E432.65490
G0 F9000 X162.094 Y141.323
G1 F2700 X161.195 Y140.425 E432.70773
G0 F9000 X162.079 Y140.425
G1 F2700 X162.978 Y141.323 E432.76056
G0 F9000 X163.862 Y141.323
G1 F2700 X162.963 Y140.425 E432.81338
G0 F9000 X163.847 Y140.425
G1 F2700 X164.745 Y141.323 E432.86618
G0 F9000 X165.629 Y141.323
G1 F2700 X164.731 Y140.425 E432.91898
G0 F9000 X165.615 Y140.425
G1 F2700 X166.513 Y141.323 E432.97178
G0 F9000 X167.397 Y141.323
G1 F2700 X166.498 Y140.425 E433.02461
G0 F9000 X167.382 Y140.425
G1 F2700 X168.074 Y141.116 E433.06527
G1 F2400 E432.46527
G1 Z1.900
G0 F9000 X167.651 Y163.674
G1 Z1.400
G1 F2400 E433.06527
G1 F2700 X168.074 Y164.097 E433.09014
G0 F9000 X168.074 Y164.185
;TYPE:SKIN
G1 F2700 X144.563 Y140.674 E434.47249
G0 F9000 X143.856 Y140.674
G1 F2700 X167.506 Y164.324 E435.86302
G0 F9000 X166.799 Y164.324
G1 F2700 X143.149 Y140.674 E437.25355
G0 F9000 X142.442 Y140.674
G1 F2700 X166.092 Y164.324 E438.64408
G0 F9000 X165.385 Y164.324
G1 F2700 X141.735 Y140.674 E440.03461
G0 F9000 X141.028 Y140.674
G1 F2700 X164.678 Y164.324 E441.42514
G0 F9000 X163.970 Y164.324
G1 F2700 X140.321 Y140.674 E442.81564
G1 F2400 E442.21564
G1 Z1.900
G0 F9000 X145.270 Y140.674
G1 Z1.400
G1 F2400 E442.81564
G1 F2700 X168.074 Y163.478 E444.15643
G0 F9000 X168.074 Y162.771
G1 F2700 X145.977 Y140.674 E445.45565
G0 F9000 X146.685 Y140.674
G1 F2700 X168.074 Y162.063 E446.71324
G0 F9000 X168.074 Y161.356
G1 F2700 X147.392 Y140.674 E447.92926
G0 F9000 X148.099 Y140.674
G1 F2700 X168.074 Y160.649 E449.10371
G1 F2400 E448.50371
G1 Z1.900
G0 F9000 X163.263 Y164.324
G1 Z1.400
G1 F2400 E449.10371
G1 F2700 X139.613 Y140.674 E450.49424
G0 F9000 X138.906 Y140.674
G1 F2700 X162.556 Y164.324 E451.88477
G0 F9000 X161.849 Y164.324
G1 F2700 X138.199 Y140.674 E453.27530
G0 F9000 X137.492 Y140.674
G1 F2700 X161.142 Y164.324 E454.66583
G0 F9000 X160.435 Y164.324
G1 F2700 X137.175 Y141.064 E456.03343
G0 F9000 X137.175 Y141.771
G1 F2700 X159.728 Y164.324 E457.35946
G0 F9000 X159.021 Y164.324
G1 F2700 X137.175 Y142.478 E458.64392
G0 F9000 X137.175 Y143.185
G1 F2700 X158.314 Y164.324 E459.88681
G0 F9000 X157.607 Y164.324
G1 F2700 X137.175 Y143.892 E461.08814
G0 F9000 X137.175 Y144.599
G1 F2700 X156.899 Y164.324 E462.24786
G0 F9000 X156.192 Y164.324
G1 F2700 X137.175 Y145.306 E463.36602
G0 F9000 X136.924 Y145.763
G1 F2700 X155.485 Y164.324 E464.45733
G0 F9000 X154.778 Y164.324
G1 F2700 X136.924 Y146.470 E465.50708
G0 F9000 X136.924 Y147.177
G1 F2700 X154.071 Y164.324 E466.51526
G0 F9000 X153.364 Y164.324
G1 F2700 X136.924 Y147.885 E467.48184
G0 F9000 X136.924 Y148.592
G1 F2700 X152.657 Y164.324 E468.40685
G0 F9000 X151.949 Y164.323
G1 F2700 X136.924 Y149.299 E469.29023
G0 F9000 X136.924 Y150.006
G1 F2700 X151.242 Y164.323 E470.13205
G0 F9000 X150.535 Y164.323
G1 F2700 X136.924 Y150.713 E470.93229
G0 F9000 X136.924 Y151.420
G1 F2700 X149.828 Y164.323 E471.69097
G0 F9000 X149.121 Y164.323
G1 F2700 X136.924 Y152.127 E472.40808
G0 F9000 X136.924 Y152.834
G1 F2700 X148.413 Y164.323 E473.08358
G0 F9000 X147.706 Y164.323
G1 F2700 X136.924 Y153.541 E473.71752
G0 F9000 X136.924 Y154.248
G1 F2700 X146.999 Y164.323 E474.30990
G0 F9000 X146.292 Y164.323
G1 F2700 X136.924 Y154.956 E474.86067
G0 F9000 X136.924 Y155.663
G1 F2700 X145.585 Y164.323 E475.36987
G0 F9000 X144.878 Y164.323
G1 F2700 X136.924 Y156.370 E475.83751
G0 F9000 X136.924 Y157.077
G1 F2700 X144.171 Y164.323 E476.26358
G0 F9000 X143.464 Y164.323
G1 F2700 X136.924 Y157.784 E476.64807
G0 F9000 X136.924 Y158.491
G1 F2700 X142.757 Y164.323 E476.99100
G0 F9000 X142.049 Y164.323
G1 F2700 X137.175 Y159.449 E477.27757
G0 F9000 X137.050 Y159.324
G1 F2700 X136.924 Y159.198 E477.28498
G0 F9000 X137.175 Y160.156
G1 F2700 X141.342 Y164.323 E477.52999
G0 F9000 X140.635 Y164.323
G1 F2700 X137.175 Y160.863 E477.73342
G0 F9000 X137.175 Y161.570
G1 F2700 X139.928 Y164.323 E477.89529
G0 F9000 X139.221 Y164.323
G1 F2700 X137.175 Y162.277 E478.01558
G0 F9000 X137.175 Y162.984
G1 F2700 X138.514 Y164.323 E478.09431
G0 F9000 X137.807 Y164.323
G1 F2700 X137.175 Y163.691 E478.13147
G1 F2400 E477.53147
G1 Z1.900
G0 F9000 X148.806 Y140.674
G1 Z1.400
G1 F2400 E478.13147
G1 F2700 X168.074 Y159.942 E479.26436
G0 F9000 X168.074 Y159.235
G1 F2700 X149.513 Y140.674 E480.35567
G0 F9000 X150.220 Y140.674
G1 F2700 X168.074 Y158.528 E481.40542
G0 F9000 X168.074 Y157.821
G1 F2700 X150.927 Y140.674 E482.41360
G0 F9000 X151.634 Y140.674
G1 F2700 X168.074 Y157.114 E483.38020
G0 F9000 X168.074 Y156.407
G1 F2700 X152.341 Y140.674 E484.30524
G0 F9000 X153.049 Y140.675
G1 F2700 X168.074 Y155.699 E485.18863
G0 F9000 X168.074 Y154.992
G1 F2700 X153.756 Y140.675 E486.03044
G0 F9000 X154.463 Y140.675
G1 F2700 X168.074 Y154.285 E486.83069
G0 F9000 X168.074 Y153.578
G1 F2700 X155.171 Y140.675 E487.58933
G0 F9000 X155.878 Y140.675
G1 F2700 X168.074 Y152.871 E488.30641
G0 F9000 X168.074 Y152.164
G1 F2700 X156.585 Y140.675 E488.98192
G0 F9000 X157.292 Y140.675
G1 F2700 X168.074 Y151.457 E489.61586
G0 F9000 X168.074 Y150.750
G1 F2700 X157.999 Y140.675 E490.20823
G0 F9000 X158.706 Y140.675
G1 F2700 X168.074 Y150.043 E490.75904
G0 F9000 X168.074 Y149.336
G1 F2700 X159.413 Y140.675 E491.26827
G0 F9000 X160.120 Y140.675
G1 F2700 X168.074 Y148.628 E491.73590
G0 F9000 X168.074 Y147.921
G1 F2700 X160.827 Y140.675 E492.16197
G0 F9000 X161.535 Y140.675
G1 F2700 X168.074 Y147.214 E492.54644
G0 F9000 X168.074 Y146.507
G1 F2700 X162.242 Y140.675 E492.88934
G0 F9000 X162.949 Y140.675
G1 F2700 X168.074 Y145.800 E493.19067
G0 F9000 X168.074 Y145.093
G1 F2700 X163.656 Y140.675 E493.45043
G0 F9000 X164.363 Y140.675
G1 F2700 X168.074 Y144.386 E493.66862
G0 F9000 X168.074 Y143.679
G1 F2700 X165.070 Y140.675 E493.84525
G0 F9000 X165.777 Y140.675
G1 F2700 X168.074 Y142.972 E493.98030
G0 F9000 X168.074 Y142.264
G1 F2700 X166.484 Y140.675 E494.07376
G0 F9000 X167.191 Y140.675
G1 F2700 X168.074 Y141.557 E494.12565
G0 F9000 X168.074 Y140.850
G1 F2700 X167.898 Y140.675 E494.13596
;LAYER:7
M106 S73
G0 F9000 X168.250 Y140.250 Z1.600
;TYPE:WALL-INNER
G1 F2700 X168.250 Y164.750 E495.15456
G1 X136.750 Y164.750 E496.46417
G1 X136.750 Y140.250 E497.48276
G1 X168.250 Y140.250 E498.79238
G0 F9000 X168.750 Y139.750
;TYPE:WALL-OUTER
G1 F2700 X168.750 Y165.250 E499.85255
G1 X136.250 Y165.250 E501.20374
G1 X136.250 Y139.750 E502.26391
G1 X168.750 Y139.750 E503.61510
G0 F9000 X168.074 Y140.843
;TYPE:FILL
G1 F2700 X167.593 Y141.324 E503.64338
G0 F9000 X166.709 Y141.324
G1 F2700 X167.609 Y140.424 E503.69630
G0 F9000 X166.725 Y140.424
G1 F2700 X165.825 Y141.324 E503.74922
G0 F9000 X164.941 Y141.324
G1 F2700 X165.841 Y140.424 E503.80213
G0 F9000 X164.958 Y140.424
G1 F2700 X164.057 Y141.324 E503.85508
G0 F9000 X163.174 Y141.324
G1 F2700 X164.074 Y140.424 E503.90800
G0 F9000 X163.190 Y140.424
G1 F2700 X162.290 Y141.324 E503.96091
G0 F9000 X161.406 Y141.324
G1 F2700 X162.306 Y140.424 E504.01383
G0 F9000 X161.422 Y140.424
G1 F2700 X160.522 Y141.324 E504.06675
G0 F9000 X159.638 Y141.324
G1 F2700 X160.538 Y140.424 E504.11966
G0 F9000 X159.654 Y140.424
G1 F2700 X158.754 Y141.324 E504.17258
G0 F9000 X157.870 Y141.324
G1 F2700 X158.770 Y140.424 E504.22549
G0 F9000 X157.887 Y140.424
G1 F2700 X156.986 Y141.324 E504.27844
G0 F9000 X156.103 Y141.324
G1 F2700 X157.003 Y140.424 E504.33136
G0 F9000 X156.119 Y140.424
G1 F2700 X155.219 Y141.324 E504.38427
G0 F9000 X154.335 Y141.324
G1 F2700 X155.235 Y140.424 E504.43719
G0 F9000 X154.351 Y140.424
G1 F2700 X153.451 Y141.324 E504.49011
G0 F9000 X152.567 Y141.324
G1 F2700 X153.467 Y140.424 E504.54302
G0 F9000 X152.583 Y140.424
G1 F2700 X151.683 Y141.324 E504.59594
G0 F9000 X150.799 Y141.324
G1 F2700 X151.699 Y140.424 E504.64886
G0 F9000 X150.815 Y140.424
G1 F2700 X149.915 Y141.324 E504.70177
G0 F9000 X149.031 Y141.324
G1 F2700 X149.932 Y140.424 E504.75472
G0 F9000 X149.048 Y140.424
G1 F2700 X148.148 Y141.324 E504.80764
G0 F9000 X147.264 Y141.324
G1 F2700 X148.164 Y140.424 E504.86055
G0 F9000 X147.280 Y140.424
G1 F2700 X146.380 Y141.324 E504.91347
G0 F9000 X145.496 Y141.324
G1 F2700 X146.396 Y140.424 E504.96639
G0 F9000 X145.512 Y140.424
G1 F2700 X144.612 Y141.324 E505.01930
G0 F9000 X143.728 Y141.324
G1 F2700 X144.628 Y140.424 E505.07222
G0 F9000 X143.744 Y140.424
G1 F2700 X142.844 Y141.324 E505.12513
G0 F9000 X141.960 Y141.324
G1 F2700 X142.861 Y140.424 E505.17808
G0 F9000 X141.977 Y140.424
G1 F2700 X141.076 Y141.324 E505.23103
G0 F9000 X140.193 Y141.324
G1 F2700 X141.093 Y140.424 E505.28394
G0 F9000 X140.209 Y140.424
G1 F2700 X139.309 Y141.324 E505.33686
G0 F9000 X138.425 Y141.324
G1 F2700 X139.325 Y140.424 E505.38978
G0 F9000 X138.441 Y140.424
G1 F2700 X136.925 Y141.940 E505.47891
G0 F9000 X136.925 Y142.824
G1 F2700 X137.825 Y141.924 E505.53183
G0 F9000 X137.825 Y142.808
G1 F2700 X136.925 Y143.708 E505.58474
G0 F9000 X136.925 Y144.592
G1 F2700 X137.825 Y143.692 E505.63766
G0 F9000 X137.825 Y144.576
G1 F2700 X136.925 Y145.475 E505.69055
G0 F9000 X136.960 Y146.324
G1 F2700 X137.825 Y145.460 E505.74138
G1 F2400 E505.14138
G1 Z2.100
G0 F9000 X136.925 Y141.056
G1 Z1.600
G1 F2400 E505.74138
G1 F2700 X137.557 Y140.424 E505.77854
G1 F2400 E505.17854
G1 Z2.100
G0 F9000 X137.825 Y158.718
G1 Z1.600
G1 F2400 E505.77854
G1 F2700 X136.924 Y159.618 E505.83148
G0 F9000 X136.924 Y160.502
G1 F2700 X137.825 Y159.602 E505.88443
G0 F9000 X137.825 Y160.486
G1 F2700 X136.924 Y161.386 E505.93737
G0 F9000 X136.924 Y162.270
G1 F2700 X137.825 Y161.370 E505.99032
G0 F9000 X137.825 Y162.254
G1 F2700 X136.924 Y163.154 E506.04327
G0 F9000 X136.924 Y164.038
G1 F2700 X137.825 Y163.138 E506.09621
G0 F9000 X138.172 Y163.674
G1 F2700 X137.272 Y164.574 E506.14913
G0 F9000 X138.155 Y164.574
G1 F2700 X139.056 Y163.674 E506.20207
G0 F9000 X139.940 Y163.674
G1 F2700 X139.039 Y164.574 E506.25502
G0 F9000 X139.923 Y164.574
G1 F2700 X140.824 Y163.674 E506.30797
G0 F9000 X141.708 Y163.674
G1 F2700 X140.807 Y164.574 E506.36091
G0 F9000 X141.691 Y164.574
G1 F2700 X142.592 Y163.674 E506.41386
G0 F9000 X143.476 Y163.674
G1 F2700 X142.575 Y164.574 E506.46680
G0 F9000 X143.459 Y164.574
G1 F2700 X144.360 Y163.674 E506.51975
G0 F9000 X145.243 Y163.674
G1 F2700 X144.343 Y164.574 E506.57267
G0 F9000 X145.227 Y164.574
G1 F2700 X146.127 Y163.674 E506.62558
G0 F9000 X147.011 Y163.674
G1 F2700 X146.110 Y164.574 E506.67853
G0 F9000 X146.994 Y164.574
G1 F2700 X147.895 Y163.674 E506.73148
G0 F9000 X148.779 Y163.674
G1 F2700 X147.878 Y164.574 E506.78442
G0 F9000 X148.762 Y164.574
G1 F2700 X149.663 Y163.674 E506.83737
G0 F9000 X150.547 Y163.674
G1 F2700 X149.646 Y164.574 E506.89031
G0 F9000 X150.530 Y164.574
G1 F2700 X151.431 Y163.674 E506.94326
G0 F9000 X152.315 Y163.674
G1 F2700 X151.414 Y164.574 E506.99621
G0 F9000 X152.298 Y164.574
G1 F2700 X153.198 Y163.674 E507.04912
G0 F9000 X154.082 Y163.674
G1 F2700 X153.181 Y164.575 E507.10210
G0 F9000 X154.065 Y164.575
G1 F2700 X154.966 Y163.674 E507.15507
G0 F9000 X155.850 Y163.674
G1 F2700 X154.949 Y164.575 E507.20805
G0 F9000 X155.832 Y164.575
G1 F2700 X156.734 Y163.674 E507.26105
G0 F9000 X157.618 Y163.674
G1 F2700 X156.716 Y164.575 E507.31406
G0 F9000 X157.600 Y164.575
G1 F2700 X158.502 Y163.674 E507.36706
G0 F9000 X159.386 Y163.674
G1 F2700 X158.484 Y164.575 E507.42007
G0 F9000 X159.368 Y164.575
G1 F2700 X160.269 Y163.674 E507.47304
G0 F9000 X161.153 Y163.674
G1 F2700 X160.252 Y164.575 E507.52602
G0 F9000 X161.136 Y164.575
G1 F2700 X162.037 Y163.674 E507.57899
G0 F9000 X162.921 Y163.674
G1 F2700 X162.020 Y164.575 E507.63197
G0 F9000 X162.903 Y164.575
G1 F2700 X163.805 Y163.674 E507.68497
G0 F9000 X164.689 Y163.674
G1 F2700 X163.787 Y164.575 E507.73798
G0 F9000 X164.671 Y164.575
G1 F2700 X165.573 Y163.674 E507.79098
G0 F9000 X166.457 Y163.674
G1 F2700 X165.555 Y164.575 E507.84399
G0 F9000 X166.439 Y164.575
G1 F2700 X167.341 Y163.674 E507.89699
G0 F9000 X168.074 Y163.824
G1 F2700 X167.323 Y164.575 E507.94115
G0 F9000 X167.661 Y164.325
;TYPE:SKIN
G1 F2700 X168.074 Y163.912 E507.96543
G0 F9000 X168.074 Y163.205
G1 F2700 X166.954 Y164.325 E508.03128
G0 F9000 X166.247 Y164.325
G1 F2700 X168.074 Y162.498 E508.13870
G0 F9000 X168.074 Y161.790
G1 F2700 X165.540 Y164.325 E508.28772
G0 F9000 X164.832 Y164.325
G1 F2700 X168.074 Y161.083 E508.47834
G0 F9000 X168.074 Y160.376
G1 F2700 X164.125 Y164.325 E508.71053
G0 F9000 X163.418 Y164.325
G1 F2700 X168.074 Y159.669 E508.98428
G0 F9000 X168.074 Y158.962
G1 F2700 X162.711 Y164.325 E509.29960
G0 F9000 X162.004 Y164.325
G1 F2700 X168.074 Y158.255 E509.65650
G0 F9000 X168.074 Y157.548
G1 F2700 X161.297 Y164.325 E510.05496
G0 F9000 X160.590 Y164.325
G1 F2700 X168.074 Y156.841 E510.49499
G0 F9000 X168.074 Y156.134
G1 F2700 X159.883 Y164.325 E510.97659
G0 F9000 X159.176 Y164.325
G1 F2700 X168.074 Y155.427 E511.49976
G0 F9000 X168.074 Y154.719
G1 F2700 X158.468 Y164.325 E512.06455
G0 F9000 X157.761 Y164.325
G1 F2700 X168.074 Y154.012 E512.67092
G0 F9000 X168.074 Y153.305
G1 F2700 X157.054 Y164.325 E513.31885
G0 F9000 X156.347 Y164.325
G1 F2700 X168.074 Y152.598 E514.00835
G0 F9000 X168.074 Y151.891
G1 F2700 X155.640 Y164.325 E514.73943
G0 F9000 X154.933 Y164.325
G1 F2700 X168.074 Y151.184 E515.51207
G0 F9000 X168.074 Y150.477
G1 F2700 X154.226 Y164.325 E516.32628
G0 F9000 X153.519 Y164.325
G1 F2700 X168.074 Y149.770 E517.18205
G0 F9000 X168.074 Y149.063
G1 F2700 X152.812 Y164.325 E518.07940
G0 F9000 X152.105 Y164.324
G1 F2700 X168.074 Y148.355 E519.01832
G0 F9000 X168.074 Y147.648
G1 F2700 X151.398 Y164.324 E519.99880
G0 F9000 X150.691 Y164.324
G1 F2700 X168.074 Y146.941 E521.02086
G0 F9000 X168.074 Y146.234
G1 F2700 X149.984 Y164.324 E522.08448
G0 F9000 X149.277 Y164.324
G1 F2700 X168.074 Y145.527 E523.18967
G0 F9000 X168.074 Y144.820
G1 F2700 X148.570 Y164.324 E524.33643
G0 F9000 X147.863 Y164.324
G1 F2700 X168.074 Y144.113 E525.52476
G0 F9000 X168.074 Y143.406
G1 F2700 X147.155 Y164.324 E526.75469
G0 F9000 X146.448 Y164.324
G1 F2700 X168.074 Y142.699 E528.02618
G0 F9000 X168.074 Y141.991
G1 F2700 X145.741 Y164.324 E529.33928
G0 F9000 X145.034 Y164.324
G1 F2700 X168.074 Y141.284 E530.69394
G0 F9000 X167.977 Y140.674
G1 F2700 X144.327 Y164.324 E532.08447
G0 F9000 X143.620 Y164.324
G1 F2700 X167.270 Y140.674 E533.47500
G0 F9000 X166.563 Y140.674
G1 F2700 X142.913 Y164.324 E534.86553
G0 F9000 X142.206 Y164.324
G1 F2700 X165.856 Y140.674 E536.25606
G0 F9000 X165.149 Y140.674
G1 F2700 X141.499 Y164.324 E537.64659
G0 F9000 X140.792 Y164.324
G1 F2700 X164.441 Y140.674 E539.03709
G0 F9000 X163.734 Y140.674
G1 F2700 X140.084 Y164.324 E540.42762
G0 F9000 X139.377 Y164.324
G1 F2700 X163.027 Y140.674 E541.81815
G0 F9000 X162.320 Y140.674
G1 F2700 X138.670 Y164.324 E543.20868
G0 F9000 X137.963 Y164.324
G1 F2700 X161.613 Y140.674 E544.59921
G0 F9000 X160.906 Y140.674
G1 F2700 X137.256 Y164.324 E545.98974
G0 F9000 X137.175 Y163.698
G1 F2700 X160.199 Y140.674 E547.34346
G0 F9000 X159.492 Y140.674
G1 F2700 X137.175 Y162.991 E548.65561
G0 F9000 X137.175 Y162.284
G1 F2700 X158.785 Y140.674 E549.92620
G0 F9000 X158.077 Y140.674
G1 F2700 X137.175 Y161.577 E551.15518
G0 F9000 X137.175 Y160.870
G1 F2700 X157.370 Y140.674 E552.34260
G0 F9000 X156.663 Y140.674
G1 F2700 X137.175 Y160.163 E553.48845
G0 F9000 X137.175 Y159.456
G1 F2700 X155.956 Y140.674 E554.59273
G0 F9000 X155.249 Y140.674
G1 F2700 X136.924 Y158.999 E555.67017
G0 F9000 X136.924 Y158.292
G1 F2700 X154.542 Y140.674 E556.70604
G0 F9000 X153.835 Y140.674
G1 F2700 X136.924 Y157.585 E557.70034
G0 F9000 X136.924 Y156.878
G1 F2700 X153.128 Y140.674 E558.65308
G0 F9000 X152.421 Y140.673
G1 F2700 X136.924 Y156.170 E559.56424
G0 F9000 X136.924 Y155.463
G1 F2700 X151.714 Y140.673 E560.43384
G0 F9000 X151.007 Y140.673
G1 F2700 X136.924 Y154.756 E561.26186
G0 F9000 X136.924 Y154.049
G1 F2700 X150.300 Y140.673 E562.04832
G0 F9000 X149.593 Y140.673
G1 F2700 X136.924 Y153.342 E562.79321
G0 F9000 X136.924 Y152.635
G1 F2700 X148.886 Y140.673 E563.49653
G0 F9000 X148.179 Y140.673
G1 F2700 X136.924 Y151.928 E564.15828
G0 F9000 X136.924 Y151.221
G1 F2700 X147.472 Y140.673 E564.77846
G0 F9000 X146.764 Y140.673
G1 F2700 X136.924 Y150.514 E565.35705
G0 F9000 X136.924 Y149.806
G1 F2700 X146.057 Y140.673 E565.89403
G0 F9000 X145.350 Y140.673
G1 F2700 X136.924 Y149.099 E566.38945
G0 F9000 X136.924 Y148.392
G1 F2700 X144.643 Y140.673 E566.84330
G0 F9000 X143.936 Y140.673
G1 F2700 X136.924 Y147.685 E567.25557
G0 F9000 X136.924 Y146.978
G1 F2700 X143.229 Y140.673 E567.62628
G0 F9000 X142.522 Y140.673
G1 F2700 X136.924 Y146.271 E567.95543
G0 F9000 X137.175 Y145.313
G1 F2700 X141.815 Y140.673 E568.22824
G0 F9000 X141.108 Y140.673
G1 F2700 X137.175 Y144.606 E568.45948
G0 F9000 X137.175 Y143.899
G1 F2700 X140.401 Y140.673 E568.64916
G0 F9000 X139.693 Y140.673
G1 F2700 X137.175 Y143.192 E568.79724
G0 F9000 X137.175 Y142.485
G1 F2700 X138.986 Y140.673 E568.90375
G0 F9000 X138.279 Y140.673
G1 F2700 X137.175 Y141.778 E568.96869
G0 F9000 X137.175 Y141.071
G1 F2700 X137.572 Y140.673 E568.99206
;LAYER:8
M106 S84
G0 F9000 X136.750 Y140.250 Z1.800
;TYPE:WALL-INNER
G1 F2700 X168.250 Y140.250 E570.30168
G1 X168.250 Y164.750 E571.32027
G1 X136.750 Y164.750 E572.62989
G1 X136.750 Y140.250 E573.64848
G0 F9000 X136.250 Y139.750
;TYPE:WALL-OUTER
G1 F2700 X168.750 Y139.750 E574.99967
G1 X168.750 Y165.250 E576.05984
G1 X136.250 Y165.250 E577.41103
G1 X136.250 Y139.750 E578.47120
G0 F9000 X137.330 Y140.425
;TYPE:FILL
G1 F2700 X138.229 Y141.323 E578.52403
G0 F9000 X137.825 Y141.803
G1 F2700 X136.924 Y140.903 E578.57697
G0 F9000 X136.924 Y141.786
G1 F2700 X137.825 Y142.687 E578.62995
G0 F9000 X137.825 Y143.570
G1 F2700 X136.924 Y142.670 E578.68289
G0 F9000 X136.924 Y143.554
G1 F2700 X137.825 Y144.454 E578.73584
G0 F9000 X137.825 Y145.338
G1 F2700 X136.924 Y144.438 E578.78879
G0 F9000 X136.924 Y145.322
G1 F2700 X137.825 Y146.222 E578.84173
G0 F9000 X137.042 Y146.323
G1 F2700 X136.924 Y146.206 E578.84864
G1 F2400 E578.24864
G1 Z2.300
G0 F9000 X139.113 Y141.323
G1 Z1.800
G1 F2400 E578.84864
G1 F2700 X138.214 Y140.425 E578.90147
G0 F9000 X139.098 Y140.425
G1 F2700 X139.997 Y141.323 E578.95430
G0 F9000 X140.881 Y141.323
G1 F2700 X139.982 Y140.425 E579.00713
G1 F2400 E578.40713
G1 Z2.300
G0 F9000 X137.018 Y158.674
G1 Z1.800
G1 F2400 E579.00713
G1 F2700 X137.825 Y159.480 E579.05455
G0 F9000 X137.825 Y160.364
G1 F2700 X136.924 Y159.464 E579.10749
G0 F9000 X136.924 Y160.348
G1 F2700 X137.825 Y161.248 E579.16044
G0 F9000 X137.825 Y162.132
G1 F2700 X136.924 Y161.232 E579.21338
G0 F9000 X136.924 Y162.116
G1 F2700 X137.825 Y163.016 E579.26633
G0 F9000 X136.924 Y163.000
G1 F2700 X138.498 Y164.574 E579.35887
G0 F9000 X137.615 Y164.574
G1 F2700 X136.924 Y163.884 E579.39947
G1 F2400 E578.79947
G1 Z2.300
G0 F9000 X138.483 Y163.674
G1 Z1.800
G1 F2400 E579.39947
G1 F2700 X139.382 Y164.574 E579.45236
G0 F9000 X140.266 Y164.574
G1 F2700 X139.367 Y163.674 E579.50525
G0 F9000 X140.251 Y163.674
G1 F2700 X141.150 Y164.574 E579.55813
G0 F9000 X142.034 Y164.574
G1 F2700 X141.134 Y163.674 E579.61105
G0 F9000 X142.018 Y163.674
G1 F2700 X142.918 Y164.574 E579.66397
G0 F9000 X143.802 Y164.574
G1 F2700 X142.902 Y163.674 E579.71688
G0 F9000 X143.786 Y163.674
G1 F2700 X144.686 Y164.574 E579.76980
G0 F9000 X145.569 Y164.574
G1 F2700 X144.670 Y163.674 E579.82269
G0 F9000 X145.554 Y163.674
G1 F2700 X146.453 Y164.574 E579.87558
G0 F9000 X147.337 Y164.574
G1 F2700 X146.438 Y163.674 E579.92846
G0 F9000 X147.322 Y163.674
G1 F2700 X148.221 Y164.574 E579.98135
G0 F9000 X149.105 Y164.574
G1 F2700 X148.206 Y163.674 E580.03424
G0 F9000 X149.089 Y163.674
G1 F2700 X149.989 Y164.574 E580.08715
G0 F9000 X150.873 Y164.574
G1 F2700 X149.973 Y163.674 E580.14007
G0 F9000 X150.857 Y163.674
G1 F2700 X151.757 Y164.574 E580.19299
G0 F9000 X152.641 Y164.574
G1 F2700 X151.741 Y163.674 E580.24590
G0 F9000 X152.625 Y163.674
G1 F2700 X153.525 Y164.574 E580.29882
G0 F9000 X154.409 Y164.574
G1 F2700 X153.509 Y163.674 E580.35174
G0 F9000 X154.393 Y163.674
G1 F2700 X155.293 Y164.574 E580.40465
G0 F9000 X156.177 Y164.574
G1 F2700 X155.277 Y163.674 E580.45757
G0 F9000 X156.160 Y163.674
G1 F2700 X157.061 Y164.574 E580.51052
G0 F9000 X157.945 Y164.574
G1 F2700 X157.044 Y163.674 E580.56346
G0 F9000 X157.928 Y163.674
G1 F2700 X158.828 Y164.574 E580.61638
G0 F9000 X159.712 Y164.574
G1 F2700 X158.812 Y163.674 E580.66929
G0 F9000 X159.696 Y163.674
G1 F2700 X160.596 Y164.574 E580.72221
G0 F9000 X161.480 Y164.574
G1 F2700 X160.580 Y163.674 E580.77513
G0 F9000 X161.464 Y163.674
G1 F2700 X162.364 Y164.574 E580.82804
G0 F9000 X163.248 Y164.574
G1 F2700 X162.348 Y163.674 E580.88096
G0 F9000 X163.232 Y163.674
G1 F2700 X164.132 Y164.574 E580.93388
G0 F9000 X165.016 Y164.574
G1 F2700 X164.115 Y163.674 E580.98682
G0 F9000 X164.999 Y163.674
G1 F2700 X165.899 Y164.574 E581.03974
G0 F9000 X166.783 Y164.574
G1 F2700 X165.883 Y163.674 E581.09266
G0 F9000 X166.767 Y163.674
G1 F2700 X167.667 Y164.574 E581.14557
G0 F9000 X168.074 Y164.097
G1 F2700 X167.651 Y163.674 E581.17044
G1 F2400 E580.57044
G1 Z2.300
G0 F9000 X167.397 Y141.323
G1 Z1.800
G1 F2400 E581.17044
G1 F2700 X166.498 Y140.425 E581.22327
G0 F9000 X165.615 Y140.425
G1 F2700 X166.513 Y141.323 E581.27607
G0 F9000 X165.629 Y141.323
G1 F2700 X164.731 Y140.425 E581.32887
G0 F9000 X163.847 Y140.425
G1 F2700 X164.745 Y141.323 E581.38167
G0 F9000 X163.862 Y141.323
G1 F2700 X162.963 Y140.425 E581.43450
G0 F9000 X162.079 Y140.425
G1 F2700 X162.978 Y141.323 E581.48733
G0 F9000 X162.094 Y141.323
G1 F2700 X161.195 Y140.425 E581.54015
G0 F9000 X160.311 Y140.425
G1 F2700 X161.210 Y141.323 E581.59298
G0 F9000 X160.326 Y141.323
G1 F2700 X159.427 Y140.425 E581.64581
G0 F9000 X158.543 Y140.425
G1 F2700 X159.442 Y141.323 E581.69864
G0 F9000 X158.558 Y141.323
G1 F2700 X157.660 Y140.425 E581.75144
G0 F9000 X156.776 Y140.425
G1 F2700 X157.674 Y141.323 E581.80424
G0 F9000 X156.791 Y141.323
G1 F2700 X155.892 Y140.425 E581.85706
G0 F9000 X155.008 Y140.425
G1 F2700 X155.907 Y141.323 E581.90989
G0 F9000 X155.023 Y141.323
G1 F2700 X154.124 Y140.425 E581.96272
G0 F9000 X153.240 Y140.425
G1 F2700 X154.139 Y141.323 E582.01555
G0 F9000 X153.255 Y141.323
G1 F2700 X152.356 Y140.425 E582.06838
G0 F9000 X151.472 Y140.425
G1 F2700 X152.371 Y141.323 E582.12121
G0 F9000 X151.487 Y141.323
G1 F2700 X150.588 Y140.425 E582.17404
G0 F9000 X149.705 Y140.425
G1 F2700 X150.603 Y141.323 E582.22683
G0 F9000 X149.719 Y141.323
G1 F2700 X148.821 Y140.425 E582.27963
G0 F9000 X147.937 Y140.425
G1 F2700 X148.836 Y141.323 E582.33246
G0 F9000 X147.952 Y141.323
G1 F2700 X147.053 Y140.425 E582.38529
G0 F9000 X146.169 Y140.425
G1 F2700 X147.068 Y141.323 E582.43812
G0 F9000 X146.184 Y141.323
G1 F2700 X145.285 Y140.425 E582.49095
G0 F9000 X144.401 Y140.425
G1 F2700 X145.300 Y141.323 E582.54377
G0 F9000 X144.416 Y141.323
G1 F2700 X143.517 Y140.425 E582.59660
G0 F9000 X142.634 Y140.425
G1 F2700 X143.532 Y141.323 E582.64940
G0 F9000 X142.648 Y141.323
G1 F2700 X141.750 Y140.425 E582.70220
G0 F9000 X140.866 Y140.425
G1 F2700 X141.765 Y141.323 E582.75503
G1 F2400 E582.15503
G1 Z2.300
G0 F9000 X167.382 Y140.425
G1 Z1.800
G1 F2400 E582.75503
G1 F2700 X168.074 Y140.983 E582.79568
G1 X167.898 Y140.675 E582.81043
G0 F9000 X167.191 Y140.675
;TYPE:SKIN
G1 F2700 X168.074 Y141.557 E582.86232
G0 F9000 X168.074 Y142.264
G1 F2700 X166.484 Y140.675 E582.95578
G0 F9000 X165.777 Y140.675
G1 F2700 X168.074 Y142.972 E583.09083
G0 F9000 X168.074 Y143.679
G1 F2700 X165.070 Y140.675 E583.26745
G0 F9000 X164.363 Y140.675
G1 F2700 X168.074 Y144.386 E583.48565
G0 F9000 X168.074 Y145.093
G1 F2700 X163.656 Y140.675 E583.74541
G0 F9000 X162.949 Y140.675
G1 F2700 X168.074 Y145.800 E584.04674
G0 F9000 X168.074 Y146.507
G1 F2700 X162.242 Y140.675 E584.38964
G0 F9000 X161.535 Y140.675
G1 F2700 X168.074 Y147.214 E584.77411
G0 F9000 X168.074 Y147.921
G1 F2700 X160.827 Y140.675 E585.20017
G0 F9000 X160.120 Y140.675
G1 F2700 X168.074 Y148.628 E585.66781
G0 F9000 X168.074 Y149.336
G1 F2700 X159.413 Y140.675 E586.17704
G0 F9000 X158.706 Y140.675
G1 F2700 X168.074 Y150.043 E586.72784
G0 F9000 X168.074 Y150.750
G1 F2700 X157.999 Y140.675 E587.32022
G0 F9000 X157.292 Y140.675
G1 F2700 X168.074 Y151.457 E587.95416
G0 F9000 X168.074 Y152.164
G1 F2700 X156.585 Y140.675 E588.62966
G0 F9000 X155.878 Y140.675
G1 F2700 X168.074 Y152.871 E589.34674
G0 F9000 X168.074 Y153.578
G1 F2700 X155.171 Y140.675 E590.10539
G0 F9000 X154.463 Y140.675
G1 F2700 X168.074 Y154.285 E590.90564
G0 F9000 X168.074 Y154.992
G1 F2700 X153.756 Y140.675 E591.74745
G0 F9000 X153.049 Y140.675
G1 F2700 X168.074 Y155.699 E592.63083
G0 F9000 X168.074 Y156.407
G1 F2700 X152.341 Y140.674 E593.55587
G0 F9000 X151.634 Y140.674
G1 F2700 X168.074 Y157.114 E594.52248
G0 F9000 X168.074 Y157.821
G1 F2700 X150.927 Y140.674 E595.53066
G0 F9000 X150.220 Y140.674
G1 F2700 X168.074 Y158.528 E596.58041
G0 F9000 X168.074 Y159.235
G1 F2700 X149.513 Y140.674 E597.67172
G0 F9000 X148.806 Y140.674
G1 F2700 X168.074 Y159.942 E598.80461
G0 F9000 X168.074 Y160.649
G1 F2700 X148.099 Y140.674 E599.97906
G0 F9000 X147.392 Y140.674
G1 F2700 X168.074 Y161.356 E601.19508
G0 F9000 X168.074 Y162.063
G1 F2700 X146.685 Y140.674 E602.45267
G0 F9000 X145.977 Y140.674
G1 F2700 X168.074 Y162.771 E603.75189
G0 F9000 X168.074 Y163.478
G1 F2700 X145.270 Y140.674 E605.09268
G0 F9000 X144.563 Y140.674
G1 F2700 X168.074 Y164.185 E606.47504
G0 F9000 X167.506 Y164.324
G1 F2700 X143.856 Y140.674 E607.86557
G0 F9000 X143.149 Y140.674
G1 F2700 X166.799 Y164.324 E609.25610
G0 F9000 X166.092 Y164.324
G1 F2700 X142.442 Y140.674 E610.64662
G0 F9000 X141.735 Y140.674
G1 F2700 X165.385 Y164.324 E612.03715
G0 F9000 X164.678 Y164.324
G1 F2700 X141.028 Y140.674 E613.42768
G0 F9000 X140.321 Y140.674
G1 F2700 X163.970 Y164.324 E614.81818
G0 F9000 X163.263 Y164.324
G1 F2700 X139.613 Y140.674 E616.20871
G0 F9000 X138.906 Y140.674
G1 F2700 X162.556 Y164.324 E617.59924
G0 F9000 X161.849 Y164.324
G1 F2700 X138.199 Y140.674 E618.98977
G0 F9000 X137.492 Y140.674
G1 F2700 X161.142 Y164.324 E620.38030
G0 F9000 X160.435 Y164.324
G1 F2700 X137.175 Y141.064 E621.74790
G0 F9000 X137.175 Y141.771
G1 F2700 X159.728 Y164.324 E623.07393
G0 F9000 X159.021 Y164.324
G1 F2700 X137.175 Y142.478 E624.35839
G0 F9000 X137.175 Y143.185
G1 F2700 X158.314 Y164.324 E625.60128
G0 F9000 X157.607 Y164.324
G1 F2700 X137.175 Y143.892 E626.80261
G0 F9000 X137.175 Y144.599
G1 F2700 X156.899 Y164.324 E627.96233
G0 F9000 X156.192 Y164.324
G1 F2700 X137.175 Y145.306 E629.08049
G0 F9000 X136.924 Y145.763
G1 F2700 X155.485 Y164.324 E630.17180
G0 F9000 X154.778 Y164.324
G1 F2700 X136.924 Y146.470 E631.22155
G0 F9000 X136.924 Y147.177
G1 F2700 X154.071 Y164.324 E632.22973
G0 F9000 X153.364 Y164.324
G1 F2700 X136.924 Y147.885 E633.19631
G0 F9000 X136.924 Y148.592
G1 F2700 X152.657 Y164.324 E634.12132
G0 F9000 X151.949 Y164.323
G1 F2700 X136.924 Y149.299 E635.00470
G0 F9000 X136.924 Y150.006
G1 F2700 X151.242 Y164.323 E635.84652
G0 F9000 X150.535 Y164.323
G1 F2700 X136.924 Y150.713 E636.64676
G0 F9000 X136.924 Y151.420
G1 F2700 X149.828 Y164.323 E637.40544
G0 F9000 X149.121 Y164.323
G1 F2700 X136.924 Y152.127 E638.12254
G0 F9000 X136.924 Y152.834
G1 F2700 X148.413 Y164.323 E638.79805
G0 F9000 X147.706 Y164.323
G1 F2700 X136.924 Y153.541 E639.43199
G0 F9000 X136.924 Y154.248
G1 F2700 X146.999 Y164.323 E640.02437
G0 F9000 X146.292 Y164.323
G1 F2700 X136.924 Y154.956 E640.57514
G0 F9000 X136.924 Y155.663
G1 F2700 X145.585 Y164.323 E641.08434
G0 F9000 X144.878 Y164.323
G1 F2700 X136.924 Y156.370 E641.55198
G0 F9000 X136.924 Y157.077
G1 F2700 X144.171 Y164.323 E641.97804
G0 F9000 X143.464 Y164.323
G1 F2700 X136.924 Y157.784 E642.36254
G0 F9000 X136.924 Y158.491
G1 F2700 X142.757 Y164.323 E642.70547
G0 F9000 X142.049 Y164.323
G1 F2700 X137.175 Y159.449 E642.99204
G0 F9000 X137.050 Y159.324
G1 F2700 X136.924 Y159.198 E642.99945
G0 F9000 X137.175 Y160.156
G1 F2700 X141.342 Y164.323 E643.24445
G0 F9000 X140.635 Y164.323
G1 F2700 X137.175 Y160.863 E643.44789
G0 F9000 X137.175 Y161.570
G1 F2700 X139.928 Y164.323 E643.60976
G0 F9000 X139.221 Y164.323
G1 F2700 X137.175 Y162.277 E643.73005
G0 F9000 X137.175 Y162.984
G1 F2700 X138.514 Y164.323 E643.80878
G0 F9000 X137.807 Y164.323
G1 F2700 X137.175 Y163.691 E643.84594
;LAYER:9
M106 S94
G0 F9000 X136.750 Y164.750 Z2.000
;TYPE:WALL-INNER
G1 F2700 X136.750 Y140.250 E644.86453
G1 X168.250 Y140.250 E646.17415
G1 X168.250 Y164.750 E647.19274
G1 X136.750 Y164.750 E648.50236
G0 F9000 X136.250 Y165.250
;TYPE:WALL-OUTER
G1 F2700 X136.250 Y139.750 E649.56253
G1 X168.750 Y139.750 E650.91372
G1 X168.750 Y165.250 E651.97389
G1 X136.250 Y165.250 E653.32508
G0 F9000 X137.272 Y164.574
;TYPE:FILL
G1 F2700 X138.172 Y163.674 E653.37799
G0 F9000 X137.825 Y163.138
G1 F2700 X136.924 Y164.038 E653.43094
G0 F9000 X136.924 Y163.154
G1 F2700 X137.825 Y162.254 E653.48389
G0 F9000 X137.825 Y161.370
G1 F2700 X136.924 Y162.270 E653.53683
G0 F9000 X136.924 Y161.386
G1 F2700 X137.825 Y160.486 E653.58978
G0 F9000 X137.825 Y159.602
G1 F2700 X136.924 Y160.502 E653.64272
G1 F2400 E653.04272
G1 Z2.500
G0 F9000 X139.056 Y163.674
G1 Z2.000
G1 F2400 E653.64272
G1 F2700 X138.155 Y164.574 E653.69567
G0 F9000 X139.039 Y164.574
G1 F2700 X139.940 Y163.674 E653.74862
G0 F9000 X140.824 Y163.674
G1 F2700 X139.923 Y164.574 E653.80156
G0 F9000 X140.807 Y164.574
G1 F2700 X141.708 Y163.674 E653.85451
G0 F9000 X142.592 Y163.674
G1 F2700 X141.691 Y164.574 E653.90745
G0 F9000 X142.575 Y164.574
G1 F2700 X143.476 Y163.674 E653.96040
G0 F9000 X144.360 Y163.674
G1 F2700 X143.459 Y164.574 E654.01335
G0 F9000 X144.343 Y164.574
G1 F2700 X145.243 Y163.674 E654.06626
G0 F9000 X146.127 Y163.674
G1 F2700 X145.227 Y164.574 E654.11918
G0 F9000 X146.110 Y164.574
G1 F2700 X147.011 Y163.674 E654.17213
G0 F9000 X147.895 Y163.674
G1 F2700 X146.994 Y164.574 E654.22507
G0 F9000 X147.878 Y164.574
G1 F2700 X148.779 Y163.674 E654.27802
G0 F9000 X149.663 Y163.674
G1 F2700 X148.762 Y164.574 E654.33096
G0 F9000 X149.646 Y164.574
G1 F2700 X150.547 Y163.674 E654.38391
G0 F9000 X151.431 Y163.674
G1 F2700 X150.530 Y164.574 E654.43686
G0 F9000 X151.414 Y164.574
G1 F2700 X152.315 Y163.674 E654.48980
G0 F9000 X153.198 Y163.674
G1 F2700 X152.298 Y164.574 E654.54272
G0 F9000 X153.181 Y164.575
G1 F2700 X154.082 Y163.674 E654.59569
G0 F9000 X154.966 Y163.674
G1 F2700 X154.065 Y164.575 E654.64867
G0 F9000 X154.949 Y164.575
G1 F2700 X155.850 Y163.674 E654.70164
G0 F9000 X156.734 Y163.674
G1 F2700 X155.832 Y164.575 E654.75465
G0 F9000 X156.716 Y164.575
G1 F2700 X157.618 Y163.674 E654.80765
G0 F9000 X158.502 Y163.674
G1 F2700 X157.600 Y164.575 E654.86066
G0 F9000 X158.484 Y164.575
G1 F2700 X159.386 Y163.674 E654.91366
G0 F9000 X160.269 Y163.674
G1 F2700 X159.368 Y164.575 E654.96664
G0 F9000 X160.252 Y164.575
G1 F2700 X161.153 Y163.674 E655.01961
G0 F9000 X162.037 Y163.674
G1 F2700 X161.136 Y164.575 E655.07259
G0 F9000 X162.020 Y164.575
G1 F2700 X162.921 Y163.674 E655.12556
G0 F9000 X163.805 Y163.674
G1 F2700 X162.903 Y164.575 E655.17857
G0 F9000 X163.787 Y164.575
G1 F2700 X164.689 Y163.674 E655.23157
G0 F9000 X165.573 Y163.674
G1 F2700 X164.671 Y164.575 E655.28458
G0 F9000 X165.555 Y164.575
G1 F2700 X166.457 Y163.674 E655.33758
G0 F9000 X167.341 Y163.674
G1 F2700 X166.439 Y164.575 E655.39059
G0 F9000 X167.323 Y164.575
G1 F2700 X168.074 Y163.824 E655.43474
G1 F2400 E654.83474
G1 Z2.500
G0 F9000 X167.593 Y141.324
G1 Z2.000
G1 F2400 E655.43474
G1 F2700 X168.074 Y140.843 E655.46302
G0 F9000 X167.609 Y140.424
G1 F2700 X166.709 Y141.324 E655.51594
G0 F9000 X165.825 Y141.324
G1 F2700 X166.725 Y140.424 E655.56886
G0 F9000 X165.841 Y140.424
G1 F2700 X164.941 Y141.324 E655.62177
G0 F9000 X164.057 Y141.324
G1 F2700 X164.958 Y140.424 E655.67472
G0 F9000 X164.074 Y140.424
G1 F2700 X163.174 Y141.324 E655.72764
G0 F9000 X162.290 Y141.324
G1 F2700 X163.190 Y140.424 E655.78055
G0 F9000 X162.306 Y140.424
G1 F2700 X161.406 Y141.324 E655.83347
G0 F9000 X160.522 Y141.324
G1 F2700 X161.422 Y140.424 E655.88639
G0 F9000 X160.538 Y140.424
G1 F2700 X159.638 Y141.324 E655.93930
G0 F9000 X158.754 Y141.324
G1 F2700 X159.654 Y140.424 E655.99222
G0 F9000 X158.770 Y140.424
G1 F2700 X157.870 Y141.324 E656.04514
G0 F9000 X156.986 Y141.324
G1 F2700 X157.887 Y140.424 E656.09808
G0 F9000 X157.003 Y140.424
G1 F2700 X156.103 Y141.324 E656.15100
G0 F9000 X155.219 Y141.324
G1 F2700 X156.119 Y140.424 E656.20392
G0 F9000 X155.235 Y140.424
G1 F2700 X154.335 Y141.324 E656.25683
G0 F9000 X153.451 Y141.324
G1 F2700 X154.351 Y140.424 E656.30975
G0 F9000 X153.467 Y140.424
G1 F2700 X152.567 Y141.324 E656.36266
G0 F9000 X151.683 Y141.324
G1 F2700 X152.583 Y140.424 E656.41558
G0 F9000 X151.699 Y140.424
G1 F2700 X150.799 Y141.324 E656.46850
G0 F9000 X149.915 Y141.324
G1 F2700 X150.815 Y140.424 E656.52141
G0 F9000 X149.932 Y140.424
G1 F2700 X149.031 Y141.324 E656.57436
G0 F9000 X148.148 Y141.324
G1 F2700 X149.048 Y140.424 E656.62728
G0 F9000 X148.164 Y140.424
G1 F2700 X147.264 Y141.324 E656.68019
G0 F9000 X146.380 Y141.324
G1 F2700 X147.280 Y140.424 E656.73311
G0 F9000 X146.396 Y140.424
G1 F2700 X145.496 Y141.324 E656.78603
G0 F9000 X144.612 Y141.324
G1 F2700 X145.512 Y140.424 E656.83894
G0 F9000 X144.628 Y140.424
G1 F2700 X143.728 Y141.324 E656.89186
G0 F9000 X142.844 Y141.324
G1 F2700 X143.744 Y140.424 E656.94478
G0 F9000 X142.861 Y140.424
G1 F2700 X141.960 Y141.324 E656.99772
G0 F9000 X141.076 Y141.324
G1 F2700 X141.977 Y140.424 E657.05067
G0 F9000 X141.093 Y140.424
G1 F2700 X140.193 Y141.324 E657.10358
G0 F9000 X139.309 Y141.324
G1 F2700 X140.209 Y140.424 E657.15650
G0 F9000 X139.325 Y140.424
G1 F2700 X138.425 Y141.324 E657.20942
G0 F9000 X137.825 Y141.924
G1 F2700 X136.925 Y142.824 E657.26233
G0 F9000 X136.925 Y143.708
G1 F2700 X137.825 Y142.808 E657.31525
G0 F9000 X137.825 Y143.692
G1 F2700 X136.925 Y144.592 E657.36817
G0 F9000 X136.925 Y145.475
G1 F2700 X137.825 Y144.576 E657.42105
G0 F9000 X137.825 Y145.460
G1 F2700 X136.960 Y146.324 E657.47188
G1 F2400 E656.87188
G1 Z2.500
G0 F9000 X136.925 Y141.940
G1 Z2.000
G1 F2400 E657.47188
G1 F2700 X138.441 Y140.424 E657.56102
G0 F9000 X137.557 Y140.424
G1 F2700 X136.925 Y141.056 E657.59818
G1 F2400 E656.99818
G1 Z2.500
G0 F9000 X137.825 Y158.718
G1 Z2.000
G1 F2400 E657.59818
G1 F2700 X136.924 Y159.618 E657.65112
G0 F9000 X137.175 Y159.456
;TYPE:SKIN
G1 F2700 X155.956 Y140.674 E658.75540
G0 F9000 X156.663 Y140.674
G1 F2700 X137.175 Y160.163 E659.90125
G0 F9000 X137.175 Y160.870
G1 F2700 X157.370 Y140.674 E661.08867
G0 F9000 X158.077 Y140.674
G1 F2700 X137.175 Y161.577 E662.31766
G0 F9000 X137.175 Y162.284
G1 F2700 X158.785 Y140.674 E663.58824
G0 F9000 X159.492 Y140.674
G1 F2700 X137.175 Y162.991 E664.90040
G0 F9000 X137.175 Y163.698
G1 F2700 X160.199 Y140.674 E666.25412
G0 F9000 X160.906 Y140.674
G1 F2700 X137.256 Y164.324 E667.64465
G0 F9000 X137.963 Y164.324
G1 F2700 X161.613 Y140.674 E669.03518
G0 F9000 X162.320 Y140.674
G1 F2700 X138.670 Y164.324 E670.42571
G0 F9000 X139.377 Y164.324
G1 F2700 X163.027 Y140.674 E671.81624
G0 F9000 X163.734 Y140.674
G1 F2700 X140.084 Y164.324 E673.20677
G0 F9000 X140.792 Y164.324
G1 F2700 X164.441 Y140.674 E674.59727
G0 F9000 X165.149 Y140.674
G1 F2700 X141.499 Y164.324 E675.98780
G0 F9000 X142.206 Y164.324
G1 F2700 X165.856 Y140.674 E677.37833
G0 F9000 X166.563 Y140.674
G1 F2700 X142.913 Y164.324 E678.76886
G0 F9000 X143.620 Y164.324
G1 F2700 X167.270 Y140.674 E680.15938
G0 F9000 X167.977 Y140.674
G1 F2700 X144.327 Y164.324 E681.54991
G0 F9000 X145.034 Y164.324
G1 F2700 X168.074 Y141.284 E682.90458
G0 F9000 X168.074 Y141.991
G1 F2700 X145.741 Y164.324 E684.21767
G0 F9000 X146.448 Y164.324
G1 F2700 X168.074 Y142.699 E685.48917
G0 F9000 X168.074 Y143.406
G1 F2700 X147.155 Y164.324 E686.71910
G0 F9000 X147.863 Y164.324
G1 F2700 X168.074 Y144.113 E687.90743
G0 F9000 X168.074 Y144.820
G1 F2700 X148.570 Y164.324 E689.05419
G0 F9000 X149.277 Y164.324
G1 F2700 X168.074 Y145.527 E690.15938
G0 F9000 X168.074 Y146.234
G1 F2700 X149.984 Y164.324 E691.22300
G0 F9000 X150.691 Y164.324
G1 F2700 X168.074 Y146.941 E692.24505
G0 F9000 X168.074 Y147.648
G1 F2700 X151.398 Y164.324 E693.22554
G0 F9000 X152.105 Y164.324
G1 F2700 X168.074 Y148.355 E694.16446
G0 F9000 X168.074 Y149.063
G1 F2700 X152.812 Y164.325 E695.06180
G0 F9000 X153.519 Y164.325
G1 F2700 X168.074 Y149.770 E695.91758
G0 F9000 X168.074 Y150.477
G1 F2700 X154.226 Y164.325 E696.73179
G0 F9000 X154.933 Y164.325
G1 F2700 X168.074 Y151.184 E697.50443
G0 F9000 X168.074 Y151.891
G1 F2700 X155.640 Y164.325 E698.23550
G0 F9000 X156.347 Y164.325
G1 F2700 X168.074 Y152.598 E698.92500
G0 F9000 X168.074 Y153.305
G1 F2700 X157.054 Y164.325 E699.57294
G0 F9000 X157.761 Y164.325
G1 F2700 X168.074 Y154.012 E700.17930
G0 F9000 X168.074 Y154.719
G1 F2700 X158.468 Y164.325 E700.74410
G0 F9000 X159.176 Y164.325
G1 F2700 X168.074 Y155.427 E701.26727
G0 F9000 X168.074 Y156.134
G1 F2700 X159.883 Y164.325 E701.74887
G0 F9000 X160.590 Y164.325
G1 F2700 X168.074 Y156.841 E702.18890
G0 F9000 X168.074 Y157.548
G1 F2700 X161.297 Y164.325 E702.58736
G0 F9000 X162.004 Y164.325
G1 F2700 X168.074 Y158.255 E702.94425
G0 F9000 X168.074 Y158.962
G1 F2700 X162.711 Y164.325 E703.25958
G0 F9000 X163.418 Y164.325
G1 F2700 X168.074 Y159.669 E703.53333
G0 F9000 X168.074 Y160.376
G1 F2700 X164.125 Y164.325 E703.76552
G0 F9000 X164.832 Y164.325
G1 F2700 X168.074 Y161.083 E703.95613
G0 F9000 X168.074 Y161.790
G1 F2700 X165.540 Y164.325 E704.10515
G0 F9000 X166.247 Y164.325
G1 F2700 X168.074 Y162.498 E704.21257
G0 F9000 X168.074 Y163.205
G1 F2700 X166.954 Y164.325 E704.27843
G0 F9000 X167.661 Y164.325
G1 F2700 X168.074 Y163.912 E704.30271
G1 F2400 E703.70271
G1 Z2.500
G0 F9000 X155.249 Y140.674
G1 Z2.000
G1 F2400 E704.30271
G1 F2700 X136.924 Y158.999 E705.38015
G0 F9000 X136.924 Y158.292
G1 F2700 X154.542 Y140.674 E706.41602
G0 F9000 X153.835 Y140.674
G1 F2700 X136.924 Y157.585 E707.41032
G0 F9000 X136.924 Y156.878
G1 F2700 X153.128 Y140.674 E708.36305
G0 F9000 X152.421 Y140.673
G1 F2700 X136.924 Y156.170 E709.27422
G0 F9000 X136.924 Y155.463
G1 F2700 X151.714 Y140.673 E710.14381
G0 F9000 X151.007 Y140.673
G1 F2700 X136.924 Y154.756 E710.97184
G0 F9000 X136.924 Y154.049
G1 F2700 X150.300 Y140.673 E711.75830
G0 F9000 X149.593 Y140.673
G1 F2700 X136.924 Y153.342 E712.50319
G0 F9000 X136.924 Y152.635
G1 F2700 X148.886 Y140.673 E713.20651
G0 F9000 X148.179 Y140.673
G1 F2700 X136.924 Y151.928 E713.86826
G0 F9000 X136.924 Y151.221
G1 F2700 X147.472 Y140.673 E714.48844
G0 F9000 X146.764 Y140.673
G1 F2700 X136.924 Y150.514 E715.06702
G0 F9000 X136.924 Y149.806
G1 F2700 X146.057 Y140.673 E715.60401
G0 F9000 X145.350 Y140.673
G1 F2700 X136.924 Y149.099 E716.09942
G0 F9000 X136.924 Y148.392
G1 F2700 X144.643 Y140.673 E716.55327
G0 F9000 X143.936 Y140.673
G1 F2700 X136.924 Y147.685 E716.96555
G0 F9000 X136.924 Y146.978
G1 F2700 X143.229 Y140.673 E717.33626
G0 F9000 X142.522 Y140.673
G1 F2700 X136.924 Y146.271 E717.66540
G0 F9000 X137.175 Y145.313
G1 F2700 X141.815 Y140.673 E717.93822
G0 F9000 X141.108 Y140.673
G1 F2700 X137.175 Y144.606 E718.16946
G0 F9000 X137.175 Y143.899
G1 F2700 X140.401 Y140.673 E718.35914
G0 F9000 X139.693 Y140.673
G1 F2700 X137.175 Y143.192 E718.50722
G0 F9000 X137.175 Y142.485
G1 F2700 X138.986 Y140.673 E718.61372
G0 F9000 X138.279 Y140.673
G1 F2700 X137.175 Y141.778 E718.67867
G0 F9000 X137.175 Y141.071
G1 F2700 X137.572 Y140.673 E718.70204
;LAYER:10
M106 S104
G0 F9000 X137.250 Y140.750 Z2.200
;TYPE:WALL-INNER
G1 F2280 X137.250 Y145.750 E718.90991
G1 X136.750 Y145.750 E718.93070
G1 X136.750 Y140.250 E719.15936
G1 X168.250 Y140.250 E720.46898
G1 X168.250 Y140.750 E720.48977
G1 X137.250 Y140.750 E721.77860
G0 F9000 X137.750 Y141.250
;TYPE:WALL-OUTER
G1 F2280 X137.750 Y146.250 E721.98647
G1 X136.250 Y146.250 E722.04884
G1 X136.250 Y139.750 E722.31908
G1 X168.750 Y139.750 E723.67027
G1 X168.750 Y141.250 E723.73263
G1 X137.750 Y141.250 E725.02146
G1 F2400 E724.42146
G1 Z2.700
G0 F9000 X137.250 Y159.250
;TYPE:WALL-INNER
G1 Z2.200
G1 F2400 E725.02146
G1 F2280 X137.250 Y164.250 E725.22934
G1 X168.250 Y164.250 E726.51817
G1 X168.250 Y164.750 E726.53896
G1 X136.750 Y164.750 E727.84857
G1 X136.750 Y159.250 E728.07724
G1 X137.250 Y159.250 E728.09802
G0 F9000 X137.750 Y158.750
;TYPE:WALL-OUTER
G1 F2280 X137.750 Y163.750 E728.30590
G1 X168.750 Y163.750 E729.59473
G1 X168.750 Y165.250 E729.65709
G1 X136.250 Y165.250 E731.00829
G1 X136.250 Y158.750 E731.27853
G1 X137.750 Y158.750 E731.34089
;LAYER:11
M106 S114
G1 F2400 E730.74089
G1 Z2.700
G0 F9000 X137.250 Y145.750 Z2.400
;TYPE:WALL-INNER
G1 Z2.400
G1 F2400 E731.34089
G1 F2280 X136.750 Y145.750 E731.36168
G1 X136.750 Y140.250 E731.59034
G1 X168.250 Y140.250 E732.89996
G1 X168.250 Y140.750 E732.92074
G1 X137.250 Y140.750 E734.20957
G1 X137.250 Y145.750 E734.41745
G0 F9000 X137.750 Y146.250
;TYPE:WALL-OUTER
G1 F2280 X136.250 Y146.250 E734.47981
G1 X136.250 Y139.750 E734.75005
G1 X168.750 Y139.750 E736.10124
G1 X168.750 Y141.250 E736.16361
G1 X137.750 Y141.250 E737.45244
G1 X137.750 Y146.250 E737.66031
G1 F2400 E737.06031
G1 Z2.900
G0 F9000 X137.250 Y159.250
;TYPE:WALL-INNER
G1 Z2.400
G1 F2400 E737.66031
G1 F2280 X137.250 Y164.250 E737.86819
G1 X168.250 Y164.250 E739.15702
G1 X168.250 Y164.750 E739.17781
G1 X136.750 Y164.750 E740.48743
G1 X136.750 Y159.250 E740.71609
G1 X137.250 Y159.250 E740.73688
G0 F9000 X137.750 Y158.750
;TYPE:WALL-OUTER
G1 F2280 X137.750 Y163.750 E740.94475
G1 X168.750 Y163.750 E742.23358
G1 X168.750 Y165.250 E742.29594
G1 X136.250 Y165.250 E743.64714
G1 X136.250 Y158.750 E743.91738
G1 X137.750 Y158.750 E743.97974
;LAYER:12
M106 S127
G1 F2400 E743.37974
G1 Z2.900
G0 F9000 X137.250 Y145.750 Z2.600
;TYPE:WALL-INNER
G1 Z2.600
G1 F2400 E743.97974
G1 F2280 X136.750 Y145.750 E744.00053
G1 X136.750 Y140.250 E744.22919
G1 X168.250 Y140.250 E745.53881
G1 X168.250 Y140.750 E745.55960
G1 X137.250 Y140.750 E746.84843
G1 X137.250 Y145.750 E747.05630
G0 F9000 X137.750 Y146.250
;TYPE:WALL-OUTER
G1 F2280 X136.250 Y146.250 E747.11866
G1 X136.250 Y139.750 E747.38890
G1 X168.750 Y139.750 E748.74010
G1 X168.750 Y141.250 E748.80246
G1 X137.750 Y141.250 E750.09129
G1 X137.750 Y146.250 E750.29916
G1 F2400 E749.69916
G1 Z3.100
G0 F9000 X137.250 Y159.250
;TYPE:WALL-INNER
G1 Z2.600
G1 F2400 E750.29916
G1 F2280 X137.250 Y164.250 E750.50704
G1 X168.250 Y164.250 E751.79587
G1 X168.250 Y164.750 E751.81666
G1 X136.750 Y164.750 E753.12628
G1 X136.750 Y159.250 E753.35494
G1 X137.250 Y159.250 E753.37573
G0 F9000 X137.750 Y158.750
;TYPE:WALL-OUTER
G1 F2280 X137.750 Y163.750 E753.58360
G1 X168.750 Y163.750 E754.87243
G1 X168.750 Y165.250 E754.93480
G1 X136.250 Y165.250 E756.28599
G1 X136.250 Y158.750 E756.55623
G1 X137.750 Y158.750 E756.61859
;LAYER:13
M106 S137
G1 F2400 E756.01859
G1 Z3.100
G0 F9000 X137.250 Y145.750 Z2.800
;TYPE:WALL-INNER
G1 Z2.800
G1 F2400 E756.61859
G1 F2280 X136.750 Y145.750 E756.63938
G1 X136.750 Y140.250 E756.86804
G1 X168.250 Y140.250 E758.17766
G1 X168.250 Y140.750 E758.19845
G1 X137.250 Y140.750 E759.48728
G1 X137.250 Y145.750 E759.69515
G0 F9000 X137.750 Y146.250
;TYPE:WALL-OUTER
G1 F2280 X136.250 Y146.250 E759.75752
G1 X136.250 Y139.750 E760.02775
G1 X168.750 Y139.750 E761.37895
G1 X168.750 Y141.250 E761.44131
G1 X137.750 Y141.250 E762.73014
G1 X137.750 Y146.250 E762.93802
G1 F2400 E762.33802
G1 Z3.300
G0 F9000 X137.250 Y159.250
;TYPE:WALL-INNER
G1 Z2.800
G1 F2400 E762.93802
G1 F2280 X137.250 Y164.250 E763.14589
G1 X168.250 Y164.250 E764.43472
G1 X168.250 Y164.750 E764.45551
G1 X136.750 Y164.750 E765.76513
G1 X136.750 Y159.250 E765.99379
G1 X137.250 Y159.250 E766.01458
G0 F9000 X137.750 Y158.750
;TYPE:WALL-OUTER
G1 F2280 X137.750 Y163.750 E766.22245
G1 X168.750 Y163.750 E767.51128
G1 X168.750 Y165.250 E767.57365
G1 X136.250 Y165.250 E768.92484
G1 X136.250 Y158.750 E769.19508
G1 X137.750 Y158.750 E769.25744
;LAYER:14
M106 S147
G1 F2400 E768.65744
G1 Z3.300
G0 F9000 X137.250 Y145.750 Z3.000
;TYPE:WALL-INNER
G1 Z3.000
G1 F2400 E769.25744
G1 F2280 X136.750 Y145.750 E769.27823
G1 X136.750 Y140.250 E769.50689
G1 X168.250 Y140.250 E770.81651
G1 X168.250 Y140.750 E770.83730
G1 X137.250 Y140.750 E772.12613
G1 X137.250 Y145.750 E772.33400
G0 F9000 X137.750 Y146.250
;TYPE:WALL-OUTER
G1 F2280 X136.250 Y146.250 E772.39637
G1 X136.250 Y139.750 E772.66661
G1 X168.750 Y139.750 E774.01780
G1 X168.750 Y141.250 E774.08016
G1 X137.750 Y141.250 E775.36899
G1 X137.750 Y146.250 E775.57687
G1 F2400 E774.97687
G1 Z3.500
G0 F9000 X137.250 Y159.250
;TYPE:WALL-INNER
G1 Z3.000
G1 F2400 E775.57687
G1 F2280 X137.250 Y164.250 E775.78474
G1 X168.250 Y164.250 E777.07357
G1 X168.250 Y164.750 E777.09436
G1 X136.750 Y164.750 E778.40398
G1 X136.750 Y159.250 E778.63264
G1 X137.250 Y159.250 E778.65343
G0 F9000 X137.750 Y158.750
;TYPE:WALL-OUTER
G1 F2280 X137.750 Y163.750 E778.86131
G1 X168.750 Y163.750 E780.15014
G1 X168.750 Y165.250 E780.21250
G1 X136.250 Y165.250 E781.56369
G1 X136.250 Y158.750 E781.83393
G1 X137.750 Y158.750 E781.89629
;LAYER:15
M106 S158
G1 F2400 E781.29629
G1 Z3.500
G0 F9000 X137.250 Y145.750 Z3.200
;TYPE:WALL-INNER
G1 Z3.200
G1 F2400 E781.89629
G1 F2280 X136.750 Y145.750 E781.91708
G1 X136.750 Y140.250 E782.14574
G1 X168.250 Y140.250 E783.45536
G1 X168.250 Y140.750 E783.47615
G1 X137.250 Y140.750 E784.76498
G1 X137.250 Y145.750 E784.97286
G0 F9000 X137.750 Y146.250
;TYPE:WALL-OUTER
G1 F2280 X136.250 Y146.250 E785.03522
G1 X136.250 Y139.750 E785.30546
G1 X168.750 Y139.750 E786.65665
G1 X168.750 Y141.250 E786.71901
G1 X137.750 Y141.250 E788.00784
G1 X137.750 Y146.250 E788.21572
G1 F2400 E787.61572
G1 Z3.700
G0 F9000 X137.250 Y159.250
;TYPE:WALL-INNER
G1 Z3.200
G1 F2400 E788.21572
G1 F2280 X137.250 Y164.250 E788.42359
G1 X168.250 Y164.250 E789.71242
G1 X168.250 Y164.750 E789.73321
G1 X136.750 Y164.750 E791.04283
G1 X136.750 Y159.250 E791.27149
G1 X137.250 Y159.250 E791.29228
G0 F9000 X137.750 Y158.750
;TYPE:WALL-OUTER
G1 F2280 X137.750 Y163.750 E791.50016
G1 X168.750 Y163.750 E792.78899
G1 X168.750 Y165.250 E792.85135
G1 X136.250 Y165.250 E794.20254
G1 X136.250 Y158.750 E794.47278
G1 X137.750 Y158.750 E794.53514
;LAYER:16
M106 S168
G1 F2400 E793.93514
G1 Z3.700
G0 F9000 X137.250 Y145.750 Z3.400
;TYPE:WALL-INNER
G1 Z3.400
G1 F2400 E794.53514
G1 F2280 X136.750 Y145.750 E794.55593
G1 X136.750 Y140.250 E794.78460
G1 X168.250 Y140.250 E796.09421
G1 X168.250 Y140.750 E796.11500
G1 X137.250 Y140.750 E797.40383
G1 X137.250 Y145.750 E797.61171
G0 F9000 X137.750 Y146.250
;TYPE:WALL-OUTER
G1 F2280 X136.250 Y146.250 E797.67407
G1 X136.250 Y139.750 E797.94431
G1 X168.750 Y139.750 E799.29550
G1 X168.750 Y141.250 E799.35786
G1 X137.750 Y141.250 E800.64669
G1 X137.750 Y146.250 E800.85457
G1 F2400 E800.25457
G1 Z3.900
G0 F9000 X137.250 Y159.250
;TYPE:WALL-INNER
G1 Z3.400
G1 F2400 E800.85457
G1 F2280 X137.250 Y164.250 E801.06245
G1 X168.250 Y164.250 E802.35128
G1 X168.250 Y164.750 E802.37206
G1 X136.750 Y164.750 E803.68168
G1 X136.750 Y159.250 E803.91035
G1 X137.250 Y159.250 E803.93113
G0 F9000 X137.750 Y158.750
;TYPE:WALL-OUTER
G1 F2280 X137.750 Y163.750 E804.13901
G1 X168.750 Y163.750 E805.42784
G1 X168.750 Y165.250 E805.49020
G1 X136.250 Y165.250 E806.84139
G1 X136.250 Y158.750 E807.11163
G1 X137.750 Y158.750 E807.17400
;LAYER:17
M106 S178
G1 F2400 E806.57400
G1 Z3.900
G0 F9000 X137.250 Y145.750 Z3.600
;TYPE:WALL-INNER
G1 Z3.600
G1 F2400 E807.17400
G1 F2280 X136.750 Y145.750 E807.19478
G1 X136.750 Y140.250 E807.42345
G1 X168.250 Y140.250 E808.73306
G1 X168.250 Y140.750 E808.75385
G1 X137.250 Y140.750 E810.04268
G1 X137.250 Y145.750 E810.25056
G0 F9000 X137.750 Y146.250
;TYPE:WALL-OUTER
G1 F2280 X136.250 Y146.250 E810.31292
G1 X136.250 Y139.750 E810.58316
G1 X168.750 Y139.750 E811.93435
G1 X168.750 Y141.250 E811.99672
G1 X137.750 Y141.250 E813.28555
G1 X137.750 Y146.250 E813.49342
G1 F2400 E812.89342
G1 Z4.100
G0 F9000 X137.250 Y159.250
;TYPE:WALL-INNER
G1 Z3.600
G1 F2400 E813.49342
G1 F2280 X137.250 Y164.250 E813.70130
G1 X168.250 Y164.250 E814.99013
G1 X168.250 Y164.750 E815.01092
G1 X136.750 Y164.750 E816.32053
G1 X136.750 Y159.250 E816.54920
G1 X137.250 Y159.250 E816.56998
G0 F9000 X137.750 Y158.750
;TYPE:WALL-OUTER
G1 F2280 X137.750 Y163.750 E816.77786
G1 X168.750 Y163.750 E818.06669
G1 X168.750 Y165.250 E818.12905
G1 X136.250 Y165.250 E819.48025
G1 X136.250 Y158.750 E819.75048
G1 X137.750 Y158.750 E819.81285
;LAYER:18
M106 S191
G1 F2400 E819.21285
G1 Z4.100
G0 F9000 X137.250 Y145.750 Z3.800
;TYPE:WALL-INNER
G1 Z3.800
G1 F2400 E819.81285
G1 F2280 X136.750 Y145.750 E819.83363
G1 X136.750 Y140.250 E820.06230
G1 X168.250 Y140.250 E821.37192
G1 X168.250 Y140.750 E821.39270
G1 X137.250 Y140.750 E822.68153
G1 X137.250 Y145.750 E822.88941
G0 F9000 X137.750 Y146.250
;TYPE:WALL-OUTER
G1 F2280 X136.250 Y146.250 E822.95177
G1 X136.250 Y139.750 E823.22201
G1 X168.750 Y139.750 E824.57320
G1 X168.750 Y141.250 E824.63557
G1 X137.750 Y141.250 E825.92440
G1 X137.750 Y146.250 E826.13227
G1 F2400 E825.53227
G1 Z4.300
G0 F9000 X137.250 Y159.250
;TYPE:WALL-INNER
G1 Z3.800
G1 F2400 E826.13227
G1 F2280 X137.250 Y164.250 E826.34015
G1 X168.250 Y164.250 E827.62898
G1 X168.250 Y164.750 E827.64977
G1 X136.750 Y164.750 E828.95938
G1 X136.750 Y159.250 E829.18805
G1 X137.250 Y159.250 E829.20884
G0 F9000 X137.750 Y158.750
;TYPE:WALL-OUTER
G1 F2280 X137.750 Y163.750 E829.41671
G1 X168.750 Y163.750 E830.70554
G1 X168.750 Y165.250 E830.76790
G1 X136.250 Y165.250 E832.11910
G1 X136.250 Y158.750 E832.38934
G1 X137.750 Y158.750 E832.45170
;LAYER:19
M106 S201
G1 F2400 E831.85170
G1 Z4.300
G0 F9000 X137.250 Y145.750 Z4.000
;TYPE:WALL-INNER
G1 Z4.000
G1 F2400 E832.45170
G1 F2280 X136.750 Y145.750 E832.47249
G1 X136.750 Y140.250 E832.70115
G1 X168.250 Y140.250 E834.01077
G1 X168.250 Y140.750 E834.03155
G1 X137.250 Y140.750 E835.32039
G1 X137.250 Y145.750 E835.52826
G0 F9000 X137.750 Y146.250
;TYPE:WALL-OUTER
G1 F2280 X136.250 Y146.250 E835.59062
G1 X136.250 Y139.750 E835.86086
G1 X168.750 Y139.750 E837.21206
G1 X168.750 Y141.250 E837.27442
G1 X137.750 Y141.250 E838.56325
G1 X137.750 Y146.250 E838.77112
G1 F2400 E838.17112
G1 Z4.500
G0 F9000 X137.250 Y159.250
;TYPE:WALL-INNER
G1 Z4.000
G1 F2400 E838.77112
G1 F2280 X137.250 Y164.250 E838.97900
G1 X168.250 Y164.250 E840.26783
G1 X168.250 Y164.750 E840.28862
G1 X136.750 Y164.750 E841.59824
G1 X136.750 Y159.250 E841.82690
G1 X137.250 Y159.250 E841.84769
G0 F9000 X137.750 Y158.750
;TYPE:WALL-OUTER
G1 F2280 X137.750 Y163.750 E842.05556
G1 X168.750 Y163.750 E843.34439
G1 X168.750 Y165.250 E843.40676
G1 X136.250 Y165.250 E844.75795
G1 X136.250 Y158.750 E845.02819
G1 X137.750 Y158.750 E845.09055
;LAYER:20
M106 S211
G1 F2400 E844.49055
G1 Z4.500
G0 F9000 X137.250 Y145.750 Z4.200
;TYPE:WALL-INNER
G1 Z4.200
G1 F2400 E845.09055
G1 F2280 X136.750 Y145.750 E845.11134
G1 X136.750 Y140.250 E845.34000
G1 X168.250 Y140.250 E846.64962
G1 X168.250 Y140.750 E846.67041
G1 X137.250 Y140.750 E847.95924
G1 X137.250 Y145.750 E848.16711
G0 F9000 X137.750 Y146.250
;TYPE:WALL-OUTER
G1 F2280 X136.250 Y146.250 E848.22948
G1 X136.250 Y139.750 E848.49971
G1 X168.750 Y139.750 E849.85091
G1 X168.750 Y141.250 E849.91327
G1 X137.750 Y141.250 E851.20210
G1 X137.750 Y146.250 E851.40998
G1 F2400 E850.80998
G1 Z4.700
G0 F9000 X137.250 Y159.250
;TYPE:WALL-INNER
G1 Z4.200
G1 F2400 E851.40998
G1 F2280 X137.250 Y164.250 E851.61785
G1 X168.250 Y164.250 E852.90668
G1 X168.250 Y164.750 E852.92747
G1 X136.750 Y164.750 E854.23709
G1 X136.750 Y159.250 E854.46575
G1 X137.250 Y159.250 E854.48654
G0 F9000 X137.750 Y158.750
;TYPE:WALL-OUTER
G1 F2280 X137.750 Y163.750 E854.69441
G1 X168.750 Y163.750 E855.98324
G1 X168.750 Y165.250 E856.04561
G1 X136.250 Y165.250 E857.39680
G1 X136.250 Y158.750 E857.66704
G1 X137.750 Y158.750 E857.72940
;LAYER:21
M106 S221
G1 F2400 E857.12940
G1 Z4.700
G0 F9000 X137.250 Y145.750 Z4.400
;TYPE:WALL-INNER
G1 Z4.400
G1 F2400 E857.72940
G1 F2280 X136.750 Y145.750 E857.75019
G1 X136.750 Y140.250 E857.97885
G1 X168.250 Y140.250 E859.28847
G1 X168.250 Y140.750 E859.30926
G1 X137.250 Y140.750 E860.59809
G1 X137.250 Y145.750 E860.80596
G0 F9000 X137.750 Y146.250
;TYPE:WALL-OUTER
G1 F2280 X136.250 Y146.250 E860.86833
G1 X136.250 Y139.750 E861.13856
G1 X168.750 Y139.750 E862.48976
G1 X168.750 Y141.250 E862.55212
G1 X137.750 Y141.250 E863.84095
G1 X137.750 Y146.250 E864.04883
G1 F2400 E863.44883
G1 Z4.900
G0 F9000 X137.250 Y159.250
;TYPE:WALL-INNER
G1 Z4.400
G1 F2400 E864.04883
G1 F2280 X137.250 Y164.250 E864.25670
G1 X168.250 Y164.250 E865.54553
G1 X168.250 Y164.750 E865.56632
G1 X136.750 Y164.750 E866.87594
G1 X136.750 Y159.250 E867.10460
G1 X137.250 Y159.250 E867.12539
G0 F9000 X137.750 Y158.750
;TYPE:WALL-OUTER
G1 F2280 X137.750 Y163.750 E867.33327
G1 X168.750 Y163.750 E868.62210
G1 X168.750 Y165.250 E868.68446
G1 X136.250 Y165.250 E870.03565
G1 X136.250 Y158.750 E870.30589
G1 X137.750 Y158.750 E870.36825
;LAYER:22
M106 S232
G1 F2400 E869.76825
G1 Z4.900
G0 F9000 X137.250 Y145.750 Z4.600
;TYPE:WALL-INNER
G1 Z4.600
G1 F2400 E870.36825
G1 F2280 X136.750 Y145.750 E870.38904
G1 X136.750 Y140.250 E870.61770
G1 X168.250 Y140.250 E871.92732
G1 X168.250 Y140.750 E871.94811
G1 X137.250 Y140.750 E873.23694
G1 X137.250 Y145.750 E873.44481
G0 F9000 X137.750 Y146.250
;TYPE:WALL-OUTER
G1 F2280 X136.250 Y146.250 E873.50718
G1 X136.250 Y139.750 E873.77742
G1 X168.750 Y139.750 E875.12861
G1 X168.750 Y141.250 E875.19097
G1 X137.750 Y141.250 E876.47980
G1 X137.750 Y146.250 E876.68768
G1 F2400 E876.08768
G1 Z5.100
G0 F9000 X137.250 Y159.250
;TYPE:WALL-INNER
G1 Z4.600
G1 F2400 E876.68768
G1 F2280 X137.250 Y164.250 E876.89555
G1 X168.250 Y164.250 E878.18438
G1 X168.250 Y164.750 E878.20517
G1 X136.750 Y164.750 E879.51479
G1 X136.750 Y159.250 E879.74345
G1 X137.250 Y159.250 E879.76424
G0 F9000 X137.750 Y158.750
;TYPE:WALL-OUTER
G1 F2280 X137.750 Y163.750 E879.97212
G1 X168.750 Y163.750 E881.26095
G1 X168.750 Y165.250 E881.32331
G1 X136.250 Y165.250 E882.67450
G1 X136.250 Y158.750 E882.94474
G1 X137.750 Y158.750 E883.00710
;LAYER:23
M106 S242
G1 F2400 E882.40710
G1 Z5.100
G0 F9000 X137.250 Y145.750 Z4.800
;TYPE:WALL-INNER
G1 Z4.800
G1 F2400 E883.00710
G1 F2280 X136.750 Y145.750 E883.02789
G1 X136.750 Y140.250 E883.25655
G1 X168.250 Y140.250 E884.56617
G1 X168.250 Y140.750 E884.58696
G1 X137.250 Y140.750 E885.87579
G1 X137.250 Y145.750 E886.08367
G0 F9000 X137.750 Y146.250
;TYPE:WALL-OUTER
G1 F2280 X136.250 Y146.250 E886.14603
G1 X136.250 Y139.750 E886.41627
G1 X168.750 Y139.750 E887.76746
G1 X168.750 Y141.250 E887.82982
G1 X137.750 Y141.250 E889.11865
G1 X137.750 Y146.250 E889.32653
G1 F2400 E888.72653
G1 Z5.300
G0 F9000 X137.250 Y159.250
;TYPE:WALL-INNER
G1 Z4.800
G1 F2400 E889.32653
G1 F2280 X137.250 Y164.250 E889.53441
G1 X168.250 Y164.250 E890.82324
G1 X168.250 Y164.750 E890.84402
G1 X136.750 Y164.750 E892.15364
G1 X136.750 Y159.250 E892.38230
G1 X137.250 Y159.250 E892.40309
G0 F9000 X137.750 Y158.750
;TYPE:WALL-OUTER
G1 F2280 X137.750 Y163.750 E892.61097
G1 X168.750 Y163.750 E893.89980
G1 X168.750 Y165.250 E893.96216
G1 X136.250 Y165.250 E895.31335
G1 X136.250 Y158.750 E895.58359
G1 X137.750 Y158.750 E895.64596
;LAYER:24
M106 S255
G1 F2400 E895.04596
G1 Z5.300
G0 F9000 X137.250 Y145.750 Z5.000
;TYPE:WALL-INNER
G1 Z5.000
G1 F2400 E895.64596
G1 F2280 X136.750 Y145.750 E895.66674
G1 X136.750 Y140.250 E895.89541
G1 X168.250 Y140.250 E897.20502
G1 X168.250 Y140.750 E897.22581
G1 X137.250 Y140.750 E898.51464
G1 X137.250 Y145.750 E898.72252
G0 F9000 X137.750 Y146.250
;TYPE:WALL-OUTER
G1 F2280 X136.250 Y146.250 E898.78488
G1 X136.250 Y139.750 E899.05512
G1 X168.750 Y139.750 E900.40631
G1 X168.750 Y141.250 E900.46867
G1 X137.750 Y141.250 E901.75750
G1 X137.750 Y146.250 E901.96538
G1 F2400 E901.36538
G1 Z5.500
G0 F9000 X137.250 Y159.250
;TYPE:WALL-INNER
G1 Z5.000
G1 F2400 E901.96538
G1 F2280 X137.250 Y164.250 E902.17326
G1 X168.250 Y164.250 E903.46209
G1 X168.250 Y164.750 E903.48287
G1 X136.750 Y164.750 E904.79249
G1 X136.750 Y159.250 E905.02116
G1 X137.250 Y159.250 E905.04194
G0 F9000 X137.750 Y158.750
;TYPE:WALL-OUTER
G1 F2280 X137.750 Y163.750 E905.24982
G1 X168.750 Y163.750 E906.53865
G1 X168.750 Y165.250 E906.60101
G1 X136.250 Y165.250 E907.95221
G1 X136.250 Y158.750 E908.22244
G1 X137.750 Y158.750 E908.28481
;LAYER:25
G1 F2400 E907.68481
G1 Z5.500
G0 F9000 X137.250 Y145.750 Z5.200
;TYPE:WALL-INNER
G1 Z5.200
G1 F2400 E908.28481
G1 F2280 X136.750 Y145.750 E908.30559
G1 X136.750 Y140.250 E908.53426
G1 X168.250 Y140.250 E909.84388
G1 X168.250 Y140.750 E909.86466
G1 X137.250 Y140.750 E911.15349
G1 X137.250 Y145.750 E911.36137
G0 F9000 X137.750 Y146.250
;TYPE:WALL-OUTER
G1 F2280 X136.250 Y146.250 E911.42373
G1 X136.250 Y139.750 E911.69397
G1 X168.750 Y139.750 E913.04516
G1 X168.750 Y141.250 E913.10753
G1 X137.750 Y141.250 E914.39636
G1 X137.750 Y146.250 E914.60423
G1 F2400 E914.00423
G1 Z5.700
G0 F9000 X137.250 Y159.250
;TYPE:WALL-INNER
G1 Z5.200
G1 F2400 E914.60423
G1 F2280 X137.250 Y164.250 E914.81211
G1 X168.250 Y164.250 E916.10094
G1 X168.250 Y164.750 E916.12173
G1 X136.750 Y164.750 E917.43134
G1 X136.750 Y159.250 E917.66001
G1 X137.250 Y159.250 E917.68079
G0 F9000 X137.750 Y158.750
;TYPE:WALL-OUTER
G1 F2280 X137.750 Y163.750 E917.88867
G1 X168.750 Y163.750 E919.17750
G1 X168.750 Y165.250 E919.23986
G1 X136.250 Y165.250 E920.59106
G1 X136.250 Y158.750 E920.86129
G1 X137.750 Y158.750 E920.92366
;LAYER:26
G1 F2400 E920.32366
G1 Z5.700
G0 F9000 X137.250 Y145.750 Z5.400
;TYPE:WALL-INNER
G1 Z5.400
G1 F2400 E920.92366
G1 F2280 X136.750 Y145.750 E920.94445
G1 X136.750 Y140.250 E921.17311
G1 X168.250 Y140.250 E922.48273
G1 X168.250 Y140.750 E922.50351
G1 X137.250 Y140.750 E923.79234
G1 X137.250 Y145.750 E924.00022
G0 F9000 X137.750 Y146.250
;TYPE:WALL-OUTER
G1 F2280 X136.250 Y146.250 E924.06258
G1 X136.250 Y139.750 E924.33282
G1 X168.750 Y139.750 E925.68401
G1 X168.750 Y141.250 E925.74638
G1 X137.750 Y141.250 E927.03521
G1 X137.750 Y146.250 E927.24308
G1 F2400 E926.64308
G1 Z5.900
G0 F9000 X137.250 Y159.250
;TYPE:WALL-INNER
G1 Z5.400
G1 F2400 E927.24308
G1 F2280 X137.250 Y164.250 E927.45096
G1 X168.250 Y164.250 E928.73979
G1 X168.250 Y164.750 E928.76058
G1 X136.750 Y164.750 E930.07019
G1 X136.750 Y159.250 E930.29886
G1 X137.250 Y159.250 E930.31965
G0 F9000 X137.750 Y158.750
;TYPE:WALL-OUTER
G1 F2280 X137.750 Y163.750 E930.52752
G1 X168.750 Y163.750 E931.81635
G1 X168.750 Y165.250 E931.87871
G1 X136.250 Y165.250 E933.22991
G1 X136.250 Y158.750 E933.50015
G1 X137.750 Y158.750 E933.56251
;LAYER:27
G1 F2400 E932.96251
G1 Z5.900
G0 F9000 X137.250 Y145.750 Z5.600
;TYPE:WALL-INNER
G1 Z5.600
G1 F2400 E933.56251
G1 F2280 X136.750 Y145.750 E933.58330
G1 X136.750 Y140.250 E933.81196
G1 X168.250 Y140.250 E935.12158
G1 X168.250 Y140.750 E935.14237
G1 X137.250 Y140.750 E936.43120
G1 X137.250 Y145.750 E936.63907
G0 F9000 X137.750 Y146.250
;TYPE:WALL-OUTER
G1 F2280 X136.250 Y146.250 E936.70143
G1 X136.250 Y139.750 E936.97167
G1 X168.750 Y139.750 E938.32287
G1 X168.750 Y141.250 E938.38523
G1 X137.750 Y141.250 E939.67406
G1 X137.750 Y146.250 E939.88193
G1 F2400 E939.28193
G1 Z6.100
G0 F9000 X137.250 Y159.250
;TYPE:WALL-INNER
G1 Z5.600
G1 F2400 E939.88193
G1 F2280 X137.250 Y164.250 E940.08981
G1 X168.250 Y164.250 E941.37864
G1 X168.250 Y164.750 E941.39943
G1 X136.750 Y164.750 E942.70905
G1 X136.750 Y159.250 E942.93771
G1 X137.250 Y159.250 E942.95850
G0 F9000 X137.750 Y158.750
;TYPE:WALL-OUTER
G1 F2280 X137.750 Y163.750 E943.16637
G1 X168.750 Y163.750 E944.45520
G1 X168.750 Y165.250 E944.51757
G1 X136.250 Y165.250 E945.86876
G1 X136.250 Y158.750 E946.13900
G1 X137.750 Y158.750 E946.20136
;LAYER:28
G1 F2400 E945.60136
G1 Z6.100
G0 F9000 X137.250 Y145.750 Z5.800
;TYPE:WALL-INNER
G1 Z5.800
G1 F2400 E946.20136
G1 F2280 X136.750 Y145.750 E946.22215
G1 X136.750 Y140.250 E946.45081
G1 X168.250 Y140.250 E947.76043
G1 X168.250 Y140.750 E947.78122
G1 X137.250 Y140.750 E949.07005
G1 X137.250 Y145.750 E949.27792
G0 F9000 X137.750 Y146.250
;TYPE:WALL-OUTER
G1 F2280 X136.250 Y146.250 E949.34029
G1 X136.250 Y139.750 E949.61052
G1 X168.750 Y139.750 E950.96172
G1 X168.750 Y141.250 E951.02408
G1 X137.750 Y141.250 E952.31291
G1 X137.750 Y146.250 E952.52079
G1 F2400 E951.92079
G1 Z6.300
G0 F9000 X137.250 Y159.250
;TYPE:WALL-INNER
G1 Z5.800
G1 F2400 E952.52079
G1 F2280 X137.250 Y164.250 E952.72866
G1 X168.250 Y164.250 E954.01749
G1 X168.250 Y164.750 E954.03828
G1 X136.750 Y164.750 E955.34790
G1 X136.750 Y159.250 E955.57656
G1 X137.250 Y159.250 E955.59735
G0 F9000 X137.750 Y158.750
;TYPE:WALL-OUTER
G1 F2280 X137.750 Y163.750 E955.80522
G1 X168.750 Y163.750 E957.09405
G1 X168.750 Y165.250 E957.15642
G1 X136.250 Y165.250 E958.50761
G1 X136.250 Y158.750 E958.77785
G1 X137.750 Y158.750 E958.84021
;LAYER:29
G1 F2400 E958.24021
G1 Z6.300
G0 F9000 X137.250 Y145.750 Z6.000
;TYPE:WALL-INNER
G1 Z6.000
G1 F2400 E958.84021
G1 F2280 X136.750 Y145.750 E958.86100
G1 X136.750 Y140.250 E959.08966
G1 X168.250 Y140.250 E960.39928
G1 X168.250 Y140.750 E960.42007
G1 X137.250 Y140.750 E961.70890
G1 X137.250 Y145.750 E961.91677
G0 F9000 X137.750 Y146.250
;TYPE:WALL-OUTER
G1 F2280 X136.250 Y146.250 E961.97914
G1 X136.250 Y139.750 E962.24938
G1 X168.750 Y139.750 E963.60057
G1 X168.750 Y141.250 E963.66293
G1 X137.750 Y141.250 E964.95176
G1 X137.750 Y146.250 E965.15964
G1 F2400 E964.55964
G1 Z6.500
G0 F9000 X137.250 Y159.250
;TYPE:WALL-INNER
G1 Z6.000
G1 F2400 E965.15964
G1 F2280 X137.250 Y164.250 E965.36751
G1 X168.250 Y164.250 E966.65634
G1 X168.250 Y164.750 E966.67713
G1 X136.750 Y164.750 E967.98675
G1 X136.750 Y159.250 E968.21541
G1 X137.250 Y159.250 E968.23620
G0 F9000 X137.750 Y158.750
;TYPE:WALL-OUTER
G1 F2280 X137.750 Y163.750 E968.44408
G1 X168.750 Y163.750 E969.73291
G1 X168.750 Y165.250 E969.79527
G1 X136.250 Y165.250 E971.14646
G1 X136.250 Y158.750 E971.41670
G1 X137.750 Y158.750 E971.47906
;LAYER:30
G1 F2400 E970.87906
G1 Z6.500
G0 F9000 X137.250 Y145.750 Z6.200
;TYPE:WALL-INNER
G1 Z6.200
G1 F2400 E971.47906
G1 F2280 X136.750 Y145.750 E971.49985
G1 X136.750 Y140.250 E971.72851
G1 X168.250 Y140.250 E973.03813
G1 X168.250 Y140.750 E973.05892
G1 X137.250 Y140.750 E974.34775
G1 X137.250 Y145.750 E974.55563
G0 F9000 X137.750 Y146.250
;TYPE:WALL-OUTER
G1 F2280 X136.250 Y146.250 E974.61799
G1 X136.250 Y139.750 E974.88823
G1 X168.750 Y139.750 E976.23942
G1 X168.750 Y141.250 E976.30178
G1 X137.750 Y141.250 E977.59061
G1 X137.750 Y146.250 E977.79849
G1 F2400 E977.19849
G1 Z6.700
G0 F9000 X137.250 Y159.250
;TYPE:WALL-INNER
G1 Z6.200
G1 F2400 E977.79849
G1 F2280 X137.250 Y164.250 E978.00636
G1 X168.250 Y164.250 E979.29519
G1 X168.250 Y164.750 E979.31598
G1 X136.750 Y164.750 E980.62560
G1 X136.750 Y159.250 E980.85426
G1 X137.250 Y159.250 E980.87505
G0 F9000 X137.750 Y158.750
;TYPE:WALL-OUTER
G1 F2280 X137.750 Y163.750 E981.08293
G1 X168.750 Y163.750 E982.37176
G1 X168.750 Y165.250 E982.43412
G1 X136.250 Y165.250 E983.78531
G1 X136.250 Y158.750 E984.05555
G1 X137.750 Y158.750 E984.11791
;LAYER:31
