;-- START GCODE --
;Sliced for Type A Machines Series 1
;Sliced at: Tue 10-11-2020 16:22:20
;Basic settings: Layer height: 0.2 Walls: 1 Fill: 80
;Print Speed: 45 Support: 0
;Retraction Speed: 40 Retraction Distance: 0.6
;Print time: 48 minutes
;Filament used: 4.055m 12.0g
;Settings based on: Type A Machines ProMatte
G21        ;metric values
G90        ;absolute positioning
G28     ;move to endstops
G29		;allows for auto-levelling
G1 Z15.0 F12000 ;move the platform down 15mm
G1 X150 Y5 F9000 ;center
M140 S50 ;Prep Heat Bed
M109 S210 ;Heat To temp
M190 S50 ;Heat Bed to temp
G1 X150 Y5 Z0.3 ;move the platform to purge extrusion
G92 E0 ;zero the extruded length
G1 F200 X250 E30 ;extrude 30mm of feed stock
G92 E0 ;zero the extruded length again
G1 X150 Y150  Z25 F12000 ;recenter and begin
G1 F9000

;Layer count: 26
;LAYER:0
M107
G0 F9000 X123.671 Y124.412 Z0.200
;TYPE:SKIRT
G1 F1800 X124.632 Y123.458 E0.05630
G1 X125.542 Y122.614 E0.10790
G1 X125.595 Y122.561 E0.11101
G1 X126.646 Y121.652 E0.16879
G1 X127.695 Y120.802 E0.22492
G1 X128.774 Y119.986 E0.28116
G1 X129.880 Y119.208 E0.33738
G1 X131.010 Y118.468 E0.39354
G1 X132.166 Y117.764 E0.44981
G1 X133.345 Y117.101 E0.50605
G1 X134.543 Y116.477 E0.56220
G1 X135.765 Y115.895 E0.61848
G1 X137.004 Y115.352 E0.67472
G1 X138.262 Y114.853 E0.73098
G1 X139.535 Y114.396 E0.78722
G1 X140.820 Y113.983 E0.84333
G1 X142.121 Y113.610 E0.89960
G1 X143.434 Y113.285 E0.95584
G1 X144.756 Y113.001 E1.01205
G1 X146.088 Y112.764 E1.06830
G1 X147.427 Y112.571 E1.12455
G1 X148.771 Y112.423 E1.18076
G1 X150.119 Y112.321 E1.23696
G1 X151.469 Y112.264 E1.29314
G1 X152.716 Y112.252 E1.34499
G1 X152.793 Y112.249 E1.34819
G1 X154.175 Y112.284 E1.40567
G1 X155.429 Y112.359 E1.45789
G1 X155.520 Y112.362 E1.46168
G1 X156.872 Y112.487 E1.51813
G1 X158.211 Y112.658 E1.57425
G1 X159.547 Y112.871 E1.63050
G1 X160.874 Y113.131 E1.68672
G1 X162.191 Y113.433 E1.74289
G1 X163.499 Y113.782 E1.79917
G1 X164.793 Y114.173 E1.85537
G1 X166.074 Y114.608 E1.91162
G1 X167.339 Y115.084 E1.96781
G1 X168.588 Y115.605 E2.02408
G1 X169.818 Y116.166 E2.08028
G1 X171.027 Y116.768 E2.13643
G1 X172.218 Y117.410 E2.19268
G1 X173.388 Y118.093 E2.24901
G1 X174.531 Y118.815 E2.30521
G1 X175.649 Y119.572 E2.36135
G1 X176.743 Y120.369 E2.41762
G1 X177.808 Y121.202 E2.47383
G1 X178.845 Y122.070 E2.53006
G1 X179.853 Y122.972 E2.58629
G1 X180.829 Y123.907 E2.64249
G1 X181.773 Y124.875 E2.69870
G1 X182.685 Y125.874 E2.75494
G1 X183.563 Y126.903 E2.81118
G1 X184.405 Y127.962 E2.86743
G1 X185.211 Y129.047 E2.92362
G1 X185.980 Y130.158 E2.97979
G1 X186.714 Y131.298 E3.03616
G1 X187.405 Y132.458 E3.09230
G1 X188.059 Y133.641 E3.14850
G1 X188.673 Y134.848 E3.20480
G1 X189.244 Y136.072 E3.26095
G1 X189.776 Y137.316 E3.31720
G1 X190.265 Y138.578 E3.37347
G1 X190.712 Y139.854 E3.42968
G1 X191.114 Y141.145 E3.48590
G1 X191.474 Y142.447 E3.54206
G1 X191.790 Y143.762 E3.59829
G1 X192.062 Y145.089 E3.65461
G1 X192.287 Y146.422 E3.71081
G1 X192.470 Y147.761 E3.76700
G1 X192.606 Y149.106 E3.82320
G1 X192.698 Y150.456 E3.87946
G1 X192.743 Y151.807 E3.93566
G1 X192.745 Y153.157 E3.99178
G1 X192.700 Y154.510 E4.04806
G1 X192.610 Y155.860 E4.10432
G1 X192.474 Y157.205 E4.16052
G1 X192.294 Y158.545 E4.21673
G1 X192.068 Y159.879 E4.27298
G1 X191.797 Y161.204 E4.32921
G1 X191.483 Y162.519 E4.38542
G1 X191.124 Y163.823 E4.44165
G1 X190.723 Y165.115 E4.49789
G1 X190.277 Y166.391 E4.55409
G1 X189.789 Y167.653 E4.61034
G1 X189.258 Y168.897 E4.66658
G1 X188.688 Y170.121 E4.72271
G1 X188.075 Y171.329 E4.77903
G1 X187.422 Y172.513 E4.83525
G1 X186.730 Y173.674 E4.89144
G1 X185.999 Y174.812 E4.94767
G1 X185.231 Y175.925 E5.00389
G1 X184.425 Y177.011 E5.06012
G1 X183.585 Y178.070 E5.11632
G1 X182.707 Y179.101 E5.17262
G1 X181.795 Y180.100 E5.22885
G1 X180.853 Y181.068 E5.28501
G1 X179.877 Y182.005 E5.34126
G1 X178.869 Y182.908 E5.39752
G1 X177.835 Y183.775 E5.45363
G1 X176.769 Y184.610 E5.50992
G1 X175.676 Y185.407 E5.56616
G1 X174.578 Y186.153 E5.62135
G1 X173.436 Y186.876 E5.67754
G1 X172.269 Y187.560 E5.73378
G1 X171.080 Y188.204 E5.79000
G1 X169.870 Y188.807 E5.84621
G1 X168.641 Y189.370 E5.90241
G1 X167.393 Y189.892 E5.95865
G1 X166.128 Y190.371 E6.01489
G1 X164.851 Y190.806 E6.07098
G1 X163.556 Y191.201 E6.12726
G1 X162.248 Y191.551 E6.18356
G1 X160.931 Y191.856 E6.23976
G1 X159.605 Y192.116 E6.29594
G1 X158.271 Y192.333 E6.35213
G1 X156.928 Y192.505 E6.40842
G1 X155.580 Y192.630 E6.46471
G1 X154.233 Y192.710 E6.52081
G1 X152.921 Y192.746 E6.57537
G1 X152.800 Y192.748 E6.58040
G1 X151.528 Y192.737 E6.63329
G1 X150.154 Y192.681 E6.69046
G1 X148.805 Y192.580 E6.74670
G1 X147.461 Y192.433 E6.80291
G1 X146.120 Y192.241 E6.85923
G1 X144.788 Y192.004 E6.91548
G1 X143.467 Y191.723 E6.97163
G1 X142.153 Y191.397 E7.02792
G1 X140.852 Y191.027 E7.08415
G1 X139.566 Y190.614 E7.14031
G1 X138.293 Y190.159 E7.19651
G1 X137.035 Y189.660 E7.25278
G1 X135.795 Y189.119 E7.30902
G1 X134.574 Y188.537 E7.36526
G1 X133.375 Y187.915 E7.42142
G1 X132.195 Y187.252 E7.47769
G1 X131.038 Y186.550 E7.53395
G1 X129.908 Y185.810 E7.59011
G1 X128.802 Y185.033 E7.64630
G1 X127.721 Y184.219 E7.70256
G1 X126.669 Y183.367 E7.75885
G1 X125.648 Y182.483 E7.81499
G1 X124.655 Y181.564 E7.87125
G1 X123.694 Y180.610 E7.92754
G1 X122.767 Y179.628 E7.98369
G1 X121.871 Y178.614 E8.03994
G1 X121.011 Y177.568 E8.09624
G1 X120.189 Y176.498 E8.15234
G1 X119.400 Y175.400 E8.20855
G1 X118.649 Y174.274 E8.26482
G1 X117.937 Y173.125 E8.32102
G1 X117.264 Y171.953 E8.37721
G1 X116.629 Y170.757 E8.43351
G1 X116.036 Y169.540 E8.48979
G1 X115.486 Y168.307 E8.54592
G1 X114.975 Y167.055 E8.60214
G1 X114.508 Y165.786 E8.65836
G1 X114.083 Y164.503 E8.71455
G1 X113.701 Y163.205 E8.77081
G1 X113.362 Y161.894 E8.82710
G1 X113.069 Y160.574 E8.88332
G1 X112.821 Y159.246 E8.93948
G1 X112.616 Y157.910 E8.99568
G1 X112.456 Y156.565 E9.05199
G1 X112.343 Y155.217 E9.10823
G1 X112.274 Y153.867 E9.16443
G1 X112.252 Y152.570 E9.21836
G1 X112.250 Y152.532 E9.21994
G1 X112.272 Y151.164 E9.27683
G1 X112.340 Y149.814 E9.33302
G1 X112.452 Y148.466 E9.38926
G1 X112.611 Y147.122 E9.44553
G1 X112.814 Y145.785 E9.50175
G1 X113.062 Y144.457 E9.55792
G1 X113.354 Y143.137 E9.61412
G1 X113.691 Y141.826 E9.67040
G1 X114.072 Y140.528 E9.72664
G1 X114.496 Y139.247 E9.78274
G1 X114.961 Y137.975 E9.83905
G1 X115.472 Y136.722 E9.89531
G1 X116.022 Y135.488 E9.95148
G1 X116.614 Y134.272 E10.00770
G1 X117.246 Y133.077 E10.06391
G1 X117.919 Y131.902 E10.12020
G1 X118.631 Y130.752 E10.17644
G1 X119.381 Y129.627 E10.23265
G1 X120.168 Y128.529 E10.28881
G1 X120.990 Y127.456 E10.34501
G1 X121.850 Y126.411 E10.40128
G1 X122.744 Y125.396 E10.45751
G1 X123.671 Y124.412 E10.51371
G1 F2400 E9.91371
G1 Z0.700
G0 F9000 X126.545 Y127.194
;TYPE:WALL-INNER
G1 Z0.200
G1 F2400 E10.51371
G1 F1800 X127.392 Y126.354 E10.56331
G1 X128.313 Y125.499 E10.61556
G1 X129.212 Y124.721 E10.66499
G1 X130.170 Y123.945 E10.71624
G1 X131.122 Y123.225 E10.76587
G1 X132.138 Y122.510 E10.81752
G1 X133.157 Y121.843 E10.86815
G1 X134.175 Y121.223 E10.91771
G1 X135.259 Y120.614 E10.96940
G1 X136.317 Y120.063 E11.01899
G1 X137.430 Y119.533 E11.07025
G1 X138.546 Y119.044 E11.12090
G1 X139.678 Y118.594 E11.17155
G1 X140.826 Y118.182 E11.22226
G1 X141.981 Y117.811 E11.27269
G1 X143.150 Y117.476 E11.32325
G1 X144.346 Y117.180 E11.37447
G1 X145.524 Y116.927 E11.42457
G1 X146.725 Y116.713 E11.47528
G1 X147.918 Y116.542 E11.52539
G1 X149.151 Y116.406 E11.57696
G1 X150.368 Y116.314 E11.62771
G1 X151.562 Y116.263 E11.67739
G1 X152.814 Y116.252 E11.72945
G1 X154.005 Y116.282 E11.77898
G1 X155.241 Y116.354 E11.83045
G1 X156.439 Y116.464 E11.88047
G1 X157.634 Y116.616 E11.93055
G1 X158.860 Y116.812 E11.98217
G1 X160.039 Y117.043 E12.03212
G1 X161.223 Y117.315 E12.08262
G1 X162.410 Y117.631 E12.13369
G1 X163.583 Y117.986 E12.18465
G1 X164.719 Y118.372 E12.23453
G1 X165.867 Y118.804 E12.28552
G1 X166.999 Y119.276 E12.33651
G1 X168.097 Y119.777 E12.38669
G1 X169.176 Y120.314 E12.43680
G1 X170.249 Y120.892 E12.48747
G1 X171.311 Y121.512 E12.53860
G1 X172.338 Y122.161 E12.58910
G1 X173.359 Y122.853 E12.64038
G1 X174.331 Y123.561 E12.69038
G1 X175.282 Y124.304 E12.74055
G1 X176.235 Y125.102 E12.79223
G1 X177.125 Y125.899 E12.84190
G1 X178.022 Y126.758 E12.89354
G1 X178.863 Y127.621 E12.94363
G1 X179.677 Y128.512 E12.99381
G1 X180.483 Y129.457 E13.04545
G1 X181.241 Y130.410 E13.09607
G1 X181.953 Y131.369 E13.14573
G1 X182.660 Y132.390 E13.19736
G1 X183.319 Y133.415 E13.24802
G1 X183.942 Y134.461 E13.29864
G1 X184.519 Y135.505 E13.34823
G1 X185.082 Y136.612 E13.39987
G1 X185.587 Y137.694 E13.44951
G1 X186.076 Y138.837 E13.50120
G1 X186.507 Y139.950 E13.55082
G1 X186.918 Y141.123 E13.60249
G1 X187.273 Y142.262 E13.65209
G1 X187.604 Y143.459 E13.70373
G1 X187.882 Y144.619 E13.75332
G1 X188.127 Y145.811 E13.80391
G1 X188.334 Y147.037 E13.85561
G1 X188.499 Y148.245 E13.90629
G1 X188.619 Y149.432 E13.95590
G1 X188.702 Y150.646 E14.00649
G1 X188.743 Y151.888 E14.05815
G1 X188.745 Y153.081 E14.10775
G1 X188.704 Y154.323 E14.15941
G1 X188.625 Y155.513 E14.20900
G1 X188.503 Y156.725 E14.25964
G1 X188.340 Y157.932 E14.31028
G1 X188.134 Y159.155 E14.36184
G1 X187.889 Y160.351 E14.41260
G1 X187.612 Y161.511 E14.46218
G1 X187.289 Y162.686 E14.51284
G1 X186.923 Y163.863 E14.56409
G1 X186.526 Y164.999 E14.61412
G1 X186.080 Y166.153 E14.66556
G1 X185.610 Y167.255 E14.71536
G1 X185.096 Y168.359 E14.76599
G1 X184.535 Y169.465 E14.81755
G1 X183.946 Y170.532 E14.86822
G1 X183.335 Y171.559 E14.91791
G1 X182.670 Y172.595 E14.96909
G1 X181.979 Y173.596 E15.01966
G1 X181.260 Y174.565 E15.06982
G1 X180.489 Y175.535 E15.12134
G1 X179.702 Y176.461 E15.17186
G1 X178.884 Y177.357 E15.22230
G1 X178.044 Y178.220 E15.27237
G1 X177.165 Y179.064 E15.32304
G1 X176.258 Y179.877 E15.37368
G1 X175.308 Y180.673 E15.42520
G1 X174.359 Y181.417 E15.47534
G1 X173.363 Y182.143 E15.52658
G1 X172.394 Y182.801 E15.57528
G1 X171.346 Y183.465 E15.62686
G1 X170.296 Y184.080 E15.67745
G1 X169.245 Y184.649 E15.72714
G1 X168.154 Y185.193 E15.77782
G1 X167.023 Y185.711 E15.82954
G1 X165.902 Y186.180 E15.88006
G1 X164.786 Y186.602 E15.92966
G1 X163.610 Y187.003 E15.98132
G1 X162.468 Y187.351 E16.03096
G1 X161.274 Y187.670 E16.08234
G1 X160.090 Y187.944 E16.13286
G1 X158.884 Y188.181 E16.18396
G1 X157.709 Y188.372 E16.23345
G1 X156.493 Y188.528 E16.28442
G1 X155.281 Y188.640 E16.33503
G1 X154.058 Y188.713 E16.38596
G1 X152.829 Y188.747 E16.43708
G1 X152.782 Y188.748 E16.43903
G1 X151.615 Y188.738 E16.48755
G1 X150.398 Y188.688 E16.53819
G1 X149.180 Y188.597 E16.58897
G1 X147.948 Y188.462 E16.64050
G1 X146.759 Y188.293 E16.69043
G1 X145.568 Y188.080 E16.74073
G1 X144.352 Y187.821 E16.79242
G1 X143.169 Y187.528 E16.84309
G1 X142.018 Y187.200 E16.89285
G1 X140.845 Y186.824 E16.94406
G1 X139.715 Y186.420 E16.99395
G1 X138.584 Y185.971 E17.04454
G1 X137.444 Y185.474 E17.09625
G1 X136.355 Y184.955 E17.14640
G1 X135.272 Y184.393 E17.19713
G1 X134.223 Y183.804 E17.24715
G1 X133.162 Y183.159 E17.29877
G1 X132.158 Y182.502 E17.34865
G1 X131.146 Y181.791 E17.40007
G1 X130.191 Y181.071 E17.44980
G1 X129.236 Y180.299 E17.50085
G1 X128.307 Y179.494 E17.55196
G1 X127.426 Y178.679 E17.60186
G1 X126.564 Y177.824 E17.65233
G1 X125.713 Y176.922 E17.70389
G1 X124.924 Y176.028 E17.75346
G1 X124.144 Y175.080 E17.80450
G1 X123.393 Y174.103 E17.85574
G1 X122.696 Y173.133 E17.90539
G1 X122.021 Y172.121 E17.95597
G1 X121.366 Y171.064 E18.00767
G1 X120.770 Y170.028 E18.05736
G1 X120.188 Y168.931 E18.10899
G1 X119.667 Y167.860 E18.15850
G1 X119.160 Y166.724 E18.21022
G1 X118.707 Y165.615 E18.26003
G1 X118.280 Y164.454 E18.31146
G1 X117.905 Y163.321 E18.36108
G1 X117.554 Y162.128 E18.41278
G1 X117.249 Y160.948 E18.46345
G1 X116.989 Y159.776 E18.51336
G1 X116.762 Y158.563 E18.56466
G1 X116.582 Y157.383 E18.61429
G1 X116.435 Y156.148 E18.66600
G1 X116.335 Y154.958 E18.71565
G1 X116.273 Y153.736 E18.76652
G1 X116.252 Y152.493 E18.81820
G1 X116.251 Y152.482 E18.81866
G1 X116.271 Y151.284 E18.86848
G1 X116.332 Y150.067 E18.91914
G1 X116.431 Y148.880 E18.96866
G1 X116.577 Y147.645 E19.02036
G1 X116.756 Y146.466 E19.06994
G1 X116.984 Y145.244 E19.12162
G1 X117.241 Y144.080 E19.17118
G1 X117.545 Y142.900 E19.22184
G1 X117.895 Y141.707 E19.27353
G1 X118.269 Y140.574 E19.32314
G1 X118.688 Y139.431 E19.37375
G1 X119.157 Y138.280 E19.42542
G1 X119.653 Y137.166 E19.47612
G1 X120.175 Y136.095 E19.52565
G1 X120.744 Y135.019 E19.57626
G1 X121.350 Y133.961 E19.62695
G1 X122.004 Y132.904 E19.67863
G1 X122.665 Y131.912 E19.72819
G1 X123.389 Y130.901 E19.77988
G1 X124.114 Y129.955 E19.82944
G1 X124.888 Y129.014 E19.88009
G1 X125.710 Y128.081 E19.93179
G1 X126.545 Y127.194 E19.98244
G0 F9000 X126.175 Y126.857
;TYPE:WALL-OUTER
G1 F1800 X127.052 Y125.987 E20.03379
G1 X127.966 Y125.139 E20.08563
G1 X128.896 Y124.333 E20.13680
G1 X129.849 Y123.561 E20.18779
G1 X130.834 Y122.816 E20.23913
G1 X131.843 Y122.106 E20.29043
G1 X132.883 Y121.425 E20.34211
G1 X133.930 Y120.787 E20.39308
G1 X135.007 Y120.182 E20.44444
G1 X136.102 Y119.612 E20.49576
G1 X137.224 Y119.077 E20.54744
G1 X138.356 Y118.581 E20.59883
G1 X139.495 Y118.128 E20.64979
G1 X140.657 Y117.711 E20.70111
G1 X141.840 Y117.331 E20.75277
G1 X143.019 Y116.994 E20.80375
G1 X144.226 Y116.695 E20.85545
G1 X145.426 Y116.437 E20.90648
G1 X146.649 Y116.219 E20.95813
G1 X147.863 Y116.044 E21.00912
G1 X149.099 Y115.909 E21.06082
G1 X150.322 Y115.816 E21.11181
G1 X151.564 Y115.763 E21.16349
G1 X152.801 Y115.752 E21.21492
G1 X152.822 Y115.751 E21.21580
G1 X154.023 Y115.782 E21.26574
G1 X155.266 Y115.855 E21.31751
G1 X155.289 Y115.856 E21.31847
G1 X156.490 Y115.967 E21.36861
G1 X157.714 Y116.123 E21.41991
G1 X158.939 Y116.318 E21.47148
G1 X160.142 Y116.553 E21.52244
G1 X161.353 Y116.832 E21.57411
G1 X162.546 Y117.150 E21.62544
G1 X163.720 Y117.505 E21.67643
G1 X164.898 Y117.905 E21.72816
G1 X166.045 Y118.337 E21.77911
G1 X167.192 Y118.815 E21.83077
G1 X168.308 Y119.324 E21.88177
G1 X169.413 Y119.874 E21.93309
G1 X170.501 Y120.460 E21.98446
G1 X171.574 Y121.087 E22.03613
G1 X172.611 Y121.742 E22.08713
G1 X173.633 Y122.434 E22.13844
G1 X174.631 Y123.161 E22.18977
G1 X175.603 Y123.921 E22.24107
G1 X176.556 Y124.719 E22.29275
G1 X177.471 Y125.538 E22.34380
G1 X178.362 Y126.391 E22.39509
G1 X179.224 Y127.275 E22.44642
G1 X180.063 Y128.194 E22.49815
G1 X180.859 Y129.126 E22.54911
G1 X181.632 Y130.099 E22.60078
G1 X182.364 Y131.084 E22.65180
G1 X183.071 Y132.105 E22.70343
G1 X183.735 Y133.137 E22.75445
G1 X184.367 Y134.198 E22.80579
G1 X184.965 Y135.278 E22.85712
G1 X185.524 Y136.378 E22.90842
G1 X186.050 Y137.505 E22.96012
G1 X186.533 Y138.632 E23.01110
G1 X186.979 Y139.785 E23.06250
G1 X187.387 Y140.949 E23.11378
G1 X187.755 Y142.129 E23.16517
G1 X188.084 Y143.317 E23.21642
G1 X188.372 Y144.518 E23.26776
G1 X188.620 Y145.728 E23.31912
G1 X188.826 Y146.946 E23.37047
G1 X188.993 Y148.169 E23.42179
G1 X189.118 Y149.406 E23.47348
G1 X189.202 Y150.629 E23.52445
G1 X189.243 Y151.863 E23.57578
G1 X189.245 Y153.098 E23.62713
G1 X189.204 Y154.340 E23.67879
G1 X189.123 Y155.563 E23.72975
G1 X188.998 Y156.792 E23.78111
G1 X188.833 Y158.015 E23.83242
G1 X188.626 Y159.241 E23.88411
G1 X188.381 Y160.443 E23.93511
G1 X188.094 Y161.644 E23.98645
G1 X187.766 Y162.835 E24.03781
G1 X187.397 Y164.022 E24.08949
G1 X186.993 Y165.179 E24.14044
G1 X186.548 Y166.331 E24.19178
G1 X186.063 Y167.466 E24.24309
G1 X185.538 Y168.593 E24.29478
G1 X184.983 Y169.687 E24.34579
G1 X184.387 Y170.768 E24.39711
G1 X183.751 Y171.836 E24.44879
G1 X183.088 Y172.868 E24.49978
G1 X182.387 Y173.884 E24.55110
G1 X181.651 Y174.876 E24.60246
G1 X180.878 Y175.849 E24.65412
G1 X180.083 Y176.784 E24.70515
G1 X179.245 Y177.703 E24.75685
G1 X178.390 Y178.581 E24.80780
G1 X177.499 Y179.436 E24.85914
G1 X176.579 Y180.260 E24.91049
G1 X175.627 Y181.058 E24.96214
G1 X174.655 Y181.820 E25.01349
G1 X173.665 Y182.542 E25.06443
G1 X172.661 Y183.224 E25.11489
G1 X171.619 Y183.884 E25.16617
G1 X170.554 Y184.508 E25.21749
G1 X169.468 Y185.096 E25.26883
G1 X168.355 Y185.651 E25.32054
G1 X167.241 Y186.162 E25.37149
G1 X166.094 Y186.641 E25.42317
G1 X164.947 Y187.075 E25.47416
G1 X163.771 Y187.476 E25.52582
G1 X162.597 Y187.835 E25.57686
G1 X161.397 Y188.155 E25.62849
G1 X160.195 Y188.433 E25.67978
G1 X158.991 Y188.670 E25.73080
G1 X157.763 Y188.869 E25.78252
G1 X156.544 Y189.025 E25.83361
G1 X155.318 Y189.139 E25.88480
G1 X154.077 Y189.213 E25.93649
G1 X152.843 Y189.247 E25.98781
G1 X152.786 Y189.248 E25.99018
G1 X151.618 Y189.238 E26.03874
G1 X150.352 Y189.186 E26.09142
G1 X149.130 Y189.095 E26.14237
G1 X147.894 Y188.959 E26.19407
G1 X146.679 Y188.786 E26.24509
G1 X145.464 Y188.569 E26.29640
G1 X144.248 Y188.310 E26.34809
G1 X143.049 Y188.013 E26.39945
G1 X141.870 Y187.678 E26.45040
G1 X140.686 Y187.298 E26.50210
G1 X139.524 Y186.883 E26.55340
G1 X138.384 Y186.430 E26.60440
G1 X137.252 Y185.936 E26.65575
G1 X136.130 Y185.401 E26.70743
G1 X135.034 Y184.833 E26.75875
G1 X133.965 Y184.232 E26.80974
G1 X132.902 Y183.586 E26.86145
G1 X131.876 Y182.915 E26.91242
G1 X130.859 Y182.200 E26.96411
G1 X129.872 Y181.457 E27.01547
G1 X128.920 Y180.686 E27.06640
G1 X127.980 Y179.872 E27.11810
G1 X127.074 Y179.034 E27.16941
G1 X126.203 Y178.169 E27.22044
G1 X125.350 Y177.265 E27.27212
G1 X124.538 Y176.346 E27.32310
G1 X123.748 Y175.386 E27.37479
G1 X123.001 Y174.414 E27.42576
G1 X122.276 Y173.404 E27.47745
G1 X121.596 Y172.384 E27.52841
G1 X120.941 Y171.327 E27.58011
G1 X120.326 Y170.257 E27.63142
G1 X119.747 Y169.166 E27.68277
G1 X119.207 Y168.057 E27.73405
G1 X118.703 Y166.928 E27.78546
G1 X118.240 Y165.793 E27.83642
G1 X117.811 Y164.627 E27.88807
G1 X117.425 Y163.462 E27.93910
G1 X117.074 Y162.269 E27.99080
G1 X116.765 Y161.073 E28.04216
G1 X116.500 Y159.877 E28.09309
G1 X116.271 Y158.655 E28.14478
G1 X116.084 Y157.434 E28.19613
G1 X115.938 Y156.207 E28.24750
G1 X115.836 Y154.986 E28.29844
G1 X115.773 Y153.744 E28.35015
G1 X115.752 Y152.508 E28.40154
G1 X115.751 Y152.481 E28.40266
G1 X115.771 Y151.284 E28.45244
G1 X115.833 Y150.042 E28.50414
G1 X115.934 Y148.821 E28.55507
G1 X116.079 Y147.595 E28.60640
G1 X116.265 Y146.374 E28.65775
G1 X116.493 Y145.152 E28.70943
G1 X116.757 Y143.955 E28.76039
G1 X117.065 Y142.759 E28.81174
G1 X117.415 Y141.566 E28.86343
G1 X117.799 Y140.402 E28.91439
G1 X118.225 Y139.242 E28.96576
G1 X118.694 Y138.091 E29.01744
G1 X119.193 Y136.970 E29.06845
G1 X119.733 Y135.861 E29.11973
G1 X120.310 Y134.770 E29.17104
G1 X120.925 Y133.698 E29.22243
G1 X121.579 Y132.641 E29.27410
G1 X122.258 Y131.621 E29.32505
G1 X122.982 Y130.610 E29.37675
G1 X123.728 Y129.637 E29.42772
G1 X124.513 Y128.683 E29.47908
G1 X125.335 Y127.750 E29.53078
G1 X126.175 Y126.857 E29.58175
G0 F9000 X126.816 Y127.170
;TYPE:SKIN
G1 F1800 X177.829 Y178.183 E32.58112
G0 F9000 X177.468 Y178.528
G1 F1800 X126.468 Y127.528 E35.57972
G0 F9000 X126.125 Y127.892
G1 F1800 X177.107 Y178.875 E38.57730
G0 F9000 X176.736 Y179.211
G1 F1800 X125.784 Y128.259 E41.57308
G0 F9000 X125.453 Y128.635
G1 F1800 X176.363 Y179.545 E44.56640
G0 F9000 X175.985 Y179.874
G1 F1800 X125.122 Y129.011 E47.55695
G0 F9000 X124.799 Y129.395
G1 F1800 X175.600 Y180.196 E50.54385
G0 F9000 X175.216 Y180.519
G1 F1800 X124.479 Y129.783 E53.52696
G0 F9000 X124.164 Y130.174
G1 F1800 X174.820 Y180.831 E56.50537
G0 F9000 X174.424 Y181.141
G1 F1800 X123.857 Y130.575 E59.47849
G0 F9000 X123.550 Y130.975
G1 F1800 X174.021 Y181.445 E62.44596
G0 F9000 X173.611 Y181.743
G1 F1800 X123.255 Y131.386 E65.40673
G0 F9000 X122.959 Y131.798
G1 F1800 X173.200 Y182.039 E68.36070
G0 F9000 X172.780 Y182.326
G1 F1800 X122.671 Y132.216 E71.30695
G0 F9000 X122.388 Y132.641
G1 F1800 X172.359 Y182.612 E74.24505
G0 F9000 X171.928 Y182.888
G1 F1800 X122.108 Y133.068 E77.17428
G0 F9000 X121.837 Y133.504
G1 F1800 X171.495 Y183.162 E80.09398
G0 F9000 X171.056 Y183.430
G1 F1800 X121.567 Y133.941 E83.00374
G0 F9000 X121.306 Y134.387
G1 F1800 X170.610 Y183.692 E85.90266
G0 F9000 X170.163 Y183.951
G1 F1800 X121.048 Y134.837 E88.79040
G0 F9000 X120.796 Y135.292
G1 F1800 X169.704 Y184.199 E91.66598
G0 F9000 X169.246 Y184.448
G1 F1800 X120.551 Y135.754 E94.52903
G0 F9000 X120.308 Y136.218
G1 F1800 X168.775 Y184.685 E97.37870
G0 F9000 X168.304 Y184.921
G1 F1800 X120.077 Y136.694 E100.21426
G1 F2400 E99.61426
G1 Z0.700
G0 F9000 X127.171 Y126.818
G1 Z0.200
G1 F2400 E100.21426
G1 F1800 X178.182 Y177.828 E103.21349
G0 F9000 X178.531 Y177.470
G1 F1800 X127.527 Y126.466 E106.21233
G0 F9000 X127.894 Y126.126
G1 F1800 X178.875 Y177.107 E109.20981
G0 F9000 X179.212 Y176.737
G1 F1800 X128.260 Y125.785 E112.20560
G0 F9000 X128.634 Y125.452
G1 F1800 X179.549 Y176.367 E115.19920
G0 F9000 X179.875 Y175.986
G1 F1800 X129.013 Y125.123 E118.18972
G0 F9000 X129.394 Y124.797
G1 F1800 X180.200 Y175.604 E121.17695
G0 F9000 X180.518 Y175.215
G1 F1800 X129.785 Y124.481 E124.15988
G0 F9000 X130.175 Y124.165
G1 F1800 X180.831 Y174.821 E127.13826
G0 F9000 X181.143 Y174.426
G1 F1800 X130.575 Y123.857 E130.11150
G0 F9000 X130.978 Y123.553
G1 F1800 X181.445 Y174.021 E133.07879
G0 F9000 X181.746 Y173.615
G1 F1800 X131.385 Y123.253 E136.03986
G0 F9000 X131.800 Y122.961
G1 F1800 X182.038 Y173.200 E138.99369
G0 F9000 X182.327 Y172.781
G1 F1800 X132.215 Y122.669 E141.94008
G0 F9000 X132.642 Y122.389
G1 F1800 X182.612 Y172.359 E144.87813
G0 F9000 X182.888 Y171.928
G1 F1800 X133.069 Y122.109 E147.80729
G0 F9000 X133.504 Y121.837
G1 F1800 X183.166 Y171.498 E150.72720
G0 F9000 X183.430 Y171.056
G1 F1800 X133.943 Y121.569 E153.63684
G0 F9000 X134.386 Y121.304
G1 F1800 X183.694 Y170.612 E156.53597
G0 F9000 X183.950 Y170.161
G1 F1800 X134.838 Y121.050 E159.42353
G0 F9000 X135.291 Y120.795
G1 F1800 X184.201 Y169.705 E162.29925
G0 F9000 X184.448 Y169.246
G1 F1800 X135.755 Y120.552 E165.16224
G0 F9000 X136.220 Y120.310
G1 F1800 X184.687 Y168.777 E168.01192
G0 F9000 X184.924 Y168.307
G1 F1800 X136.694 Y120.077 E170.84766
G0 F9000 X137.173 Y119.848
G1 F1800 X185.150 Y167.826 E173.66855
G0 F9000 X185.375 Y167.343
G1 F1800 X137.656 Y119.624 E176.47425
G0 F9000 X138.147 Y119.409
G1 F1800 X185.591 Y166.853 E179.26377
G0 F9000 X185.802 Y166.357
G1 F1800 X138.639 Y119.194 E182.03677
G0 F9000 X139.145 Y118.993
G1 F1800 X186.007 Y165.854 E184.79205
G0 F9000 X186.204 Y165.344
G1 F1800 X139.651 Y118.791 E187.52919
G0 F9000 X140.169 Y118.603
G1 F1800 X186.399 Y164.832 E190.24731
G0 F9000 X186.582 Y164.308
G1 F1800 X140.690 Y118.416 E192.94558
G0 F9000 X141.220 Y118.239
G1 F1800 X186.764 Y163.783 E195.62339
G0 F9000 X186.932 Y163.244
G1 F1800 X141.755 Y118.067 E198.27963
G0 F9000 X142.297 Y117.902
G1 F1800 X187.099 Y162.704 E200.91381
G0 F9000 X187.254 Y162.152
G1 F1800 X142.847 Y117.745 E203.52477
G0 F9000 X143.404 Y117.594
G1 F1800 X187.407 Y161.597 E206.11198
G0 F9000 X187.546 Y161.030
G1 F1800 X143.970 Y117.453 E208.67411
G0 F9000 X144.540 Y117.316
G1 F1800 X187.682 Y160.458 E211.21070
G0 F9000 X187.806 Y159.876
G1 F1800 X145.122 Y117.191 E213.72038
G0 F9000 X145.709 Y117.071
G1 F1800 X187.927 Y159.289 E216.20264
G0 F9000 X188.034 Y158.689
G1 F1800 X146.310 Y116.965 E218.65585
G0 F9000 X146.914 Y116.862
G1 F1800 X188.136 Y158.084 E221.07955
G0 F9000 X188.225 Y157.466
G1 F1800 X147.533 Y116.774 E223.47208
G0 F9000 X148.158 Y116.692
G1 F1800 X188.309 Y156.843 E225.83280
G0 F9000 X188.378 Y156.205
G1 F1800 X148.795 Y116.621 E228.16016
G0 F9000 X149.439 Y116.559
G1 F1800 X188.443 Y155.562 E230.45342
G0 F9000 X188.490 Y154.903
G1 F1800 X150.097 Y116.509 E232.71081
G0 F9000 X150.767 Y116.472
G1 F1800 X188.531 Y154.236 E234.93119
G0 F9000 X188.554 Y153.552
G1 F1800 X151.445 Y116.443 E237.11306
G0 F9000 X152.142 Y116.433
G1 F1800 X188.569 Y152.860 E239.25482
G0 F9000 X188.568 Y152.152
G1 F1800 X152.844 Y116.428 E241.35526
G0 F9000 X153.570 Y116.447
G1 F1800 X188.552 Y151.429 E243.41207
G0 F9000 X188.528 Y150.698
G1 F1800 X154.306 Y116.476 E245.42419
G0 F9000 X155.056 Y116.519
G1 F1800 X188.478 Y149.941 E247.38927
G0 F9000 X188.415 Y149.171
G1 F1800 X155.828 Y116.584 E249.30526
G0 F9000 X156.614 Y116.663
G1 F1800 X188.335 Y148.384 E251.17034
G0 F9000 X188.229 Y147.571
G1 F1800 X157.425 Y116.766 E252.98152
G0 F9000 X158.259 Y116.893
G1 F1800 X188.105 Y146.740 E254.73638
G0 F9000 X187.961 Y145.888
G1 F1800 X159.112 Y117.039 E256.43259
G0 F9000 X159.990 Y117.210
G1 F1800 X187.781 Y145.001 E258.06660
G0 F9000 X187.574 Y144.087
G1 F1800 X160.910 Y117.423 E259.63434
G0 F9000 X161.861 Y117.667
G1 F1800 X187.334 Y143.140 E261.13205
G0 F9000 X187.055 Y142.153
G1 F1800 X162.847 Y117.946 E262.55536
G0 F9000 X163.881 Y118.272
G1 F1800 X186.732 Y141.123 E263.89891
G0 F9000 X186.350 Y140.035
G1 F1800 X164.968 Y118.652 E265.15612
G0 F9000 X166.123 Y119.100
G1 F1800 X185.904 Y138.882 E266.31920
G0 F9000 X185.365 Y137.636
G1 F1800 X167.365 Y119.635 E267.37756
G1 F2400 E266.77756
G1 Z0.700
G0 F9000 X168.719 Y120.282
G1 Z0.200
G1 F2400 E267.37756
G1 F1800 X184.713 Y136.277 E268.31797
G1 F2400 E267.71797
G1 Z0.700
G0 F9000 X183.909 Y134.766
G1 Z0.200
G1 F2400 E268.31797
G1 F1800 X170.226 Y121.082 E269.12251
G1 F2400 E268.52251
G1 Z0.700
G0 F9000 X172.015 Y122.164
G1 Z0.200
G1 F2400 E269.12251
G1 F1800 X182.828 Y132.977 E269.75828
G1 F2400 E269.15828
G1 Z0.700
G0 F9000 X181.177 Y130.619
G1 Z0.200
G1 F2400 E269.75828
G1 F1800 X174.383 Y123.825 E270.15774
G1 F2400 E269.55774
G1 Z0.700
G0 F9000 X119.845 Y137.169
G1 Z0.200
G1 F2400 E270.15774
G1 F1800 X167.826 Y185.150 E272.97884
G0 F9000 X167.341 Y185.372
G1 F1800 X119.625 Y137.656 E275.78435
G0 F9000 X119.407 Y138.146
G1 F1800 X166.853 Y185.591 E278.57397
G0 F9000 X166.353 Y185.799
G1 F1800 X119.197 Y138.643 E281.34656
G0 F9000 X118.992 Y139.145
G1 F1800 X165.855 Y186.007 E284.10189
G0 F9000 X165.342 Y186.202
G1 F1800 X118.792 Y139.652 E286.83886
G0 F9000 X118.603 Y140.169
G1 F1800 X164.830 Y186.396 E289.55683
G0 F9000 X164.305 Y186.579
G1 F1800 X118.414 Y140.688 E292.25504
G0 F9000 X118.238 Y141.219
G1 F1800 X163.777 Y186.758 E294.93256
G0 F9000 X163.241 Y186.930
G1 F1800 X118.063 Y141.751 E297.58888
G0 F9000 X117.903 Y142.298
G1 F1800 X162.700 Y187.095 E300.22277
G0 F9000 X162.150 Y187.252
G1 F1800 X117.743 Y142.845 E302.83374
G0 F9000 X117.595 Y143.404
G1 F1800 X161.592 Y187.401 E305.42059
G0 F9000 X161.028 Y187.545
G1 F1800 X117.450 Y143.966 E307.98284
G0 F9000 X117.317 Y144.541
G1 F1800 X160.455 Y187.678 E310.51916
G0 F9000 X159.876 Y187.807
G1 F1800 X117.189 Y145.120 E313.02899
G0 F9000 X117.074 Y145.712
G1 F1800 X159.284 Y187.922 E315.51078
G0 F9000 X158.688 Y188.033
G1 F1800 X116.963 Y146.308 E317.96405
G0 F9000 X116.864 Y146.916
G1 F1800 X158.080 Y188.132 E320.38739
G0 F9000 X157.465 Y188.224
G1 F1800 X116.771 Y147.530 E322.78004
G0 F9000 X116.692 Y148.158
G1 F1800 X156.839 Y188.306 E325.14056
G0 F9000 X156.204 Y188.377
G1 F1800 X116.616 Y148.790 E327.46815
G0 F9000 X116.558 Y149.439
G1 F1800 X155.557 Y188.437 E329.76112
G0 F9000 X154.898 Y188.485
G1 F1800 X116.505 Y150.092 E332.01848
G0 F9000 X116.471 Y150.766
G1 F1800 X154.231 Y188.525 E334.23859
G0 F9000 X153.548 Y188.550
G1 F1800 X116.442 Y151.444 E336.42028
G0 F9000 X116.430 Y152.139
G1 F1800 X152.860 Y188.569 E338.56223
G0 F9000 X152.150 Y188.566
G1 F1800 X116.432 Y152.848 E340.66231
G0 F9000 X116.444 Y153.568
G1 F1800 X151.430 Y188.553 E342.71932
G0 F9000 X150.693 Y188.523
G1 F1800 X116.476 Y154.306 E344.73115
G0 F9000 X116.518 Y155.055
G1 F1800 X149.940 Y188.477 E346.69624
G0 F9000 X149.176 Y188.421
G1 F1800 X116.582 Y155.827 E348.61264
G0 F9000 X116.666 Y156.618
G1 F1800 X148.379 Y188.331 E350.47724
G0 F9000 X147.571 Y188.229
G1 F1800 X116.765 Y157.424 E352.28849
G0 F9000 X116.892 Y158.258
G1 F1800 X146.745 Y188.110 E354.04370
G0 F9000 X145.884 Y187.957
G1 F1800 X117.043 Y159.116 E355.73944
G0 F9000 X117.217 Y159.997
G1 F1800 X144.997 Y187.777 E357.37280
G0 F9000 X144.085 Y187.572
G1 F1800 X117.418 Y160.905 E358.94071
G0 F9000 X117.665 Y161.859
G1 F1800 X143.143 Y187.337 E360.43872
G0 F9000 X142.155 Y187.056
G1 F1800 X117.948 Y162.850 E361.86197
G0 F9000 X118.275 Y163.884
G1 F1800 X141.118 Y186.727 E363.20505
G0 F9000 X140.030 Y186.345
G1 F1800 X118.657 Y164.972 E364.46170
G0 F9000 X119.105 Y166.128
G1 F1800 X138.875 Y185.897 E365.62407
G0 F9000 X137.636 Y185.365
G1 F1800 X119.638 Y167.368 E366.68226
G0 F9000 X120.277 Y168.714
G1 F1800 X136.280 Y184.717 E367.62317
G1 F2400 E367.02317
G1 Z0.700
G0 F9000 X134.759 Y183.903
G1 Z0.200
G1 F2400 E367.62317
G1 F1800 X121.094 Y170.238 E368.42662
G1 F2400 E367.82662
G1 Z0.700
G0 F9000 X122.159 Y172.010
G1 Z0.200
G1 F2400 E368.42662
G1 F1800 X132.974 Y182.825 E369.06250
G1 F2400 E368.46250
G1 Z0.700
G0 F9000 X130.601 Y181.159
G1 Z0.200
G1 F2400 E369.06250
G1 F1800 X123.844 Y174.402 E369.45979
;LAYER:1
M106 S10
G0 F9000 X123.419 Y174.138 Z0.400
;TYPE:WALL-INNER
G1 F1980 X122.699 Y173.136 E369.51109
G1 X122.022 Y172.124 E369.56171
G1 X121.394 Y171.110 E369.61130
G1 X120.774 Y170.033 E369.66296
G1 X120.211 Y168.975 E369.71279
G1 X119.677 Y167.881 E369.76340
G1 X119.172 Y166.752 E369.81482
G1 X118.720 Y165.647 E369.86446
G1 X118.290 Y164.481 E369.91612
G1 X117.906 Y163.325 E369.96677
G1 X117.567 Y162.179 E370.01645
G1 X117.256 Y160.977 E370.06807
G1 X116.992 Y159.789 E370.11867
G1 X116.767 Y158.592 E370.16930
G1 X116.586 Y157.413 E370.21890
G1 X116.439 Y156.178 E370.27060
G1 X116.337 Y154.986 E370.32034
G1 X116.274 Y153.764 E370.37121
G1 X116.252 Y152.532 E370.42244
G1 X116.251 Y152.485 E370.42440
G1 X116.270 Y151.314 E370.47309
G1 X116.330 Y150.097 E370.52375
G1 X116.429 Y148.909 E370.57331
G1 X116.570 Y147.699 E370.62396
G1 X116.756 Y146.470 E370.67563
G1 X116.973 Y145.297 E370.72523
G1 X117.236 Y144.108 E370.77586
G1 X117.544 Y142.904 E370.82753
G1 X117.887 Y141.735 E370.87818
G1 X118.259 Y140.602 E370.92775
G1 X118.678 Y139.458 E370.97841
G1 X119.145 Y138.307 E371.03005
G1 X119.631 Y137.216 E371.07970
G1 X120.174 Y136.098 E371.13138
G1 X120.730 Y135.044 E371.18092
G1 X121.335 Y133.986 E371.23159
G1 X121.974 Y132.950 E371.28220
G1 X122.663 Y131.915 E371.33389
G1 X123.371 Y130.924 E371.38452
G1 X124.097 Y129.978 E371.43410
G1 X124.886 Y129.017 E371.48580
G1 X125.673 Y128.121 E371.53538
G1 X126.508 Y127.234 E371.58602
G1 X127.390 Y126.357 E371.63774
G1 X128.274 Y125.535 E371.68792
G1 X129.192 Y124.738 E371.73846
G1 X130.128 Y123.978 E371.78859
G1 X131.119 Y123.228 E371.84026
G1 X132.094 Y122.541 E371.88985
G1 X133.133 Y121.859 E371.94152
G1 X134.174 Y121.224 E371.99222
G1 X135.221 Y120.634 E372.04218
G1 X136.312 Y120.066 E372.09332
G1 X137.403 Y119.545 E372.14358
G1 X138.507 Y119.061 E372.19370
G1 X139.652 Y118.605 E372.24494
G1 X140.800 Y118.192 E372.29566
G1 X141.955 Y117.820 E372.34611
G1 X143.128 Y117.483 E372.39685
G1 X144.319 Y117.187 E372.44787
G1 X145.502 Y116.932 E372.49819
G1 X146.697 Y116.718 E372.54866
G1 X147.904 Y116.543 E372.59937
G1 X149.100 Y116.411 E372.64939
G1 X150.339 Y116.316 E372.70105
G1 X151.534 Y116.264 E372.75078
G1 X152.775 Y116.252 E372.80238
G1 X152.828 Y116.251 E372.80459
G1 X153.977 Y116.281 E372.85237
G1 X155.199 Y116.352 E372.90326
G1 X156.412 Y116.461 E372.95390
G1 X157.603 Y116.612 E373.00381
G1 X158.831 Y116.807 E373.05550
G1 X160.017 Y117.039 E373.10574
G1 X161.188 Y117.306 E373.15568
G1 X162.382 Y117.623 E373.20704
G1 X163.555 Y117.977 E373.25798
G1 X164.692 Y118.362 E373.30789
G1 X165.835 Y118.793 E373.35867
G1 X166.974 Y119.265 E373.40993
G1 X168.059 Y119.760 E373.45951
G1 X169.165 Y120.309 E373.51085
G1 X170.237 Y120.886 E373.56146
G1 X171.275 Y121.491 E373.61141
G1 X172.327 Y122.154 E373.66311
G1 X173.324 Y122.830 E373.71319
G1 X174.320 Y123.553 E373.76436
G1 X175.260 Y124.287 E373.81395
G1 X176.214 Y125.084 E373.86563
G1 X177.122 Y125.896 E373.91627
G1 X178.002 Y126.738 E373.96691
G1 X178.835 Y127.591 E374.01648
G1 X179.674 Y128.509 E374.06818
G1 X180.449 Y129.416 E374.11778
G1 X181.208 Y130.368 E374.16840
G1 X181.951 Y131.366 E374.22013
G1 X182.630 Y132.345 E374.26966
G1 X183.303 Y133.391 E374.32137
G1 X183.915 Y134.416 E374.37100
G1 X184.518 Y135.503 E374.42268
G1 X185.059 Y136.564 E374.47220
G1 X185.576 Y137.669 E374.52292
G1 X186.066 Y138.811 E374.57458
G1 X186.497 Y139.923 E374.62417
G1 X186.900 Y141.071 E374.67475
G1 X187.272 Y142.258 E374.72647
G1 X187.596 Y143.431 E374.77706
G1 X187.876 Y144.591 E374.82667
G1 X188.126 Y145.809 E374.87837
G1 X188.327 Y146.985 E374.92797
G1 X188.492 Y148.191 E374.97858
G1 X188.616 Y149.404 E375.02927
G1 X188.700 Y150.617 E375.07982
G1 X188.742 Y151.859 E375.13149
G1 X188.745 Y153.053 E375.18113
G1 X188.705 Y154.295 E375.23279
G1 X188.627 Y155.484 E375.28233
G1 X188.504 Y156.715 E375.33376
G1 X188.344 Y157.905 E375.38368
G1 X188.139 Y159.123 E375.43503
G1 X187.900 Y160.299 E375.48493
G1 X187.612 Y161.508 E375.53660
G1 X187.297 Y162.659 E375.58621
G1 X186.937 Y163.821 E375.63679
G1 X186.536 Y164.972 E375.68746
G1 X186.088 Y166.132 E375.73916
G1 X185.622 Y167.229 E375.78871
G1 X185.099 Y168.352 E375.84021
G1 X184.547 Y169.441 E375.89097
G1 X183.971 Y170.488 E375.94066
G1 X183.337 Y171.555 E375.99226
G1 X182.685 Y172.571 E376.04245
G1 X182.001 Y173.563 E376.09254
G1 X181.276 Y174.543 E376.14322
G1 X180.504 Y175.517 E376.19490
G1 X179.732 Y176.425 E376.24445
G1 X178.902 Y177.337 E376.29571
G1 X178.063 Y178.200 E376.34575
G1 X177.167 Y179.061 E376.39742
G1 X176.262 Y179.874 E376.44800
G1 X175.347 Y180.642 E376.49766
G1 X174.381 Y181.399 E376.54868
G1 X173.394 Y182.120 E376.59950
G1 X172.454 Y182.760 E376.64678
G1 X171.406 Y183.427 E376.69843
G1 X170.379 Y184.031 E376.74796
G1 X169.287 Y184.626 E376.79966
G1 X168.221 Y185.161 E376.84925
G1 X167.092 Y185.681 E376.90093
G1 X165.994 Y186.142 E376.95044
G1 X164.833 Y186.585 E377.00210
G1 X163.704 Y186.972 E377.05172
G1 X162.523 Y187.335 E377.10309
G1 X161.346 Y187.653 E377.15378
G1 X160.179 Y187.925 E377.20360
G1 X158.960 Y188.167 E377.25527
G1 X157.783 Y188.360 E377.30485
G1 X156.566 Y188.519 E377.35588
G1 X155.354 Y188.634 E377.40650
G1 X154.133 Y188.709 E377.45735
G1 X152.906 Y188.745 E377.50839
G1 X152.736 Y188.748 E377.51546
G1 X151.696 Y188.739 E377.55870
G1 X150.428 Y188.690 E377.61145
G1 X149.207 Y188.598 E377.66236
G1 X147.977 Y188.466 E377.71379
G1 X146.795 Y188.297 E377.76343
G1 X145.587 Y188.084 E377.81443
G1 X144.382 Y187.827 E377.86566
G1 X143.207 Y187.539 E377.91595
G1 X142.051 Y187.209 E377.96593
G1 X140.866 Y186.831 E378.01765
G1 X139.733 Y186.427 E378.06766
G1 X138.611 Y185.982 E378.11784
G1 X137.471 Y185.486 E378.16953
G1 X136.392 Y184.973 E378.21920
G1 X135.298 Y184.407 E378.27041
G1 X134.236 Y183.811 E378.32104
G1 X133.202 Y183.184 E378.37131
G1 X132.167 Y182.508 E378.42271
G1 X131.184 Y181.820 E378.47259
G1 X130.197 Y181.076 E378.52398
G1 X129.269 Y180.326 E378.57359
G1 X128.328 Y179.513 E378.62529
G1 X127.454 Y178.704 E378.67480
G1 X126.570 Y177.829 E378.72651
G1 X125.733 Y176.944 E378.77716
G1 X124.944 Y176.050 E378.82673
G1 X124.153 Y175.091 E378.87841
G1 X123.419 Y174.138 E378.92842
G0 F9000 X123.014 Y174.431
;TYPE:WALL-OUTER
G1 F1980 X122.293 Y173.428 E378.97978
G1 X121.607 Y172.402 E379.03109
G1 X120.961 Y171.360 E379.08206
G1 X120.341 Y170.282 E379.13377
G1 X119.765 Y169.199 E379.18476
G1 X119.220 Y168.083 E379.23640
G1 X118.715 Y166.956 E379.28774
G1 X118.250 Y165.820 E379.33878
G1 X117.821 Y164.654 E379.39043
G1 X117.434 Y163.490 E379.44143
G1 X117.082 Y162.298 E379.49310
G1 X116.772 Y161.102 E379.54447
G1 X116.504 Y159.898 E379.59575
G1 X116.276 Y158.685 E379.64706
G1 X116.088 Y157.464 E379.69842
G1 X115.942 Y156.237 E379.74980
G1 X115.838 Y155.016 E379.80074
G1 X115.774 Y153.774 E379.85245
G1 X115.751 Y152.477 E379.90638
G1 X115.770 Y151.314 E379.95474
G1 X115.831 Y150.072 E380.00644
G1 X115.932 Y148.851 E380.05737
G1 X116.075 Y147.624 E380.10873
G1 X116.260 Y146.404 E380.16003
G1 X116.487 Y145.181 E380.21175
G1 X116.751 Y143.984 E380.26271
G1 X117.057 Y142.788 E380.31404
G1 X117.407 Y141.594 E380.36576
G1 X117.789 Y140.430 E380.41670
G1 X118.215 Y139.270 E380.46807
G1 X118.682 Y138.119 E380.51972
G1 X119.181 Y136.997 E380.57077
G1 X119.720 Y135.887 E380.62207
G1 X120.296 Y134.796 E380.67336
G1 X120.910 Y133.723 E380.72476
G1 X121.558 Y132.673 E380.77606
G1 X122.247 Y131.638 E380.82775
G1 X122.959 Y130.640 E380.87872
G1 X123.710 Y129.661 E380.93002
G1 X124.494 Y128.706 E380.98139
G1 X125.315 Y127.772 E381.03309
G1 X126.155 Y126.879 E381.08406
G1 X127.031 Y126.008 E381.13542
G1 X127.935 Y125.168 E381.18672
G1 X128.868 Y124.357 E381.23812
G1 X129.833 Y123.574 E381.28978
G1 X130.810 Y122.834 E381.34074
G1 X131.819 Y122.123 E381.39206
G1 X132.858 Y121.441 E381.44373
G1 X133.906 Y120.801 E381.49478
G1 X134.989 Y120.192 E381.54644
G1 X136.083 Y119.622 E381.59772
G1 X137.197 Y119.089 E381.64907
G1 X138.322 Y118.596 E381.70013
G1 X139.468 Y118.139 E381.75143
G1 X140.630 Y117.721 E381.80277
G1 X141.813 Y117.340 E381.85444
G1 X142.991 Y117.002 E381.90539
G1 X144.198 Y116.702 E381.95710
G1 X145.397 Y116.443 E382.00810
G1 X146.620 Y116.224 E382.05975
G1 X147.840 Y116.047 E382.11100
G1 X149.062 Y115.912 E382.16212
G1 X150.293 Y115.818 E382.21345
G1 X151.534 Y115.764 E382.26509
G1 X152.769 Y115.752 E382.31644
G1 X152.835 Y115.751 E382.31918
G1 X153.994 Y115.781 E382.36738
G1 X155.236 Y115.853 E382.41911
G1 X156.465 Y115.964 E382.47041
G1 X157.682 Y116.118 E382.52141
G1 X158.910 Y116.313 E382.57311
G1 X160.113 Y116.547 E382.62406
G1 X161.325 Y116.825 E382.67576
G1 X162.518 Y117.142 E382.72708
G1 X163.692 Y117.496 E382.77806
G1 X164.870 Y117.895 E382.82976
G1 X166.017 Y118.327 E382.88072
G1 X167.165 Y118.803 E382.93239
G1 X168.282 Y119.312 E382.98342
G1 X169.395 Y119.865 E383.03509
G1 X170.475 Y120.446 E383.08608
G1 X171.542 Y121.068 E383.13743
G1 X172.594 Y121.731 E383.18913
G1 X173.609 Y122.418 E383.24008
G1 X174.607 Y123.143 E383.29137
G1 X175.581 Y123.903 E383.34273
G1 X176.528 Y124.694 E383.39403
G1 X177.449 Y125.518 E383.44541
G1 X178.341 Y126.371 E383.49672
G1 X179.204 Y127.254 E383.54805
G1 X180.043 Y128.172 E383.59976
G1 X180.840 Y129.104 E383.65074
G1 X181.609 Y130.069 E383.70204
G1 X182.352 Y131.067 E383.75377
G1 X183.051 Y132.074 E383.80473
G1 X183.719 Y133.113 E383.85609
G1 X184.352 Y134.173 E383.90742
G1 X184.951 Y135.252 E383.95873
G1 X185.515 Y136.359 E384.01038
G1 X186.036 Y137.472 E384.06147
G1 X186.525 Y138.614 E384.11312
G1 X186.969 Y139.758 E384.16414
G1 X187.377 Y140.922 E384.21542
G1 X187.749 Y142.109 E384.26714
G1 X188.076 Y143.290 E384.31808
G1 X188.366 Y144.490 E384.36941
G1 X188.616 Y145.708 E384.42110
G1 X188.823 Y146.918 E384.47214
G1 X188.989 Y148.140 E384.52341
G1 X189.115 Y149.377 E384.57511
G1 X189.200 Y150.600 E384.62608
G1 X189.242 Y151.835 E384.67745
G1 X189.245 Y153.069 E384.72875
G1 X189.205 Y154.311 E384.78042
G1 X189.125 Y155.534 E384.83137
G1 X189.001 Y156.763 E384.88273
G1 X188.837 Y157.988 E384.93411
G1 X188.633 Y159.205 E384.98541
G1 X188.387 Y160.415 E385.03675
G1 X188.101 Y161.616 E385.08808
G1 X187.774 Y162.807 E385.13943
G1 X187.406 Y163.994 E385.19109
G1 X187.003 Y165.152 E385.24207
G1 X186.558 Y166.304 E385.29341
G1 X186.075 Y167.440 E385.34473
G1 X185.550 Y168.567 E385.39642
G1 X184.996 Y169.662 E385.44744
G1 X184.401 Y170.743 E385.49874
G1 X183.766 Y171.812 E385.55044
G1 X183.104 Y172.844 E385.60141
G1 X182.403 Y173.860 E385.65273
G1 X181.663 Y174.860 E385.70445
G1 X180.902 Y175.821 E385.75542
G1 X180.102 Y176.762 E385.80677
G1 X179.265 Y177.682 E385.85848
G1 X178.410 Y178.561 E385.90946
G1 X177.520 Y179.416 E385.96077
G1 X176.601 Y180.242 E386.01214
G1 X175.656 Y181.035 E386.06343
G1 X174.678 Y181.802 E386.11510
G1 X173.687 Y182.525 E386.16610
G1 X172.716 Y183.186 E386.21494
G1 X171.675 Y183.849 E386.26625
G1 X170.618 Y184.471 E386.31724
G1 X169.526 Y185.065 E386.36892
G1 X168.430 Y185.615 E386.41990
G1 X167.301 Y186.135 E386.47158
G1 X166.172 Y186.610 E386.52250
G1 X165.011 Y187.052 E386.57415
G1 X163.851 Y187.450 E386.62514
G1 X162.663 Y187.815 E386.67681
G1 X161.475 Y188.136 E386.72797
G1 X160.277 Y188.415 E386.77911
G1 X159.067 Y188.656 E386.83041
G1 X157.839 Y188.857 E386.88214
G1 X156.624 Y189.016 E386.93308
G1 X155.396 Y189.132 E386.98437
G1 X154.155 Y189.209 E387.03606
G1 X152.921 Y189.245 E387.08739
G1 X152.740 Y189.248 E387.09491
G1 X151.689 Y189.239 E387.13861
G1 X151.552 Y189.237 E387.14430
G1 X150.382 Y189.188 E387.19299
G1 X149.160 Y189.097 E387.24394
G1 X147.924 Y188.963 E387.29562
G1 X146.708 Y188.790 E387.34669
G1 X145.494 Y188.576 E387.39794
G1 X144.278 Y188.316 E387.44964
G1 X143.078 Y188.021 E387.50101
G1 X141.899 Y187.686 E387.55197
G1 X140.714 Y187.308 E387.60368
G1 X139.552 Y186.893 E387.65498
G1 X138.412 Y186.441 E387.70597
G1 X137.279 Y185.948 E387.75734
G1 X136.156 Y185.414 E387.80904
G1 X135.060 Y184.847 E387.86034
G1 X133.991 Y184.247 E387.91130
G1 X132.928 Y183.602 E387.96300
G1 X131.894 Y182.927 E388.01434
G1 X130.882 Y182.218 E388.06571
G1 X129.896 Y181.475 E388.11704
G1 X128.936 Y180.700 E388.16833
G1 X128.008 Y179.898 E388.21933
G1 X127.102 Y179.059 E388.27066
G1 X126.218 Y178.184 E388.32237
G1 X125.370 Y177.287 E388.37369
G1 X124.558 Y176.368 E388.42468
G1 X123.767 Y175.409 E388.47636
G1 X123.014 Y174.431 E388.52768
G0 F9000 X123.453 Y173.884
;TYPE:SKIN
G1 F1980 X173.884 Y123.453 E391.49283
G0 F9000 X173.475 Y123.156
G1 F1980 X123.158 Y173.473 E394.45128
G0 F9000 X122.861 Y173.062
G1 F1980 X173.060 Y122.863 E397.40278
G0 F9000 X172.640 Y122.576
G1 F1980 X122.577 Y172.639 E400.34630
G0 F9000 X122.294 Y172.215
G1 F1980 X172.217 Y122.291 E403.28161
G0 F9000 X171.784 Y122.018
G1 F1980 X122.019 Y171.783 E406.20760
G0 F9000 X121.748 Y171.346
G1 F1980 X171.350 Y121.745 E409.12398
G0 F9000 X170.908 Y121.480
G1 F1980 X121.481 Y170.907 E412.03010
G0 F9000 X121.222 Y170.458
G1 F1980 X170.461 Y121.220 E414.92513
G0 F9000 X170.011 Y120.963
G1 F1980 X120.964 Y170.010 E417.80891
G0 F9000 X120.716 Y169.550
G1 F1980 X169.551 Y120.715 E420.68022
G0 F9000 X169.091 Y120.468
G1 F1980 X120.471 Y169.089 E423.53892
G0 F9000 X120.233 Y168.619
G1 F1980 X168.619 Y120.233 E426.38383
G1 F2400 E425.78383
G1 Z0.900
G0 F9000 X174.291 Y123.753
G1 Z0.400
G1 F2400 E426.38383
G1 F1980 X123.757 Y174.288 E429.35506
G0 F9000 X124.064 Y174.687
G1 F1980 X174.689 Y124.063 E432.33159
G0 F9000 X175.086 Y124.373
G1 F1980 X124.375 Y175.084 E435.31320
G0 F9000 X124.694 Y175.472
G1 F1980 X175.473 Y124.693 E438.29881
G0 F9000 X175.858 Y125.015
G1 F1980 X125.014 Y175.859 E441.28824
G0 F9000 X125.343 Y176.237
G1 F1980 X176.239 Y125.341 E444.28073
G0 F9000 X176.612 Y125.675
G1 F1980 X125.674 Y176.613 E447.27569
G0 F9000 X126.012 Y176.983
G1 F1980 X176.985 Y126.009 E450.27274
G0 F9000 X177.347 Y126.355
G1 F1980 X126.355 Y177.346 E453.27084
G0 F9000 X126.699 Y177.710
G1 F1980 X177.708 Y126.700 E456.27001
G0 F9000 X178.063 Y127.052
G1 F1980 X127.054 Y178.062 E459.26917
G0 F9000 X127.410 Y178.413
G1 F1980 X178.412 Y127.410 E462.26792
G0 F9000 X178.760 Y127.769
G1 F1980 X127.772 Y178.758 E465.26585
G0 F9000 X128.139 Y179.098
G1 F1980 X179.098 Y128.139 E468.26204
G0 F9000 X179.435 Y128.509
G1 F1980 X128.507 Y179.437 E471.25642
G0 F9000 X128.887 Y179.764
G1 F1980 X179.765 Y128.886 E474.24785
G0 F9000 X180.091 Y129.267
G1 F1980 X129.266 Y180.093 E477.23619
G0 F9000 X129.653 Y180.412
G1 F1980 X180.413 Y129.652 E480.22068
G0 F9000 X180.726 Y130.046
G1 F1980 X130.045 Y180.728 E483.20056
G0 F9000 X130.440 Y181.039
G1 F1980 X181.040 Y130.439 E486.17565
G0 F9000 X181.343 Y130.844
G1 F1980 X130.843 Y181.344 E489.14486
G0 F9000 X131.246 Y181.648
G1 F1980 X181.645 Y131.249 E492.10812
G0 F9000 X181.941 Y131.660
G1 F1980 X131.661 Y181.940 E495.06439
G0 F9000 X132.076 Y182.232
G1 F1980 X182.231 Y132.077 E498.01332
G0 F9000 X182.519 Y132.496
G1 F1980 X132.499 Y182.516 E500.95430
G0 F9000 X132.927 Y182.795
G1 F1980 X182.795 Y132.927 E503.88635
G0 F9000 X183.072 Y133.357
G1 F1980 X133.357 Y183.072 E506.80940
G0 F9000 X133.797 Y183.340
G1 F1980 X183.340 Y133.796 E509.72237
G0 F9000 X183.604 Y134.239
G1 F1980 X134.237 Y183.606 E512.62496
G0 F9000 X134.687 Y183.864
G1 F1980 X183.863 Y134.688 E515.51632
G0 F9000 X184.115 Y135.142
G1 F1980 X135.140 Y184.118 E518.39589
G0 F9000 X135.599 Y184.366
G1 F1980 X184.367 Y135.598 E521.26326
G0 F9000 X184.606 Y136.066
G1 F1980 X136.065 Y184.607 E524.11729
G0 F9000 X136.533 Y184.846
G1 F1980 X184.845 Y136.534 E526.95785
G0 F9000 X185.075 Y137.011
G1 F1980 X137.012 Y185.074 E529.78377
G0 F9000 X137.491 Y185.302
G1 F1980 X185.300 Y137.494 E532.59472
G0 F9000 X185.518 Y137.982
G1 F1980 X137.983 Y185.517 E535.38960
G0 F9000 X138.476 Y185.732
G1 F1980 X185.730 Y138.477 E538.16798
G0 F9000 X185.940 Y138.975
G1 F1980 X138.976 Y185.938 E540.92926
G0 F9000 X139.483 Y186.139
G1 F1980 X186.138 Y139.484 E543.67239
G0 F9000 X186.335 Y139.994
G1 F1980 X139.995 Y186.334 E546.39701
G0 F9000 X140.516 Y186.520
G1 F1980 X186.519 Y140.517 E549.10181
G0 F9000 X186.702 Y141.041
G1 F1980 X141.040 Y186.703 E551.78656
G0 F9000 X141.576 Y186.874
G1 F1980 X186.873 Y141.577 E554.44985
G0 F9000 X187.042 Y142.115
G1 F1980 X142.113 Y187.044 E557.09150
G0 F9000 X142.663 Y187.201
G1 F1980 X187.200 Y142.664 E559.71010
G0 F9000 X187.354 Y143.218
G1 F1980 X143.213 Y187.359 E562.30543
G0 F9000 X143.780 Y187.499
G1 F1980 X187.499 Y143.780 E564.87594
G0 F9000 X187.636 Y144.350
G1 F1980 X144.348 Y187.637 E567.42108
G0 F9000 X144.930 Y187.763
G1 F1980 X187.765 Y144.927 E569.93964
G0 F9000 X187.886 Y145.514
G1 F1980 X145.513 Y187.887 E572.43101
G0 F9000 X146.109 Y187.998
G1 F1980 X187.999 Y146.108 E574.89398
G0 F9000 X188.102 Y146.712
G1 F1980 X146.710 Y188.104 E577.32767
G0 F9000 X147.325 Y188.196
G1 F1980 X188.195 Y147.326 E579.73067
G0 F9000 X188.280 Y147.948
G1 F1980 X147.943 Y188.285 E582.10233
G0 F9000 X148.581 Y188.354
G1 F1980 X188.354 Y148.581 E584.44083
G0 F9000 X188.420 Y149.222
G1 F1980 X149.219 Y188.424 E586.74573
G0 F9000 X149.876 Y188.473
G1 F1980 X188.472 Y149.877 E589.01503
G0 F9000 X188.518 Y150.538
G1 F1980 X150.538 Y188.518 E591.24810
G0 F9000 X151.219 Y188.545
G1 F1980 X188.544 Y151.220 E593.44267
G0 F9000 X188.566 Y151.905
G1 F1980 X151.907 Y188.564 E595.59808
G0 F9000 X152.607 Y188.571
G1 F1980 X188.567 Y152.611 E597.71239
G0 F9000 X188.559 Y153.326
G1 F1980 X153.330 Y188.555 E599.78372
G0 F9000 X154.058 Y188.535
G1 F1980 X188.536 Y154.056 E601.81092
G0 F9000 X188.495 Y154.804
G1 F1980 X154.809 Y188.491 E603.79156
G0 F9000 X155.569 Y188.437
G1 F1980 X188.441 Y155.565 E605.72431
G0 F9000 X188.363 Y156.351
G1 F1980 X156.351 Y188.363 E607.60649
G0 F9000 X157.156 Y188.265
G1 F1980 X188.267 Y157.154 E609.43570
G0 F9000 X188.153 Y157.975
G1 F1980 X157.978 Y188.149 E611.20984
G0 F9000 X158.823 Y188.011
G1 F1980 X188.010 Y158.825 E612.92590
G0 F9000 X187.841 Y159.701
G1 F1980 X159.702 Y187.840 E614.58036
G0 F9000 X160.604 Y187.645
G1 F1980 X187.646 Y160.603 E616.17033
G0 F9000 X187.423 Y161.533
G1 F1980 X161.537 Y187.420 E617.69236
G0 F9000 X162.507 Y187.156
G1 F1980 X187.155 Y162.508 E619.14157
G0 F9000 X186.843 Y163.528
G1 F1980 X163.529 Y186.842 E620.51234
G0 F9000 X164.597 Y186.481
G1 F1980 X186.480 Y164.598 E621.79898
G0 F9000 X186.055 Y165.730
G1 F1980 X165.730 Y186.054 E622.99398
G0 F9000 X166.936 Y185.556
G1 F1980 X185.555 Y166.937 E624.08870
G0 F9000 X184.952 Y168.246
G1 F1980 X168.249 Y184.950 E625.07081
G1 F2400 E624.47081
G1 Z0.900
G0 F9000 X169.713 Y184.193
G1 Z0.400
G1 F2400 E625.07081
G1 F1980 X184.199 Y169.707 E625.92253
G1 F2400 E625.32253
G1 Z0.900
G0 F9000 X183.238 Y171.375
G1 Z0.400
G1 F2400 E625.92253
G1 F1980 X171.376 Y183.237 E626.61997
G1 F2400 E626.01997
G1 Z0.900
G0 F9000 X173.488 Y181.832
G1 Z0.400
G1 F2400 E626.61997
G1 F1980 X181.851 Y173.469 E627.11168
G1 F2400 E626.51168
G1 Z0.900
G0 F9000 X168.147 Y119.998
G1 Z0.400
G1 F2400 E627.11168
G1 F1980 X120.001 Y168.144 E629.94248
G0 F9000 X119.773 Y167.665
G1 F1980 X167.666 Y119.772 E632.75840
G0 F9000 X167.180 Y119.551
G1 F1980 X119.554 Y167.177 E635.55863
G0 F9000 X119.336 Y166.688
G1 F1980 X166.689 Y119.335 E638.34281
G0 F9000 X166.188 Y119.129
G1 F1980 X119.130 Y166.187 E641.10964
G0 F9000 X118.924 Y165.685
G1 F1980 X165.686 Y118.924 E643.85903
G0 F9000 X165.173 Y118.730
G1 F1980 X118.732 Y165.170 E646.58956
G0 F9000 X118.542 Y164.654
G1 F1980 X164.659 Y118.536 E649.30109
G0 F9000 X164.131 Y118.357
G1 F1980 X118.358 Y164.130 E651.99237
G0 F9000 X118.182 Y163.599
G1 F1980 X163.603 Y118.178 E654.66295
G0 F9000 X163.063 Y118.011
G1 F1980 X118.011 Y163.063 E657.31183
G0 F9000 X117.850 Y162.517
G1 F1980 X162.520 Y117.847 E659.93826
G0 F9000 X161.966 Y117.694
G1 F1980 X117.694 Y161.966 E662.54128
G0 F9000 X117.548 Y161.405
G1 F1980 X161.407 Y117.545 E665.12005
G0 F9000 X160.840 Y117.405
G1 F1980 X117.405 Y160.841 E667.67389
G0 F9000 X117.277 Y160.262
G1 F1980 X160.264 Y117.275 E670.20136
G0 F9000 X159.681 Y117.150
G1 F1980 X117.150 Y159.681 E672.70202
G0 F9000 X117.038 Y159.086
G1 F1980 X159.089 Y117.035 E675.17446
G0 F9000 X158.488 Y116.930
G1 F1980 X116.929 Y158.488 E677.61794
G0 F9000 X116.835 Y157.875
G1 F1980 X157.877 Y116.833 E680.03105
G0 F9000 X157.259 Y116.744
G1 F1980 X116.744 Y157.259 E682.41318
G0 F9000 X116.669 Y156.627
G1 F1980 X156.631 Y116.664 E684.76282
G0 F9000 X155.991 Y116.598
G1 F1980 X116.599 Y155.990 E687.07892
G0 F9000 X116.543 Y155.339
G1 F1980 X155.342 Y116.540 E689.36015
G0 F9000 X154.678 Y116.497
G1 F1980 X116.497 Y154.678 E691.60505
G0 F9000 X116.462 Y154.005
G1 F1980 X154.009 Y116.458 E693.81267
G0 F9000 X153.322 Y116.438
G1 F1980 X116.441 Y153.319 E695.98113
G0 F9000 X116.428 Y152.625
G1 F1980 X152.626 Y116.427 E698.10943
G0 F9000 X151.912 Y116.434
G1 F1980 X116.435 Y151.911 E700.19535
G0 F9000 X116.452 Y151.187
G1 F1980 X151.185 Y116.454 E702.23751
G0 F9000 X150.446 Y116.485
G1 F1980 X116.488 Y150.444 E704.23414
G0 F9000 X116.539 Y149.686
G1 F1980 X149.684 Y116.541 E706.18294
G0 F9000 X148.911 Y116.606
G1 F1980 X116.604 Y148.914 E708.08250
G0 F9000 X116.697 Y148.114
G1 F1980 X148.116 Y116.694 E709.92984
G0 F9000 X147.297 Y116.806
G1 F1980 X116.807 Y147.296 E711.72254
G0 F9000 X116.935 Y146.461
G1 F1980 X146.460 Y116.937 E713.45847
G0 F9000 X145.598 Y117.091
G1 F1980 X117.095 Y145.594 E715.13433
G0 F9000 X117.284 Y144.698
G1 F1980 X144.699 Y117.283 E716.74623
G0 F9000 X143.772 Y117.503
G1 F1980 X117.502 Y143.773 E718.29081
G0 F9000 X117.752 Y142.816
G1 F1980 X142.813 Y117.755 E719.76430
G0 F9000 X141.813 Y118.048
G1 F1980 X118.045 Y141.815 E721.16174
G0 F9000 X118.389 Y140.765
G1 F1980 X140.764 Y118.390 E722.47730
G0 F9000 X139.657 Y118.790
G1 F1980 X118.791 Y139.655 E723.70411
G0 F9000 X119.266 Y138.473
G1 F1980 X138.474 Y119.266 E724.83344
G0 F9000 X137.194 Y119.838
G1 F1980 X119.832 Y137.200 E725.85426
G1 F2400 E725.25426
G1 Z0.900
G0 F9000 X120.532 Y135.794
G1 Z0.400
G1 F2400 E725.85426
G1 F1980 X135.792 Y120.533 E726.75152
G1 F2400 E726.15152
G1 Z0.900
G0 F9000 X134.218 Y121.400
G1 Z0.400
G1 F2400 E726.75152
G1 F1980 X121.408 Y134.210 E727.50470
G1 F2400 E726.90470
G1 Z0.900
G0 F9000 X122.625 Y132.286
G1 Z0.400
G1 F2400 E727.50470
G1 F1980 X132.291 Y122.620 E728.07302
G1 F2400 E727.47302
G1 Z0.900
G0 F9000 X129.452 Y124.752
G1 Z0.400
G1 F2400 E728.07302
G1 F1980 X124.764 Y129.440 E728.34866
;LAYER:2
M106 S20
G0 F9000 X124.851 Y129.058 Z0.600
;TYPE:WALL-INNER
G1 F2220 X125.671 Y128.124 E728.40033
G1 X126.487 Y127.255 E728.44989
G1 X127.369 Y126.377 E728.50163
G1 X128.252 Y125.555 E728.55179
G1 X129.169 Y124.758 E728.60230
G1 X130.105 Y123.997 E728.65245
G1 X131.095 Y123.246 E728.70411
G1 X132.070 Y122.558 E728.75372
G1 X133.108 Y121.875 E728.80538
G1 X134.136 Y121.247 E728.85547
G1 X135.197 Y120.648 E728.90612
G1 X136.289 Y120.078 E728.95733
G1 X137.364 Y119.563 E729.00689
G1 X138.503 Y119.063 E729.05861
G1 X139.610 Y118.620 E729.10818
G1 X140.772 Y118.201 E729.15954
G1 X141.927 Y117.828 E729.21000
G1 X143.093 Y117.493 E729.26043
G1 X144.291 Y117.194 E729.31177
G1 X145.474 Y116.938 E729.36209
G1 X146.669 Y116.723 E729.41257
G1 X147.880 Y116.547 E729.46345
G1 X149.071 Y116.414 E729.51327
G1 X150.310 Y116.318 E729.56494
G1 X151.505 Y116.265 E729.61467
G1 X152.744 Y116.252 E729.66618
G1 X152.843 Y116.251 E729.67030
G1 X153.948 Y116.280 E729.71626
G1 X155.172 Y116.350 E729.76723
G1 X156.381 Y116.458 E729.81769
G1 X157.578 Y116.609 E729.86785
G1 X158.803 Y116.802 E729.91941
G1 X159.984 Y117.031 E729.96942
G1 X161.176 Y117.304 E730.02026
G1 X162.341 Y117.611 E730.07035
G1 X163.504 Y117.962 E730.12086
G1 X164.682 Y118.359 E730.17254
G1 X165.808 Y118.782 E730.22255
G1 X166.923 Y119.244 E730.27273
G1 X168.055 Y119.759 E730.32443
G1 X169.125 Y120.288 E730.37406
G1 X170.220 Y120.877 E730.42575
G1 X171.251 Y121.476 E730.47532
G1 X172.303 Y122.138 E730.52700
G1 X173.302 Y122.813 E730.57713
G1 X174.298 Y123.536 E730.62829
G1 X175.238 Y124.269 E730.67785
G1 X176.174 Y125.049 E730.72851
G1 X177.102 Y125.877 E730.78021
G1 X177.963 Y126.701 E730.82976
G1 X178.825 Y127.581 E730.88098
G1 X179.656 Y128.488 E730.93212
G1 X180.431 Y129.394 E730.98169
G1 X181.190 Y130.345 E731.03227
G1 X181.933 Y131.343 E731.08400
G1 X182.628 Y132.343 E731.13463
G1 X183.275 Y133.345 E731.18422
G1 X183.913 Y134.412 E731.23591
G1 X184.504 Y135.478 E731.28658
G1 X185.057 Y136.561 E731.33714
G1 X185.564 Y137.642 E731.38678
G1 X186.044 Y138.760 E731.43736
G1 X186.487 Y139.897 E731.48809
G1 X186.899 Y141.069 E731.53974
G1 X187.256 Y142.207 E731.58933
G1 X187.589 Y143.404 E731.64098
G1 X187.869 Y144.563 E731.69055
G1 X188.120 Y145.780 E731.74222
G1 X188.322 Y146.957 E731.79187
G1 X188.488 Y148.164 E731.84252
G1 X188.616 Y149.400 E731.89418
G1 X188.698 Y150.590 E731.94377
G1 X188.742 Y151.832 E731.99544
G1 X188.745 Y153.024 E732.04500
G1 X188.706 Y154.266 E732.09666
G1 X188.629 Y155.456 E732.14624
G1 X188.507 Y156.684 E732.19754
G1 X188.348 Y157.876 E732.24754
G1 X188.143 Y159.100 E732.29914
G1 X187.906 Y160.272 E732.34885
G1 X187.619 Y161.481 E732.40051
G1 X187.305 Y162.631 E732.45007
G1 X186.944 Y163.795 E732.50074
G1 X186.539 Y164.963 E732.55214
G1 X186.099 Y166.105 E732.60302
G1 X185.633 Y167.203 E732.65261
G1 X185.110 Y168.328 E732.70419
G1 X184.572 Y169.395 E732.75387
G1 X183.985 Y170.463 E732.80454
G1 X183.357 Y171.523 E732.85576
G1 X182.700 Y172.549 E732.90641
G1 X182.010 Y173.551 E732.95699
G1 X181.294 Y174.520 E733.00708
G1 X180.524 Y175.492 E733.05864
G1 X179.738 Y176.419 E733.10917
G1 X178.931 Y177.306 E733.15902
G1 X178.065 Y178.197 E733.21068
G1 X177.206 Y179.024 E733.26025
G1 X176.281 Y179.856 E733.31198
G1 X175.354 Y180.636 E733.36235
G1 X174.398 Y181.387 E733.41289
G1 X173.422 Y182.101 E733.46317
G1 X172.515 Y182.720 E733.50882
G1 X171.490 Y183.375 E733.55939
G1 X170.421 Y184.007 E733.61102
G1 X169.352 Y184.591 E733.66167
G1 X168.288 Y185.128 E733.71122
G1 X167.167 Y185.647 E733.76257
G1 X166.043 Y186.122 E733.81331
G1 X164.921 Y186.553 E733.86328
G1 X163.768 Y186.950 E733.91398
G1 X162.601 Y187.311 E733.96476
G1 X161.422 Y187.632 E734.01556
G1 X160.227 Y187.914 E734.06661
G1 X159.060 Y188.149 E734.11610
G1 X157.855 Y188.349 E734.16689
G1 X156.627 Y188.511 E734.21838
G1 X155.427 Y188.629 E734.26851
G1 X154.224 Y188.705 E734.31863
G1 X152.982 Y188.744 E734.37029
G1 X152.692 Y188.748 E734.38235
G1 X151.771 Y188.740 E734.42064
G1 X150.457 Y188.691 E734.47531
G1 X149.238 Y188.601 E734.52613
G1 X148.023 Y188.471 E734.57693
G1 X146.812 Y188.300 E734.62778
G1 X145.610 Y188.087 E734.67853
G1 X144.410 Y187.834 E734.72951
G1 X143.252 Y187.549 E734.77909
G1 X142.074 Y187.216 E734.82999
G1 X140.910 Y186.845 E734.88078
G1 X139.748 Y186.431 E734.93207
G1 X138.626 Y185.988 E734.98222
G1 X137.521 Y185.508 E735.03231
G1 X136.398 Y184.975 E735.08399
G1 X135.338 Y184.428 E735.13358
G1 X134.253 Y183.821 E735.18527
G1 X133.213 Y183.191 E735.23582
G1 X132.206 Y182.534 E735.28581
G1 X131.215 Y181.840 E735.33611
G1 X130.221 Y181.093 E735.38780
G1 X129.274 Y180.329 E735.43839
G1 X128.360 Y179.541 E735.48856
G1 X127.469 Y178.718 E735.53899
G1 X126.590 Y177.850 E735.59035
G1 X125.771 Y176.984 E735.63990
G1 X124.947 Y176.053 E735.69159
G1 X124.180 Y175.124 E735.74168
G1 X123.428 Y174.150 E735.79284
G1 X122.718 Y173.162 E735.84342
G1 X122.052 Y172.169 E735.89313
G1 X121.397 Y171.114 E735.94476
G1 X120.797 Y170.075 E735.99464
G1 X120.228 Y169.006 E736.04499
G1 X119.682 Y167.890 E736.09664
G1 X119.183 Y166.778 E736.14731
G1 X118.722 Y165.652 E736.19790
G1 X118.308 Y164.532 E736.24754
G1 X117.915 Y163.353 E736.29921
G1 X117.573 Y162.198 E736.34929
G1 X117.269 Y161.024 E736.39971
G1 X116.998 Y159.817 E736.45114
G1 X116.773 Y158.621 E736.50174
G1 X116.590 Y157.441 E736.55138
G1 X116.442 Y156.208 E736.60301
G1 X116.339 Y155.013 E736.65288
G1 X116.276 Y153.794 E736.70363
G1 X116.252 Y152.561 E736.75490
G1 X116.251 Y152.468 E736.75877
G1 X116.270 Y151.345 E736.80546
G1 X116.328 Y150.126 E736.85620
G1 X116.426 Y148.938 E736.90576
G1 X116.566 Y147.728 E736.95640
G1 X116.748 Y146.523 E737.00707
G1 X116.973 Y145.301 E737.05872
G1 X117.229 Y144.137 E737.10827
G1 X117.537 Y142.932 E737.15998
G1 X117.871 Y141.787 E737.20957
G1 X118.251 Y140.629 E737.26024
G1 X118.677 Y139.461 E737.31193
G1 X119.134 Y138.334 E737.36249
G1 X119.619 Y137.242 E737.41217
G1 X120.150 Y136.147 E737.46276
G1 X120.729 Y135.048 E737.51441
G1 X121.321 Y134.011 E737.56405
G1 X121.959 Y132.974 E737.61467
G1 X122.633 Y131.960 E737.66529
G1 X123.355 Y130.948 E737.71698
G1 X124.095 Y129.981 E737.76760
G1 X124.851 Y129.058 E737.81720
G0 F9000 X124.475 Y128.728
;TYPE:WALL-OUTER
G1 F2220 X125.295 Y127.794 E737.86888
G1 X126.134 Y126.900 E737.91985
G1 X127.010 Y126.028 E737.97124
G1 X127.913 Y125.188 E738.02251
G1 X128.845 Y124.377 E738.07387
G1 X129.810 Y123.593 E738.12557
G1 X130.786 Y122.852 E738.17651
G1 X131.795 Y122.140 E738.22786
G1 X132.833 Y121.457 E738.27951
G1 X133.880 Y120.816 E738.33055
G1 X134.956 Y120.210 E738.38190
G1 X136.058 Y119.635 E738.43357
G1 X137.163 Y119.105 E738.48453
G1 X138.295 Y118.608 E738.53592
G1 X139.449 Y118.146 E738.58760
G1 X140.602 Y117.731 E738.63855
G1 X141.785 Y117.349 E738.69023
G1 X142.964 Y117.009 E738.74125
G1 X144.170 Y116.709 E738.79292
G1 X145.368 Y116.449 E738.84388
G1 X146.591 Y116.229 E738.89555
G1 X147.811 Y116.051 E738.94681
G1 X149.032 Y115.915 E738.99788
G1 X150.263 Y115.820 E739.04921
G1 X151.505 Y115.765 E739.10090
G1 X152.853 Y115.751 E739.15695
G1 X153.965 Y115.780 E739.20319
G1 X155.206 Y115.851 E739.25487
G1 X156.433 Y115.961 E739.30609
G1 X157.653 Y116.114 E739.35721
G1 X158.881 Y116.308 E739.40890
G1 X160.085 Y116.541 E739.45988
G1 X161.296 Y116.819 E739.51154
G1 X162.490 Y117.134 E739.56288
G1 X163.664 Y117.488 E739.61386
G1 X164.842 Y117.885 E739.66554
G1 X165.990 Y118.316 E739.71652
G1 X167.130 Y118.789 E739.76784
G1 X168.262 Y119.304 E739.81954
G1 X169.369 Y119.851 E739.87088
G1 X170.449 Y120.432 E739.92186
G1 X171.517 Y121.053 E739.97322
G1 X172.569 Y121.715 E740.02490
G1 X173.585 Y122.401 E740.07587
G1 X174.584 Y123.126 E740.12719
G1 X175.558 Y123.885 E740.17852
G1 X176.507 Y124.676 E740.22989
G1 X177.428 Y125.498 E740.28121
G1 X178.320 Y126.351 E740.33252
G1 X179.190 Y127.239 E740.38421
G1 X180.019 Y128.143 E740.43520
G1 X180.822 Y129.082 E740.48657
G1 X181.591 Y130.046 E740.53784
G1 X182.330 Y131.038 E740.58927
G1 X183.034 Y132.051 E740.64055
G1 X183.704 Y133.088 E740.69188
G1 X184.338 Y134.148 E740.74323
G1 X184.937 Y135.228 E740.79458
G1 X185.502 Y136.334 E740.84621
G1 X186.024 Y137.445 E740.89725
G1 X186.510 Y138.579 E740.94854
G1 X186.959 Y139.731 E740.99995
G1 X187.368 Y140.895 E741.05124
G1 X187.740 Y142.081 E741.10292
G1 X188.069 Y143.262 E741.15389
G1 X188.359 Y144.462 E741.20521
G1 X188.610 Y145.679 E741.25687
G1 X188.818 Y146.889 E741.30792
G1 X188.985 Y148.113 E741.35928
G1 X189.113 Y149.349 E741.41094
G1 X189.198 Y150.572 E741.46191
G1 X189.242 Y151.806 E741.51324
G1 X189.245 Y153.040 E741.56455
G1 X189.206 Y154.282 E741.61621
G1 X189.127 Y155.505 E741.66716
G1 X189.004 Y156.735 E741.71856
G1 X188.841 Y157.959 E741.76989
G1 X188.638 Y159.176 E741.82119
G1 X188.393 Y160.387 E741.87256
G1 X188.108 Y161.588 E741.92387
G1 X187.782 Y162.779 E741.97521
G1 X187.414 Y163.967 E742.02692
G1 X187.013 Y165.125 E742.07787
G1 X186.569 Y166.277 E742.12920
G1 X186.086 Y167.414 E742.18056
G1 X185.566 Y168.534 E742.23189
G1 X185.010 Y169.636 E742.28321
G1 X184.415 Y170.718 E742.33455
G1 X183.785 Y171.780 E742.38589
G1 X183.115 Y172.827 E742.43756
G1 X182.420 Y173.837 E742.48854
G1 X181.681 Y174.837 E742.54023
G1 X180.919 Y175.798 E742.59122
G1 X180.115 Y176.746 E742.64290
G1 X179.284 Y177.661 E742.69429
G1 X178.430 Y178.540 E742.74524
G1 X177.541 Y179.396 E742.79655
G1 X176.622 Y180.223 E742.84795
G1 X175.678 Y181.017 E742.89923
G1 X174.706 Y181.780 E742.95061
G1 X173.711 Y182.509 E743.00189
G1 X172.784 Y183.141 E743.04854
G1 X171.737 Y183.810 E743.10019
G1 X170.683 Y184.434 E743.15112
G1 X169.599 Y185.026 E743.20247
G1 X168.498 Y185.582 E743.25375
G1 X167.370 Y186.104 E743.30542
G1 X166.241 Y186.582 E743.35639
G1 X165.089 Y187.024 E743.40769
G1 X163.923 Y187.426 E743.45897
G1 X162.735 Y187.793 E743.51066
G1 X161.547 Y188.116 E743.56185
G1 X160.348 Y188.400 E743.61308
G1 X159.142 Y188.642 E743.66422
G1 X157.914 Y188.845 E743.71596
G1 X156.695 Y189.007 E743.76709
G1 X155.464 Y189.127 E743.81851
G1 X154.240 Y189.205 E743.86950
G1 X152.998 Y189.244 E743.92116
G1 X152.695 Y189.248 E743.93376
G1 X151.774 Y189.240 E743.97205
G1 X150.411 Y189.189 E744.02876
G1 X149.190 Y189.100 E744.07966
G1 X147.958 Y188.966 E744.13118
G1 X146.730 Y188.793 E744.18274
G1 X145.524 Y188.581 E744.23365
G1 X144.307 Y188.323 E744.28537
G1 X143.115 Y188.030 E744.33640
G1 X141.920 Y187.692 E744.38803
G1 X140.751 Y187.319 E744.43905
G1 X139.580 Y186.902 E744.49073
G1 X138.432 Y186.449 E744.54204
G1 X137.306 Y185.960 E744.59308
G1 X136.183 Y185.427 E744.64476
G1 X135.087 Y184.861 E744.69604
G1 X134.017 Y184.262 E744.74702
G1 X132.954 Y183.618 E744.79869
G1 X131.925 Y182.948 E744.84974
G1 X130.907 Y182.235 E744.90142
G1 X129.927 Y181.498 E744.95240
G1 X128.960 Y180.718 E745.00405
G1 X128.030 Y179.918 E745.05505
G1 X127.118 Y179.074 E745.10671
G1 X126.239 Y178.206 E745.15807
G1 X125.391 Y177.309 E745.20939
G1 X124.572 Y176.384 E745.26076
G1 X123.786 Y175.433 E745.31205
G1 X123.032 Y174.455 E745.36339
G1 X122.311 Y173.453 E745.41471
G1 X121.624 Y172.427 E745.46605
G1 X120.972 Y171.378 E745.51740
G1 X120.359 Y170.316 E745.56838
G1 X119.779 Y169.226 E745.61971
G1 X119.233 Y168.110 E745.67137
G1 X118.727 Y166.983 E745.72273
G1 X118.259 Y165.841 E745.77404
G1 X117.830 Y164.682 E745.82542
G1 X117.443 Y163.519 E745.87638
G1 X117.090 Y162.326 E745.92810
G1 X116.780 Y161.131 E745.97943
G1 X116.510 Y159.926 E746.03077
G1 X116.282 Y158.714 E746.08204
G1 X116.092 Y157.493 E746.13342
G1 X115.945 Y156.267 E746.18475
G1 X115.840 Y155.046 E746.23570
G1 X115.776 Y153.804 E746.28741
G1 X115.752 Y152.570 E746.33872
G1 X115.751 Y152.459 E746.34334
G1 X115.770 Y151.344 E746.38970
G1 X115.829 Y150.102 E746.44139
G1 X115.929 Y148.881 E746.49233
G1 X116.071 Y147.653 E746.54372
G1 X116.256 Y146.432 E746.59506
G1 X116.479 Y145.219 E746.64634
G1 X116.744 Y144.013 E746.69768
G1 X117.050 Y142.816 E746.74904
G1 X117.396 Y141.631 E746.80037
G1 X117.781 Y140.458 E746.85169
G1 X118.204 Y139.298 E746.90303
G1 X118.671 Y138.146 E746.95471
G1 X119.169 Y137.024 E747.00574
G1 X119.707 Y135.914 E747.05703
G1 X120.282 Y134.822 E747.10834
G1 X120.895 Y133.749 E747.15971
G1 X121.547 Y132.690 E747.21142
G1 X122.226 Y131.669 E747.26239
G1 X122.943 Y130.664 E747.31372
G1 X123.698 Y129.677 E747.36538
G1 X124.475 Y128.728 E747.41638
G0 F9000 X125.123 Y129.012
;TYPE:SKIN
G1 F2220 X175.985 Y179.874 E750.40687
G0 F9000 X176.363 Y179.545
G1 F2220 X125.453 Y128.635 E753.40018
G0 F9000 X125.783 Y128.258
G1 F2220 X176.735 Y179.210 E756.39596
G0 F9000 X177.106 Y178.874
G1 F2220 X126.125 Y127.893 E759.39345
G0 F9000 X126.468 Y127.528
G1 F2220 X177.467 Y178.528 E762.39202
G0 F9000 X177.827 Y178.181
G1 F2220 X126.818 Y127.171 E765.39119
G0 F9000 X127.172 Y126.818
G1 F2220 X178.181 Y177.827 E768.39032
G0 F9000 X178.528 Y177.468
G1 F2220 X127.528 Y126.468 E771.38893
G0 F9000 X127.894 Y126.126
G1 F2220 X178.874 Y177.106 E774.38635
G0 F9000 X179.211 Y176.736
G1 F2220 X128.260 Y125.785 E777.38208
G0 F9000 X128.636 Y125.454
G1 F2220 X179.547 Y176.365 E780.37545
G0 F9000 X179.874 Y175.985
G1 F2220 X129.014 Y125.125 E783.36582
G0 F9000 X129.396 Y124.800
G1 F2220 X180.199 Y175.602 E786.35282
G0 F9000 X180.519 Y175.216
G1 F2220 X129.785 Y124.482 E789.33578
G0 F9000 X130.175 Y124.165
G1 F2220 X180.831 Y174.821 E792.31416
G0 F9000 X181.144 Y174.426
G1 F2220 X130.576 Y123.858 E795.28736
G0 F9000 X130.978 Y123.554
G1 F2220 X181.445 Y174.020 E798.25460
G0 F9000 X181.745 Y173.613
G1 F2220 X131.386 Y123.254 E801.21552
G0 F9000 X131.801 Y122.962
G1 F2220 X182.038 Y173.200 E804.16929
G0 F9000 X182.326 Y172.780
G1 F2220 X132.216 Y122.671 E807.11554
G0 F9000 X132.643 Y122.390
G1 F2220 X182.612 Y172.359 E810.05352
G0 F9000 X182.888 Y171.928
G1 F2220 X133.070 Y122.110 E812.98263
G0 F9000 X133.505 Y121.838
G1 F2220 X183.164 Y171.497 E815.90239
G0 F9000 X183.430 Y171.056
G1 F2220 X133.943 Y121.569 E818.81203
G0 F9000 X134.388 Y121.306
G1 F2220 X183.693 Y170.612 E821.71101
G0 F9000 X183.950 Y170.161
G1 F2220 X134.840 Y121.051 E824.59849
G0 F9000 X135.292 Y120.796
G1 F2220 X184.201 Y169.705 E827.47415
G0 F9000 X184.450 Y169.247
G1 F2220 X135.756 Y120.553 E830.33717
G0 F9000 X136.221 Y120.311
G1 F2220 X184.687 Y168.777 E833.18679
G0 F9000 X184.924 Y168.307
G1 F2220 X136.694 Y120.077 E836.02252
G1 F2400 E835.42252
G1 Z1.100
G0 F9000 X124.799 Y129.395
G1 Z0.600
G1 F2400 E836.02252
G1 F2220 X175.601 Y180.197 E839.00949
G0 F9000 X175.216 Y180.519
G1 F2220 X124.480 Y129.783 E841.99257
G0 F9000 X124.165 Y130.175
G1 F2220 X174.820 Y180.830 E844.97089
G0 F9000 X174.424 Y181.141
G1 F2220 X123.858 Y130.576 E847.94395
G0 F9000 X123.552 Y130.977
G1 F2220 X174.020 Y181.445 E850.91127
G0 F9000 X173.611 Y181.743
G1 F2220 X123.255 Y131.387 E853.87201
G0 F9000 X122.960 Y131.799
G1 F2220 X173.200 Y182.039 E856.82593
G0 F9000 X172.780 Y182.326
G1 F2220 X122.671 Y132.216 E859.77218
G0 F9000 X122.388 Y132.641
G1 F2220 X172.357 Y182.611 E862.71019
G0 F9000 X171.926 Y182.886
G1 F2220 X122.106 Y133.066 E865.63942
G0 F9000 X121.837 Y133.504
G1 F2220 X171.494 Y183.161 E868.55906
G0 F9000 X171.054 Y183.428
G1 F2220 X121.567 Y133.942 E871.46868
G0 F9000 X121.306 Y134.387
G1 F2220 X170.609 Y183.690 E874.36750
G0 F9000 X170.160 Y183.948
G1 F2220 X121.048 Y134.837 E877.25507
G0 F9000 X120.796 Y135.292
G1 F2220 X169.702 Y184.198 E880.13056
G0 F9000 X169.244 Y184.447
G1 F2220 X120.552 Y135.755 E882.99346
G0 F9000 X120.308 Y136.218
G1 F2220 X168.775 Y184.684 E885.84310
G0 F9000 X168.305 Y184.922
G1 F2220 X120.077 Y136.694 E888.67873
G0 F9000 X119.846 Y137.170
G1 F2220 X167.824 Y185.148 E891.49965
G0 F9000 X167.341 Y185.372
G1 F2220 X119.625 Y137.656 E894.30517
G0 F9000 X119.407 Y138.146
G1 F2220 X166.851 Y185.589 E897.09466
G0 F9000 X166.354 Y185.800
G1 F2220 X119.196 Y138.641 E899.86740
G0 F9000 X118.993 Y139.145
G1 F2220 X165.854 Y186.006 E902.62265
G0 F9000 X165.343 Y186.203
G1 F2220 X118.793 Y139.652 E905.35964
G0 F9000 X118.603 Y140.170
G1 F2220 X164.831 Y186.398 E908.07767
G0 F9000 X164.305 Y186.579
G1 F2220 X118.414 Y140.688 E910.77588
G0 F9000 X118.240 Y141.221
G1 F2220 X163.779 Y186.760 E913.45340
G0 F9000 X163.240 Y186.928
G1 F2220 X118.065 Y141.753 E916.10952
G0 F9000 X117.902 Y142.298
G1 F2220 X162.700 Y187.095 E918.74344
G0 F9000 X162.148 Y187.251
G1 F2220 X117.743 Y142.846 E921.35428
G0 F9000 X117.596 Y143.405
G1 F2220 X161.593 Y187.403 E923.94117
G0 F9000 X161.028 Y187.544
G1 F2220 X117.451 Y143.968 E926.50330
G0 F9000 X117.317 Y144.541
G1 F2220 X160.455 Y187.678 E929.03962
G0 F9000 X159.874 Y187.804
G1 F2220 X117.190 Y145.120 E931.54928
G0 F9000 X117.074 Y145.712
G1 F2220 X159.285 Y187.923 E934.03112
G0 F9000 X158.686 Y188.031
G1 F2220 X116.964 Y146.309 E936.48421
G0 F9000 X116.864 Y146.916
G1 F2220 X158.080 Y188.132 E938.90756
G0 F9000 X157.463 Y188.222
G1 F2220 X116.772 Y147.531 E941.30003
G0 F9000 X116.691 Y148.157
G1 F2220 X156.839 Y188.306 E943.66061
G0 F9000 X156.202 Y188.376
G1 F2220 X116.618 Y148.791 E945.98803
G0 F9000 X116.559 Y149.439
G1 F2220 X155.558 Y188.439 E948.28105
G0 F9000 X154.898 Y188.485
G1 F2220 X116.505 Y150.093 E950.53838
G0 F9000 X116.472 Y150.767
G1 F2220 X154.233 Y188.528 E952.75858
G0 F9000 X153.548 Y188.550
G1 F2220 X116.442 Y151.444 E954.94027
G0 F9000 X116.431 Y152.140
G1 F2220 X152.860 Y188.569 E957.08216
G0 F9000 X152.150 Y188.566
G1 F2220 X116.432 Y152.848 E959.18224
G0 F9000 X116.447 Y153.570
G1 F2220 X151.427 Y188.550 E961.23893
G0 F9000 X150.693 Y188.523
G1 F2220 X116.477 Y154.307 E963.25070
G0 F9000 X116.517 Y155.055
G1 F2220 X149.939 Y188.476 E965.21575
G0 F9000 X149.172 Y188.417
G1 F2220 X116.584 Y155.828 E967.13183
G0 F9000 X116.666 Y156.618
G1 F2220 X148.379 Y188.331 E968.99644
G0 F9000 X147.569 Y188.228
G1 F2220 X116.764 Y157.423 E970.80765
G0 F9000 X116.893 Y158.259
G1 F2220 X146.743 Y188.109 E972.56272
G0 F9000 X145.883 Y187.956
G1 F2220 X117.044 Y159.117 E974.25834
G0 F9000 X117.218 Y159.998
G1 F2220 X144.997 Y187.777 E975.89164
G0 F9000 X144.086 Y187.573
G1 F2220 X117.422 Y160.909 E977.45938
G0 F9000 X117.666 Y161.860
G1 F2220 X143.140 Y187.334 E978.95715
G0 F9000 X142.155 Y187.056
G1 F2220 X117.948 Y162.849 E980.38043
G0 F9000 X118.275 Y163.884
G1 F2220 X141.119 Y186.727 E981.72354
G0 F9000 X140.029 Y186.345
G1 F2220 X118.656 Y164.972 E982.98019
G0 F9000 X119.105 Y166.128
G1 F2220 X138.873 Y185.896 E984.14248
G0 F9000 X137.635 Y185.365
G1 F2220 X119.639 Y167.369 E985.20057
G0 F9000 X120.283 Y168.720
G1 F2220 X136.278 Y184.715 E986.14102
G1 F2400 E985.54102
G1 Z1.100
G0 F9000 X134.758 Y183.902
G1 Z0.600
G1 F2400 E986.14102
G1 F2220 X121.092 Y170.236 E986.94453
G1 F2400 E986.34453
G1 Z1.100
G0 F9000 X122.159 Y172.010
G1 Z0.600
G1 F2400 E986.94453
G1 F2220 X132.976 Y182.827 E987.58052
G1 F2400 E986.98052
G1 Z1.100
G0 F9000 X130.599 Y181.157
G1 Z0.600
G1 F2400 E987.58052
G1 F2220 X123.846 Y174.405 E987.97754
G1 F2400 E987.37754
G1 Z1.100
G0 F9000 X137.173 Y119.848
G1 Z0.600
G1 F2400 E987.97754
G1 F2220 X185.150 Y167.826 E990.79844
G0 F9000 X185.374 Y167.343
G1 F2220 X137.656 Y119.625 E993.60407
G0 F9000 X138.148 Y119.409
G1 F2220 X185.591 Y166.853 E996.39357
G0 F9000 X185.802 Y166.356
G1 F2220 X138.641 Y119.196 E999.16643
G0 F9000 X139.146 Y118.994
G1 F2220 X186.007 Y165.855 E1001.92167
G0 F9000 X186.204 Y165.344
G1 F2220 X139.651 Y118.791 E1004.65881
G0 F9000 X140.170 Y118.603
G1 F2220 X186.398 Y164.831 E1007.37684
G0 F9000 X186.580 Y164.306
G1 F2220 X140.690 Y118.417 E1010.07497
G0 F9000 X141.221 Y118.240
G1 F2220 X186.763 Y163.782 E1012.75266
G0 F9000 X186.931 Y163.243
G1 F2220 X141.755 Y118.067 E1015.40884
G0 F9000 X142.298 Y117.902
G1 F2220 X187.099 Y162.703 E1018.04297
G0 F9000 X187.253 Y162.151
G1 F2220 X142.847 Y117.745 E1020.65387
G0 F9000 X143.405 Y117.596
G1 F2220 X187.405 Y161.596 E1023.24090
G0 F9000 X187.545 Y161.029
G1 F2220 X143.971 Y117.454 E1025.80291
G0 F9000 X144.541 Y117.318
G1 F2220 X187.681 Y160.458 E1028.33938
G0 F9000 X187.807 Y159.876
G1 F2220 X145.123 Y117.192 E1030.84903
G0 F9000 X145.710 Y117.072
G1 F2220 X187.926 Y159.288 E1033.33117
G0 F9000 X188.034 Y158.689
G1 F2220 X146.310 Y116.965 E1035.78439
G0 F9000 X146.915 Y116.863
G1 F2220 X188.134 Y158.082 E1038.20790
G0 F9000 X188.225 Y157.466
G1 F2220 X147.532 Y116.773 E1040.60050
G0 F9000 X148.157 Y116.691
G1 F2220 X188.308 Y156.842 E1042.96122
G0 F9000 X188.378 Y156.204
G1 F2220 X148.793 Y116.620 E1045.28864
G0 F9000 X149.441 Y116.560
G1 F2220 X188.442 Y155.562 E1047.58178
G0 F9000 X188.489 Y154.901
G1 F2220 X150.097 Y116.509 E1049.83908
G0 F9000 X150.767 Y116.473
G1 F2220 X188.531 Y154.236 E1052.05943
G0 F9000 X188.552 Y153.551
G1 F2220 X151.445 Y116.443 E1054.24121
G0 F9000 X152.142 Y116.433
G1 F2220 X188.569 Y152.860 E1056.38298
G0 F9000 X188.567 Y152.151
G1 F2220 X152.842 Y116.426 E1058.48347
G0 F9000 X153.568 Y116.445
G1 F2220 X188.552 Y151.429 E1060.54039
G0 F9000 X188.526 Y150.696
G1 F2220 X154.306 Y116.476 E1062.55240
G0 F9000 X155.056 Y116.519
G1 F2220 X188.477 Y149.940 E1064.51743
G0 F9000 X188.415 Y149.171
G1 F2220 X155.828 Y116.584 E1066.43342
G0 F9000 X156.615 Y116.664
G1 F2220 X188.333 Y148.382 E1068.29831
G0 F9000 X188.228 Y147.569
G1 F2220 X157.425 Y116.766 E1070.10941
G0 F9000 X158.259 Y116.893
G1 F2220 X188.108 Y146.742 E1071.86442
G0 F9000 X187.961 Y145.888
G1 F2220 X159.113 Y117.041 E1073.56054
G0 F9000 X159.989 Y117.210
G1 F2220 X187.779 Y145.000 E1075.19449
G0 F9000 X187.574 Y144.087
G1 F2220 X160.910 Y117.423 E1076.76223
G0 F9000 X161.859 Y117.665
G1 F2220 X187.333 Y143.139 E1078.26000
G0 F9000 X187.055 Y142.153
G1 F2220 X162.848 Y117.946 E1079.68328
G0 F9000 X163.883 Y118.274
G1 F2220 X186.730 Y141.122 E1081.02663
G0 F9000 X186.348 Y140.032
G1 F2220 X164.969 Y118.653 E1082.28363
G0 F9000 X166.126 Y119.103
G1 F2220 X185.901 Y138.878 E1083.44632
G0 F9000 X185.370 Y137.640
G1 F2220 X167.370 Y119.640 E1084.50465
G0 F9000 X168.720 Y120.283
G1 F2220 X184.715 Y136.278 E1085.44510
G1 F2400 E1084.84510
G1 Z1.100
G0 F9000 X183.906 Y134.762
G1 Z0.600
G1 F2400 E1085.44510
G1 F2220 X170.228 Y121.084 E1086.24931
G1 F2400 E1085.64931
G1 Z1.100
G0 F9000 X172.015 Y122.164
G1 Z0.600
G1 F2400 E1086.24931
G1 F2220 X182.828 Y132.977 E1086.88508
G1 F2400 E1086.28508
G1 Z1.100
G0 F9000 X181.167 Y130.608
G1 Z0.600
G1 F2400 E1086.88508
G1 F2220 X174.382 Y123.824 E1087.28398
;LAYER:3
M106 S30
G0 F9000 X174.263 Y123.511 Z0.800
;TYPE:WALL-INNER
G1 F2400 X175.215 Y124.252 E1087.33413
G1 X176.171 Y125.047 E1087.38583
G1 X177.080 Y125.858 E1087.43647
G1 X177.959 Y126.696 E1087.48696
G1 X178.796 Y127.550 E1087.53668
G1 X179.636 Y128.467 E1087.58838
G1 X180.412 Y129.371 E1087.63791
G1 X181.173 Y130.323 E1087.68858
G1 X181.917 Y131.320 E1087.74030
G1 X182.612 Y132.319 E1087.79090
G1 X183.273 Y133.342 E1087.84154
G1 X183.887 Y134.367 E1087.89121
G1 X184.478 Y135.430 E1087.94178
G1 X185.044 Y136.536 E1087.99343
G1 X185.562 Y137.639 E1088.04409
G1 X186.033 Y138.735 E1088.09369
G1 X186.485 Y139.893 E1088.14537
G1 X186.891 Y141.042 E1088.19604
G1 X187.248 Y142.179 E1088.24558
G1 X187.581 Y143.376 E1088.29724
G1 X187.868 Y144.561 E1088.34793
G1 X188.111 Y145.728 E1088.39749
G1 X188.317 Y146.929 E1088.44815
G1 X188.488 Y148.161 E1088.49986
G1 X188.613 Y149.371 E1088.55043
G1 X188.696 Y150.561 E1088.60003
G1 X188.741 Y151.803 E1088.65170
G1 X188.745 Y152.997 E1088.70134
G1 X188.708 Y154.239 E1088.75300
G1 X188.631 Y155.428 E1088.80254
G1 X188.511 Y156.641 E1088.85321
G1 X188.349 Y157.868 E1088.90467
G1 X188.148 Y159.074 E1088.95550
G1 X187.912 Y160.244 E1089.00512
G1 X187.632 Y161.429 E1089.05574
G1 X187.312 Y162.604 E1089.10637
G1 X186.953 Y163.767 E1089.15698
G1 X186.546 Y164.941 E1089.20864
G1 X186.119 Y166.056 E1089.25828
G1 X185.634 Y167.200 E1089.30994
G1 X185.133 Y168.283 E1089.35955
G1 X184.584 Y169.370 E1089.41018
G1 X183.986 Y170.460 E1089.46186
G1 X183.379 Y171.486 E1089.51143
G1 X182.716 Y172.525 E1089.56267
G1 X182.033 Y173.517 E1089.61274
G1 X181.302 Y174.509 E1089.66397
G1 X180.545 Y175.466 E1089.71470
G1 X179.768 Y176.382 E1089.76464
G1 X178.933 Y177.303 E1089.81633
G1 X178.102 Y178.160 E1089.86596
G1 X177.208 Y179.022 E1089.91759
G1 X176.322 Y179.821 E1089.96719
G1 X175.372 Y180.620 E1090.01880
G1 X174.433 Y181.359 E1090.06848
G1 X173.431 Y182.094 E1090.12014
G1 X172.576 Y182.679 E1090.16321
G1 X171.553 Y183.336 E1090.21376
G1 X170.485 Y183.971 E1090.26542
G1 X169.440 Y184.545 E1090.31499
G1 X168.354 Y185.095 E1090.36560
G1 X167.232 Y185.618 E1090.41706
G1 X166.127 Y186.088 E1090.46699
G1 X164.972 Y186.533 E1090.51845
G1 X163.846 Y186.925 E1090.56802
G1 X162.671 Y187.291 E1090.61918
G1 X161.511 Y187.609 E1090.66919
G1 X160.300 Y187.897 E1090.72094
G1 X159.135 Y188.134 E1090.77037
G1 X157.910 Y188.340 E1090.82201
G1 X156.714 Y188.501 E1090.87218
G1 X155.502 Y188.622 E1090.92282
G1 X154.301 Y188.701 E1090.97286
G1 X153.060 Y188.742 E1091.02449
G1 X152.647 Y188.748 E1091.04166
G1 X151.871 Y188.742 E1091.07392
G1 X150.461 Y188.691 E1091.13258
G1 X149.265 Y188.603 E1091.18244
G1 X148.055 Y188.475 E1091.23303
G1 X146.836 Y188.303 E1091.28421
G1 X145.644 Y188.094 E1091.33452
G1 X144.440 Y187.840 E1091.38568
G1 X143.280 Y187.556 E1091.43533
G1 X142.101 Y187.224 E1091.48625
G1 X140.937 Y186.853 E1091.53705
G1 X139.788 Y186.446 E1091.58773
G1 X138.643 Y185.995 E1091.63889
G1 X137.535 Y185.514 E1091.68911
G1 X136.432 Y184.993 E1091.73982
G1 X135.360 Y184.440 E1091.78997
G1 X134.297 Y183.847 E1091.84058
G1 X133.251 Y183.215 E1091.89139
G1 X132.230 Y182.550 E1091.94205
G1 X131.233 Y181.853 E1091.99262
G1 X130.245 Y181.111 E1092.04399
G1 X129.296 Y180.348 E1092.09462
G1 X128.382 Y179.560 E1092.14479
G1 X127.497 Y178.744 E1092.19484
G1 X126.612 Y177.871 E1092.24652
G1 X125.789 Y177.004 E1092.29622
G1 X124.965 Y176.075 E1092.34785
G1 X124.190 Y175.137 E1092.39843
G1 X123.458 Y174.190 E1092.44820
G1 X122.742 Y173.197 E1092.49909
G1 X122.055 Y172.173 E1092.55036
G1 X121.412 Y171.140 E1092.60095
G1 X120.815 Y170.106 E1092.65059
G1 X120.230 Y169.009 E1092.70227
G1 X119.702 Y167.933 E1092.75210
G1 X119.205 Y166.826 E1092.80255
G1 X118.732 Y165.677 E1092.85421
G1 X118.318 Y164.560 E1092.90374
G1 X117.925 Y163.381 E1092.95541
G1 X117.577 Y162.212 E1093.00612
G1 X117.275 Y161.051 E1093.05599
G1 X117.004 Y159.846 E1093.10734
G1 X116.778 Y158.650 E1093.15795
G1 X116.595 Y157.471 E1093.20755
G1 X116.445 Y156.236 E1093.25927
G1 X116.342 Y155.044 E1093.30901
G1 X116.276 Y153.807 E1093.36052
G1 X116.253 Y152.591 E1093.41108
G1 X116.251 Y152.450 E1093.41694
G1 X116.269 Y151.375 E1093.46164
G1 X116.326 Y150.180 E1093.51138
G1 X116.426 Y148.941 E1093.56306
G1 X116.563 Y147.757 E1093.61261
G1 X116.743 Y146.552 E1093.66327
G1 X116.968 Y145.330 E1093.71493
G1 X117.228 Y144.140 E1093.76557
G1 X117.529 Y142.960 E1093.81620
G1 X117.862 Y141.815 E1093.86577
G1 X118.241 Y140.657 E1093.91643
G1 X118.667 Y139.489 E1093.96812
G1 X119.114 Y138.382 E1094.01775
G1 X119.606 Y137.269 E1094.06835
G1 X120.136 Y136.173 E1094.11896
G1 X120.703 Y135.095 E1094.16960
G1 X121.306 Y134.036 E1094.22027
G1 X121.957 Y132.977 E1094.27195
G1 X122.616 Y131.984 E1094.32150
G1 X123.338 Y130.972 E1094.37318
G1 X124.077 Y130.003 E1094.42385
G1 X124.832 Y129.081 E1094.47339
G1 X125.652 Y128.146 E1094.52509
G1 X126.468 Y127.275 E1094.57471
G1 X127.348 Y126.397 E1094.62640
G1 X128.220 Y125.585 E1094.67593
G1 X129.149 Y124.776 E1094.72715
G1 X130.103 Y123.999 E1094.77830
G1 X131.073 Y123.262 E1094.82895
G1 X132.046 Y122.574 E1094.87849
G1 X133.064 Y121.904 E1094.92916
G1 X134.124 Y121.255 E1094.98084
G1 X135.183 Y120.656 E1095.03142
G1 X136.241 Y120.102 E1095.08107
G1 X137.338 Y119.575 E1095.13167
G1 X138.477 Y119.074 E1095.18340
G1 X139.599 Y118.624 E1095.23366
G1 X140.737 Y118.213 E1095.28396
G1 X141.888 Y117.840 E1095.33427
G1 X143.069 Y117.500 E1095.38536
G1 X144.262 Y117.201 E1095.43650
G1 X145.447 Y116.944 E1095.48691
G1 X146.637 Y116.729 E1095.53718
G1 X147.851 Y116.551 E1095.58819
G1 X149.043 Y116.417 E1095.63806
G1 X150.282 Y116.320 E1095.68973
G1 X151.478 Y116.266 E1095.73951
G1 X152.715 Y116.252 E1095.79094
G1 X152.858 Y116.251 E1095.79689
G1 X153.922 Y116.279 E1095.84114
G1 X155.145 Y116.348 E1095.89206
G1 X156.353 Y116.455 E1095.94248
G1 X157.546 Y116.604 E1095.99247
G1 X158.774 Y116.798 E1096.04416
G1 X159.950 Y117.024 E1096.09394
G1 X161.148 Y117.297 E1096.14503
G1 X162.321 Y117.605 E1096.19545
G1 X163.477 Y117.953 E1096.24564
G1 X164.656 Y118.350 E1096.29736
G1 X165.772 Y118.768 E1096.34691
G1 X166.920 Y119.243 E1096.39856
G1 X168.007 Y119.735 E1096.44816
G1 X169.099 Y120.275 E1096.49881
G1 X170.195 Y120.863 E1096.55052
G1 X171.225 Y121.461 E1096.60004
G1 X172.268 Y122.115 E1096.65122
G1 X173.289 Y122.804 E1096.70243
G1 X174.263 Y123.511 E1096.75247
G0 F9000 X174.567 Y123.114
;TYPE:WALL-OUTER
G1 F2400 X175.535 Y123.867 E1096.80346
G1 X176.485 Y124.657 E1096.85482
G1 X177.410 Y125.482 E1096.90635
G1 X178.300 Y126.330 E1096.95746
G1 X179.165 Y127.212 E1097.00882
G1 X179.999 Y128.123 E1097.06017
G1 X180.808 Y129.066 E1097.11183
G1 X181.574 Y130.024 E1097.16283
G1 X182.313 Y131.014 E1097.21419
G1 X183.018 Y132.027 E1097.26550
G1 X183.693 Y133.071 E1097.31718
G1 X184.324 Y134.124 E1097.36822
G1 X184.923 Y135.202 E1097.41949
G1 X185.489 Y136.308 E1097.47115
G1 X186.012 Y137.419 E1097.52220
G1 X186.499 Y138.553 E1097.57351
G1 X186.948 Y139.703 E1097.62484
G1 X187.362 Y140.875 E1097.67651
G1 X187.730 Y142.045 E1097.72751
G1 X188.061 Y143.234 E1097.77882
G1 X188.352 Y144.435 E1097.83019
G1 X188.605 Y145.652 E1097.88187
G1 X188.813 Y146.860 E1097.93284
G1 X188.982 Y148.084 E1097.98421
G1 X189.110 Y149.320 E1098.03587
G1 X189.196 Y150.543 E1098.08684
G1 X189.241 Y151.777 E1098.13818
G1 X189.245 Y153.012 E1098.18952
G1 X189.208 Y154.254 E1098.24118
G1 X189.129 Y155.477 E1098.29213
G1 X189.007 Y156.706 E1098.34348
G1 X188.845 Y157.930 E1098.39481
G1 X188.641 Y159.157 E1098.44653
G1 X188.399 Y160.359 E1098.49750
G1 X188.115 Y161.560 E1098.54881
G1 X187.790 Y162.751 E1098.60014
G1 X187.423 Y163.939 E1098.65183
G1 X187.019 Y165.105 E1098.70314
G1 X186.580 Y166.251 E1098.75416
G1 X186.098 Y167.388 E1098.80550
G1 X185.579 Y168.508 E1098.85682
G1 X185.023 Y169.611 E1098.90818
G1 X184.429 Y170.694 E1098.95953
G1 X183.801 Y171.755 E1099.01079
G1 X183.131 Y172.803 E1099.06250
G1 X182.431 Y173.820 E1099.11383
G1 X181.700 Y174.812 E1099.16506
G1 X180.937 Y175.776 E1099.21618
G1 X180.133 Y176.724 E1099.26785
G1 X179.304 Y177.639 E1099.31919
G1 X178.449 Y178.520 E1099.37023
G1 X177.555 Y179.382 E1099.42186
G1 X176.644 Y180.204 E1099.47287
G1 X175.699 Y180.999 E1099.52422
G1 X174.729 Y181.762 E1099.57553
G1 X173.727 Y182.497 E1099.62719
G1 X172.846 Y183.100 E1099.67158
G1 X171.808 Y183.766 E1099.72285
G1 X170.740 Y184.401 E1099.77451
G1 X169.666 Y184.991 E1099.82545
G1 X168.565 Y185.548 E1099.87675
G1 X167.438 Y186.073 E1099.92844
G1 X166.304 Y186.556 E1099.97969
G1 X165.160 Y186.997 E1100.03066
G1 X163.995 Y187.402 E1100.08194
G1 X162.809 Y187.771 E1100.13358
G1 X161.622 Y188.097 E1100.18475
G1 X160.426 Y188.382 E1100.23587
G1 X159.218 Y188.627 E1100.28712
G1 X157.993 Y188.833 E1100.33876
G1 X156.775 Y188.997 E1100.38986
G1 X155.541 Y189.120 E1100.44141
G1 X154.318 Y189.201 E1100.49237
G1 X153.077 Y189.242 E1100.54399
G1 X152.650 Y189.248 E1100.56175
G1 X151.853 Y189.242 E1100.59489
G1 X150.441 Y189.191 E1100.65363
G1 X149.219 Y189.102 E1100.70457
G1 X147.991 Y188.971 E1100.75591
G1 X146.760 Y188.797 E1100.80760
G1 X145.553 Y188.587 E1100.85853
G1 X144.337 Y188.329 E1100.91022
G1 X143.145 Y188.037 E1100.96124
G1 X141.949 Y187.700 E1101.01290
G1 X140.780 Y187.328 E1101.06390
G1 X139.609 Y186.913 E1101.11555
G1 X138.460 Y186.460 E1101.16690
G1 X137.334 Y185.972 E1101.21792
G1 X136.210 Y185.441 E1101.26960
G1 X135.114 Y184.875 E1101.32089
G1 X134.035 Y184.273 E1101.37226
G1 X132.985 Y183.638 E1101.42327
G1 X131.943 Y182.960 E1101.47496
G1 X130.931 Y182.253 E1101.52628
G1 X129.951 Y181.516 E1101.57726
G1 X128.983 Y180.737 E1101.62892
G1 X128.053 Y179.937 E1101.67992
G1 X127.146 Y179.100 E1101.73123
G1 X126.261 Y178.227 E1101.78292
G1 X125.416 Y177.337 E1101.83394
G1 X124.591 Y176.407 E1101.88563
G1 X123.805 Y175.456 E1101.93692
G1 X123.050 Y174.479 E1101.98825
G1 X122.328 Y173.477 E1102.03960
G1 X121.640 Y172.452 E1102.09092
G1 X120.987 Y171.404 E1102.14226
G1 X120.373 Y170.341 E1102.19330
G1 X119.789 Y169.244 E1102.24497
G1 X119.245 Y168.137 E1102.29625
G1 X118.739 Y167.010 E1102.34761
G1 X118.269 Y165.868 E1102.39895
G1 X117.840 Y164.710 E1102.45029
G1 X117.453 Y163.547 E1102.50125
G1 X117.098 Y162.355 E1102.55296
G1 X116.787 Y161.160 E1102.60430
G1 X116.516 Y159.956 E1102.65561
G1 X116.287 Y158.743 E1102.70693
G1 X116.097 Y157.523 E1102.75826
G1 X115.948 Y156.296 E1102.80965
G1 X115.843 Y155.076 E1102.86056
G1 X115.777 Y153.834 E1102.91227
G1 X115.753 Y152.600 E1102.96358
G1 X115.751 Y152.441 E1102.97019
G1 X115.769 Y151.374 E1103.01456
G1 X115.828 Y150.132 E1103.06625
G1 X115.926 Y148.910 E1103.11722
G1 X116.068 Y147.683 E1103.16857
G1 X116.251 Y146.461 E1103.21995
G1 X116.476 Y145.239 E1103.27160
G1 X116.737 Y144.042 E1103.32254
G1 X117.042 Y142.845 E1103.37389
G1 X117.387 Y141.659 E1103.42525
G1 X117.771 Y140.486 E1103.47656
G1 X118.194 Y139.326 E1103.52789
G1 X118.657 Y138.180 E1103.57928
G1 X119.156 Y137.051 E1103.63060
G1 X119.697 Y135.933 E1103.68224
G1 X120.268 Y134.848 E1103.73321
G1 X120.880 Y133.774 E1103.78460
G1 X121.531 Y132.715 E1103.83629
G1 X122.209 Y131.693 E1103.88728
G1 X122.926 Y130.688 E1103.93860
G1 X123.680 Y129.700 E1103.99027
G1 X124.456 Y128.751 E1104.04124
G1 X125.276 Y127.816 E1104.09294
G1 X126.115 Y126.921 E1104.14395
G1 X126.995 Y126.043 E1104.19563
G1 X127.891 Y125.208 E1104.24655
G1 X128.823 Y124.396 E1104.29794
G1 X129.787 Y123.611 E1104.34963
G1 X130.763 Y122.869 E1104.40060
G1 X131.771 Y122.156 E1104.45193
G1 X132.803 Y121.477 E1104.50329
G1 X133.855 Y120.833 E1104.55457
G1 X134.937 Y120.221 E1104.60625
G1 X136.024 Y119.651 E1104.65728
G1 X137.137 Y119.116 E1104.70862
G1 X138.276 Y118.616 E1104.76034
G1 X139.421 Y118.157 E1104.81162
G1 X140.574 Y117.741 E1104.86259
G1 X141.757 Y117.357 E1104.91429
G1 X142.935 Y117.017 E1104.96527
G1 X144.141 Y116.716 E1105.01695
G1 X145.340 Y116.455 E1105.06796
G1 X146.562 Y116.234 E1105.11959
G1 X147.781 Y116.055 E1105.17082
G1 X149.004 Y115.918 E1105.22198
G1 X150.234 Y115.822 E1105.27327
G1 X151.476 Y115.766 E1105.32496
G1 X152.710 Y115.752 E1105.37627
G1 X152.868 Y115.751 E1105.38284
G1 X153.936 Y115.779 E1105.42726
G1 X155.177 Y115.849 E1105.47893
G1 X156.404 Y115.958 E1105.53015
G1 X157.624 Y116.110 E1105.58126
G1 X158.852 Y116.304 E1105.63295
G1 X160.056 Y116.535 E1105.68392
G1 X161.268 Y116.812 E1105.73561
G1 X162.462 Y117.126 E1105.78693
G1 X163.636 Y117.479 E1105.83790
G1 X164.815 Y117.876 E1105.88962
G1 X165.963 Y118.306 E1105.94059
G1 X167.104 Y118.778 E1105.99193
G1 X168.237 Y119.291 E1106.04363
G1 X169.343 Y119.838 E1106.09493
G1 X170.424 Y120.418 E1106.14594
G1 X171.491 Y121.038 E1106.19724
G1 X172.544 Y121.699 E1106.24893
G1 X173.561 Y122.384 E1106.29991
G1 X174.567 Y123.114 E1106.35159
G0 F9000 X174.291 Y123.754
;TYPE:SKIN
G1 F2400 X123.757 Y174.288 E1109.32279
G0 F9000 X124.064 Y174.687
G1 F2400 X174.688 Y124.064 E1112.29926
G0 F9000 X175.086 Y124.373
G1 F2400 X124.374 Y175.085 E1115.28093
G0 F9000 X124.694 Y175.472
G1 F2400 X175.472 Y124.694 E1118.26648
G0 F9000 X175.858 Y125.015
G1 F2400 X125.014 Y175.859 E1121.25591
G0 F9000 X125.343 Y176.237
G1 F2400 X176.239 Y125.341 E1124.24840
G0 F9000 X176.612 Y125.675
G1 F2400 X125.676 Y176.611 E1127.24325
G0 F9000 X126.012 Y176.983
G1 F2400 X176.985 Y126.009 E1130.24029
G0 F9000 X177.347 Y126.355
G1 F2400 X126.356 Y177.345 E1133.23834
G0 F9000 X126.700 Y177.708
G1 F2400 X177.709 Y126.700 E1136.23744
G0 F9000 X178.062 Y127.053
G1 F2400 X127.055 Y178.061 E1139.23649
G0 F9000 X127.410 Y178.412
G1 F2400 X178.412 Y127.410 E1142.23521
G0 F9000 X178.760 Y127.770
G1 F2400 X127.772 Y178.758 E1145.23311
G0 F9000 X128.139 Y179.098
G1 F2400 X179.098 Y128.139 E1148.22930
G0 F9000 X179.436 Y128.508
G1 F2400 X128.507 Y179.437 E1151.22373
G0 F9000 X128.887 Y179.764
G1 F2400 X179.764 Y128.887 E1154.21511
G1 F2400 E1153.61511
G1 Z1.300
G0 F9000 X173.885 Y123.453
G1 Z0.800
G1 F2400 E1154.21511
G1 X123.454 Y173.883 E1157.18023
G0 F9000 X123.158 Y173.473
G1 F2400 X173.475 Y123.155 E1160.13870
G0 F9000 X173.062 Y122.861
G1 F2400 X122.862 Y173.061 E1163.09027
G0 F9000 X122.579 Y172.637
G1 F2400 X172.640 Y122.576 E1166.03366
G0 F9000 X172.217 Y122.291
G1 F2400 X122.294 Y172.215 E1168.96897
G0 F9000 X122.019 Y171.783
G1 F2400 X171.784 Y122.018 E1171.89497
G0 F9000 X171.349 Y121.746
G1 F2400 X121.748 Y171.347 E1174.81131
G0 F9000 X121.480 Y170.907
G1 F2400 X170.909 Y121.479 E1177.71752
G0 F9000 X170.461 Y121.220
G1 F2400 X121.222 Y170.459 E1180.61259
G0 F9000 X120.963 Y170.011
G1 F2400 X170.011 Y120.962 E1183.49645
G0 F9000 X169.551 Y120.715
G1 F2400 X120.717 Y169.549 E1186.36770
G0 F9000 X120.471 Y169.088
G1 F2400 X169.091 Y120.469 E1189.22634
G0 F9000 X168.620 Y120.232
G1 F2400 X120.233 Y168.619 E1192.07131
G0 F9000 X120.000 Y168.145
G1 F2400 X168.147 Y119.998 E1194.90217
G0 F9000 X167.666 Y119.772
G1 F2400 X119.773 Y167.665 E1197.71810
G0 F9000 X119.554 Y167.177
G1 F2400 X167.179 Y119.552 E1200.51826
G0 F9000 X166.688 Y119.336
G1 F2400 X119.337 Y166.686 E1203.30229
G0 F9000 X119.131 Y166.186
G1 F2400 X166.188 Y119.129 E1206.06906
G0 F9000 X165.687 Y118.922
G1 F2400 X118.924 Y165.685 E1208.81855
G0 F9000 X118.731 Y165.171
G1 F2400 X165.173 Y118.729 E1211.54916
G0 F9000 X164.659 Y118.537
G1 F2400 X118.540 Y164.655 E1214.26075
G0 F9000 X118.359 Y164.130
G1 F2400 X164.131 Y118.357 E1216.95200
G0 F9000 X163.601 Y118.180
G1 F2400 X118.182 Y163.599 E1219.62246
G0 F9000 X118.013 Y163.061
G1 F2400 X163.063 Y118.011 E1222.27123
G0 F9000 X162.520 Y117.847
G1 F2400 X117.851 Y162.516 E1224.89759
G0 F9000 X117.695 Y161.965
G1 F2400 X161.967 Y117.692 E1227.50065
G0 F9000 X161.407 Y117.545
G1 F2400 X117.548 Y161.404 E1230.07939
G0 F9000 X117.407 Y160.839
G1 F2400 X160.839 Y117.406 E1232.63305
G0 F9000 X160.264 Y117.275
G1 F2400 X117.277 Y160.261 E1235.16050
G0 F9000 X117.152 Y159.680
G1 F2400 X159.681 Y117.150 E1237.66107
G0 F9000 X159.088 Y117.036
G1 F2400 X117.039 Y159.085 E1240.13339
G0 F9000 X116.930 Y158.488
G1 F2400 X158.488 Y116.930 E1242.57684
G0 F9000 X157.877 Y116.833
G1 F2400 X116.835 Y157.875 E1244.98995
G0 F9000 X116.746 Y157.257
G1 F2400 X157.259 Y116.744 E1247.37196
G0 F9000 X156.631 Y116.665
G1 F2400 X116.669 Y156.627 E1249.72157
G0 F9000 X116.599 Y155.990
G1 F2400 X155.991 Y116.597 E1252.03770
G0 F9000 X155.342 Y116.540
G1 F2400 X116.543 Y155.339 E1254.31893
G0 F9000 X116.497 Y154.677
G1 F2400 X154.678 Y116.496 E1256.56383
G0 F9000 X154.009 Y116.458
G1 F2400 X116.462 Y154.005 E1258.77145
G0 F9000 X116.442 Y153.318
G1 F2400 X153.323 Y116.437 E1260.93991
G0 F9000 X152.626 Y116.427
G1 F2400 X116.429 Y152.624 E1263.06815
G0 F9000 X116.435 Y151.911
G1 F2400 X151.911 Y116.435 E1265.15401
G0 F9000 X151.185 Y116.454
G1 F2400 X116.453 Y151.186 E1267.19612
G0 F9000 X116.488 Y150.444
G1 F2400 X150.445 Y116.487 E1269.19266
G0 F9000 X149.683 Y116.541
G1 F2400 X116.541 Y149.684 E1271.14131
G0 F9000 X116.604 Y148.913
G1 F2400 X148.912 Y116.606 E1273.04087
G0 F9000 X148.114 Y116.696
G1 F2400 X116.697 Y148.114 E1274.88810
G0 F9000 X116.809 Y147.295
G1 F2400 X147.295 Y116.809 E1276.68056
G0 F9000 X146.458 Y116.938
G1 F2400 X116.938 Y146.458 E1278.41622
G0 F9000 X117.097 Y145.592
G1 F2400 X145.596 Y117.094 E1280.09182
G0 F9000 X144.698 Y117.284
G1 F2400 X117.284 Y144.698 E1281.70366
G0 F9000 X117.502 Y143.773
G1 F2400 X143.772 Y117.503 E1283.24823
G0 F9000 X142.813 Y117.755
G1 F2400 X117.753 Y142.815 E1284.72167
G0 F9000 X118.046 Y141.815
G1 F2400 X141.815 Y118.046 E1286.11919
G0 F9000 X140.767 Y118.387
G1 F2400 X118.389 Y140.765 E1287.43493
G0 F9000 X118.792 Y139.655
G1 F2400 X139.659 Y118.787 E1288.66186
G0 F9000 X138.473 Y119.266
G1 F2400 X119.265 Y138.474 E1289.79122
G0 F9000 X119.834 Y137.198
G1 F2400 X137.197 Y119.835 E1290.81210
G1 F2400 E1290.21210
G1 Z1.300
G0 F9000 X135.793 Y120.532
G1 Z0.800
G1 F2400 E1290.81210
G1 X120.532 Y135.793 E1291.70938
G1 F2400 E1291.10938
G1 Z1.300
G0 F9000 X121.405 Y134.213
G1 Z0.800
G1 F2400 E1291.70938
G1 X134.215 Y121.403 E1292.46256
G1 F2400 E1291.86256
G1 Z1.300
G0 F9000 X132.288 Y122.623
G1 Z0.800
G1 F2400 E1292.46256
G1 X122.622 Y132.289 E1293.03089
G1 F2400 E1292.43089
G1 Z1.300
G0 F9000 X124.756 Y129.447
G1 Z0.800
G1 F2400 E1293.03089
G1 X129.442 Y124.762 E1293.30638
G1 F2400 E1292.70638
G1 Z1.300
G0 F9000 X180.090 Y129.268
G1 Z0.800
G1 F2400 E1293.30638
G1 X129.266 Y180.092 E1296.29463
G0 F9000 X129.654 Y180.411
G1 F2400 X180.412 Y129.653 E1299.27901
G0 F9000 X180.726 Y130.046
G1 F2400 X130.046 Y180.726 E1302.25880
G0 F9000 X130.441 Y181.039
G1 F2400 X181.040 Y130.439 E1305.23386
G0 F9000 X181.343 Y130.844
G1 F2400 X130.845 Y181.342 E1308.20294
G0 F9000 X131.248 Y181.645
G1 F2400 X181.645 Y131.249 E1311.16607
G0 F9000 X181.939 Y131.661
G1 F2400 X131.662 Y181.939 E1314.12219
G0 F9000 X132.078 Y182.230
G1 F2400 X182.230 Y132.078 E1317.07094
G0 F9000 X182.517 Y132.498
G1 F2400 X132.499 Y182.516 E1320.01180
G0 F9000 X132.927 Y182.795
G1 F2400 X182.795 Y132.927 E1322.94385
G0 F9000 X183.072 Y133.357
G1 F2400 X133.356 Y183.074 E1325.86699
G0 F9000 X133.796 Y183.340
G1 F2400 X183.341 Y133.795 E1328.78005
G0 F9000 X183.605 Y134.238
G1 F2400 X134.237 Y183.606 E1331.68269
G0 F9000 X134.687 Y183.864
G1 F2400 X183.864 Y134.687 E1334.57411
G0 F9000 X184.116 Y135.142
G1 F2400 X135.141 Y184.117 E1337.45366
G0 F9000 X135.599 Y184.366
G1 F2400 X184.366 Y135.599 E1340.32097
G0 F9000 X184.605 Y136.067
G1 F2400 X136.065 Y184.607 E1343.17493
G0 F9000 X136.533 Y184.846
G1 F2400 X184.844 Y136.535 E1346.01544
G0 F9000 X185.073 Y137.013
G1 F2400 X137.013 Y185.073 E1348.84118
G0 F9000 X137.494 Y185.300
G1 F2400 X185.300 Y137.494 E1351.65199
G0 F9000 X185.517 Y137.983
G1 F2400 X137.984 Y185.517 E1354.44678
G0 F9000 X138.476 Y185.731
G1 F2400 X185.730 Y138.477 E1357.22513
G0 F9000 X185.937 Y138.977
G1 F2400 X138.977 Y185.937 E1359.98620
G0 F9000 X139.485 Y186.137
G1 F2400 X186.136 Y139.486 E1362.72910
G0 F9000 X186.333 Y139.995
G1 F2400 X139.996 Y186.333 E1365.45357
G0 F9000 X140.518 Y186.518
G1 F2400 X186.518 Y140.518 E1368.15819
G0 F9000 X186.703 Y141.040
G1 F2400 X141.041 Y186.702 E1370.84294
G0 F9000 X141.577 Y186.873
G1 F2400 X186.874 Y141.576 E1373.50623
G0 F9000 X187.043 Y142.115
G1 F2400 X142.114 Y187.043 E1376.14785
G0 F9000 X142.665 Y187.200
G1 F2400 X187.200 Y142.664 E1378.76637
G0 F9000 X187.355 Y143.217
G1 F2400 X143.215 Y187.356 E1381.36160
G0 F9000 X143.780 Y187.498
G1 F2400 X187.498 Y143.780 E1383.93206
G0 F9000 X187.635 Y144.350
G1 F2400 X144.349 Y187.637 E1386.47714
G0 F9000 X144.930 Y187.763
G1 F2400 X187.764 Y144.929 E1388.99561
G0 F9000 X187.886 Y145.514
G1 F2400 X145.514 Y187.886 E1391.48692
G0 F9000 X146.109 Y187.998
G1 F2400 X187.998 Y146.109 E1393.94983
G0 F9000 X188.101 Y146.713
G1 F2400 X146.711 Y188.103 E1396.38341
G0 F9000 X147.327 Y188.195
G1 F2400 X188.194 Y147.327 E1398.78626
G0 F9000 X188.280 Y147.948
G1 F2400 X147.947 Y188.282 E1401.15772
G0 F9000 X148.582 Y188.354
G1 F2400 X188.354 Y148.582 E1403.49616
G0 F9000 X188.420 Y149.222
G1 F2400 X149.218 Y188.424 E1405.80108
G0 F9000 X149.877 Y188.472
G1 F2400 X188.472 Y149.877 E1408.07032
G0 F9000 X188.518 Y150.539
G1 F2400 X150.539 Y188.518 E1410.30334
G0 F9000 X151.221 Y188.542
G1 F2400 X188.543 Y151.221 E1412.49770
G0 F9000 X188.565 Y151.906
G1 F2400 X151.904 Y188.566 E1414.65320
G0 F9000 X152.607 Y188.571
G1 F2400 X188.568 Y152.610 E1416.76757
G0 F9000 X188.559 Y153.326
G1 F2400 X153.328 Y188.557 E1418.83902
G0 F9000 X154.059 Y188.533
G1 F2400 X188.537 Y154.055 E1420.86619
G0 F9000 X188.494 Y154.805
G1 F2400 X154.808 Y188.492 E1422.84683
G0 F9000 X155.568 Y188.439
G1 F2400 X188.439 Y155.567 E1424.77955
G0 F9000 X188.363 Y156.351
G1 F2400 X156.353 Y188.361 E1426.66161
G0 F9000 X157.157 Y188.264
G1 F2400 X188.265 Y157.155 E1428.49067
G0 F9000 X188.151 Y157.976
G1 F2400 X157.978 Y188.150 E1430.26476
G0 F9000 X158.828 Y188.007
G1 F2400 X188.011 Y158.824 E1431.98061
G0 F9000 X187.842 Y159.700
G1 F2400 X159.704 Y187.838 E1433.63501
G0 F9000 X160.606 Y187.643
G1 F2400 X187.647 Y160.603 E1435.22489
G0 F9000 X187.420 Y161.536
G1 F2400 X161.537 Y187.420 E1436.74674
G0 F9000 X162.512 Y187.152
G1 F2400 X187.155 Y162.508 E1438.19569
G0 F9000 X186.841 Y163.529
G1 F2400 X163.533 Y186.838 E1439.56614
G0 F9000 X164.603 Y186.475
G1 F2400 X186.477 Y164.601 E1440.85224
G0 F9000 X186.056 Y165.729
G1 F2400 X165.734 Y186.051 E1442.04710
G0 F9000 X166.942 Y185.550
G1 F2400 X185.554 Y166.938 E1443.14141
G0 F9000 X184.956 Y168.243
G1 F2400 X168.251 Y184.948 E1444.12360
G1 F2400 E1443.52360
G1 Z1.300
G0 F9000 X169.711 Y184.195
G1 Z0.800
G1 F2400 E1444.12360
G1 X184.196 Y169.710 E1444.97527
G1 F2400 E1444.37527
G1 Z1.300
G0 F9000 X183.243 Y171.370
G1 Z0.800
G1 F2400 E1444.97527
G1 X171.380 Y183.233 E1445.67276
G1 F2400 E1445.07276
G1 Z1.300
G0 F9000 X173.489 Y181.831
G1 Z0.800
G1 F2400 E1445.67276
G1 X181.843 Y173.477 E1446.16395
;LAYER:4
M106 S40
G0 F9000 X182.050 Y173.493 Z1.000
;TYPE:WALL-INNER
G1 F2700 X181.327 Y174.475 E1446.21465
G1 X180.558 Y175.450 E1446.26627
G1 X179.787 Y176.361 E1446.31589
G1 X178.958 Y177.275 E1446.36719
G1 X178.114 Y178.148 E1446.41768
G1 X177.228 Y179.003 E1446.46887
G1 X176.324 Y179.819 E1446.51950
G1 X175.411 Y180.588 E1446.56913
G1 X174.446 Y181.350 E1446.62025
G1 X173.454 Y182.077 E1446.67138
G1 X172.630 Y182.644 E1446.71296
G1 X172.163 Y182.951 E1446.73620
G1 X171.608 Y183.302 E1446.76350
G1 X171.131 Y183.593 E1446.78673
G1 X170.563 Y183.926 E1446.81411
G1 X170.091 Y184.194 E1446.83667
G1 X169.498 Y184.514 E1446.86469
G1 X169.005 Y184.772 E1446.88782
G1 X168.413 Y185.066 E1446.91530
G1 X167.909 Y185.309 E1446.93856
G1 X167.310 Y185.583 E1446.96595
G1 X166.814 Y185.802 E1446.98849
G1 X166.193 Y186.061 E1447.01646
G1 X165.677 Y186.268 E1447.03958
G1 X165.059 Y186.502 E1447.06705
G1 X164.548 Y186.687 E1447.08965
G1 X163.910 Y186.904 E1447.11766
G1 X163.394 Y187.072 E1447.14022
G1 X162.739 Y187.270 E1447.16867
G1 X162.226 Y187.419 E1447.19088
G1 X161.566 Y187.595 E1447.21928
G1 X161.048 Y187.725 E1447.24148
G1 X160.382 Y187.879 E1447.26990
G1 X159.861 Y187.992 E1447.29207
G1 X159.190 Y188.124 E1447.32050
G1 X158.668 Y188.219 E1447.34256
G1 X157.992 Y188.327 E1447.37102
G1 X157.452 Y188.407 E1447.39372
G1 X156.784 Y188.493 E1447.42172
G1 X156.257 Y188.553 E1447.44377
G1 X155.584 Y188.614 E1447.47186
G1 X155.030 Y188.659 E1447.49497
G1 X154.360 Y188.698 E1447.52287
G1 X153.827 Y188.723 E1447.54506
G1 X153.143 Y188.741 E1447.57351
G1 X152.601 Y188.748 E1447.59604
G1 X151.948 Y188.743 E1447.62319
G1 X150.488 Y188.692 E1447.68393
G1 X149.296 Y188.606 E1447.73361
G1 X148.081 Y188.478 E1447.78441
G1 X146.870 Y188.308 E1447.83525
G1 X145.667 Y188.098 E1447.88602
G1 X144.493 Y187.852 E1447.93589
G1 X143.284 Y187.557 E1447.98763
G1 X142.130 Y187.233 E1448.03746
G1 X140.965 Y186.863 E1448.08828
G1 X139.804 Y186.452 E1448.13948
G1 X138.693 Y186.015 E1448.18912
G1 X137.559 Y185.526 E1448.24046
G1 X136.460 Y185.006 E1448.29101
G1 X135.368 Y184.444 E1448.34207
G1 X134.304 Y183.851 E1448.39271
G1 X133.284 Y183.235 E1448.44225
G1 X132.241 Y182.557 E1448.49397
G1 X131.256 Y181.870 E1448.54390
G1 X130.288 Y181.145 E1448.59418
G1 X129.319 Y180.366 E1448.64587
G1 X128.403 Y179.579 E1448.69608
G1 X127.500 Y178.747 E1448.74713
G1 X126.650 Y177.909 E1448.79675
G1 X125.794 Y177.008 E1448.84842
G1 X124.985 Y176.097 E1448.89908
G1 X124.216 Y175.168 E1448.94921
G1 X123.471 Y174.208 E1448.99974
G1 X122.763 Y173.227 E1449.05003
G1 X122.072 Y172.198 E1449.10156
G1 X121.439 Y171.183 E1449.15130
G1 X120.817 Y170.109 E1449.20290
G1 X120.252 Y169.051 E1449.25276
G1 X119.715 Y167.959 E1449.30336
G1 X119.213 Y166.846 E1449.35412
G1 X118.744 Y165.705 E1449.40541
G1 X118.319 Y164.563 E1449.45607
G1 X117.941 Y163.431 E1449.50568
G1 X117.592 Y162.261 E1449.55644
G1 X117.278 Y161.062 E1449.60797
G1 X117.011 Y159.875 E1449.65856
G1 X116.783 Y158.678 E1449.70922
G1 X116.599 Y157.499 E1449.75883
G1 X116.449 Y156.265 E1449.81051
G1 X116.344 Y155.070 E1449.86038
G1 X116.277 Y153.836 E1449.91176
G1 X116.253 Y152.619 E1449.96237
G1 X116.251 Y152.431 E1449.97019
G1 X116.268 Y151.404 E1450.01289
G1 X116.324 Y150.209 E1450.06263
G1 X116.424 Y148.971 E1450.11426
G1 X116.559 Y147.785 E1450.16389
G1 X116.738 Y146.581 E1450.21450
G1 X116.957 Y145.383 E1450.26513
G1 X117.222 Y144.169 E1450.31679
G1 X117.521 Y142.988 E1450.36744
G1 X117.854 Y141.843 E1450.41702
G1 X118.232 Y140.684 E1450.46770
G1 X118.648 Y139.540 E1450.51831
G1 X119.112 Y138.387 E1450.56998
G1 X119.605 Y137.272 E1450.62067
G1 X120.123 Y136.199 E1450.67020
G1 X120.689 Y135.121 E1450.72082
G1 X121.291 Y134.062 E1450.77147
G1 X121.929 Y133.024 E1450.82212
G1 X122.615 Y131.987 E1450.87381
G1 X123.320 Y130.995 E1450.92441
G1 X124.052 Y130.037 E1450.97454
G1 X124.823 Y129.092 E1451.02524
G1 X125.615 Y128.186 E1451.07527
G1 X126.459 Y127.286 E1451.12657
G1 X127.325 Y126.420 E1451.17749
G1 X128.217 Y125.587 E1451.22823
G1 X129.116 Y124.803 E1451.27782
G1 X130.080 Y124.018 E1451.32951
G1 X131.029 Y123.295 E1451.37911
G1 X132.043 Y122.576 E1451.43079
G1 X133.060 Y121.906 E1451.48142
G1 X134.088 Y121.276 E1451.53155
G1 X135.147 Y120.675 E1451.58217
G1 X136.214 Y120.116 E1451.63225
G1 X137.327 Y119.581 E1451.68359
G1 X138.441 Y119.089 E1451.73422
G1 X139.563 Y118.639 E1451.78448
G1 X140.720 Y118.219 E1451.83566
G1 X141.860 Y117.849 E1451.88549
G1 X143.054 Y117.504 E1451.93716
