;-- START GCODE --
;Sliced for Type A Machines Series 1
;Sliced at: Mon 09-11-2020 22:19:36
;Basic settings: Layer height: 0.2 Walls: 1 Fill: 80
;Print Speed: 45 Support: 0
;Retraction Speed: 40 Retraction Distance: 0.6
;Print time: 7 minutes
;Filament used: 0.428m 1.0g
;Settings based on: Type A Machines ProMatte
G21        ;metric values
G90        ;absolute positioning
G28     ;move to endstops
G29		;allows for auto-levelling
G1 Z15.0 F12000 ;move the platform down 15mm
G1 X150 Y5 F9000 ;center
M140 S50 ;Prep Heat Bed
M109 S210 ;Heat To temp
M190 S50 ;Heat Bed to temp
G1 X150 Y5 Z0.3 ;move the platform to purge extrusion
G92 E0 ;zero the extruded length
G1 F200 X250 E30 ;extrude 30mm of feed stock
G92 E0 ;zero the extruded length again
G1 X150 Y150  Z25 F12000 ;recenter and begin
G1 F9000

;Layer count: 28
;LAYER:0
M107
G0 F9000 X143.515 Y147.312 Z0.200
;TYPE:SKIRT
G1 F1800 X146.560 Y145.555 E0.14616
G1 X147.368 Y145.090 E0.18492
G1 X148.010 Y144.720 E0.21572
G1 X148.814 Y144.255 E0.25434
G1 X149.460 Y143.883 E0.28533
G1 X150.425 Y143.323 E0.33172
G1 X152.504 Y142.125 E0.43148
G1 X155.543 Y143.883 E0.57744
G1 X156.350 Y144.349 E0.61618
G1 X156.987 Y144.718 E0.64679
G1 X157.797 Y145.185 E0.68566
G1 X158.445 Y145.560 E0.71679
G1 X159.413 Y146.116 E0.76320
G1 X160.297 Y146.629 E0.80569
G1 X162.159 Y145.555 E0.89506
G1 X162.967 Y145.090 E0.93382
G1 X163.609 Y144.720 E0.96462
G1 X164.413 Y144.255 E1.00324
G1 X165.059 Y143.883 E1.03423
G1 X166.026 Y143.322 E1.08071
G1 X168.104 Y142.125 E1.18041
G1 X171.143 Y143.883 E1.32638
G1 X171.950 Y144.349 E1.36512
G1 X172.587 Y144.718 E1.39572
G1 X173.397 Y145.185 E1.43460
G1 X174.045 Y145.560 E1.46572
G1 X175.013 Y146.116 E1.51213
G1 X177.087 Y147.320 E1.61184
G1 X177.084 Y150.829 E1.75772
G1 X177.084 Y151.759 E1.79639
G1 X177.083 Y152.505 E1.82740
G1 X177.084 Y153.431 E1.86590
G1 X177.083 Y154.179 E1.89700
G1 X177.085 Y155.291 E1.94323
G1 X177.085 Y157.688 E2.04289
G1 X174.040 Y159.445 E2.18905
G1 X173.232 Y159.910 E2.22781
G1 X172.590 Y160.280 E2.25861
G1 X171.786 Y160.745 E2.29723
G1 X171.140 Y161.117 E2.32822
G1 X170.175 Y161.677 E2.37461
G1 X168.097 Y162.874 E2.47431
G1 X164.249 Y160.651 E2.65907
G1 X163.612 Y160.282 E2.68967
G1 X162.802 Y159.815 E2.72854
G1 X162.154 Y159.440 E2.75967
G1 X161.186 Y158.884 E2.80608
G1 X160.302 Y158.371 E2.84857
G1 X158.440 Y159.445 E2.93794
G1 X157.632 Y159.910 E2.97670
G1 X156.990 Y160.280 E3.00751
G1 X156.186 Y160.745 E3.04612
G1 X155.540 Y161.117 E3.07711
G1 X154.575 Y161.677 E3.12350
G1 X152.496 Y162.875 E3.22326
G1 X149.455 Y161.116 E3.36932
G1 X148.650 Y160.651 E3.40797
G1 X148.013 Y160.282 E3.43857
G1 X147.203 Y159.815 E3.47744
G1 X146.555 Y159.440 E3.50857
G1 X145.587 Y158.884 E3.55498
G1 X143.513 Y157.680 E3.65469
G1 X143.516 Y154.171 E3.80057
G1 X143.516 Y153.241 E3.83924
G1 X143.517 Y152.495 E3.87025
G1 X143.516 Y151.569 E3.90875
G1 X143.517 Y150.821 E3.93985
G1 X143.515 Y149.709 E3.98608
G1 X143.515 Y147.312 E4.08574
G0 F9000 X144.015 Y147.601
G1 F1800 X146.810 Y145.988 E4.21990
G1 X147.618 Y145.523 E4.25866
G1 X148.260 Y145.153 E4.28947
G1 X149.064 Y144.688 E4.32808
G1 X149.702 Y144.320 E4.35870
G1 X150.675 Y143.755 E4.40548
G1 X152.504 Y142.703 E4.49320
G1 X155.293 Y144.316 E4.62715
G1 X156.099 Y144.782 E4.66586
G1 X156.737 Y145.151 E4.69650
G1 X157.547 Y145.618 E4.73537
G1 X158.185 Y145.987 E4.76601
G1 X159.163 Y146.549 E4.81291
G1 X160.296 Y147.207 E4.86738
G1 X162.409 Y145.988 E4.96880
G1 X163.217 Y145.523 E5.00756
G1 X163.859 Y145.153 E5.03837
G1 X164.663 Y144.688 E5.07698
G1 X165.309 Y144.316 E5.10797
G1 X166.276 Y143.755 E5.15445
G1 X168.104 Y142.703 E5.24214
G1 X170.893 Y144.316 E5.37609
G1 X171.699 Y144.782 E5.41479
G1 X172.337 Y145.151 E5.44544
G1 X173.147 Y145.618 E5.48431
G1 X173.785 Y145.987 E5.51495
G1 X174.763 Y146.549 E5.56185
G1 X176.586 Y147.608 E5.64950
G1 X176.584 Y150.828 E5.78337
G1 X176.584 Y151.758 E5.82203
G1 X176.583 Y152.504 E5.85305
G1 X176.584 Y153.430 E5.89155
G1 X176.583 Y154.178 E5.92265
G1 X176.585 Y155.291 E5.96892
G1 X176.585 Y157.399 E6.05656
G1 X173.790 Y159.012 E6.19072
G1 X172.982 Y159.477 E6.22948
G1 X172.340 Y159.847 E6.26029
G1 X171.536 Y160.312 E6.29890
G1 X170.898 Y160.680 E6.32953
G1 X169.925 Y161.245 E6.37630
G1 X168.097 Y162.297 E6.46399
G1 X164.499 Y160.218 E6.63675
G1 X163.862 Y159.849 E6.66736
G1 X163.052 Y159.382 E6.70623
G1 X162.414 Y159.013 E6.73687
G1 X161.436 Y158.451 E6.78377
G1 X160.303 Y157.793 E6.83824
G1 X158.190 Y159.012 E6.93966
G1 X157.382 Y159.477 E6.97842
G1 X156.740 Y159.847 E7.00923
G1 X155.936 Y160.312 E7.04784
G1 X155.298 Y160.680 E7.07846
G1 X154.325 Y161.245 E7.12524
G1 X152.496 Y162.297 E7.21296
G1 X149.707 Y160.684 E7.34691
G1 X148.901 Y160.218 E7.38562
G1 X148.263 Y159.849 E7.41626
G1 X147.453 Y159.382 E7.45513
G1 X146.815 Y159.013 E7.48577
G1 X145.837 Y158.451 E7.53267
G1 X144.014 Y157.392 E7.62032
G1 X144.016 Y154.172 E7.75419
G1 X144.016 Y153.242 E7.79286
G1 X144.017 Y152.496 E7.82387
G1 X144.016 Y151.570 E7.86237
G1 X144.017 Y150.822 E7.89347
G1 X144.015 Y149.709 E7.93974
G1 X144.015 Y147.601 E8.02738
G1 F2400 E7.42738
G1 Z0.700
G0 F9000 X148.017 Y150.826
;TYPE:WALL-INNER
G1 Z0.200
G1 F2400 E8.02738
G1 F1800 X148.015 Y149.911 E8.06542
G1 X151.710 Y147.780 E8.24276
G1 X152.500 Y147.322 E8.28073
G1 X154.741 Y148.618 E8.38835
G1 X155.546 Y149.081 E8.42696
G1 X156.191 Y149.455 E8.45796
G1 X156.985 Y149.911 E8.49603
G1 X156.983 Y152.500 E8.60367
G1 X156.984 Y153.429 E8.64229
G1 X156.983 Y154.174 E8.67326
G1 X156.985 Y155.089 E8.71131
G1 X153.290 Y157.220 E8.88864
G1 X152.500 Y157.678 E8.92661
G1 X150.259 Y156.382 E9.03424
G1 X149.452 Y155.918 E9.07294
G1 X148.809 Y155.545 E9.10384
G1 X148.015 Y155.089 E9.14191
G1 X148.017 Y152.500 E9.24955
G1 X148.016 Y151.571 E9.28817
G1 X148.017 Y150.826 E9.31914
G1 F2400 E8.71914
G1 Z0.700
G0 F9000 X149.830 Y151.830
G1 Z0.200
G1 F2400 E9.31914
G1 F1800 X149.759 Y152.254 E9.33702
G1 X149.750 Y152.556 E9.34958
G1 X149.789 Y152.966 E9.36670
G1 X149.896 Y153.397 E9.38517
G1 X150.194 Y154.007 E9.41339
G1 X150.554 Y154.447 E9.43703
G1 X150.892 Y154.733 E9.45543
G1 X151.365 Y155.008 E9.47818
G1 X151.775 Y155.155 E9.49629
G1 X152.181 Y155.233 E9.51348
G1 X152.483 Y155.252 E9.52606
G1 X152.916 Y155.222 E9.54410
G1 X153.579 Y155.036 E9.57273
G1 X154.182 Y154.682 E9.60180
G1 X154.602 Y154.279 E9.62600
G1 X154.963 Y153.735 E9.65315
G1 X155.170 Y153.170 E9.67816
G1 X155.239 Y152.757 E9.69557
G1 X155.251 Y152.565 E9.70357
G1 X155.213 Y152.043 E9.72533
G1 X155.105 Y151.607 E9.74400
G1 X154.828 Y151.025 E9.77080
G1 X154.448 Y150.554 E9.79596
G1 X154.108 Y150.267 E9.81446
G1 X153.635 Y149.992 E9.83721
G1 X153.225 Y149.845 E9.85532
G1 X152.819 Y149.767 E9.87250
G1 X152.517 Y149.748 E9.88508
G1 X152.084 Y149.778 E9.90313
G1 X151.421 Y149.964 E9.93176
G1 X150.818 Y150.318 E9.96083
G1 X150.398 Y150.721 E9.98503
G1 X150.037 Y151.265 E10.01217
G1 X149.830 Y151.830 E10.03719
G0 F9000 X150.258 Y152.303
;TYPE:WALL-OUTER
G1 F1800 X150.251 Y152.540 E10.04705
G1 X150.283 Y152.881 E10.06129
G1 X150.369 Y153.225 E10.07603
G1 X150.618 Y153.736 E10.09966
G1 X150.912 Y154.095 E10.11895
G1 X151.181 Y154.323 E10.13361
G1 X151.576 Y154.553 E10.15262
G1 X151.907 Y154.671 E10.16723
G1 X152.244 Y154.736 E10.18150
G1 X152.482 Y154.751 E10.19141
G1 X152.831 Y154.727 E10.20595
G1 X153.382 Y154.572 E10.22975
G1 X153.878 Y154.281 E10.25366
G1 X154.216 Y153.956 E10.27315
G1 X154.514 Y153.508 E10.29552
G1 X154.685 Y153.041 E10.31620
G1 X154.742 Y152.701 E10.33053
G1 X154.750 Y152.568 E10.33607
G1 X154.718 Y152.122 E10.35466
G1 X154.632 Y151.776 E10.36949
G1 X154.402 Y151.293 E10.39173
G1 X154.089 Y150.905 E10.41245
G1 X153.819 Y150.677 E10.42714
G1 X153.424 Y150.447 E10.44615
G1 X153.093 Y150.329 E10.46076
G1 X152.756 Y150.264 E10.47503
G1 X152.518 Y150.249 E10.48494
G1 X152.169 Y150.273 E10.49949
G1 X151.618 Y150.428 E10.52328
G1 X151.122 Y150.719 E10.54719
G1 X150.784 Y151.044 E10.56669
G1 X150.486 Y151.492 E10.58906
G1 X150.315 Y151.959 E10.60973
G1 X150.258 Y152.303 E10.62423
G1 F2400 E10.02423
G1 Z0.700
G0 F9000 X147.515 Y149.623
G1 Z0.200
G1 F2400 E10.62423
G1 F1800 X152.501 Y146.744 E10.86360
G1 X157.485 Y149.622 E11.10287
G1 X157.485 Y155.377 E11.34214
G1 X152.499 Y158.256 E11.58151
G1 X147.515 Y155.378 E11.82078
G1 X147.515 Y149.623 E12.06005
G0 F9000 X148.225 Y149.992
;TYPE:SKIN
G1 F1800 X149.756 Y151.523 E12.15007
G0 F9000 X149.977 Y151.038
G1 F1800 X148.673 Y149.734 E12.22674
G0 F9000 X149.121 Y149.475
G1 F1800 X150.260 Y150.613 E12.29368
G0 F9000 X150.618 Y150.265
G1 F1800 X149.570 Y149.216 E12.35532
G0 F9000 X150.018 Y148.957
G1 F1800 X151.042 Y149.982 E12.41556
G0 F9000 X151.520 Y149.753
G1 F1800 X150.466 Y148.698 E12.47756
G0 F9000 X150.914 Y148.440
G1 F1800 X152.077 Y149.602 E12.54591
G0 F9000 X152.770 Y149.588
G1 F1800 X151.363 Y148.181 E12.62864
G0 F9000 X151.810 Y147.921
G1 F1800 X153.741 Y149.852 E12.74217
G1 F2400 E12.14217
G1 Z0.700
G0 F9000 X154.947 Y148.937
G1 Z0.200
G1 F2400 E12.74217
G1 F1800 X156.809 Y150.799 E12.85165
G0 F9000 X156.809 Y151.506
G1 F1800 X153.273 Y147.970 E13.05956
G0 F9000 X152.259 Y147.662
G1 F1800 X156.809 Y152.213 E13.32711
G0 F9000 X156.809 Y152.920
G1 F1800 X155.118 Y151.229 E13.42653
G0 F9000 X155.400 Y152.218
G1 F1800 X156.809 Y153.627 E13.50938
G0 F9000 X156.809 Y154.334
G1 F1800 X155.388 Y152.913 E13.59292
G0 F9000 X155.243 Y153.476
G1 F1800 X156.774 Y155.006 E13.68291
G0 F9000 X156.325 Y155.265
G1 F1800 X155.021 Y153.961 E13.75958
G0 F9000 X154.739 Y154.385
G1 F1800 X155.877 Y155.523 E13.82649
G0 F9000 X155.429 Y155.782
G1 F1800 X154.380 Y154.734 E13.88814
G0 F9000 X153.956 Y155.016
G1 F1800 X154.980 Y156.041 E13.94838
G0 F9000 X154.532 Y156.300
G1 F1800 X153.478 Y155.246 E14.01035
G0 F9000 X152.921 Y155.396
G1 F1800 X154.084 Y156.559 E14.07873
G0 F9000 X153.635 Y156.817
G1 F1800 X152.228 Y155.410 E14.16145
G0 F9000 X151.257 Y155.147
G1 F1800 X153.188 Y157.077 E14.27496
G0 F9000 X152.740 Y157.336
G1 F1800 X148.189 Y152.785 E14.54254
G0 F9000 X148.189 Y152.078
G1 F1800 X149.886 Y153.775 E14.64232
G0 F9000 X149.596 Y152.778
G1 F1800 X148.189 Y151.371 E14.72504
G0 F9000 X148.189 Y150.664
G1 F1800 X149.610 Y152.085 E14.80859
G1 F2400 E14.20859
G1 Z0.700
G0 F9000 X148.189 Y153.493
G1 Z0.200
G1 F2400 E14.80859
G1 F1800 X151.725 Y157.028 E15.01647
G1 F2400 E14.41647
G1 Z0.700
G0 F9000 X150.051 Y156.062
G1 Z0.200
G1 F2400 E15.01647
G1 F1800 X148.189 Y154.200 E15.12595
G0 F9000 X148.189 Y154.907
G1 F1800 X148.377 Y155.095 E15.13700
G1 F2400 E14.53700
G1 Z0.700
G0 F9000 X156.621 Y149.903
G1 Z0.200
G1 F2400 E15.13700
G1 F1800 X156.809 Y150.091 E15.14805
G0 F9000 X163.616 Y150.826
;TYPE:WALL-INNER
G1 F1800 X163.614 Y149.911 E15.18610
G1 X167.309 Y147.780 E15.36343
G1 X168.100 Y147.321 E15.40145
G1 X170.341 Y148.618 E15.50910
G1 X171.146 Y149.081 E15.54771
G1 X171.791 Y149.455 E15.57871
G1 X172.585 Y149.911 E15.61678
G1 X172.583 Y152.500 E15.72442
G1 X172.584 Y153.429 E15.76304
G1 X172.583 Y154.174 E15.79401
G1 X172.585 Y155.089 E15.83205
G1 X168.890 Y157.220 E16.00939
G1 X168.099 Y157.679 E16.04741
G1 X165.858 Y156.382 E16.15506
G1 X165.051 Y155.918 E16.19376
G1 X164.408 Y155.545 E16.22467
G1 X163.614 Y155.089 E16.26274
G1 X163.616 Y152.500 E16.37037
G1 X163.615 Y151.571 E16.40900
G1 X163.616 Y150.826 E16.43997
G1 F2400 E15.83997
G1 Z0.700
G0 F9000 X165.429 Y151.830
G1 Z0.200
G1 F2400 E16.43997
G1 F1800 X165.358 Y152.254 E16.45784
G1 X165.349 Y152.556 E16.47041
G1 X165.388 Y152.966 E16.48753
G1 X165.495 Y153.397 E16.50599
G1 X165.793 Y154.007 E16.53422
G1 X166.153 Y154.447 E16.55785
G1 X166.491 Y154.733 E16.57626
G1 X166.964 Y155.008 E16.59901
G1 X167.374 Y155.155 E16.61712
G1 X167.781 Y155.233 E16.63434
G1 X168.083 Y155.252 E16.64693
G1 X168.516 Y155.222 E16.66497
G1 X169.179 Y155.036 E16.69360
G1 X169.782 Y154.682 E16.72267
G1 X170.202 Y154.279 E16.74687
G1 X170.563 Y153.735 E16.77401
G1 X170.770 Y153.170 E16.79903
G1 X170.839 Y152.757 E16.81644
G1 X170.851 Y152.565 E16.82444
G1 X170.813 Y152.043 E16.84620
G1 X170.705 Y151.607 E16.86487
G1 X170.428 Y151.025 E16.89167
G1 X170.048 Y150.554 E16.91683
G1 X169.708 Y150.267 E16.93533
G1 X169.235 Y149.992 E16.95807
G1 X168.825 Y149.845 E16.97618
G1 X168.418 Y149.767 E16.99341
G1 X168.116 Y149.748 E17.00599
G1 X167.683 Y149.778 E17.02404
G1 X167.020 Y149.964 E17.05267
G1 X166.417 Y150.318 E17.08174
G1 X165.997 Y150.721 E17.10594
G1 X165.636 Y151.265 E17.13308
G1 X165.429 Y151.830 E17.15810
G0 F9000 X165.857 Y152.303
;TYPE:WALL-OUTER
G1 F1800 X165.850 Y152.540 E17.16795
G1 X165.882 Y152.881 E17.18219
G1 X165.968 Y153.225 E17.19694
G1 X166.217 Y153.736 E17.22057
G1 X166.511 Y154.095 E17.23986
G1 X166.780 Y154.323 E17.25452
G1 X167.175 Y154.553 E17.27352
G1 X167.506 Y154.671 E17.28813
G1 X167.844 Y154.736 E17.30244
G1 X168.082 Y154.751 E17.31236
G1 X168.431 Y154.727 E17.32690
G1 X168.982 Y154.572 E17.35070
G1 X169.478 Y154.281 E17.37461
G1 X169.816 Y153.956 E17.39410
G1 X170.114 Y153.508 E17.41647
G1 X170.285 Y153.041 E17.43715
G1 X170.342 Y152.701 E17.45148
G1 X170.350 Y152.568 E17.45702
G1 X170.318 Y152.122 E17.47561
G1 X170.232 Y151.776 E17.49043
G1 X170.002 Y151.293 E17.51268
G1 X169.689 Y150.905 E17.53340
G1 X169.419 Y150.677 E17.54809
G1 X169.024 Y150.447 E17.56710
G1 X168.693 Y150.329 E17.58171
G1 X168.355 Y150.264 E17.59602
G1 X168.117 Y150.249 E17.60593
G1 X167.768 Y150.273 E17.62047
G1 X167.217 Y150.428 E17.64427
G1 X166.721 Y150.719 E17.66818
G1 X166.383 Y151.044 E17.68767
G1 X166.085 Y151.492 E17.71004
G1 X165.914 Y151.959 E17.73072
G1 X165.857 Y152.303 E17.74522
G1 F2400 E17.14522
G1 Z0.700
G0 F9000 X163.114 Y149.623
G1 Z0.200
G1 F2400 E17.74522
G1 F1800 X168.101 Y146.744 E17.98462
G1 X173.085 Y149.622 E18.22390
G1 X173.085 Y155.377 E18.46316
G1 X168.099 Y158.256 E18.70253
G1 X163.114 Y155.378 E18.94185
G1 X163.114 Y149.623 E19.18111
G0 F9000 X163.797 Y150.008
;TYPE:SKIN
G1 F1800 X165.342 Y151.554 E19.27198
G0 F9000 X165.559 Y151.063
G1 F1800 X164.245 Y149.749 E19.34924
G0 F9000 X164.693 Y149.490
G1 F1800 X165.841 Y150.639 E19.41677
G0 F9000 X166.195 Y150.285
G1 F1800 X165.141 Y149.232 E19.47871
G0 F9000 X165.590 Y148.973
G1 F1800 X166.614 Y149.997 E19.53892
G0 F9000 X167.086 Y149.762
G1 F1800 X166.037 Y148.713 E19.60059
G0 F9000 X166.486 Y148.454
G1 F1800 X167.638 Y149.607 E19.66836
G0 F9000 X168.323 Y149.584
G1 F1800 X166.934 Y148.196 E19.74999
G0 F9000 X167.382 Y147.937
G1 F1800 X169.261 Y149.816 E19.86047
G1 F2400 E19.26047
G1 Z0.700
G0 F9000 X170.443 Y148.877
G1 Z0.200
G1 F2400 E19.86047
G1 F1800 X172.408 Y150.842 E19.97601
G0 F9000 X172.408 Y151.549
G1 F1800 X168.770 Y147.910 E20.18994
G0 F9000 X167.831 Y147.678
G1 F1800 X172.408 Y152.256 E20.45908
G0 F9000 X172.408 Y152.963
G1 F1800 X170.758 Y151.313 E20.55609
G0 F9000 X171.004 Y152.266
G1 F1800 X172.408 Y153.670 E20.63864
G0 F9000 X172.408 Y154.377
G1 F1800 X170.982 Y152.951 E20.72248
G0 F9000 X170.831 Y153.507
G1 F1800 X172.346 Y155.022 E20.81156
G0 F9000 X171.898 Y155.281
G1 F1800 X170.604 Y153.987 E20.88764
G0 F9000 X170.318 Y154.408
G1 F1800 X171.450 Y155.540 E20.95420
G0 F9000 X171.001 Y155.798
G1 F1800 X169.958 Y154.755 E21.01552
G0 F9000 X169.528 Y155.033
G1 F1800 X170.553 Y156.057 E21.07576
G0 F9000 X170.105 Y156.316
G1 F1800 X169.044 Y155.255 E21.13814
G0 F9000 X168.481 Y155.400
G1 F1800 X169.657 Y156.576 E21.20729
G0 F9000 X169.209 Y156.834
G1 F1800 X167.783 Y155.409 E21.29110
G0 F9000 X166.757 Y155.090
G1 F1800 X168.760 Y157.093 E21.40887
G0 F9000 X168.312 Y157.352
G1 F1800 X163.788 Y152.828 E21.67486
G0 F9000 X163.788 Y153.535
G1 F1800 X167.226 Y156.973 E21.87700
G1 F2400 E21.27700
G1 Z0.700
G0 F9000 X165.552 Y156.006
G1 Z0.200
G1 F2400 E21.87700
G1 F1800 X163.788 Y154.242 E21.98072
G0 F9000 X163.788 Y154.949
G1 F1800 X163.878 Y155.039 E21.98601
G1 F2400 E21.38601
G1 Z0.700
G0 F9000 X165.524 Y153.857
G1 Z0.200
G1 F2400 E21.98601
G1 F1800 X163.788 Y152.121 E22.08808
G0 F9000 X163.788 Y151.414
G1 F1800 X165.198 Y152.824 E22.17098
G0 F9000 X165.202 Y152.121
G1 F1800 X163.788 Y150.707 E22.25412
G1 F2400 E21.65412
G1 Z0.700
G0 F9000 X172.118 Y149.844
G1 Z0.200
G1 F2400 E22.25412
G1 F1800 X172.408 Y150.135 E22.27120
;LAYER:1
M106 S10
G0 F9000 X157.264 Y149.749 Z0.400
;TYPE:WALL-INNER
G1 F1980 X157.263 Y154.174 E22.45517
G1 X157.265 Y155.249 E22.49987
G1 X156.331 Y155.788 E22.54470
G1 X155.782 Y156.104 E22.57104
G1 X153.430 Y157.462 E22.68395
G1 X152.500 Y158.001 E22.72864
G1 X150.118 Y156.624 E22.84303
G1 X149.568 Y156.308 E22.86940
G1 X148.669 Y155.787 E22.91260
G1 X147.736 Y155.251 E22.95733
G1 X147.735 Y154.039 E23.00772
G1 X147.894 Y153.664 E23.02466
G1 X148.036 Y153.151 E23.04679
G1 X148.093 Y152.742 E23.06395
G1 X148.102 Y152.498 E23.07411
G1 X148.040 Y151.859 E23.10080
G1 X147.855 Y151.226 E23.12822
G1 X147.736 Y150.955 E23.14052
G1 X147.735 Y150.750 E23.14904
G1 X147.736 Y149.751 E23.19058
G1 X148.669 Y149.212 E23.23537
G1 X149.218 Y148.896 E23.26171
G1 X151.570 Y147.538 E23.37462
G1 X152.500 Y146.999 E23.41931
G1 X154.882 Y148.376 E23.53370
G1 X155.430 Y148.691 E23.55998
G1 X156.331 Y149.213 E23.60327
G1 X157.264 Y149.749 E23.64801
G1 F2400 E23.04801
G1 Z0.900
G0 F9000 X154.834 Y151.369
G1 Z0.400
G1 F2400 E23.64801
G1 F1980 X154.673 Y151.079 E23.66180
G1 X154.213 Y150.547 E23.69104
G1 X153.743 Y150.225 E23.71472
G1 X153.520 Y150.117 E23.72503
G1 X153.213 Y150.007 E23.73858
G1 X152.765 Y149.920 E23.75756
G1 X152.428 Y149.908 E23.77158
G1 X152.011 Y149.950 E23.78900
G1 X151.342 Y150.176 E23.81836
G1 X150.880 Y150.472 E23.84117
G1 X150.511 Y150.836 E23.86272
G1 X150.308 Y151.113 E23.87700
G1 X150.068 Y151.603 E23.89968
G1 X149.962 Y151.966 E23.91540
G1 X149.915 Y152.301 E23.92947
G1 X149.907 Y152.525 E23.93879
G1 X149.960 Y153.040 E23.96031
G1 X150.173 Y153.652 E23.98725
G1 X150.462 Y154.107 E24.00966
G1 X150.802 Y154.463 E24.03013
G1 X151.257 Y154.775 E24.05307
G1 X151.480 Y154.883 E24.06337
G1 X151.787 Y154.993 E24.07693
G1 X152.235 Y155.080 E24.09590
G1 X152.572 Y155.092 E24.10992
G1 X152.989 Y155.050 E24.12734
G1 X153.658 Y154.824 E24.15670
G1 X154.120 Y154.528 E24.17951
G1 X154.489 Y154.164 E24.20106
G1 X154.692 Y153.887 E24.21534
G1 X154.932 Y153.397 E24.23802
G1 X155.038 Y153.034 E24.25375
G1 X155.085 Y152.699 E24.26781
G1 X155.093 Y152.475 E24.27713
G1 X155.040 Y151.960 E24.29865
G1 X154.834 Y151.369 E24.32467
G0 F9000 X154.376 Y151.574
;TYPE:WALL-OUTER
G1 F1980 X154.261 Y151.367 E24.33452
G1 X153.877 Y150.923 E24.35893
G1 X153.491 Y150.658 E24.37839
G1 X153.326 Y150.578 E24.38601
G1 X153.080 Y150.490 E24.39688
G1 X152.708 Y150.418 E24.41263
G1 X152.445 Y150.409 E24.42357
G1 X152.118 Y150.442 E24.43723
G1 X151.560 Y150.630 E24.46171
G1 X151.194 Y150.865 E24.47980
G1 X150.891 Y151.163 E24.49747
G1 X150.733 Y151.379 E24.50859
G1 X150.541 Y151.768 E24.52663
G1 X150.452 Y152.071 E24.53976
G1 X150.414 Y152.345 E24.55126
G1 X150.408 Y152.508 E24.55804
G1 X150.451 Y152.931 E24.57572
G1 X150.626 Y153.433 E24.59782
G1 X150.858 Y153.798 E24.61580
G1 X151.128 Y154.080 E24.63203
G1 X151.509 Y154.342 E24.65126
G1 X151.674 Y154.422 E24.65888
G1 X151.920 Y154.510 E24.66974
G1 X152.292 Y154.582 E24.68549
G1 X152.555 Y154.591 E24.69644
G1 X152.882 Y154.558 E24.71010
G1 X153.440 Y154.370 E24.73458
G1 X153.806 Y154.135 E24.75266
G1 X154.109 Y153.837 E24.77033
G1 X154.267 Y153.621 E24.78146
G1 X154.459 Y153.232 E24.79949
G1 X154.548 Y152.929 E24.81262
G1 X154.586 Y152.655 E24.82412
G1 X154.592 Y152.492 E24.83091
G1 X154.549 Y152.069 E24.84858
G1 X154.376 Y151.574 E24.87038
G1 F2400 E24.27038
G1 Z0.900
G0 F9000 X157.764 Y149.461
G1 Z0.400
G1 F2400 E24.87038
G1 F1980 X157.764 Y155.538 E25.12303
G1 X152.499 Y158.578 E25.37580
G1 X147.236 Y155.539 E25.62846
G1 X147.235 Y153.937 E25.69507
G1 X147.421 Y153.499 E25.71485
G1 X147.545 Y153.049 E25.73426
G1 X147.594 Y152.698 E25.74899
G1 X147.601 Y152.513 E25.75669
G1 X147.547 Y151.954 E25.78004
G1 X147.384 Y151.397 E25.80417
G1 X147.236 Y151.061 E25.81943
G1 X147.236 Y149.462 E25.88591
G1 X152.501 Y146.422 E26.13867
G1 X157.764 Y149.461 E26.39134
G0 F9000 X157.088 Y150.149
;TYPE:SKIN
G1 F1980 X155.221 Y152.016 E26.50111
G0 F9000 X155.055 Y151.475
G1 F1980 X156.829 Y149.700 E26.60545
G0 F9000 X156.381 Y149.442
G1 F1980 X154.826 Y150.996 E26.69684
G0 F9000 X154.502 Y150.614
G1 F1980 X155.934 Y149.182 E26.78104
G0 F9000 X155.485 Y148.923
G1 F1980 X154.130 Y150.279 E26.86074
G0 F9000 X153.693 Y150.008
G1 F1980 X155.037 Y148.664 E26.93976
G0 F9000 X154.589 Y148.406
G1 F1980 X153.173 Y149.821 E27.02299
G0 F9000 X152.549 Y149.738
G1 F1980 X154.140 Y148.147 E27.11653
G0 F9000 X153.692 Y147.888
G1 F1980 X151.716 Y149.864 E27.23271
G1 F2400 E26.63271
G1 Z0.900
G0 F9000 X150.257 Y148.495
G1 Z0.400
G1 F2400 E27.23271
G1 F1980 X147.911 Y150.841 E27.37065
G0 F9000 X148.082 Y151.377
G1 F1980 X151.933 Y147.526 E27.59707
G0 F9000 X152.795 Y147.370
G1 F1980 X148.225 Y151.941 E27.86580
G0 F9000 X148.273 Y152.600
G1 F1980 X153.244 Y147.629 E28.15808
G1 F2400 E27.55808
G1 Z0.900
G0 F9000 X148.581 Y149.463
G1 Z0.400
G1 F2400 E28.15808
G1 F1980 X147.911 Y150.134 E28.19750
G1 F2400 E27.59750
G1 Z0.900
G0 F9000 X149.847 Y151.733
G1 Z0.400
G1 F2400 E28.19750
G1 F1980 X148.137 Y153.443 E28.29804
G0 F9000 X147.910 Y154.377
G1 F1980 X149.734 Y152.553 E28.40528
G0 F9000 X149.820 Y153.174
G1 F1980 X147.911 Y155.084 E28.51756
G0 F9000 X148.317 Y155.384
G1 F1980 X150.003 Y153.698 E28.61669
G0 F9000 X150.272 Y154.137
G1 F1980 X148.766 Y155.643 E28.70523
G0 F9000 X149.214 Y155.902
G1 F1980 X150.605 Y154.511 E28.78702
G0 F9000 X151.008 Y154.815
G1 F1980 X149.662 Y156.160 E28.86613
G0 F9000 X150.110 Y156.419
G1 F1980 X151.467 Y155.062 E28.94592
G0 F9000 X152.022 Y155.215
G1 F1980 X150.559 Y156.678 E29.03193
G0 F9000 X151.007 Y156.937
G1 F1980 X152.690 Y155.254 E29.13089
G0 F9000 X153.636 Y155.015
G1 F1980 X151.455 Y157.196 E29.25912
G0 F9000 X151.904 Y157.455
G1 F1980 X157.088 Y152.271 E29.56392
G0 F9000 X157.088 Y152.978
G1 F1980 X152.352 Y157.713 E29.84235
G0 F9000 X153.626 Y157.146
G1 F1980 X157.088 Y153.685 E30.04587
G0 F9000 X157.088 Y154.392
G1 F1980 X155.300 Y156.180 E30.15100
G1 F2400 E29.55100
G1 Z0.900
G0 F9000 X156.974 Y155.212
G1 Z0.400
G1 F2400 E30.15100
G1 F1980 X157.088 Y155.099 E30.15768
G0 F9000 X155.004 Y153.647
G1 F1980 X157.088 Y151.564 E30.28018
G0 F9000 X157.088 Y150.856
G1 F1980 X155.259 Y152.685 E30.38772
G1 F2400 E29.78772
G1 Z0.900
G0 F9000 X163.494 Y153.660
;TYPE:WALL-INNER
G1 Z0.400
G1 F2400 E30.38772
G1 F1980 X163.649 Y153.077 E30.41280
G1 X163.693 Y152.735 E30.42713
G1 X163.701 Y152.448 E30.43907
G1 X163.621 Y151.775 E30.46725
G1 X163.414 Y151.129 E30.49545
G1 X163.335 Y150.952 E30.50351
G1 X163.334 Y150.750 E30.51190
G1 X163.335 Y149.751 E30.55344
G1 X164.268 Y149.212 E30.59824
G1 X164.817 Y148.896 E30.62457
G1 X168.100 Y146.999 E30.78221
G1 X170.482 Y148.376 E30.89660
G1 X171.030 Y148.691 E30.92288
G1 X171.931 Y149.213 E30.96617
G1 X172.864 Y149.749 E31.01091
G1 X172.863 Y154.174 E31.19488
G1 X172.865 Y155.249 E31.23957
G1 X171.931 Y155.788 E31.28440
G1 X171.382 Y156.104 E31.31074
G1 X169.030 Y157.462 E31.42365
G1 X168.100 Y158.001 E31.46834
G1 X165.717 Y156.624 E31.58277
G1 X165.167 Y156.308 E31.60914
G1 X164.268 Y155.787 E31.65234
G1 X163.335 Y155.251 E31.69707
G1 X163.334 Y154.039 E31.74746
G1 X163.494 Y153.660 E31.76456
G1 F2400 E31.16456
G1 Z0.900
G0 F9000 X165.559 Y153.040
G1 Z0.400
G1 F2400 E31.76456
G1 F1980 X165.772 Y153.652 E31.79150
G1 X166.061 Y154.107 E31.81391
G1 X166.401 Y154.463 E31.83438
G1 X166.856 Y154.775 E31.85732
G1 X167.079 Y154.883 E31.86762
G1 X167.386 Y154.993 E31.88118
G1 X167.834 Y155.080 E31.90015
G1 X168.172 Y155.092 E31.91421
G1 X168.589 Y155.050 E31.93164
G1 X169.258 Y154.824 E31.96100
G1 X169.720 Y154.528 E31.98381
G1 X170.089 Y154.164 E32.00536
G1 X170.292 Y153.887 E32.01963
G1 X170.532 Y153.397 E32.04232
G1 X170.638 Y153.034 E32.05804
G1 X170.685 Y152.699 E32.07210
G1 X170.693 Y152.475 E32.08142
G1 X170.640 Y151.960 E32.10295
G1 X170.434 Y151.369 E32.12897
G1 X170.273 Y151.079 E32.14276
G1 X169.813 Y150.547 E32.17200
G1 X169.343 Y150.225 E32.19568
G1 X169.120 Y150.117 E32.20599
G1 X168.813 Y150.007 E32.21954
G1 X168.365 Y149.920 E32.23852
G1 X168.027 Y149.908 E32.25258
G1 X167.610 Y149.950 E32.27000
G1 X166.941 Y150.176 E32.29936
G1 X166.479 Y150.472 E32.32217
G1 X166.110 Y150.836 E32.34372
G1 X165.907 Y151.113 E32.35800
G1 X165.667 Y151.603 E32.38068
G1 X165.561 Y151.966 E32.39641
G1 X165.514 Y152.301 E32.41047
G1 X165.506 Y152.525 E32.41979
G1 X165.559 Y153.040 E32.44131
G0 F9000 X166.007 Y152.508
;TYPE:WALL-OUTER
G1 F1980 X166.050 Y152.931 E32.45899
G1 X166.225 Y153.433 E32.48109
G1 X166.457 Y153.798 E32.49907
G1 X166.727 Y154.080 E32.51531
G1 X167.108 Y154.342 E32.53453
G1 X167.273 Y154.422 E32.54215
G1 X167.519 Y154.510 E32.55302
G1 X167.891 Y154.582 E32.56877
G1 X168.155 Y154.591 E32.57975
G1 X168.482 Y154.558 E32.59341
G1 X169.040 Y154.370 E32.61790
G1 X169.406 Y154.135 E32.63598
G1 X169.709 Y153.837 E32.65365
G1 X169.867 Y153.621 E32.66477
G1 X170.059 Y153.232 E32.68281
G1 X170.148 Y152.929 E32.69594
G1 X170.186 Y152.655 E32.70744
G1 X170.192 Y152.492 E32.71422
G1 X170.149 Y152.069 E32.73190
G1 X169.976 Y151.574 E32.75370
G1 X169.861 Y151.367 E32.76354
G1 X169.477 Y150.923 E32.78795
G1 X169.091 Y150.658 E32.80741
G1 X168.926 Y150.578 E32.81504
G1 X168.680 Y150.490 E32.82590
G1 X168.308 Y150.418 E32.84165
G1 X168.044 Y150.409 E32.85264
G1 X167.717 Y150.442 E32.86630
G1 X167.159 Y150.630 E32.89078
G1 X166.793 Y150.865 E32.90886
G1 X166.490 Y151.163 E32.92653
G1 X166.332 Y151.379 E32.93766
G1 X166.140 Y151.768 E32.95569
G1 X166.051 Y152.071 E32.96882
G1 X166.013 Y152.345 E32.98032
G1 X166.007 Y152.508 E32.98710
G1 F2400 E32.38710
G1 Z0.900
G0 F9000 X163.200 Y152.470
G1 Z0.400
G1 F2400 E32.98710
G1 F1980 X163.130 Y151.882 E33.01172
G1 X162.947 Y151.308 E33.03677
G1 X162.835 Y151.060 E33.04808
G1 X162.835 Y149.462 E33.11452
G1 X168.101 Y146.422 E33.36732
G1 X173.364 Y149.461 E33.61999
G1 X173.364 Y155.538 E33.87264
G1 X168.099 Y158.578 E34.12540
G1 X162.835 Y155.539 E34.37811
G1 X162.834 Y153.937 E34.44471
G1 X163.020 Y153.498 E34.46453
G1 X163.157 Y152.981 E34.48677
G1 X163.194 Y152.696 E34.49872
G1 X163.200 Y152.470 E34.50812
G0 F9000 X163.872 Y152.557
;TYPE:SKIN
G1 F1980 X168.816 Y147.613 E34.79880
G0 F9000 X168.368 Y147.354
G1 F1980 X163.813 Y151.909 E35.06662
G0 F9000 X163.668 Y151.347
G1 F1980 X167.429 Y147.586 E35.28775
G1 F2400 E34.68775
G1 Z0.900
G0 F9000 X169.265 Y147.872
G1 Z0.400
G1 F2400 E35.28775
G1 F1980 X167.251 Y149.885 E35.40614
G0 F9000 X168.107 Y149.736
G1 F1980 X169.713 Y148.131 E35.50054
G0 F9000 X170.161 Y148.390
G1 F1980 X168.736 Y149.814 E35.58429
G0 F9000 X169.264 Y149.994
G1 F1980 X170.609 Y148.649 E35.66337
G0 F9000 X171.057 Y148.908
G1 F1980 X169.704 Y150.261 E35.74292
G0 F9000 X170.082 Y150.590
G1 F1980 X171.505 Y149.167 E35.82659
G0 F9000 X171.954 Y149.425
G1 F1980 X170.409 Y150.970 E35.91743
G0 F9000 X170.644 Y151.442
G1 F1980 X172.402 Y149.684 E36.02079
G0 F9000 X172.688 Y150.106
G1 F1980 X170.817 Y151.977 E36.13080
G0 F9000 X170.861 Y152.639
G1 F1980 X172.688 Y150.813 E36.23819
G0 F9000 X172.688 Y151.520
G1 F1980 X170.645 Y153.563 E36.35831
G1 F2400 E35.75831
G1 Z0.900
G0 F9000 X172.688 Y153.641
G1 Z0.400
G1 F2400 E36.35831
G1 F1980 X169.122 Y157.207 E36.56798
G0 F9000 X167.923 Y157.698
G1 F1980 X172.688 Y152.934 E36.84811
G0 F9000 X172.688 Y152.227
G1 F1980 X167.475 Y157.440 E37.15462
G0 F9000 X167.027 Y157.181
G1 F1980 X169.169 Y155.038 E37.28059
G0 F9000 X168.241 Y155.259
G1 F1980 X166.578 Y156.922 E37.37837
G0 F9000 X166.130 Y156.663
G1 F1980 X167.585 Y155.209 E37.46389
G0 F9000 X167.034 Y155.052
G1 F1980 X165.682 Y156.404 E37.54338
G0 F9000 X165.233 Y156.146
G1 F1980 X166.580 Y154.799 E37.62258
G0 F9000 X166.183 Y154.489
G1 F1980 X164.785 Y155.887 E37.70477
G0 F9000 X164.337 Y155.628
G1 F1980 X165.854 Y154.111 E37.79397
G0 F9000 X165.590 Y153.668
G1 F1980 X163.888 Y155.369 E37.89401
G0 F9000 X163.509 Y155.042
G1 F1980 X165.408 Y153.143 E38.00566
G0 F9000 X165.330 Y152.513
G1 F1980 X163.509 Y154.335 E38.11276
G0 F9000 X163.746 Y153.390
G1 F1980 X165.462 Y151.674 E38.21366
G1 F2400 E37.61366
G1 Z0.900
G0 F9000 X163.509 Y150.799
G1 Z0.400
G1 F2400 E38.21366
G1 F1980 X165.754 Y148.554 E38.34565
G1 F2400 E37.74565
G1 Z0.900
G0 F9000 X164.079 Y149.522
G1 Z0.400
G1 F2400 E38.34565
G1 F1980 X163.509 Y150.091 E38.37914
G1 F2400 E37.77914
G1 Z0.900
G0 F9000 X170.796 Y156.240
G1 Z0.400
G1 F2400 E38.37914
G1 F1980 X172.688 Y154.348 E38.49038
G0 F9000 X172.688 Y155.055
G1 F1980 X172.471 Y155.272 E38.50314
;LAYER:2
M106 S20
G1 F2400 E37.90314
G1 Z0.900
G0 F9000 X157.416 Y155.152 Z0.600
;TYPE:WALL-INNER
G1 Z0.600
G1 F2400 E38.50314
G1 F2220 X157.416 Y155.337 E38.51083
G1 X156.408 Y155.919 E38.55922
G1 X154.956 Y156.755 E38.62888
G1 X154.467 Y157.038 E38.65237
G1 X153.505 Y157.593 E38.69854
G1 X152.661 Y158.083 E38.73912
G1 X152.500 Y158.176 E38.74685
G1 X150.044 Y156.755 E38.86482
G1 X149.552 Y156.473 E38.88839
G1 X148.594 Y155.918 E38.93442
G1 X147.744 Y155.430 E38.97517
G1 X147.584 Y155.337 E38.98286
G1 X147.583 Y154.643 E39.01172
G1 X147.762 Y154.348 E39.02606
G1 X148.017 Y153.826 E39.05022
G1 X148.196 Y153.301 E39.07328
G1 X148.287 Y152.798 E39.09453
G1 X148.303 Y152.531 E39.10565
G1 X148.244 Y151.901 E39.13196
G1 X148.119 Y151.443 E39.15170
G1 X147.854 Y150.824 E39.17969
G1 X147.584 Y150.354 E39.20222
G1 X147.583 Y149.992 E39.21727
G1 X147.584 Y149.664 E39.23091
G1 X148.592 Y149.081 E39.27932
G1 X150.044 Y148.245 E39.34898
G1 X150.533 Y147.962 E39.37247
G1 X151.495 Y147.407 E39.41865
G1 X152.339 Y146.917 E39.45922
G1 X152.500 Y146.824 E39.46695
G1 X154.956 Y148.245 E39.58492
G1 X155.446 Y148.526 E39.60840
G1 X156.406 Y149.082 E39.65452
G1 X157.254 Y149.569 E39.69518
G1 X157.415 Y149.662 E39.70291
G1 X157.414 Y152.501 E39.82094
G1 X157.415 Y153.064 E39.84435
G1 X157.414 Y154.174 E39.89050
G1 X157.416 Y155.152 E39.93116
G1 F2400 E39.33116
G1 Z1.100
G0 F9000 X154.722 Y153.751
G1 Z0.600
G1 F2400 E39.93116
G1 F2220 X154.863 Y153.459 E39.94464
G1 X155.002 Y152.987 E39.96510
G1 X155.045 Y152.661 E39.97877
G1 X155.049 Y152.500 E39.98546
G1 X155.029 Y152.173 E39.99908
G1 X154.920 Y151.696 E40.01943
G1 X154.863 Y151.541 E40.02629
G1 X154.717 Y151.239 E40.04024
G1 X154.443 Y150.849 E40.06005
G1 X154.089 Y150.506 E40.08055
G1 X153.677 Y150.239 E40.10096
G1 X153.382 Y150.107 E40.11439
G1 X153.066 Y150.014 E40.12809
G1 X152.896 Y149.981 E40.13529
G1 X152.569 Y149.948 E40.14895
G1 X152.116 Y149.979 E40.16783
G1 X151.776 Y150.055 E40.18232
G1 X151.323 Y150.239 E40.20264
G1 X151.041 Y150.409 E40.21633
G1 X150.667 Y150.727 E40.23674
G1 X150.457 Y150.975 E40.25025
G1 X150.278 Y151.249 E40.26386
G1 X150.137 Y151.541 E40.27734
G1 X149.998 Y152.013 E40.29780
G1 X149.955 Y152.339 E40.31147
G1 X149.951 Y152.500 E40.31817
G1 X149.971 Y152.827 E40.33179
G1 X150.080 Y153.304 E40.35213
G1 X150.137 Y153.459 E40.35899
G1 X150.278 Y153.751 E40.37248
G1 X150.557 Y154.151 E40.39275
G1 X150.911 Y154.494 E40.41324
G1 X151.323 Y154.761 E40.43366
G1 X151.618 Y154.893 E40.44709
G1 X152.093 Y155.017 E40.46750
G1 X152.417 Y155.049 E40.48104
G1 X152.747 Y155.038 E40.49477
G1 X153.066 Y154.986 E40.50820
G1 X153.382 Y154.893 E40.52190
G1 X153.821 Y154.681 E40.54217
G1 X154.214 Y154.388 E40.56255
G1 X154.543 Y154.025 E40.58291
G1 X154.722 Y153.751 E40.59652
G0 F9000 X154.286 Y153.506
;TYPE:WALL-OUTER
G1 F2220 X154.445 Y153.146 E40.61288
G1 X154.533 Y152.762 E40.62926
G1 X154.549 Y152.500 E40.64018
G1 X154.511 Y152.108 E40.65655
G1 X154.400 Y151.730 E40.67293
G1 X154.284 Y151.491 E40.68397
G1 X154.145 Y151.277 E40.69458
G1 X153.973 Y151.074 E40.70564
G1 X153.672 Y150.819 E40.72205
G1 X153.330 Y150.627 E40.73835
G1 X153.083 Y150.535 E40.74931
G1 X152.823 Y150.476 E40.76039
G1 X152.561 Y150.450 E40.77134
G1 X152.181 Y150.476 E40.78718
G1 X151.792 Y150.576 E40.80387
G1 X151.438 Y150.747 E40.82022
G1 X151.122 Y150.983 E40.83662
G1 X150.939 Y151.172 E40.84755
G1 X150.714 Y151.494 E40.86389
G1 X150.555 Y151.854 E40.88025
G1 X150.467 Y152.238 E40.89663
G1 X150.451 Y152.500 E40.90754
G1 X150.489 Y152.892 E40.92391
G1 X150.600 Y153.270 E40.94029
G1 X150.714 Y153.506 E40.95119
G1 X151.027 Y153.926 E40.97297
G1 X151.328 Y154.181 E40.98937
G1 X151.670 Y154.373 E41.00567
G1 X151.917 Y154.465 E41.01663
G1 X152.173 Y154.523 E41.02754
G1 X152.434 Y154.549 E41.03845
G1 X152.697 Y154.540 E41.04939
G1 X152.955 Y154.498 E41.06026
G1 X153.208 Y154.424 E41.07122
G1 X153.562 Y154.253 E41.08756
G1 X153.878 Y154.017 E41.10396
G1 X154.061 Y153.828 E41.11490
G1 X154.286 Y153.506 E41.13123
G1 F2400 E40.53123
G1 Z1.100
G0 F9000 X157.915 Y155.626
G1 Z0.600
G1 F2400 E41.13123
G1 F2220 X152.501 Y158.752 E41.39114
G1 X147.085 Y155.625 E41.65115
G1 X147.083 Y154.504 E41.69775
G1 X147.323 Y154.109 E41.71697
G1 X147.554 Y153.635 E41.73889
G1 X147.711 Y153.175 E41.75910
G1 X147.790 Y152.738 E41.77756
G1 X147.802 Y152.540 E41.78581
G1 X147.750 Y151.991 E41.80874
G1 X147.646 Y151.608 E41.82524
G1 X147.406 Y151.048 E41.85057
G1 X147.097 Y150.512 E41.87629
G1 X147.084 Y150.492 E41.87728
G1 X147.083 Y149.991 E41.89811
G1 X147.085 Y149.374 E41.92376
G1 X152.499 Y146.248 E42.18368
G1 X157.915 Y149.375 E42.44368
G1 X157.915 Y155.626 E42.70357
G0 F9000 X157.089 Y155.321
;TYPE:SKIN
G1 F2220 X155.085 Y153.317 E42.82140
G0 F9000 X154.881 Y153.820
G1 F2220 X156.641 Y155.580 E42.92488
G0 F9000 X156.192 Y155.839
G1 F2220 X154.586 Y154.233 E43.01930
G0 F9000 X154.235 Y154.589
G1 F2220 X155.744 Y156.098 E43.10803
G0 F9000 X155.296 Y156.356
G1 F2220 X153.816 Y154.876 E43.19505
G0 F9000 X153.324 Y155.091
G1 F2220 X154.848 Y156.616 E43.28468
G0 F9000 X154.400 Y156.875
G1 F2220 X152.737 Y155.212 E43.38246
G0 F9000 X151.988 Y155.170
G1 F2220 X153.951 Y157.133 E43.49788
G0 F9000 X153.503 Y157.392
G1 F2220 X148.462 Y152.351 E43.79427
G0 F9000 X148.424 Y153.020
G1 F2220 X153.055 Y157.651 E44.06655
G0 F9000 X152.607 Y157.911
G1 F2220 X148.283 Y153.586 E44.32082
G0 F9000 X148.081 Y154.092
G1 F2220 X151.228 Y157.238 E44.50582
G1 F2400 E43.90582
G1 Z1.100
G0 F9000 X149.555 Y156.272
G1 Z0.600
G1 F2400 E44.50582
G1 F2220 X147.839 Y154.556 E44.60671
G0 F9000 X147.757 Y155.182
G1 F2220 X147.882 Y155.306 E44.61403
G1 F2400 E44.01403
G1 Z1.100
G0 F9000 X149.835 Y153.017
G1 Z0.600
G1 F2400 E44.61403
G1 F2220 X148.316 Y151.498 E44.70334
G0 F9000 X147.758 Y150.233
G1 F2220 X149.787 Y152.262 E44.82264
G0 F9000 X149.913 Y151.681
G1 F2220 X147.909 Y149.677 E44.94047
G0 F9000 X148.358 Y149.418
G1 F2220 X150.118 Y151.179 E45.04398
G0 F9000 X150.407 Y150.760
G1 F2220 X148.806 Y149.159 E45.13811
G0 F9000 X149.254 Y148.901
G1 F2220 X150.765 Y150.412 E45.22695
G0 F9000 X151.180 Y150.120
G1 F2220 X149.702 Y148.642 E45.31385
G0 F9000 X150.150 Y148.382
G1 F2220 X151.674 Y149.906 E45.40346
G0 F9000 X152.267 Y149.792
G1 F2220 X150.598 Y148.124 E45.50156
G0 F9000 X151.047 Y147.865
G1 F2220 X153.006 Y149.824 E45.61674
G1 F2400 E45.01674
G1 Z1.100
G0 F9000 X153.768 Y147.758
G1 Z0.600
G1 F2400 E45.61674
G1 F2220 X157.240 Y151.229 E45.82085
G0 F9000 X157.240 Y151.936
G1 F2220 X152.391 Y147.088 E46.10593
G0 F9000 X151.943 Y147.346
G1 F2220 X157.240 Y152.643 E46.41737
G0 F9000 X157.240 Y153.350
G1 F2220 X151.495 Y147.606 E46.75512
G1 F2400 E46.15512
G1 Z1.100
G0 F9000 X155.441 Y148.724
G1 Z0.600
G1 F2400 E46.75512
G1 F2220 X157.240 Y150.522 E46.86087
G0 F9000 X157.240 Y149.815
G1 F2220 X157.115 Y149.690 E46.86822
G1 F2400 E46.26822
G1 Z1.100
G0 F9000 X155.162 Y151.980
G1 Z0.600
G1 F2400 E46.86822
G1 F2220 X157.240 Y154.058 E46.99040
G0 F9000 X157.240 Y154.765
G1 F2220 X155.210 Y152.735 E47.10975
G1 F2400 E46.50975
G1 Z1.100
G0 F9000 X163.361 Y154.349
;TYPE:WALL-INNER
G1 Z0.600
G1 F2400 E47.10975
G1 F2220 X163.616 Y153.826 E47.13394
G1 X163.796 Y153.301 E47.15702
G1 X163.889 Y152.787 E47.17874
G1 X163.902 Y152.396 E47.19500
G1 X163.831 Y151.848 E47.21797
G1 X163.672 Y151.310 E47.24130
G1 X163.425 Y150.771 E47.26595
G1 X163.183 Y150.354 E47.28599
G1 X163.182 Y149.992 E47.30104
G1 X163.183 Y149.664 E47.31468
G1 X164.191 Y149.081 E47.36309
G1 X165.643 Y148.245 E47.43275
G1 X166.132 Y147.962 E47.45624
G1 X167.093 Y147.407 E47.50238
G1 X167.939 Y146.917 E47.54302
G1 X168.100 Y146.824 E47.55075
G1 X170.556 Y148.245 E47.66872
G1 X171.046 Y148.526 E47.69221
G1 X172.006 Y149.082 E47.73833
G1 X172.854 Y149.569 E47.77898
G1 X173.015 Y149.662 E47.78671
G1 X173.014 Y152.501 E47.90475
G1 X173.015 Y153.064 E47.92815
G1 X173.014 Y154.174 E47.97430
G1 X173.016 Y155.152 E48.01496
G1 X173.016 Y155.337 E48.02265
G1 X172.008 Y155.919 E48.07104
G1 X170.556 Y156.755 E48.14070
G1 X170.067 Y157.038 E48.16419
G1 X169.105 Y157.593 E48.21037
G1 X168.261 Y158.083 E48.25094
G1 X168.100 Y158.176 E48.25867
G1 X165.643 Y156.755 E48.37667
G1 X165.151 Y156.473 E48.40025
G1 X164.193 Y155.918 E48.44628
G1 X163.343 Y155.430 E48.48703
G1 X163.183 Y155.337 E48.49472
G1 X163.182 Y154.643 E48.52358
G1 X163.361 Y154.349 E48.53789
G1 F2400 E47.93789
G1 Z1.100
G0 F9000 X165.736 Y153.459
G1 Z0.600
G1 F2400 E48.53789
G1 F2220 X165.877 Y153.751 E48.55137
G1 X166.156 Y154.151 E48.57165
G1 X166.510 Y154.494 E48.59214
G1 X166.922 Y154.761 E48.61255
G1 X167.217 Y154.893 E48.62599
G1 X167.692 Y155.017 E48.64640
G1 X168.016 Y155.049 E48.65993
G1 X168.347 Y155.038 E48.67370
G1 X168.666 Y154.986 E48.68714
G1 X168.982 Y154.893 E48.70083
G1 X169.421 Y154.681 E48.72110
G1 X169.814 Y154.388 E48.74148
G1 X170.143 Y154.025 E48.76185
G1 X170.322 Y153.751 E48.77546
G1 X170.463 Y153.459 E48.78894
G1 X170.602 Y152.987 E48.80939
G1 X170.645 Y152.661 E48.82307
G1 X170.649 Y152.500 E48.82976
G1 X170.629 Y152.173 E48.84338
G1 X170.520 Y151.696 E48.86372
G1 X170.463 Y151.541 E48.87059
G1 X170.317 Y151.239 E48.88454
G1 X170.043 Y150.849 E48.90435
G1 X169.689 Y150.506 E48.92485
G1 X169.277 Y150.239 E48.94526
G1 X168.982 Y150.107 E48.95869
G1 X168.666 Y150.014 E48.97239
G1 X168.496 Y149.981 E48.97959
G1 X168.169 Y149.949 E48.99325
G1 X167.715 Y149.979 E49.01216
G1 X167.375 Y150.055 E49.02665
G1 X166.922 Y150.239 E49.04698
G1 X166.640 Y150.409 E49.06067
G1 X166.266 Y150.727 E49.08108
G1 X166.056 Y150.975 E49.09459
G1 X165.877 Y151.249 E49.10819
G1 X165.736 Y151.541 E49.12167
G1 X165.597 Y152.013 E49.14213
G1 X165.554 Y152.339 E49.15580
G1 X165.550 Y152.500 E49.16250
G1 X165.570 Y152.827 E49.17612
G1 X165.679 Y153.304 E49.19646
G1 X165.736 Y153.459 E49.20333
G0 F9000 X166.199 Y153.270
;TYPE:WALL-OUTER
G1 F2220 X166.313 Y153.506 E49.21422
G1 X166.626 Y153.926 E49.23600
G1 X166.927 Y154.181 E49.25240
G1 X167.269 Y154.373 E49.26871
G1 X167.516 Y154.465 E49.27967
G1 X167.772 Y154.523 E49.29058
G1 X168.033 Y154.549 E49.30148
G1 X168.297 Y154.540 E49.31247
G1 X168.555 Y154.498 E49.32333
G1 X168.808 Y154.424 E49.33429
G1 X169.162 Y154.253 E49.35064
G1 X169.478 Y154.017 E49.36704
G1 X169.661 Y153.828 E49.37797
G1 X169.886 Y153.506 E49.39430
G1 X170.045 Y153.146 E49.41067
G1 X170.133 Y152.762 E49.42705
G1 X170.149 Y152.500 E49.43796
G1 X170.111 Y152.108 E49.45433
G1 X170.000 Y151.730 E49.47071
G1 X169.884 Y151.491 E49.48176
G1 X169.745 Y151.277 E49.49237
G1 X169.573 Y151.074 E49.50343
G1 X169.272 Y150.819 E49.51983
G1 X168.930 Y150.627 E49.53613
G1 X168.683 Y150.535 E49.54709
G1 X168.423 Y150.476 E49.55818
G1 X168.161 Y150.450 E49.56912
G1 X167.780 Y150.476 E49.58500
G1 X167.391 Y150.576 E49.60170
G1 X167.037 Y150.747 E49.61804
G1 X166.721 Y150.983 E49.63444
G1 X166.538 Y151.172 E49.64538
G1 X166.313 Y151.494 E49.66171
G1 X166.154 Y151.854 E49.67807
G1 X166.066 Y152.238 E49.69445
G1 X166.050 Y152.500 E49.70536
G1 X166.088 Y152.892 E49.72174
G1 X166.199 Y153.270 E49.73812
G1 F2400 E49.13812
G1 Z1.100
G0 F9000 X163.390 Y152.734
G1 Z0.600
G1 F2400 E49.73812
G1 F2220 X163.401 Y152.420 E49.75118
G1 X163.340 Y151.951 E49.77084
G1 X163.203 Y151.486 E49.79100
G1 X162.980 Y151.002 E49.81315
G1 X162.696 Y150.511 E49.83673
G1 X162.683 Y150.491 E49.83773
G1 X162.682 Y149.991 E49.85851
G1 X162.684 Y149.374 E49.88417
G1 X168.099 Y146.248 E50.14412
G1 X173.515 Y149.375 E50.40412
G1 X173.515 Y155.626 E50.66401
G1 X168.101 Y158.752 E50.92392
G1 X162.684 Y155.625 E51.18396
G1 X162.682 Y154.504 E51.23057
G1 X162.922 Y154.109 E51.24979
G1 X163.153 Y153.635 E51.27171
G1 X163.311 Y153.175 E51.29193
G1 X163.390 Y152.734 E51.31056
G0 F9000 X164.016 Y153.056
;TYPE:SKIN
G1 F2220 X168.628 Y157.668 E51.58172
G0 F9000 X168.180 Y157.927
G1 F2220 X163.871 Y153.618 E51.83508
G0 F9000 X163.666 Y154.120
G1 F2220 X166.730 Y157.184 E52.01523
G1 F2400 E51.41523
G1 Z1.100
G0 F9000 X165.055 Y156.216
G1 Z0.600
G1 F2400 E52.01523
G1 F2220 X163.422 Y154.583 E52.11124
G1 F2400 E51.51124
G1 Z1.100
G0 F9000 X164.075 Y152.408
G1 Z0.600
G1 F2400 E52.11124
G1 F2220 X169.077 Y157.409 E52.40531
G0 F9000 X169.524 Y157.150
G1 F2220 X167.529 Y155.155 E52.52261
G0 F9000 X168.296 Y155.214
G1 F2220 X169.972 Y156.891 E52.62118
G0 F9000 X170.421 Y156.632
G1 F2220 X168.891 Y155.102 E52.71114
G0 F9000 X169.386 Y154.891
G1 F2220 X170.868 Y156.373 E52.79828
G0 F9000 X171.317 Y156.114
G1 F2220 X169.810 Y154.608 E52.88685
G0 F9000 X170.166 Y154.256
G1 F2220 X171.765 Y155.855 E52.98087
G0 F9000 X172.213 Y155.596
G1 F2220 X170.465 Y153.848 E53.08364
G0 F9000 X170.675 Y153.351
G1 F2220 X172.661 Y155.337 E53.20041
G0 F9000 X172.840 Y154.809
G1 F2220 X170.805 Y152.774 E53.32006
G0 F9000 X170.776 Y152.037
G1 F2220 X172.840 Y154.101 E53.44142
G0 F9000 X172.840 Y153.394
G1 F2220 X167.067 Y147.621 E53.78085
G0 F9000 X167.515 Y147.363
G1 F2220 X172.840 Y152.687 E54.09391
G0 F9000 X172.839 Y151.979
G1 F2220 X167.964 Y147.104 E54.38054
G0 F9000 X169.265 Y147.699
G1 F2220 X172.839 Y151.272 E54.59065
G0 F9000 X172.839 Y150.565
G1 F2220 X170.940 Y148.666 E54.70230
G1 F2400 E54.10230
G1 Z1.100
G0 F9000 X172.614 Y149.633
G1 Z0.600
G1 F2400 E54.70230
G1 F2220 X172.839 Y149.858 E54.71553
G0 F9000 X168.551 Y149.813
G1 F2220 X166.619 Y147.880 E54.82915
G0 F9000 X166.171 Y148.140
G1 F2220 X167.827 Y149.796 E54.92652
G0 F9000 X167.242 Y149.918
G1 F2220 X165.723 Y148.399 E55.01583
G0 F9000 X165.274 Y148.657
G1 F2220 X166.752 Y150.135 E55.10273
G0 F9000 X166.341 Y150.431
G1 F2220 X164.826 Y148.916 E55.19181
G0 F9000 X164.378 Y149.175
G1 F2220 X165.986 Y150.784 E55.28638
G0 F9000 X165.703 Y151.207
G1 F2220 X163.930 Y149.434 E55.39063
G0 F9000 X163.482 Y149.693
G1 F2220 X165.502 Y151.714 E55.50943
G0 F9000 X165.381 Y152.300
G1 F2220 X163.357 Y150.275 E55.62846
G0 F9000 X163.923 Y151.549
G1 F2220 X165.446 Y153.071 E55.71798
;LAYER:3
M106 S30
G1 F2400 E55.11798
G1 Z1.100
G0 F9000 X157.502 Y152.500 Z0.800
;TYPE:WALL-INNER
G1 Z0.800
G1 F2400 E55.71798
G1 X157.503 Y153.643 E55.76550
G1 X157.502 Y154.174 E55.78757
G1 X157.503 Y155.387 E55.83800
G1 X156.450 Y155.994 E55.88854
G1 X155.461 Y156.567 E55.93606
G1 X153.550 Y157.670 E56.02779
G1 X152.500 Y158.277 E56.07821
G1 X151.450 Y157.670 E56.12864
G1 X150.458 Y157.098 E56.17624
G1 X150.000 Y156.833 E56.19824
G1 X149.009 Y156.260 E56.24584
G1 X148.550 Y155.995 E56.26787
G1 X147.496 Y155.389 E56.31842
G1 X147.497 Y155.000 E56.33459
G1 X147.696 Y154.718 E56.34894
G1 X148.023 Y154.175 E56.37529
G1 X148.222 Y153.769 E56.39409
G1 X148.244 Y153.703 E56.39698
G1 X148.943 Y153.703 E56.42604
G1 X149.202 Y153.702 E56.43681
G1 X150.259 Y153.705 E56.48076
G1 X150.389 Y153.933 E56.49167
G1 X150.674 Y154.284 E56.51047
G1 X151.049 Y154.601 E56.53088
G1 X151.479 Y154.838 E56.55129
G1 X151.921 Y154.985 E56.57066
G1 X152.255 Y155.039 E56.58473
G1 X152.592 Y155.050 E56.59875
G1 X152.921 Y155.016 E56.61250
G1 X153.262 Y154.936 E56.62706
G1 X153.836 Y154.679 E56.65321
G1 X154.336 Y154.275 E56.67993
G1 X154.653 Y153.872 E56.70125
G1 X154.916 Y153.326 E56.72644
G1 X155.031 Y152.814 E56.74826
G1 X155.052 Y152.464 E56.76284
G1 X154.970 Y151.840 E56.78900
G1 X154.729 Y151.256 E56.81527
G1 X154.529 Y150.954 E56.83033
G1 X154.207 Y150.602 E56.85016
G1 X153.812 Y150.311 E56.87056
G1 X153.380 Y150.105 E56.89046
G1 X153.066 Y150.013 E56.90406
G1 X152.745 Y149.961 E56.91758
G1 X152.408 Y149.950 E56.93160
G1 X152.079 Y149.984 E56.94535
G1 X151.761 Y150.059 E56.95894
G1 X151.456 Y150.172 E56.97246
G1 X151.033 Y150.410 E56.99264
G1 X150.678 Y150.713 E57.01204
G1 X150.422 Y151.018 E57.02860
G1 X150.273 Y151.295 E57.04167
G1 X149.199 Y151.298 E57.08632
G1 X148.246 Y151.297 E57.12595
G1 X147.949 Y150.690 E57.15404
G1 X147.638 Y150.196 E57.17831
G1 X147.497 Y149.996 E57.18848
G1 X147.497 Y149.611 E57.20449
G1 X148.550 Y149.006 E57.25498
G1 X149.539 Y148.433 E57.30250
G1 X151.450 Y147.330 E57.39424
G1 X152.500 Y146.723 E57.44466
G1 X153.550 Y147.330 E57.49508
G1 X154.540 Y147.901 E57.54260
G1 X155.000 Y148.167 E57.56469
G1 X155.991 Y148.740 E57.61228
G1 X156.450 Y149.005 E57.63432
G1 X157.503 Y149.611 E57.68483
G1 X157.502 Y150.826 E57.73534
G1 X157.503 Y151.969 E57.78286
G1 X157.502 Y152.500 E57.80494
G1 F2400 E57.20494
G1 Z1.300
G0 F9000 X154.550 Y152.482
;TYPE:WALL-OUTER
G1 Z0.800
G1 F2400 E57.80494
G1 X154.483 Y151.970 E57.82641
G1 X154.285 Y151.491 E57.84795
G1 X154.134 Y151.263 E57.85932
G1 X153.871 Y150.975 E57.87554
G1 X153.554 Y150.742 E57.89190
G1 X153.201 Y150.574 E57.90815
G1 X152.955 Y150.502 E57.91881
G1 X152.696 Y150.460 E57.92971
G1 X152.425 Y150.451 E57.94099
G1 X152.162 Y150.478 E57.95198
G1 X151.906 Y150.538 E57.96291
G1 X151.667 Y150.627 E57.97351
G1 X151.320 Y150.822 E57.99006
G1 X151.034 Y151.066 E58.00569
G1 X150.838 Y151.300 E58.01838
G1 X150.584 Y151.772 E58.04067
G1 X150.577 Y151.794 E58.04163
G1 X149.200 Y151.798 E58.09888
G1 X147.959 Y151.797 E58.15047
G1 X147.882 Y151.797 E58.15367
G1 X147.767 Y151.442 E58.16919
G1 X147.513 Y150.936 E58.19273
G1 X147.222 Y150.473 E58.21546
G1 X146.997 Y150.154 E58.23169
G1 X146.996 Y149.323 E58.26624
G1 X152.501 Y146.145 E58.53051
G1 X158.004 Y149.322 E58.79469
G1 X158.004 Y155.677 E59.05890
G1 X152.499 Y158.855 E59.32317
G1 X146.996 Y155.678 E59.58735
G1 X146.997 Y154.841 E59.62215
G1 X147.277 Y154.445 E59.64231
G1 X147.584 Y153.935 E59.66706
G1 X147.758 Y153.580 E59.68350
G1 X147.882 Y153.203 E59.70000
G1 X150.585 Y153.207 E59.81237
G1 X150.646 Y153.376 E59.81984
G1 X150.803 Y153.650 E59.83297
G1 X151.033 Y153.933 E59.84813
G1 X151.334 Y154.187 E59.86451
G1 X151.680 Y154.378 E59.88094
G1 X152.040 Y154.498 E59.89672
G1 X152.304 Y154.540 E59.90783
G1 X152.575 Y154.549 E59.91910
G1 X152.838 Y154.522 E59.93010
G1 X153.101 Y154.460 E59.94133
G1 X153.573 Y154.249 E59.96282
G1 X153.978 Y153.922 E59.98447
G1 X154.226 Y153.606 E60.00117
G1 X154.444 Y153.153 E60.02207
G1 X154.534 Y152.758 E60.03891
G1 X154.550 Y152.482 E60.05040
G0 F9000 X155.209 Y152.735
;TYPE:SKIN
G1 F2400 X157.327 Y150.617 E60.17493
G0 F9000 X157.327 Y149.910
G1 F2400 X155.175 Y152.062 E60.30146
G0 F9000 X155.022 Y151.508
G1 F2400 X157.005 Y149.525 E60.41806
G0 F9000 X156.556 Y149.266
G1 F2400 X154.790 Y151.033 E60.52192
G0 F9000 X154.478 Y150.638
G1 F2400 X156.108 Y149.007 E60.61779
G0 F9000 X155.660 Y148.749
G1 F2400 X154.101 Y150.307 E60.70942
G0 F9000 X153.657 Y150.044
G1 F2400 X155.212 Y148.490 E60.80082
G0 F9000 X154.763 Y148.231
G1 F2400 X153.141 Y149.853 E60.89619
G0 F9000 X152.508 Y149.779
G1 F2400 X154.315 Y147.972 E61.00243
G0 F9000 X153.867 Y147.713
G1 F2400 X151.679 Y149.901 E61.13108
G1 F2400 E60.53108
G1 Z1.300
G0 F9000 X150.908 Y147.844
G1 Z0.800
G1 F2400 E61.13108
G1 X148.118 Y150.634 E61.29512
G0 F9000 X147.847 Y150.197
G1 F2400 X149.237 Y148.808 E61.37682
G1 F2400 E60.77682
G1 Z1.300
G0 F9000 X149.046 Y151.120
G1 Z0.800
G1 F2400 E61.37682
G1 X152.970 Y147.196 E61.60753
G0 F9000 X153.418 Y147.455
G1 F2400 X149.753 Y151.120 E61.82302
G0 F9000 X148.350 Y151.109
G1 F2400 X152.522 Y146.937 E62.06832
G1 F2400 E61.46832
G1 Z1.300
G0 F9000 X157.327 Y151.325
G1 Z0.800
G1 F2400 E62.06832
G1 X154.907 Y153.744 E62.21058
G1 F2400 E61.61058
G1 Z1.300
G0 F9000 X153.737 Y154.914
G1 Z0.800
G1 F2400 E62.21058
G1 X151.280 Y157.371 E62.35504
G0 F9000 X151.728 Y157.630
G1 F2400 X157.327 Y152.032 E62.68421
G0 F9000 X157.327 Y152.739
G1 F2400 X152.177 Y157.889 E62.98701
G0 F9000 X152.974 Y157.799
G1 F2400 X157.327 Y153.446 E63.24295
G0 F9000 X157.327 Y154.153
G1 F2400 X154.647 Y156.832 E63.40049
G1 F2400 E62.80049
G1 Z1.300
G0 F9000 X156.322 Y155.865
G1 Z0.800
G1 F2400 E63.40049
G1 X157.327 Y154.860 E63.45958
G1 F2400 E62.85958
G1 Z1.300
G0 F9000 X152.735 Y155.209
G1 Z0.800
G1 F2400 E63.45958
G1 X150.832 Y157.112 E63.57147
G0 F9000 X150.383 Y156.853
G1 F2400 X152.054 Y155.183 E63.66969
G0 F9000 X151.501 Y155.028
G1 F2400 X149.935 Y156.595 E63.76179
G0 F9000 X149.486 Y156.337
G1 F2400 X151.033 Y154.789 E63.85278
G0 F9000 X150.636 Y154.480
G1 F2400 X149.038 Y156.078 E63.94674
G0 F9000 X148.590 Y155.819
G1 F2400 X150.303 Y154.106 E64.04746
G0 F9000 X149.823 Y153.878
G1 F2400 X148.141 Y155.560 E64.14635
G0 F9000 X147.694 Y155.301
G1 F2400 X149.117 Y153.877 E64.23005
G0 F9000 X148.411 Y153.877
G1 F2400 X148.317 Y153.970 E64.23555
G1 F2400 E63.63555
G1 Z1.300
G0 F9000 X163.096 Y155.000
;TYPE:WALL-INNER
G1 Z0.800
G1 F2400 E64.23555
G1 X163.627 Y154.169 E64.27655
G1 X163.843 Y153.703 E64.29790
G1 X164.542 Y153.703 E64.32696
G1 X164.801 Y153.702 E64.33773
G1 X165.858 Y153.705 E64.38167
G1 X165.988 Y153.933 E64.39259
G1 X166.273 Y154.284 E64.41138
G1 X166.648 Y154.601 E64.43180
G1 X167.078 Y154.838 E64.45221
G1 X167.520 Y154.985 E64.47158
G1 X167.854 Y155.039 E64.48564
G1 X168.192 Y155.050 E64.49970
G1 X168.521 Y155.016 E64.51345
G1 X168.862 Y154.936 E64.52802
G1 X169.436 Y154.679 E64.55416
G1 X169.936 Y154.275 E64.58089
G1 X170.253 Y153.872 E64.60221
G1 X170.516 Y153.326 E64.62740
G1 X170.631 Y152.814 E64.64922
G1 X170.652 Y152.464 E64.66380
G1 X170.570 Y151.840 E64.68996
G1 X170.329 Y151.256 E64.71623
G1 X170.129 Y150.954 E64.73129
G1 X169.807 Y150.602 E64.75112
G1 X169.412 Y150.311 E64.77152
G1 X168.980 Y150.105 E64.79142
G1 X168.666 Y150.013 E64.80502
G1 X168.345 Y149.961 E64.81854
G1 X168.007 Y149.950 E64.83260
G1 X167.678 Y149.984 E64.84635
G1 X167.360 Y150.059 E64.85993
G1 X167.055 Y150.172 E64.87346
G1 X166.632 Y150.410 E64.89364
G1 X166.277 Y150.713 E64.91304
G1 X166.021 Y151.018 E64.92959
G1 X165.872 Y151.295 E64.94267
G1 X164.798 Y151.298 E64.98732
G1 X163.846 Y151.297 E65.02690
G1 X163.549 Y150.690 E65.05500
G1 X163.237 Y150.195 E65.07932
G1 X163.096 Y149.996 E65.08946
G1 X163.096 Y149.611 E65.10547
G1 X164.149 Y149.006 E65.15596
G1 X165.138 Y148.433 E65.20348
G1 X167.049 Y147.331 E65.29520
G1 X168.100 Y146.723 E65.34568
G1 X169.150 Y147.330 E65.39610
G1 X170.140 Y147.901 E65.44361
G1 X170.600 Y148.167 E65.46571
G1 X171.591 Y148.740 E65.51330
G1 X172.050 Y149.005 E65.53533
G1 X173.103 Y149.611 E65.58584
G1 X173.102 Y150.826 E65.63636
G1 X173.103 Y151.969 E65.68388
G1 X173.102 Y152.500 E65.70595
G1 X173.103 Y153.643 E65.75347
G1 X173.102 Y154.174 E65.77555
G1 X173.103 Y155.387 E65.82598
G1 X172.050 Y155.994 E65.87651
G1 X171.061 Y156.567 E65.92403
G1 X169.150 Y157.670 E66.01577
G1 X168.100 Y158.277 E66.06619
G1 X167.049 Y157.669 E66.11667
G1 X166.057 Y157.098 E66.16426
G1 X165.599 Y156.833 E66.18626
G1 X164.608 Y156.260 E66.23385
G1 X164.149 Y155.995 E66.25589
G1 X163.095 Y155.389 E66.30643
G1 X163.096 Y155.000 E66.32261
G0 F9000 X162.875 Y154.445
;TYPE:WALL-OUTER
G1 F2400 X163.185 Y153.933 E66.34749
G1 X163.413 Y153.443 E66.36996
G1 X163.485 Y153.203 E66.38038
G1 X166.184 Y153.207 E66.49259
G1 X166.245 Y153.376 E66.50006
G1 X166.402 Y153.650 E66.51319
G1 X166.632 Y153.933 E66.52835
G1 X166.933 Y154.187 E66.54472
G1 X167.279 Y154.378 E66.56115
G1 X167.639 Y154.498 E66.57693
G1 X167.903 Y154.540 E66.58804
G1 X168.175 Y154.549 E66.59936
G1 X168.438 Y154.522 E66.61035
G1 X168.701 Y154.460 E66.62158
G1 X169.173 Y154.249 E66.64308
G1 X169.578 Y153.922 E66.66472
G1 X169.826 Y153.606 E66.68142
G1 X170.044 Y153.153 E66.70232
G1 X170.134 Y152.758 E66.71917
G1 X170.150 Y152.482 E66.73066
G1 X170.083 Y151.970 E66.75213
G1 X169.885 Y151.491 E66.77368
G1 X169.734 Y151.263 E66.78505
G1 X169.471 Y150.975 E66.80126
G1 X169.154 Y150.742 E66.81762
G1 X168.801 Y150.574 E66.83387
G1 X168.555 Y150.502 E66.84453
G1 X168.296 Y150.460 E66.85544
G1 X168.024 Y150.451 E66.86675
G1 X167.761 Y150.478 E66.87774
G1 X167.505 Y150.538 E66.88867
G1 X167.266 Y150.627 E66.89928
G1 X166.919 Y150.822 E66.91583
G1 X166.633 Y151.066 E66.93146
G1 X166.437 Y151.300 E66.94415
G1 X166.183 Y151.772 E66.96643
G1 X166.176 Y151.794 E66.96739
G1 X164.799 Y151.798 E67.02464
G1 X163.559 Y151.797 E67.07619
G1 X163.482 Y151.797 E67.07939
G1 X163.367 Y151.442 E67.09491
G1 X163.113 Y150.936 E67.11845
G1 X162.821 Y150.473 E67.14120
G1 X162.596 Y150.154 E67.15743
G1 X162.595 Y149.323 E67.19198
G1 X168.101 Y146.145 E67.45629
G1 X173.604 Y149.322 E67.72047
G1 X173.604 Y155.677 E67.98468
G1 X168.099 Y158.855 E68.24895
G1 X162.595 Y155.678 E68.51316
G1 X162.596 Y154.841 E68.54796
G1 X162.875 Y154.445 E68.56810
G0 F9000 X163.270 Y155.281
;TYPE:SKIN
G1 F2400 X164.673 Y153.878 E68.65059
G0 F9000 X165.379 Y153.879
G1 F2400 X163.714 Y155.544 E68.74849
G0 F9000 X164.162 Y155.803
G1 F2400 X165.882 Y154.083 E68.84962
G0 F9000 X166.211 Y154.461
G1 F2400 X164.610 Y156.062 E68.94375
G0 F9000 X165.059 Y156.320
G1 F2400 X166.604 Y154.775 E69.03459
G0 F9000 X167.068 Y155.019
G1 F2400 X165.507 Y156.579 E69.12634
G0 F9000 X165.955 Y156.838
G1 F2400 X167.616 Y155.178 E69.22397
G0 F9000 X168.286 Y155.214
G1 F2400 X166.404 Y157.097 E69.33466
G0 F9000 X166.852 Y157.356
G1 F2400 X169.258 Y154.950 E69.47612
G1 F2400 E68.87612
G1 Z1.300
G0 F9000 X170.548 Y153.659
G1 Z0.800
G1 F2400 E69.47612
G1 X172.927 Y151.281 E69.61597
G0 F9000 X172.927 Y151.988
G1 F2400 X167.300 Y157.614 E69.94678
G0 F9000 X167.749 Y157.873
G1 F2400 X172.927 Y152.695 E70.25123
G0 F9000 X172.927 Y153.402
G1 F2400 X168.469 Y157.860 E70.51334
G1 F2400 E69.91334
G1 Z1.300
G0 F9000 X170.144 Y156.892
G1 Z0.800
G1 F2400 E70.51334
G1 X172.927 Y154.109 E70.67697
G0 F9000 X172.927 Y154.816
G1 F2400 X171.818 Y155.925 E70.74218
G1 F2400 E70.14218
G1 Z1.300
G0 F9000 X170.812 Y152.688
G1 Z0.800
G1 F2400 E70.74218
G1 X172.927 Y150.574 E70.86650
G0 F9000 X172.927 Y149.867
G1 F2400 X170.770 Y152.023 E70.99330
G0 F9000 X170.609 Y151.477
G1 F2400 X172.577 Y149.509 E71.10901
G0 F9000 X172.129 Y149.250
G1 F2400 X170.373 Y151.006 E71.21225
G0 F9000 X170.057 Y150.615
G1 F2400 X171.681 Y148.991 E71.30774
G0 F9000 X171.232 Y148.732
G1 F2400 X169.677 Y150.288 E71.39920
G0 F9000 X169.228 Y150.030
G1 F2400 X170.784 Y148.474 E71.49068
G0 F9000 X170.336 Y148.215
G1 F2400 X168.707 Y149.843 E71.58643
G0 F9000 X168.066 Y149.777
G1 F2400 X169.888 Y147.956 E71.69353
G0 F9000 X169.439 Y147.697
G1 F2400 X167.210 Y149.926 E71.82459
G1 F2400 E71.22459
G1 Z1.300
G0 F9000 X166.404 Y147.904
G1 Z0.800
G1 F2400 E71.82459
G1 X163.703 Y150.605 E71.98340
G0 F9000 X163.430 Y150.171
G1 F2400 X164.732 Y148.869 E72.05995
G1 F2400 E71.45995
G1 Z1.300
G0 F9000 X164.601 Y151.121
G1 Z0.800
G1 F2400 E72.05995
G1 X168.543 Y147.180 E72.29169
G0 F9000 X168.991 Y147.438
G1 F2400 X165.309 Y151.120 E72.50818
G0 F9000 X163.934 Y151.081
G1 F2400 X168.077 Y146.938 E72.75177
;LAYER:4
M106 S40
G1 F2400 E72.15177
G1 Z1.300
G0 F9000 X157.544 Y149.589 Z1.000
;TYPE:WALL-INNER
G1 Z1.000
G1 F2400 E72.75177
G1 F2700 X157.543 Y152.501 E72.87284
G1 X157.544 Y152.846 E72.88718
G1 X157.543 Y154.175 E72.94244
G1 X157.545 Y154.616 E72.96077
G1 X157.544 Y155.411 E72.99382
G1 X152.501 Y158.324 E73.23595
G1 X151.128 Y157.532 E73.30185
G1 X147.455 Y155.411 E73.47819
G1 X147.456 Y155.237 E73.48542
G1 X148.020 Y154.452 E73.52561
G1 X148.139 Y154.244 E73.53557
G1 X149.199 Y154.243 E73.57964
G1 X149.630 Y154.244 E73.59756
G1 X150.582 Y154.243 E73.63714
G1 X150.652 Y154.243 E73.64005
G1 X150.755 Y154.365 E73.64669
G1 X151.202 Y154.700 E73.66991
G1 X151.773 Y154.945 E73.69575
G1 X152.092 Y155.018 E73.70935
G1 X152.444 Y155.053 E73.72406
G1 X153.093 Y154.986 E73.75118
G1 X153.694 Y154.757 E73.77792
G1 X154.102 Y154.486 E73.79829
G1 X154.359 Y154.247 E73.81288
G1 X154.654 Y153.869 E73.83281
G1 X154.869 Y153.444 E73.85261
G1 X154.973 Y153.125 E73.86656
G1 X155.031 Y152.822 E73.87939
G1 X155.051 Y152.462 E73.89438
G1 X155.000 Y151.987 E73.91424
G1 X154.860 Y151.529 E73.93415
G1 X154.708 Y151.224 E73.94832
G1 X154.521 Y150.943 E73.96235
G1 X154.197 Y150.593 E73.98218
G1 X153.789 Y150.296 E74.00316
G1 X153.227 Y150.055 E74.02859
G1 X152.908 Y149.982 E74.04219
G1 X152.556 Y149.947 E74.05690
G1 X151.921 Y150.013 E74.08344
G1 X151.448 Y150.173 E74.10420
G1 X150.846 Y150.552 E74.13378
G1 X150.654 Y150.757 E74.14545
G1 X148.933 Y150.756 E74.21700
G1 X148.142 Y150.757 E74.24989
G1 X148.072 Y150.630 E74.25592
G1 X147.758 Y150.162 E74.27935
G1 X147.456 Y149.763 E74.30015
G1 X147.456 Y149.588 E74.30743
G1 X149.979 Y148.133 E74.42852
G1 X152.499 Y146.676 E74.54954
G1 X153.872 Y147.468 E74.61544
G1 X157.544 Y149.589 E74.79174
G0 F9000 X158.044 Y149.301
;TYPE:WALL-OUTER
G1 F2700 X158.043 Y154.175 E74.99437
G1 X158.045 Y154.617 E75.01275
G1 X158.044 Y155.700 E75.05778
G1 X152.501 Y158.901 E75.32389
G1 X146.955 Y155.699 E75.59014
G1 X146.956 Y155.067 E75.61642
G1 X147.597 Y154.185 E75.66175
G1 X147.848 Y153.744 E75.68284
G1 X150.883 Y153.742 E75.80902
G1 X151.100 Y153.999 E75.82301
G1 X151.454 Y154.264 E75.84139
G1 X151.928 Y154.468 E75.86285
G1 X152.173 Y154.523 E75.87329
G1 X152.443 Y154.550 E75.88457
G1 X152.976 Y154.495 E75.90684
G1 X153.464 Y154.310 E75.92854
G1 X153.791 Y154.092 E75.94488
G1 X153.990 Y153.908 E75.95615
G1 X154.230 Y153.600 E75.97238
G1 X154.406 Y153.253 E75.98856
G1 X154.488 Y153.000 E75.99962
G1 X154.534 Y152.761 E76.00974
G1 X154.550 Y152.475 E76.02164
G1 X154.508 Y152.088 E76.03783
G1 X154.394 Y151.715 E76.05404
G1 X154.275 Y151.475 E76.06518
G1 X154.127 Y151.254 E76.07624
G1 X153.863 Y150.968 E76.09242
G1 X153.540 Y150.733 E76.10903
G1 X153.072 Y150.532 E76.13020
G1 X152.827 Y150.477 E76.14064
G1 X152.557 Y150.450 E76.15192
G1 X152.028 Y150.504 E76.17403
G1 X151.664 Y150.628 E76.19002
G1 X151.167 Y150.941 E76.21444
G1 X150.871 Y151.257 E76.23244
G1 X147.849 Y151.257 E76.35808
G1 X147.645 Y150.891 E76.37550
G1 X147.351 Y150.453 E76.39743
G1 X146.973 Y149.953 E76.42349
G1 X146.956 Y149.932 E76.42462
G1 X146.956 Y149.299 E76.45093
G1 X152.500 Y146.099 E76.71707
G1 X158.044 Y149.301 E76.98324
G0 F9000 X157.368 Y149.856
;TYPE:FILL
G1 F2700 X156.977 Y149.465 E77.00623
G0 F9000 X157.368 Y150.740
G1 F2700 X154.885 Y148.256 E77.15225
G1 F2400 E76.55225
G1 Z1.500
G0 F9000 X152.793 Y147.048
G1 Z1.000
G1 F2400 E77.15225
G1 F2700 X157.368 Y151.624 E77.42127
G0 F9000 X157.368 Y152.508
G1 F2700 X152.017 Y147.156 E77.73592
G0 F9000 X151.456 Y147.479
G1 F2700 X157.368 Y153.391 E78.08352
G0 F9000 X157.368 Y154.275
G1 F2700 X155.185 Y152.093 E78.21184
G0 F9000 X155.179 Y152.970
G1 F2700 X157.368 Y155.159 E78.34055
G0 F9000 X156.903 Y155.578
G1 F2700 X154.965 Y153.640 E78.45450
G0 F9000 X154.627 Y154.186
G1 F2700 X156.343 Y155.902 E78.55539
G0 F9000 X155.782 Y156.225
G1 F2700 X154.192 Y154.635 E78.64888
G0 F9000 X153.639 Y154.965
G1 F2700 X155.222 Y156.549 E78.74198
G0 F9000 X154.662 Y156.873
G1 F2700 X152.964 Y155.174 E78.84185
G0 F9000 X152.099 Y155.193
G1 F2700 X154.101 Y157.196 E78.95958
G0 F9000 X153.541 Y157.520
G1 F2700 X150.439 Y154.417 E79.14200
G0 F9000 X149.555 Y154.417
G1 F2700 X152.981 Y157.843 E79.34344
G0 F9000 X152.201 Y157.947
G1 F2700 X148.672 Y154.418 E79.55093
G0 F9000 X148.062 Y154.692
G1 F2700 X150.110 Y156.740 E79.67134
G1 F2400 E79.07134
G1 Z1.500
G0 F9000 X148.020 Y155.534
G1 Z1.000
G1 F2400 E79.67134
G1 F2700 X147.693 Y155.207 E79.69057
G0 F9000 X148.370 Y150.581
G1 F2700 X148.006 Y150.217 E79.71197
G0 F9000 X148.095 Y149.422
G1 F2700 X149.254 Y150.581 E79.78011
G0 F9000 X150.138 Y150.581
G1 F2700 X148.655 Y149.098 E79.86731
G0 F9000 X149.215 Y148.774
G1 F2700 X150.808 Y150.367 E79.96097
G0 F9000 X151.351 Y150.026
G1 F2700 X149.776 Y148.451 E80.05358
G0 F9000 X150.336 Y148.127
G1 F2700 X152.033 Y149.824 E80.15335
G0 F9000 X152.898 Y149.805
G1 F2700 X150.896 Y147.803 E80.27106
G0 F9000 X150.953 Y147.771
;TYPE:SKIN
G1 F2700 X151.513 Y147.977 E80.29081
G1 X151.625 Y147.382 E80.31054
G1 X152.241 Y147.291 E80.33027
G1 X153.003 Y147.700 E80.36623
G0 F9000 X153.422 Y147.411
G1 F2700 X154.675 Y148.664 E80.43990
G0 F9000 X155.096 Y148.378
G1 F2700 X156.346 Y149.629 E80.51342
G0 F9000 X156.769 Y149.345
G1 F2700 X157.138 Y150.067 E80.54862
G1 X157.138 Y150.774 E80.57554
G1 X157.138 Y151.481 E80.60247
G1 X157.138 Y152.188 E80.62939
G1 X157.138 Y152.896 E80.65635
G1 X157.138 Y153.603 E80.68328
G1 X157.138 Y154.310 E80.71020
G1 X157.108 Y154.986 E80.73721
G1 X156.959 Y155.545 E80.75693
G1 X156.175 Y155.468 E80.77665
G1 X156.063 Y156.063 E80.79638
G1 X155.279 Y155.985 E80.81610
G1 X155.166 Y156.580 E80.83579
G1 X154.382 Y156.503 E80.85551
G1 X154.270 Y157.098 E80.87524
G1 X153.485 Y157.021 E80.89498
G1 X153.374 Y157.616 E80.91476
G1 X152.757 Y157.707 E80.93457
G1 X151.996 Y157.299 E80.97047
G0 F9000 X151.575 Y157.585
G1 F2700 X150.324 Y156.334 E81.04403
G0 F9000 X149.903 Y156.621
G1 F2700 X148.652 Y155.370 E81.11758
G0 F9000 X148.430 Y155.147
G1 F2700 X148.025 Y154.743 E81.14136
G0 F9000 X148.408 Y154.418
G1 F2700 X149.135 Y155.146 E81.18414
G0 F9000 X149.842 Y155.145
G1 F2700 X149.115 Y154.418 E81.22688
G0 F9000 X149.821 Y154.417
G1 F2700 X150.547 Y155.144 E81.26960
G0 F9000 X151.253 Y155.142
G1 F2700 X150.528 Y154.417 E81.31223
G1 F2400 E80.71223
G1 Z1.500
G0 F9000 X148.231 Y155.656
G1 Z1.000
G1 F2400 E81.31223
G1 F2700 X147.730 Y155.154 E81.34171
G1 F2400 E80.74171
G1 Z1.500
G0 F9000 X148.813 Y150.581
G1 Z1.000
G1 F2400 E81.34171
G1 F2700 X147.815 Y149.583 E81.40039
G0 F9000 X148.264 Y149.324
G1 F2700 X148.598 Y149.659 E81.42006
G0 F9000 X148.795 Y149.856
G1 F2700 X149.520 Y150.581 E81.46268
G0 F9000 X150.227 Y150.581
G1 F2700 X149.502 Y149.856 E81.50531
G0 F9000 X149.046 Y149.400
G1 F2700 X148.936 Y148.936 E81.52498
G1 X149.719 Y149.011 E81.54460
G1 X149.832 Y148.417 E81.56426
G1 X150.616 Y148.494 E81.58398
G1 X150.504 Y148.029 E81.60386
G1 F2400 E81.00386
G1 Z1.500
G0 F9000 X150.209 Y149.856
G1 Z1.000
G1 F2400 E81.60386
G1 F2700 X150.971 Y150.264 E81.63592
G1 X150.917 Y149.856 E81.65303
G1 F2400 E81.05303
G1 Z1.500
G0 F9000 X163.055 Y149.764
;TYPE:WALL-INNER
G1 Z1.000
G1 F2400 E81.65303
G1 F2700 X163.055 Y149.588 E81.66034
G1 X165.578 Y148.133 E81.78143
G1 X168.099 Y146.676 E81.90249
G1 X169.472 Y147.468 E81.96839
G1 X173.144 Y149.589 E82.14469
G1 X173.143 Y152.501 E82.26575
G1 X173.144 Y152.846 E82.28010
G1 X173.143 Y154.175 E82.33535
G1 X173.145 Y154.616 E82.35369
G1 X173.144 Y155.411 E82.38674
G1 X168.100 Y158.324 E82.62890
G1 X166.726 Y157.532 E82.69484
G1 X163.054 Y155.411 E82.87114
G1 X163.055 Y155.237 E82.87837
G1 X163.617 Y154.457 E82.91834
G1 X163.742 Y154.244 E82.92861
G1 X164.798 Y154.243 E82.97251
G1 X165.229 Y154.244 E82.99043
G1 X166.181 Y154.243 E83.03001
G1 X166.251 Y154.243 E83.03292
G1 X166.354 Y154.365 E83.03956
G1 X166.801 Y154.700 E83.06278
G1 X167.372 Y154.945 E83.08862
G1 X167.691 Y155.018 E83.10222
G1 X168.043 Y155.053 E83.11693
G1 X168.693 Y154.986 E83.14409
G1 X169.294 Y154.757 E83.17083
G1 X169.702 Y154.486 E83.19120
G1 X169.959 Y154.247 E83.20579
G1 X170.254 Y153.869 E83.22572
G1 X170.469 Y153.444 E83.24553
G1 X170.573 Y153.125 E83.25947
G1 X170.631 Y152.822 E83.27230
G1 X170.651 Y152.462 E83.28729
G1 X170.600 Y151.987 E83.30715
G1 X170.460 Y151.529 E83.32706
G1 X170.308 Y151.224 E83.34123
G1 X170.121 Y150.943 E83.35526
G1 X169.797 Y150.593 E83.37509
G1 X169.389 Y150.296 E83.39607
G1 X168.827 Y150.055 E83.42150
G1 X168.508 Y149.982 E83.43510
G1 X168.156 Y149.947 E83.44981
G1 X167.520 Y150.013 E83.47639
G1 X167.047 Y150.173 E83.49715
G1 X166.445 Y150.552 E83.52673
G1 X166.253 Y150.757 E83.53841
G1 X164.533 Y150.756 E83.60991
G1 X163.743 Y150.757 E83.64276
G1 X163.356 Y150.162 E83.67227
G1 X163.055 Y149.764 E83.69301
G0 F9000 X162.572 Y149.953
;TYPE:WALL-OUTER
G1 F2700 X162.555 Y149.932 E83.69414
G1 X162.555 Y149.299 E83.72046
G1 X168.100 Y146.099 E83.98662
G1 X173.644 Y149.301 E84.25280
G1 X173.643 Y154.175 E84.45544
G1 X173.645 Y154.617 E84.47381
G1 X173.644 Y155.700 E84.51884
G1 X168.101 Y158.901 E84.78496
G1 X162.554 Y155.699 E85.05124
G1 X162.555 Y155.067 E85.07751
G1 X163.196 Y154.187 E85.12278
G1 X163.454 Y153.744 E85.14409
G1 X166.482 Y153.742 E85.26998
G1 X166.699 Y153.999 E85.28396
G1 X167.053 Y154.264 E85.30235
G1 X167.527 Y154.468 E85.32380
G1 X167.772 Y154.523 E85.33424
G1 X168.042 Y154.550 E85.34552
G1 X168.576 Y154.495 E85.36784
G1 X169.064 Y154.310 E85.38954
G1 X169.391 Y154.092 E85.40588
G1 X169.590 Y153.908 E85.41715
G1 X169.830 Y153.600 E85.43338
G1 X170.006 Y153.253 E85.44956
G1 X170.088 Y153.000 E85.46061
G1 X170.134 Y152.761 E85.47073
G1 X170.150 Y152.475 E85.48264
G1 X170.108 Y152.088 E85.49883
G1 X169.994 Y151.715 E85.51504
G1 X169.875 Y151.475 E85.52618
G1 X169.727 Y151.254 E85.53724
G1 X169.463 Y150.968 E85.55342
G1 X169.140 Y150.733 E85.57003
G1 X168.672 Y150.532 E85.59120
G1 X168.427 Y150.477 E85.60164
G1 X168.157 Y150.450 E85.61292
G1 X167.627 Y150.504 E85.63507
G1 X167.263 Y150.628 E85.65106
G1 X166.766 Y150.941 E85.67548
G1 X166.470 Y151.257 E85.69348
G1 X163.449 Y151.257 E85.81908
G1 X163.245 Y150.891 E85.83650
G1 X162.949 Y150.453 E85.85848
G1 X162.572 Y149.953 E85.88451
G0 F9000 X163.331 Y149.631
;TYPE:FILL
G1 F2700 X164.281 Y150.581 E85.94037
G0 F9000 X165.165 Y150.581
G1 F2700 X163.891 Y149.308 E86.01524
G0 F9000 X164.451 Y148.984
G1 F2700 X166.049 Y150.581 E86.10917
G0 F9000 X166.598 Y150.247
G1 F2700 X165.011 Y148.660 E86.20248
G0 F9000 X165.572 Y148.337
G1 F2700 X167.178 Y149.943 E86.29691
G0 F9000 X167.915 Y149.796
G1 F2700 X166.132 Y148.013 E86.40174
G0 F9000 X166.693 Y147.690
G1 F2700 X168.896 Y149.893 E86.53127
G1 F2400 E85.93127
G1 Z1.500
G0 F9000 X169.126 Y147.472
G1 Z1.000
G1 F2400 E86.53127
G1 F2700 X172.968 Y151.314 E86.75716
G0 F9000 X172.968 Y152.198
G1 F2700 X167.813 Y147.042 E87.06029
G0 F9000 X167.253 Y147.366
G1 F2700 X172.968 Y153.082 E87.39634
G0 F9000 X172.968 Y153.966
G1 F2700 X170.690 Y151.687 E87.53030
G0 F9000 X170.812 Y152.694
G1 F2700 X172.968 Y154.850 E87.65707
G0 F9000 X172.699 Y155.464
G1 F2700 X170.659 Y153.424 E87.77701
G0 F9000 X170.363 Y154.012
G1 F2700 X172.139 Y155.788 E87.88143
G0 F9000 X171.579 Y156.112
G1 F2700 X169.955 Y154.488 E87.97692
G0 F9000 X169.448 Y154.864
G1 F2700 X171.018 Y156.435 E88.06926
G0 F9000 X170.458 Y156.759
G1 F2700 X168.823 Y155.123 E88.16542
G0 F9000 X168.043 Y155.228
G1 F2700 X169.898 Y157.083 E88.27449
G0 F9000 X169.337 Y157.406
G1 F2700 X166.839 Y154.907 E88.42139
G0 F9000 X165.466 Y154.418
G1 F2700 X168.777 Y157.730 E88.61609
G0 F9000 X168.217 Y158.053
G1 F2700 X164.583 Y154.419 E88.82976
G0 F9000 X163.789 Y154.509
G1 F2700 X166.447 Y157.167 E88.98604
G1 F2400 E88.38604
G1 Z1.500
G0 F9000 X164.355 Y155.959
G1 Z1.000
G1 F2400 E88.98604
G1 F2700 X163.421 Y155.025 E89.04095
G1 F2400 E88.44095
G1 Z1.500
G0 F9000 X171.218 Y148.680
G1 Z1.000
G1 F2400 E89.04095
G1 F2700 X172.968 Y150.430 E89.14385
G0 F9000 X172.968 Y150.695
;TYPE:SKIN
G1 F2700 X172.738 Y150.111 E89.17083
G1 X172.266 Y149.285 E89.21038
G0 F9000 X171.843 Y149.569
G1 F2700 X170.592 Y148.318 E89.28394
G0 F9000 X170.170 Y148.603
G1 F2700 X168.918 Y147.351 E89.35755
G0 F9000 X168.497 Y147.637
G1 F2700 X167.645 Y147.139 E89.39439
G1 X167.532 Y147.733 E89.41405
G1 X166.749 Y147.656 E89.43381
G1 X166.636 Y148.251 E89.45350
G1 X165.853 Y148.175 E89.47312
G1 X165.740 Y148.769 E89.49278
G1 X164.956 Y148.692 E89.51250
G1 X164.843 Y149.286 E89.53216
G1 X164.059 Y149.210 E89.55180
G1 X164.171 Y149.675 E89.57169
G0 F9000 X164.352 Y149.857
G1 F2700 X165.077 Y150.581 E89.61429
G0 F9000 X164.370 Y150.581
G1 F2700 X163.387 Y149.599 E89.67205
G1 F2400 E89.07205
G1 Z1.500
G0 F9000 X165.059 Y149.857
G1 Z1.000
G1 F2400 E89.67205
G1 F2700 X165.784 Y150.581 E89.71465
G0 F9000 X166.329 Y150.419
G1 F2700 X166.120 Y149.857 E89.74766
G1 X166.761 Y150.144 E89.77686
G1 F2400 E89.17686
G1 Z1.500
G0 F9000 X166.085 Y154.418
G1 Z1.000
G1 F2400 E89.77686
G1 F2700 X166.810 Y155.143 E89.81948
G0 F9000 X166.105 Y155.144
G1 F2700 X165.378 Y154.418 E89.86220
G0 F9000 X164.672 Y154.419
G1 F2700 X165.399 Y155.146 E89.90494
G0 F9000 X164.692 Y155.147
G1 F2700 X163.965 Y154.419 E89.94772
G0 F9000 X163.607 Y154.768
G1 F2700 X163.987 Y155.148 E89.97006
G0 F9000 X164.154 Y155.315
G1 F2700 X165.402 Y156.564 E90.04347
G0 F9000 X165.827 Y156.281
G1 F2700 X167.075 Y157.529 E90.11685
G0 F9000 X167.500 Y157.247
G1 F2700 X168.273 Y158.020 E90.16230
G0 F9000 X168.722 Y157.761
G1 F2700 X168.610 Y157.296 E90.18198
G1 X169.394 Y157.373 E90.20170
G1 X169.506 Y156.778 E90.22143
G1 X170.290 Y156.855 E90.24115
G1 X170.403 Y156.261 E90.26091
G1 X171.187 Y156.338 E90.28063
G1 X171.300 Y155.743 E90.30032
G1 X172.083 Y155.820 E90.32007
G1 X172.196 Y155.225 E90.33971
G1 X172.862 Y155.184 E90.35941
G1 X172.738 Y154.354 E90.38634
G1 X172.738 Y153.646 E90.41331
G1 X172.738 Y152.939 E90.44023
G1 X172.738 Y152.232 E90.46716
G1 X172.738 Y151.525 E90.49408
G1 X172.509 Y150.942 E90.52012
G1 F2400 E89.92012
G1 Z1.500
G0 F9000 X163.729 Y155.598
G1 Z1.000
G1 F2400 E90.52012
G1 F2700 X163.311 Y155.179 E90.54473
;LAYER:5
M106 S51
G1 F2400 E89.94473
G1 Z1.500
G0 F9000 X157.550 Y155.415 Z1.200
;TYPE:WALL-INNER
G1 Z1.200
G1 F2400 E90.54473
G1 F2700 X152.500 Y158.330 E90.78715
G1 X147.450 Y155.415 E91.02957
G1 X147.450 Y155.393 E91.03049
G1 X148.015 Y154.673 E91.06854
G1 X148.099 Y154.549 E91.07476
G1 X149.200 Y154.548 E91.12054
G1 X150.094 Y154.549 E91.15771
G1 X150.988 Y154.548 E91.19487
G1 X151.068 Y154.613 E91.19916
G1 X151.480 Y154.841 E91.21874
G1 X152.068 Y155.015 E91.24423
G1 X152.454 Y155.054 E91.26036
G1 X153.219 Y154.954 E91.29244
G1 X153.847 Y154.671 E91.32107
G1 X154.256 Y154.353 E91.34261
G1 X154.661 Y153.863 E91.36904
G1 X154.921 Y153.314 E91.39430
G1 X155.030 Y152.835 E91.41472
G1 X155.051 Y152.449 E91.43079
G1 X154.996 Y151.963 E91.45113
G1 X154.801 Y151.390 E91.47629
G1 X154.451 Y150.851 E91.50301
G1 X154.055 Y150.475 E91.52571
G1 X153.531 Y150.163 E91.55107
G1 X152.932 Y149.985 E91.57705
G1 X152.546 Y149.946 E91.59318
G1 X151.807 Y150.042 E91.62416
G1 X151.452 Y150.174 E91.63991
G1 X150.999 Y150.435 E91.66164
G1 X150.980 Y150.451 E91.66268
G1 X150.095 Y150.452 E91.69947
G1 X149.201 Y150.451 E91.73664
G1 X148.099 Y150.452 E91.78245
G1 X147.685 Y149.892 E91.81141
G1 X147.450 Y149.608 E91.82673
G1 X147.450 Y149.585 E91.82769
G1 X152.500 Y146.670 E92.07011
G1 X157.550 Y149.585 E92.31253
G1 X157.550 Y155.415 E92.55492
G0 F9000 X158.050 Y155.703
;TYPE:WALL-OUTER
G1 F2700 X152.500 Y158.908 E92.82137
G1 X146.950 Y155.703 E93.08782
G1 X146.950 Y155.214 E93.10815
G1 X147.609 Y154.381 E93.15231
G1 X147.833 Y154.049 E93.16896
G1 X151.165 Y154.048 E93.30749
G1 X151.348 Y154.196 E93.31728
G1 X151.675 Y154.377 E93.33281
G1 X152.165 Y154.522 E93.35406
G1 X152.447 Y154.551 E93.36584
G1 X153.081 Y154.468 E93.39243
G1 X153.587 Y154.240 E93.41550
G1 X153.905 Y153.992 E93.43227
G1 X154.236 Y153.592 E93.45385
G1 X154.446 Y153.149 E93.47424
G1 X154.533 Y152.765 E93.49061
G1 X154.550 Y152.464 E93.50314
G1 X154.505 Y152.073 E93.51950
G1 X154.348 Y151.610 E93.53983
G1 X154.064 Y151.173 E93.56150
G1 X153.751 Y150.876 E93.57944
G1 X153.329 Y150.624 E93.59987
G1 X152.835 Y150.478 E93.62129
G1 X152.553 Y150.449 E93.63307
G1 X151.928 Y150.531 E93.65928
G1 X151.665 Y150.628 E93.67093
G1 X151.288 Y150.846 E93.68904
G1 X151.164 Y150.951 E93.69580
G1 X147.832 Y150.952 E93.83432
G1 X147.293 Y150.203 E93.87269
G1 X146.950 Y149.787 E93.89511
G1 X146.950 Y149.297 E93.91548
G1 X152.500 Y146.092 E94.18193
G1 X158.050 Y149.297 E94.44838
G1 X158.050 Y155.703 E94.71471
G0 F9000 X157.374 Y155.079
;TYPE:FILL
G1 F2700 X156.821 Y155.632 E94.74723
G1 F2400 E94.14723
G1 Z1.700
G0 F9000 X157.374 Y154.195
G1 Z1.200
G1 F2400 E94.74723
G1 F2700 X154.729 Y156.840 E94.90274
G1 F2400 E94.30274
G1 Z1.700
G0 F9000 X152.637 Y158.048
G1 Z1.200
G1 F2400 E94.90274
G1 F2700 X157.374 Y153.311 E95.18126
G0 F9000 X157.374 Y152.427
G1 F2700 X151.976 Y157.825 E95.49864
G0 F9000 X151.416 Y157.501
G1 F2700 X157.374 Y151.543 E95.84895
G0 F9000 X157.374 Y150.659
G1 F2700 X155.204 Y152.829 E95.97654
G0 F9000 X155.173 Y151.977
G1 F2700 X157.374 Y149.775 E96.10598
G0 F9000 X156.870 Y149.395
G1 F2700 X154.957 Y151.308 E96.21845
G0 F9000 X154.608 Y150.773
G1 F2700 X156.310 Y149.072 E96.31850
G0 F9000 X155.750 Y148.748
G1 F2700 X154.162 Y150.335 E96.41184
G0 F9000 X153.608 Y150.006
G1 F2700 X155.190 Y148.424 E96.50485
G0 F9000 X154.629 Y148.101
G1 F2700 X152.921 Y149.809 E96.60527
G0 F9000 X152.007 Y149.839
G1 F2700 X154.069 Y147.777 E96.72651
G0 F9000 X153.508 Y147.454
G1 F2700 X150.687 Y150.275 E96.89238
G0 F9000 X149.803 Y150.275
G1 F2700 X152.948 Y147.130 E97.07729
G0 F9000 X152.084 Y147.110
G1 F2700 X148.919 Y150.275 E97.26338
G0 F9000 X148.123 Y150.188
G1 F2700 X149.993 Y148.317 E97.37336
G1 F2400 E96.77336
G1 Z1.700
G0 F9000 X147.902 Y149.524
G1 Z1.200
G1 F2400 E97.37336
G1 F2700 X147.742 Y149.684 E97.38277
G0 F9000 X148.891 Y154.722
G1 F2700 X148.054 Y155.560 E97.43201
G0 F9000 X148.614 Y155.884
G1 F2700 X149.775 Y154.722 E97.50030
G0 F9000 X150.659 Y154.722
G1 F2700 X149.174 Y156.207 E97.58761
G0 F9000 X149.734 Y156.531
G1 F2700 X151.316 Y154.949 E97.68063
G0 F9000 X151.980 Y155.169
G1 F2700 X150.295 Y156.854 E97.77970
G0 F9000 X150.855 Y157.178
G1 F2700 X152.857 Y155.176 E97.89741
G0 F9000 X151.501 Y155.028
;TYPE:SKIN
G1 F2700 X151.159 Y155.017 E97.91004
G1 X150.486 Y154.982 E97.93660
G1 X149.779 Y154.982 E97.96717
G1 X149.072 Y154.982 E97.99774
G1 X148.351 Y155.349 E98.02828
G1 X148.333 Y155.721 E98.03627
G1 X148.849 Y155.912 E98.04419
G1 X149.298 Y156.171 E98.05216
G1 X149.746 Y156.430 E98.06012
G1 X150.194 Y156.689 E98.06812
G1 X150.643 Y156.947 E98.07613
G1 X151.091 Y157.206 E98.08409
G1 X151.539 Y157.465 E98.09205
G1 X151.987 Y157.724 E98.10006
G1 X152.562 Y157.856 E98.10805
G1 X153.353 Y157.419 E98.14562
G0 F9000 X154.518 Y156.962
G1 F2700 X155.026 Y156.453 E98.17552
G0 F9000 X156.192 Y155.995
G1 F2700 X156.944 Y155.242 E98.20534
G1 X157.281 Y154.552 E98.21620
G1 X157.281 Y153.845 E98.22701
G1 X157.281 Y153.138 E98.23783
G1 X157.281 Y152.430 E98.24872
G1 X157.281 Y151.723 E98.25960
G1 X157.281 Y151.016 E98.27041
G1 X157.281 Y150.309 E98.28123
G1 X157.206 Y149.677 E98.29208
G1 X156.746 Y149.430 E98.30002
G1 X156.297 Y149.171 E98.30800
G1 X155.849 Y148.912 E98.31592
G1 X155.401 Y148.654 E98.32391
G1 X154.952 Y148.395 E98.33184
G1 X154.504 Y148.136 E98.33976
G1 X154.056 Y147.877 E98.34772
G1 X153.608 Y147.618 E98.35568
G1 X153.159 Y147.360 E98.36365
G1 X152.711 Y147.101 E98.37152
G1 X152.201 Y147.258 E98.39370
G0 F9000 X151.038 Y147.714
G1 F2700 X150.528 Y148.224 E98.42369
G0 F9000 X149.365 Y148.679
G1 F2700 X148.925 Y149.473 E98.45373
G1 X148.243 Y150.155 E98.48429
G1 X148.290 Y149.755 E98.50103
G0 F9000 X149.183 Y150.275
G1 F2700 X149.797 Y150.015 E98.53164
G1 X150.504 Y150.015 E98.56215
G1 X151.118 Y149.755 E98.58987
G1 F2400 E97.98987
G1 Z1.700
G0 F9000 X148.272 Y154.722
G1 Z1.200
G1 F2400 E98.58987
G1 F2700 X147.927 Y155.067 E98.61015
G1 F2400 E98.01015
G1 Z1.700
G0 F9000 X163.050 Y155.393
;TYPE:WALL-INNER
G1 Z1.200
G1 F2400 E98.61015
G1 F2700 X163.613 Y154.674 E98.64812
G1 X163.698 Y154.549 E98.65440
G1 X164.799 Y154.548 E98.70018
G1 X165.693 Y154.549 E98.73735
G1 X166.587 Y154.548 E98.77451
G1 X166.667 Y154.613 E98.77880
G1 X167.079 Y154.841 E98.79838
G1 X167.667 Y155.015 E98.82387
G1 X168.045 Y155.053 E98.83967
G1 X168.714 Y154.981 E98.86764
G1 X169.410 Y154.695 E98.89892
G1 X169.854 Y154.356 E98.92215
G1 X170.261 Y153.863 E98.94873
G1 X170.521 Y153.314 E98.97398
G1 X170.630 Y152.835 E98.99441
G1 X170.651 Y152.449 E99.01048
G1 X170.596 Y151.963 E99.03081
G1 X170.401 Y151.390 E99.05598
G1 X170.051 Y150.851 E99.08270
G1 X169.655 Y150.475 E99.10540
G1 X169.131 Y150.163 E99.13075
G1 X168.532 Y149.985 E99.15673
G1 X168.154 Y149.947 E99.17253
G1 X167.508 Y150.016 E99.19954
G1 X167.060 Y150.169 E99.21922
G1 X166.598 Y150.435 E99.24138
G1 X166.579 Y150.451 E99.24242
G1 X165.694 Y150.452 E99.27921
G1 X164.800 Y150.451 E99.31638
G1 X163.699 Y150.452 E99.36215
G1 X163.284 Y149.893 E99.39110
G1 X163.050 Y149.608 E99.40643
G1 X163.050 Y149.585 E99.40739
G1 X168.100 Y146.670 E99.64981
G1 X173.150 Y149.585 E99.89223
G1 X173.150 Y155.415 E100.13461
G1 X168.100 Y158.330 E100.37703
G1 X163.050 Y155.415 E100.61946
G1 X163.050 Y155.393 E100.62037
G0 F9000 X163.208 Y154.381
;TYPE:WALL-OUTER
G1 F2700 X163.435 Y154.049 E100.63709
G1 X166.764 Y154.048 E100.77550
G1 X166.947 Y154.196 E100.78528
G1 X167.274 Y154.377 E100.80082
G1 X167.764 Y154.522 E100.82206
G1 X168.043 Y154.550 E100.83372
G1 X168.590 Y154.492 E100.85659
G1 X169.159 Y154.258 E100.88217
G1 X169.505 Y153.993 E100.90029
G1 X169.836 Y153.592 E100.92191
G1 X170.046 Y153.149 E100.94229
G1 X170.133 Y152.765 E100.95866
G1 X170.150 Y152.464 E100.97119
G1 X170.105 Y152.073 E100.98756
G1 X169.948 Y151.610 E101.00788
G1 X169.664 Y151.173 E101.02955
G1 X169.351 Y150.876 E101.04749
G1 X168.929 Y150.624 E101.06792
G1 X168.435 Y150.478 E101.08934
G1 X168.156 Y150.450 E101.10100
G1 X167.617 Y150.507 E101.12353
G1 X167.267 Y150.626 E101.13890
G1 X166.887 Y150.846 E101.15716
G1 X166.763 Y150.951 E101.16391
G1 X163.433 Y150.952 E101.30236
G1 X162.892 Y150.203 E101.34077
G1 X162.550 Y149.787 E101.36316
G1 X162.550 Y149.297 E101.38353
G1 X168.100 Y146.092 E101.64998
G1 X173.650 Y149.297 E101.91644
G1 X173.650 Y155.703 E102.18277
G1 X168.100 Y158.908 E102.44922
G1 X162.550 Y155.703 E102.71567
G1 X162.550 Y155.214 E102.73600
G1 X163.208 Y154.381 E102.78014
G0 F9000 X163.917 Y154.723
;TYPE:FILL
G1 F2700 X163.362 Y155.278 E102.81277
G0 F9000 X163.850 Y155.674
G1 F2700 X164.801 Y154.723 E102.86868
G0 F9000 X165.685 Y154.723
G1 F2700 X164.410 Y155.998 E102.94365
G0 F9000 X164.970 Y156.321
G1 F2700 X166.549 Y154.742 E103.03649
G0 F9000 X167.136 Y155.040
G1 F2700 X165.530 Y156.645 E103.13089
G0 F9000 X166.090 Y156.969
G1 F2700 X167.851 Y155.208 E103.23443
G0 F9000 X168.813 Y155.130
G1 F2700 X166.651 Y157.292 E103.36154
G0 F9000 X167.211 Y157.616
G1 F2700 X172.973 Y151.854 E103.70033
G0 F9000 X172.973 Y152.737
G1 F2700 X167.772 Y157.939 E104.00616
G0 F9000 X168.969 Y157.626
G1 F2700 X172.973 Y153.621 E104.24160
G0 F9000 X172.973 Y154.505
G1 F2700 X171.061 Y156.417 E104.35402
G1 F2400 E103.75402
G1 Z1.700
G0 F9000 X170.720 Y153.223
G1 Z1.200
G1 F2400 E104.35402
G1 F2700 X172.973 Y150.970 E104.48649
G0 F9000 X172.973 Y150.086
G1 F2700 X170.804 Y152.255 E104.61402
G0 F9000 X170.636 Y151.540
G1 F2700 X172.667 Y149.508 E104.73346
G0 F9000 X172.106 Y149.185
G1 F2700 X170.330 Y150.961 E104.83789
G0 F9000 X169.921 Y150.487
G1 F2700 X171.546 Y148.861 E104.93346
G0 F9000 X170.986 Y148.538
G1 F2700 X169.402 Y150.121 E105.02656
G0 F9000 X168.767 Y149.873
G1 F2700 X170.426 Y148.214 E105.12411
G0 F9000 X169.865 Y147.891
G1 F2700 X167.965 Y149.791 E105.23582
G0 F9000 X166.698 Y150.174
G1 F2700 X169.305 Y147.567 E105.38910
G0 F9000 X168.744 Y147.244
G1 F2700 X165.712 Y150.276 E105.56737
G0 F9000 X164.828 Y150.276
G1 F2700 X168.184 Y146.920 E105.76469
G1 F2400 E105.16469
G1 Z1.700
G0 F9000 X166.325 Y147.895
G1 Z1.200
G1 F2400 E105.76469
G1 F2700 X163.944 Y150.276 E105.90468
G0 F9000 X163.477 Y149.859
G1 F2700 X164.234 Y149.103 E105.94916
G0 F9000 X164.350 Y149.251
;TYPE:SKIN
G1 F2700 X164.857 Y148.744 E105.97897
G0 F9000 X164.552 Y149.756
G1 F2700 X163.810 Y150.143 E106.00952
G1 X163.845 Y149.756 E106.02568
G0 F9000 X164.739 Y150.276
G1 F2700 X165.353 Y150.016 E106.05628
G1 X166.060 Y150.016 E106.08685
G1 X166.938 Y149.845 E106.11742
G1 X167.343 Y149.793 E106.13439
G1 F2400 E105.53439
G1 Z1.700
G0 F9000 X166.023 Y148.285
G1 Z1.200
G1 F2400 E106.13439
G1 F2700 X166.532 Y147.776 E106.16432
G0 F9000 X167.697 Y147.318
G1 F2700 X168.283 Y147.085 E106.18960
G1 X168.731 Y147.344 E106.19756
G1 X169.180 Y147.603 E106.20549
G1 X169.628 Y147.861 E106.21340
G1 X170.076 Y148.120 E106.22127
G1 X170.525 Y148.379 E106.22916
G1 X170.973 Y148.638 E106.23703
G1 X171.421 Y148.897 E106.24491
G1 X171.870 Y149.155 E106.25287
G1 X172.318 Y149.414 E106.26075
G1 X172.792 Y149.648 E106.26866
G1 X172.881 Y150.265 E106.27944
G1 X172.881 Y150.973 E106.29021
G1 X172.881 Y151.680 E106.30097
G1 X172.881 Y152.387 E106.31173
G1 X172.881 Y153.094 E106.32249
G1 X172.881 Y153.801 E106.33325
G1 X172.881 Y154.508 E106.34400
G1 X172.492 Y155.250 E106.35480
G1 X171.688 Y156.055 E106.40210
G0 F9000 X170.523 Y156.513
G1 F2700 X170.013 Y157.022 E106.43206
G0 F9000 X168.848 Y157.481
G1 F2700 X168.095 Y157.880 E106.46189
G1 X167.559 Y157.709 E106.46980
G1 X167.110 Y157.450 E106.47777
G1 X166.662 Y157.191 E106.48569
G1 X166.214 Y156.932 E106.49365
G1 X165.766 Y156.674 E106.50164
G1 X165.317 Y156.415 E106.50958
G1 X164.869 Y156.156 E106.51754
G1 X164.421 Y155.897 E106.52550
G1 X163.972 Y155.638 E106.53347
G1 X163.847 Y155.411 E106.54140
G1 X164.627 Y154.984 E106.57208
G1 X165.334 Y154.984 E106.60271
G1 X166.042 Y154.983 E106.63338
G1 X166.834 Y154.898 E106.66080
G1 X166.842 Y155.244 E106.67519
G1 F2400 E106.07519
G1 Z1.700
G0 F9000 X163.828 Y154.723
G1 Z1.200
G1 F2400 E106.67519
G1 F2700 X163.681 Y154.869 E106.68381
;LAYER:6
M106 S63
G0 F9000 X157.550 Y155.415 Z1.400
;TYPE:WALL-INNER
G1 F2700 X152.500 Y158.330 E106.92623
G1 X147.510 Y155.449 E107.16578
G1 X148.008 Y154.854 E107.19804
G1 X148.073 Y154.768 E107.20252
G1 X148.990 Y154.768 E107.24065
G1 X149.204 Y154.767 E107.24955
G1 X149.798 Y154.768 E107.27424
G1 X150.803 Y154.768 E107.31602
G1 X151.338 Y154.769 E107.33827
G1 X151.777 Y154.948 E107.35798
G1 X152.243 Y155.038 E107.37771
G1 X152.593 Y155.051 E107.39227
G1 X153.060 Y154.989 E107.41186
G1 X153.451 Y154.869 E107.42886
G1 X154.013 Y154.560 E107.45552
G1 X154.526 Y154.053 E107.48551
G1 X154.732 Y153.738 E107.50116
G1 X154.936 Y153.260 E107.52277
G1 X155.030 Y152.834 E107.54090
G1 X155.051 Y152.495 E107.55502
G1 X155.022 Y152.104 E107.57132
G1 X154.876 Y151.572 E107.59426
G1 X154.777 Y151.350 E107.60437
G1 X154.357 Y150.745 E107.63499
G1 X154.048 Y150.473 E107.65210
G1 X153.758 Y150.281 E107.66656
G1 X153.235 Y150.054 E107.69026
G1 X152.757 Y149.962 E107.71050
G1 X152.407 Y149.949 E107.72506
G1 X151.940 Y150.011 E107.74465
G1 X151.449 Y150.177 E107.76620
G1 X151.348 Y150.231 E107.77096
G1 X149.798 Y150.232 E107.83540
G1 X149.201 Y150.233 E107.86022
G1 X148.071 Y150.232 E107.90720
G1 X147.586 Y149.637 E107.93912
G1 X147.511 Y149.551 E107.94386
G1 X152.500 Y146.670 E108.18338
G1 X157.550 Y149.585 E108.42580
G1 X157.550 Y155.415 E108.66818
G0 F9000 X158.050 Y155.703
;TYPE:WALL-OUTER
G1 F2700 X152.500 Y158.908 E108.93464
G1 X146.950 Y155.703 E109.20109
G1 X146.950 Y155.332 E109.21651
G1 X147.280 Y154.951 E109.23747
G1 X147.615 Y154.544 E109.25939
G1 X147.824 Y154.268 E109.27378
G1 X148.989 Y154.268 E109.32221
G1 X149.202 Y154.267 E109.33107
G1 X151.470 Y154.269 E109.42536
G1 X151.588 Y154.336 E109.43100
G1 X151.918 Y154.466 E109.44575
G1 X152.300 Y154.540 E109.46193
G1 X152.569 Y154.550 E109.47312
G1 X152.953 Y154.499 E109.48922
G1 X153.255 Y154.406 E109.50236
G1 X153.711 Y154.155 E109.52400
G1 X154.137 Y153.735 E109.54887
G1 X154.289 Y153.501 E109.56047
G1 X154.458 Y153.107 E109.57830
G1 X154.533 Y152.765 E109.59285
G1 X154.550 Y152.498 E109.60398
G1 X154.527 Y152.189 E109.61686
G1 X154.404 Y151.741 E109.63617
G1 X154.340 Y151.597 E109.64273
G1 X153.981 Y151.080 E109.66889
G1 X153.743 Y150.871 E109.68206
G1 X153.519 Y150.722 E109.69325
G1 X153.086 Y150.535 E109.71286
G1 X152.700 Y150.460 E109.72920
G1 X152.431 Y150.450 E109.74040
G1 X152.047 Y150.501 E109.75650
G1 X151.664 Y150.629 E109.77329
G1 X151.472 Y150.731 E109.78233
G1 X147.912 Y150.732 E109.93034
G1 X147.824 Y150.732 E109.93400
G1 X147.205 Y149.961 E109.97510
G1 X146.950 Y149.669 E109.99122
G1 X146.950 Y149.297 E110.00669
G1 X152.500 Y146.092 E110.27314
G1 X158.050 Y149.297 E110.53959
G1 X158.050 Y155.703 E110.80592
G0 F9000 X157.374 Y155.165
;TYPE:FILL
G1 F2700 X155.178 Y152.969 E110.93504
G0 F9000 X154.963 Y153.638
G1 F2700 X156.906 Y155.581 E111.04928
G0 F9000 X156.346 Y155.905
G1 F2700 X154.633 Y154.192 E111.15000
G0 F9000 X154.188 Y154.631
G1 F2700 X155.786 Y156.228 E111.24392
G0 F9000 X155.226 Y156.552
G1 F2700 X153.638 Y154.964 E111.33729
G0 F9000 X152.966 Y155.177
G1 F2700 X154.665 Y156.875 E111.43716
G0 F9000 X154.105 Y157.199
G1 F2700 X152.091 Y155.185 E111.55557
G0 F9000 X150.965 Y154.943
G1 F2700 X153.545 Y157.523 E111.70727
G0 F9000 X152.984 Y157.846
G1 F2700 X150.081 Y154.943 E111.87795
G0 F9000 X149.196 Y154.942
G1 F2700 X152.218 Y157.964 E112.05563
G1 F2400 E111.45563
G1 Z1.900
G0 F9000 X150.126 Y156.756
G1 Z1.400
G1 F2400 E112.05563
G1 F2700 X148.312 Y154.942 E112.16229
G0 F9000 X147.827 Y155.340
G1 F2700 X148.034 Y155.548 E112.17449
G1 F2400 E111.57449
G1 Z1.900
G0 F9000 X148.729 Y150.055
G1 Z1.400
G1 F2400 E112.17449
G1 F2700 X148.090 Y149.417 E112.21203
G0 F9000 X148.650 Y149.093
G1 F2700 X149.613 Y150.055 E112.26862
G0 F9000 X150.497 Y150.055
G1 F2700 X149.211 Y148.770 E112.34421
G0 F9000 X149.771 Y148.446
G1 F2700 X151.354 Y150.028 E112.43725
G0 F9000 X152.030 Y149.821
G1 F2700 X150.332 Y148.123 E112.53709
G0 F9000 X150.892 Y147.799
G1 F2700 X152.905 Y149.812 E112.65544
G1 F2400 E112.05544
G1 Z1.900
G0 F9000 X154.869 Y148.241
G1 Z1.400
G1 F2400 E112.65544
G1 F2700 X157.374 Y150.745 E112.80270
G0 F9000 X157.374 Y149.862
G1 F2700 X156.960 Y149.447 E112.82707
G1 F2400 E112.22707
G1 Z1.900
G0 F9000 X157.374 Y151.629
G1 Z1.400
G1 F2400 E112.82707
G1 F2700 X152.779 Y147.035 E113.09721
G0 F9000 X152.013 Y147.152
G1 F2700 X157.374 Y152.513 E113.41241
G0 F9000 X157.374 Y153.397
G1 F2700 X151.453 Y147.476 E113.76055
G1 F2400 E113.16055
G1 Z1.900
G0 F9000 X155.196 Y152.103
G1 Z1.400
G1 F2400 E113.76055
G1 F2700 X157.374 Y154.281 E113.88861
G1 F2400 E113.28861
G1 Z1.900
G0 F9000 X152.071 Y155.253
;TYPE:SKIN
G1 Z1.400
G1 F2400 E113.88861
G1 F2700 X151.707 Y155.242 E113.89369
G1 X150.888 Y155.131 E113.91575
G1 X150.181 Y155.131 E113.93780
G1 X149.474 Y155.130 E113.95990
G1 X148.767 Y155.130 E113.98201
G1 X148.046 Y155.117 E114.00413
G1 X147.976 Y155.400 E114.01625
G1 F2400 E113.41625
G1 Z1.900
G0 F9000 X148.288 Y150.055
G1 Z1.400
G1 F2400 E114.01625
G1 F2700 X148.232 Y149.646 E114.04227
G1 X149.160 Y149.867 E114.06432
G1 X149.867 Y149.867 E114.08637
G1 X150.575 Y149.867 E114.10844
G1 X151.282 Y149.867 E114.13043
G1 X151.680 Y149.913 E114.14709
G1 F2400 E113.54709
G1 Z1.900
G0 F9000 X163.186 Y149.637
;TYPE:WALL-INNER
G1 Z1.400
G1 F2400 E114.14709
G1 F2700 X163.111 Y149.551 E114.15183
G1 X168.100 Y146.670 E114.39135
G1 X173.150 Y149.585 E114.63377
G1 X173.150 Y155.415 E114.87615
G1 X168.100 Y158.330 E115.11858
G1 X163.110 Y155.449 E115.35813
G1 X163.606 Y154.856 E115.39027
G1 X163.674 Y154.768 E115.39490
G1 X164.590 Y154.768 E115.43298
G1 X164.803 Y154.767 E115.44183
G1 X165.397 Y154.768 E115.46653
G1 X166.402 Y154.768 E115.50831
G1 X166.938 Y154.769 E115.53060
G1 X167.376 Y154.948 E115.55027
G1 X167.842 Y155.038 E115.57000
G1 X168.193 Y155.051 E115.58460
G1 X168.660 Y154.989 E115.60419
G1 X169.051 Y154.869 E115.62120
G1 X169.613 Y154.560 E115.64786
G1 X170.126 Y154.053 E115.67785
G1 X170.332 Y153.738 E115.69349
G1 X170.536 Y153.260 E115.71510
G1 X170.630 Y152.834 E115.73324
G1 X170.651 Y152.495 E115.74736
G1 X170.622 Y152.104 E115.76366
G1 X170.476 Y151.572 E115.78660
G1 X170.377 Y151.350 E115.79670
G1 X169.957 Y150.745 E115.82732
G1 X169.648 Y150.473 E115.84444
G1 X169.358 Y150.281 E115.85890
G1 X168.835 Y150.054 E115.88260
G1 X168.357 Y149.962 E115.90284
G1 X168.006 Y149.949 E115.91744
G1 X167.539 Y150.011 E115.93703
G1 X167.048 Y150.177 E115.95857
G1 X166.947 Y150.231 E115.96334
G1 X165.397 Y150.232 E116.02778
G1 X164.800 Y150.233 E116.05260
G1 X163.671 Y150.232 E116.09954
G1 X163.186 Y149.637 E116.13145
G0 F9000 X162.805 Y149.961
;TYPE:WALL-OUTER
G1 F2700 X162.550 Y149.669 E116.14757
G1 X162.550 Y149.297 E116.16303
G1 X168.100 Y146.092 E116.42949
G1 X173.650 Y149.297 E116.69594
G1 X173.650 Y155.703 E116.96227
G1 X168.100 Y158.908 E117.22872
G1 X162.550 Y155.703 E117.49518
G1 X162.550 Y155.332 E117.51060
G1 X162.880 Y154.951 E117.53156
G1 X163.215 Y154.545 E117.55344
G1 X163.426 Y154.268 E117.56792
G1 X164.589 Y154.268 E117.61627
G1 X164.801 Y154.267 E117.62508
G1 X167.069 Y154.269 E117.71937
G1 X167.188 Y154.336 E117.72505
G1 X167.517 Y154.466 E117.73976
G1 X167.899 Y154.540 E117.75594
G1 X168.169 Y154.550 E117.76717
G1 X168.553 Y154.499 E117.78327
G1 X168.855 Y154.406 E117.79641
G1 X169.311 Y154.155 E117.81805
G1 X169.737 Y153.735 E117.84292
G1 X169.889 Y153.501 E117.85453
G1 X170.058 Y153.107 E117.87235
G1 X170.133 Y152.765 E117.88691
G1 X170.150 Y152.498 E117.89803
G1 X170.127 Y152.189 E117.91091
G1 X170.004 Y151.741 E117.93023
G1 X169.940 Y151.597 E117.93678
G1 X169.581 Y151.080 E117.96295
G1 X169.343 Y150.871 E117.97611
G1 X169.119 Y150.722 E117.98730
G1 X168.686 Y150.535 E118.00691
G1 X168.300 Y150.460 E118.02326
G1 X168.030 Y150.450 E118.03449
G1 X167.646 Y150.501 E118.05059
G1 X167.263 Y150.629 E118.06738
G1 X167.071 Y150.731 E118.07642
G1 X163.511 Y150.732 E118.22443
G1 X163.423 Y150.732 E118.22809
G1 X162.805 Y149.961 E118.26917
G0 F9000 X163.886 Y149.303
;TYPE:FILL
G1 F2700 X164.639 Y150.055 E118.31341
G0 F9000 X165.523 Y150.055
G1 F2700 X164.447 Y148.980 E118.37665
G0 F9000 X165.008 Y148.657
G1 F2700 X166.406 Y150.055 E118.45885
G0 F9000 X167.181 Y149.946
G1 F2700 X165.568 Y148.333 E118.55368
G0 F9000 X166.129 Y148.010
G1 F2700 X167.903 Y149.784 E118.65799
G0 F9000 X168.891 Y149.888
G1 F2700 X166.689 Y147.686 E118.78746
G0 F9000 X167.249 Y147.363
G1 F2700 X172.974 Y153.087 E119.12404
G0 F9000 X172.974 Y152.204
G1 F2700 X167.809 Y147.039 E119.42772
G0 F9000 X169.112 Y147.457
G1 F2700 X172.974 Y151.320 E119.65482
G0 F9000 X172.974 Y150.436
G1 F2700 X171.202 Y148.664 E119.75901
G1 F2400 E119.15901
G1 Z1.900
G0 F9000 X170.687 Y151.685
G1 Z1.400
G1 F2400 E119.75901
G1 F2700 X172.974 Y153.971 E119.89344
G0 F9000 X172.974 Y154.855
G1 F2700 X170.812 Y152.694 E120.02053
G0 F9000 X170.655 Y153.420
G1 F2700 X172.703 Y155.468 E120.14095
G0 F9000 X172.143 Y155.792
G1 F2700 X170.361 Y154.009 E120.24575
G0 F9000 X169.945 Y154.478
G1 F2700 X171.582 Y156.115 E120.34200
G0 F9000 X171.022 Y156.439
G1 F2700 X169.438 Y154.854 E120.43516
G0 F9000 X168.821 Y155.121
G1 F2700 X170.462 Y156.762 E120.53165
G0 F9000 X169.902 Y157.086
G1 F2700 X168.036 Y155.220 E120.64136
G0 F9000 X166.875 Y154.944
G1 F2700 X169.342 Y157.410 E120.78638
G0 F9000 X168.781 Y157.733
G1 F2700 X165.991 Y154.944 E120.95039
G0 F9000 X165.108 Y154.944
G1 F2700 X168.221 Y158.057 E121.13342
G1 F2400 E120.53342
G1 Z1.900
G0 F9000 X166.462 Y157.182
G1 Z1.400
G1 F2400 E121.13342
G1 F2700 X164.224 Y154.944 E121.26501
G0 F9000 X163.568 Y155.172
G1 F2700 X164.370 Y155.974 E121.31217
G0 F9000 X164.159 Y155.320
;TYPE:SKIN
G1 F2700 X163.614 Y155.130 E121.33429
G1 X163.554 Y155.422 E121.34668
G0 F9000 X164.490 Y154.944
G1 F2700 X165.031 Y155.132 E121.36878
G1 X165.738 Y155.132 E121.39083
G1 X166.445 Y155.132 E121.41287
G1 X167.259 Y155.238 E121.43492
G1 X167.666 Y155.291 E121.45198
G1 F2400 E120.85198
G1 Z1.900
G0 F9000 X166.672 Y150.055
G1 Z1.400
G1 F2400 E121.45198
G1 F2700 X166.131 Y149.867 E121.47403
G1 X165.424 Y149.867 E121.49602
G1 X164.717 Y149.867 E121.51800
G1 X164.010 Y149.867 E121.53999
G1 X163.422 Y149.633 E121.56630
G1 F2400 E120.96630
G1 Z1.900
G0 F9000 X167.004 Y149.680
G1 Z1.400
G1 F2400 E121.56630
G1 F2700 X167.247 Y149.923 E121.58059
;LAYER:7
M106 S73
G0 F9000 X157.550 Y149.585 Z1.600
;TYPE:WALL-INNER
G1 F2700 X157.550 Y155.415 E121.82297
G1 X152.500 Y158.330 E122.06539
G1 X147.574 Y155.486 E122.30187
G1 X148.052 Y154.937 E122.33214
G1 X148.830 Y154.937 E122.36448
G1 X149.203 Y154.936 E122.37999
G1 X151.795 Y154.937 E122.48775
G1 X151.970 Y154.995 E122.49542
G1 X152.257 Y155.039 E122.50749
G1 X152.598 Y155.051 E122.52168
G1 X153.149 Y154.970 E122.54483
G1 X153.819 Y154.691 E122.57500
G1 X154.327 Y154.285 E122.60204
G1 X154.651 Y153.877 E122.62370
G1 X154.923 Y153.290 E122.65060
G1 X154.970 Y153.138 E122.65721
G1 X155.031 Y152.825 E122.67047
G1 X155.051 Y152.487 E122.68455
G1 X155.005 Y152.007 E122.70460
G1 X154.836 Y151.466 E122.72816
G1 X154.455 Y150.854 E122.75813
G1 X154.031 Y150.456 E122.78231
G1 X153.475 Y150.140 E122.80890
G1 X152.928 Y149.984 E122.83255
G1 X152.564 Y149.948 E122.84775
G1 X152.030 Y149.992 E122.87003
G1 X151.785 Y150.063 E122.88064
G1 X148.051 Y150.063 E123.03588
G1 X147.575 Y149.513 E123.06612
G1 X152.500 Y146.670 E123.30254
G1 X157.550 Y149.585 E123.54496
G0 F9000 X158.050 Y149.297
;TYPE:WALL-OUTER
G1 F2700 X158.050 Y155.703 E123.81129
G1 X152.500 Y158.908 E124.07775
G1 X146.950 Y155.703 E124.34420
G1 X146.950 Y155.432 E124.35547
G1 X147.348 Y154.990 E124.38020
G1 X147.722 Y154.553 E124.40411
G1 X147.818 Y154.437 E124.41037
G1 X151.878 Y154.437 E124.57916
G1 X152.088 Y154.507 E124.58837
G1 X152.304 Y154.540 E124.59745
G1 X152.571 Y154.550 E124.60856
G1 X153.014 Y154.485 E124.62717
G1 X153.562 Y154.256 E124.65187
G1 X153.971 Y153.930 E124.67361
G1 X154.222 Y153.613 E124.69042
G1 X154.455 Y153.111 E124.71343
G1 X154.534 Y152.762 E124.72831
G1 X154.550 Y152.496 E124.73939
G1 X154.512 Y152.106 E124.75568
G1 X154.378 Y151.676 E124.77440
G1 X154.065 Y151.174 E124.79900
G1 X153.732 Y150.861 E124.81800
G1 X153.280 Y150.605 E124.83960
G1 X152.834 Y150.477 E124.85889
G1 X152.559 Y150.450 E124.87038
G1 X152.121 Y150.486 E124.88865
G1 X151.855 Y150.563 E124.90016
G1 X147.817 Y150.564 E125.06804
G1 X147.170 Y149.810 E125.10935
G1 X146.950 Y149.568 E125.12294
G1 X146.950 Y149.297 E125.13421
G1 X152.500 Y146.092 E125.40066
G1 X158.050 Y149.297 E125.66712
G0 F9000 X157.374 Y149.775
;TYPE:FILL
G1 F2700 X155.177 Y151.972 E125.79629
G0 F9000 X154.949 Y151.317
G1 F2700 X156.870 Y149.395 E125.90927
G0 F9000 X156.310 Y149.072
G1 F2700 X154.609 Y150.772 E126.00925
G0 F9000 X154.160 Y150.337
G1 F2700 X155.750 Y148.748 E126.10271
G0 F9000 X155.190 Y148.424
G1 F2700 X153.602 Y150.011 E126.19605
G0 F9000 X152.923 Y149.807
G1 F2700 X154.629 Y148.101 E126.29635
G0 F9000 X154.069 Y147.777
G1 F2700 X152.030 Y149.816 E126.41624
G0 F9000 X151.074 Y149.888
G1 F2700 X153.508 Y147.454 E126.55935
G0 F9000 X152.948 Y147.130
G1 F2700 X150.190 Y149.888 E126.72151
G0 F9000 X149.307 Y149.887
G1 F2700 X152.084 Y147.110 E126.88479
G1 F2400 E126.28479
G1 Z2.100
G0 F9000 X149.992 Y148.318
G1 Z1.600
G1 F2400 E126.88479
G1 F2700 X148.423 Y149.887 E126.97704
G1 F2400 E126.37704
G1 Z2.100
G0 F9000 X148.503 Y155.110
G1 Z1.600
G1 F2400 E126.97704
G1 F2700 X148.054 Y155.559 E127.00344
G0 F9000 X148.614 Y155.883
G1 F2700 X149.387 Y155.110 E127.04889
G0 F9000 X150.271 Y155.110
G1 F2700 X149.175 Y156.206 E127.11333
G0 F9000 X149.735 Y156.530
G1 F2700 X151.155 Y155.110 E127.19682
G0 F9000 X151.978 Y155.171
G1 F2700 X150.295 Y156.854 E127.29577
G0 F9000 X150.856 Y157.177
G1 F2700 X152.842 Y155.191 E127.41254
G1 F2400 E126.81254
G1 Z2.100
G0 F9000 X154.729 Y156.840
G1 Z1.600
G1 F2400 E127.41254
G1 F2700 X157.374 Y154.195 E127.56806
G0 F9000 X157.374 Y155.079
G1 F2700 X156.821 Y155.632 E127.60057
G1 F2400 E127.00057
G1 Z2.100
G0 F9000 X157.374 Y153.311
G1 Z1.600
G1 F2400 E127.60057
G1 F2700 X152.637 Y158.048 E127.87909
G0 F9000 X151.976 Y157.825
G1 F2700 X157.374 Y152.427 E128.19647
G0 F9000 X157.374 Y151.543
G1 F2700 X151.416 Y157.501 E128.54678
G1 F2400 E127.94678
G1 Z2.100
G0 F9000 X155.206 Y152.827
G1 Z1.600
G1 F2400 E128.54678
G1 F2700 X157.374 Y150.659 E128.67425
G1 F2400 E128.07425
G1 Z2.100
G0 F9000 X163.175 Y149.513
;TYPE:WALL-INNER
G1 Z1.600
G1 F2400 E128.67425
G1 F2700 X168.100 Y146.670 E128.91067
G1 X173.150 Y149.585 E129.15309
G1 X173.150 Y155.415 E129.39548
G1 X168.100 Y158.330 E129.63790
G1 X163.174 Y155.486 E129.87438
G1 X163.652 Y154.937 E129.90464
G1 X164.429 Y154.937 E129.93695
G1 X164.802 Y154.936 E129.95245
G1 X167.397 Y154.937 E130.06034
G1 X167.569 Y154.994 E130.06788
G1 X167.856 Y155.039 E130.07995
G1 X168.199 Y155.051 E130.09422
G1 X168.749 Y154.970 E130.11734
G1 X169.419 Y154.691 E130.14751
G1 X169.927 Y154.285 E130.17455
G1 X170.251 Y153.877 E130.19621
G1 X170.523 Y153.290 E130.22310
G1 X170.570 Y153.138 E130.22972
G1 X170.631 Y152.825 E130.24298
G1 X170.651 Y152.487 E130.25705
G1 X170.605 Y152.007 E130.27710
G1 X170.436 Y151.466 E130.30067
G1 X170.055 Y150.854 E130.33064
G1 X169.631 Y150.456 E130.35481
G1 X169.075 Y150.140 E130.38140
G1 X168.528 Y149.984 E130.40505
G1 X168.164 Y149.948 E130.42026
G1 X167.629 Y149.992 E130.44258
G1 X167.384 Y150.063 E130.45318
G1 X163.651 Y150.063 E130.60838
G1 X163.175 Y149.513 E130.63862
G0 F9000 X162.770 Y149.810
;TYPE:WALL-OUTER
G1 F2700 X162.550 Y149.568 E130.65222
G1 X162.550 Y149.297 E130.66349
G1 X168.100 Y146.092 E130.92994
G1 X173.650 Y149.297 E131.19639
G1 X173.650 Y155.703 E131.46272
G1 X168.100 Y158.908 E131.72918
G1 X162.550 Y155.703 E131.99563
G1 X162.550 Y155.432 E132.00689
G1 X162.948 Y154.990 E132.03162
G1 X163.322 Y154.553 E132.05554
G1 X163.418 Y154.437 E132.06180
G1 X167.478 Y154.437 E132.23059
G1 X167.687 Y154.507 E132.23976
G1 X167.903 Y154.540 E132.24884
G1 X168.171 Y154.550 E132.25999
G1 X168.614 Y154.485 E132.27860
G1 X169.162 Y154.256 E132.30330
G1 X169.571 Y153.930 E132.32504
G1 X169.822 Y153.613 E132.34185
G1 X170.055 Y153.111 E132.36486
G1 X170.134 Y152.762 E132.37974
G1 X170.150 Y152.496 E132.39082
G1 X170.112 Y152.106 E132.40711
G1 X169.978 Y151.676 E132.42583
G1 X169.665 Y151.174 E132.45043
G1 X169.332 Y150.861 E132.46943
G1 X168.880 Y150.605 E132.49103
G1 X168.434 Y150.477 E132.51032
G1 X168.159 Y150.450 E132.52181
G1 X167.720 Y150.486 E132.54012
G1 X167.454 Y150.563 E132.55163
G1 X163.417 Y150.564 E132.71947
G1 X162.770 Y149.810 E132.76078
G0 F9000 X163.601 Y149.736
;TYPE:FILL
G1 F2700 X164.236 Y149.101 E132.79811
G0 F9000 X164.333 Y149.888
G1 F2700 X166.326 Y147.894 E132.91532
G1 F2400 E132.31532
G1 Z2.100
G0 F9000 X166.100 Y149.888
G1 Z1.600
G1 F2400 E132.91532
G1 F2700 X168.744 Y147.244 E133.07078
G0 F9000 X168.184 Y146.920
G1 F2700 X165.216 Y149.888 E133.24529
G1 F2400 E132.64529
G1 Z2.100
G0 F9000 X166.984 Y149.888
G1 Z1.600
G1 F2400 E133.24529
G1 F2700 X169.305 Y147.567 E133.38175
G0 F9000 X169.865 Y147.891
G1 F2700 X167.967 Y149.789 E133.49335
G0 F9000 X168.769 Y149.871
G1 F2700 X170.426 Y148.214 E133.59077
G0 F9000 X170.986 Y148.538
G1 F2700 X169.400 Y150.124 E133.68402
G0 F9000 X169.919 Y150.488
G1 F2700 X171.546 Y148.861 E133.77969
G0 F9000 X172.106 Y149.185
G1 F2700 X170.328 Y150.963 E133.88422
G0 F9000 X170.640 Y151.535
G1 F2700 X172.667 Y149.508 E134.00340
G0 F9000 X172.973 Y150.086
G1 F2700 X170.804 Y152.255 E134.13093
G0 F9000 X170.728 Y153.215
G1 F2700 X172.973 Y150.970 E134.26293
G0 F9000 X172.973 Y151.854
G1 F2700 X167.211 Y157.616 E134.60171
G0 F9000 X166.651 Y157.292
G1 F2700 X168.810 Y155.133 E134.72866
G0 F9000 X167.847 Y155.212
G1 F2700 X166.091 Y156.968 E134.83190
G0 F9000 X165.530 Y156.645
G1 F2700 X167.064 Y155.111 E134.92209
G0 F9000 X166.180 Y155.111
G1 F2700 X164.970 Y156.321 E134.99324
G0 F9000 X164.410 Y155.997
G1 F2700 X165.296 Y155.111 E135.04533
G0 F9000 X164.412 Y155.111
G1 F2700 X163.850 Y155.673 E135.07837
G1 F2400 E134.47837
G1 Z2.100
G0 F9000 X167.772 Y157.939
G1 Z1.600
G1 F2400 E135.07837
G1 F2700 X172.973 Y152.737 E135.38420
G0 F9000 X172.973 Y153.621
G1 F2700 X168.969 Y157.626 E135.61965
G1 F2400 E135.01965
G1 Z2.100
G0 F9000 X171.061 Y156.417
G1 Z1.600
G1 F2400 E135.61965
G1 F2700 X172.973 Y154.505 E135.73207
;LAYER:8
M106 S84
G1 F2400 E135.13207
G1 Z2.100
G0 F9000 X157.550 Y155.415 Z1.800
;TYPE:WALL-INNER
G1 Z1.800
G1 F2400 E135.73207
G1 F2640 X152.500 Y158.330 E135.97449
G1 X147.630 Y155.518 E136.20829
G1 X148.034 Y155.074 E136.23325
G1 X148.955 Y155.068 E136.27154
G1 X149.204 Y155.067 E136.28189
G1 X151.341 Y155.068 E136.37074
G1 X152.450 Y155.071 E136.41685
G1 X152.450 Y155.050 E136.41772
G1 X152.908 Y155.020 E136.43680
G1 X153.380 Y154.896 E136.45709
G1 X153.824 Y154.683 E136.47756
G1 X154.217 Y154.389 E136.49797
G1 X154.538 Y154.036 E136.51781
G1 X154.729 Y153.742 E136.53238
G1 X154.923 Y153.305 E136.55226
G1 X155.030 Y152.837 E136.57222
G1 X155.051 Y152.487 E136.58680
G1 X155.005 Y152.006 E136.60689
G1 X154.831 Y151.455 E136.63091
G1 X154.457 Y150.859 E136.66016
G1 X154.101 Y150.513 E136.68080
G1 X153.803 Y150.304 E136.69594
G1 X153.238 Y150.055 E136.72161
G1 X152.757 Y149.962 E136.74197
G1 X152.450 Y149.951 E136.75475
G1 X152.450 Y149.934 E136.75545
G1 X151.344 Y149.931 E136.80143
G1 X149.201 Y149.933 E136.89053
G1 X148.036 Y149.932 E136.93896
G1 X147.629 Y149.482 E136.96419
G1 X152.500 Y146.670 E137.19803
G1 X157.550 Y149.585 E137.44045
G1 X157.550 Y155.415 E137.68283
G0 F9000 X158.050 Y155.703
;TYPE:WALL-OUTER
G1 F2640 X152.500 Y158.908 E137.94928
