;-- START GCODE --
;Sliced for Type A Machines Series 1
;Sliced at: Sun 08-11-2020 10:50:24
;Basic settings: Layer height: 0.2 Walls: 1 Fill: 20
;Print Speed: 45 Support: 0
;Retraction Speed: 40 Retraction Distance: 0.6
;Print time: 4 minutes
;Filament used: 0.163m 0.0g
;Settings based on: Type A Machines ProMatte
G21        ;metric values
G90        ;absolute positioning
G28     ;move to endstops
G29		;allows for auto-levelling
G1 Z15.0 F12000 ;move the platform down 15mm
G1 X150 Y5 F9000 ;center
M140 S50 ;Prep Heat Bed
M109 S210 ;Heat To temp
M190 S50 ;Heat Bed to temp
G1 X150 Y5 Z0.3 ;move the platform to purge extrusion
G92 E0 ;zero the extruded length
G1 F200 X250 E30 ;extrude 30mm of feed stock
G92 E0 ;zero the extruded length again
G1 X150 Y150  Z25 F12000 ;recenter and begin
G1 F9000

;Layer count: 25
;LAYER:0
M107
G0 F9000 X142.950 Y146.986 Z0.200
;TYPE:SKIRT
G1 F1800 X152.499 Y141.474 E0.45839
G1 X155.590 Y143.257 E0.60675
G1 X162.050 Y146.986 E0.91686
G1 X162.050 Y154.445 E1.22697
G1 X162.047 Y158.014 E1.37535
G1 X155.592 Y161.742 E1.68526
G1 X152.501 Y163.525 E1.83362
G1 X149.410 Y161.743 E1.98195
G1 X142.948 Y158.013 E2.29216
G1 X142.951 Y154.440 E2.44070
G1 X142.950 Y146.986 E2.75061
G0 F9000 X143.450 Y147.275
G1 F1800 X152.499 Y142.052 E3.18499
G1 X155.340 Y143.690 E3.32133
G1 X161.550 Y147.275 E3.61945
G1 X161.550 Y154.445 E3.91754
G1 X161.547 Y157.725 E4.05391
G1 X155.342 Y161.309 E4.35182
G1 X152.501 Y162.948 E4.48818
G1 X149.660 Y161.310 E4.62452
G1 X143.448 Y157.724 E4.92273
G1 X143.451 Y154.441 E5.05922
G1 X143.450 Y147.275 E5.35715
G0 F9000 X143.950 Y147.564
G1 F1800 X152.499 Y142.629 E5.76755
G1 X155.090 Y144.123 E5.89189
G1 X161.050 Y147.564 E6.17801
G1 X161.050 Y154.444 E6.46405
G1 X161.047 Y157.436 E6.58844
G1 X155.092 Y160.876 E6.87436
G1 X152.501 Y162.371 E6.99873
G1 X149.910 Y160.877 E7.12307
G1 X143.948 Y157.436 E7.40927
G1 X143.951 Y154.441 E7.53379
G1 X143.950 Y147.564 E7.81970
G1 F2400 E7.21970
G1 Z0.700
G0 F9000 X147.950 Y149.874
;TYPE:WALL-INNER
G1 Z0.200
G1 F2400 E7.81970
G1 F1800 X152.500 Y147.247 E8.03813
G1 X157.050 Y149.874 E8.25656
G1 X157.049 Y155.127 E8.47496
G1 X152.501 Y157.753 E8.69330
G1 X147.950 Y155.126 E8.91177
G1 X147.950 Y149.874 E9.13012
G1 F2400 E8.53012
G1 Z0.700
G0 F9000 X150.286 Y151.227
G1 Z0.200
G1 F2400 E9.13012
G1 F1800 X150.042 Y151.804 E9.15616
G1 X149.959 Y152.270 E9.17584
G1 X149.948 Y152.481 E9.18463
G1 X149.986 Y152.944 E9.20394
G1 X150.118 Y153.418 E9.22440
G1 X150.383 Y153.932 E9.24844
G1 X150.849 Y154.448 E9.27735
G1 X151.204 Y154.700 E9.29545
G1 X151.630 Y154.898 E9.31498
G1 X151.965 Y154.995 E9.32948
G1 X152.444 Y155.053 E9.34954
G1 X152.999 Y155.004 E9.37270
G1 X153.471 Y154.861 E9.39320
G1 X153.914 Y154.628 E9.41401
G1 X154.370 Y154.235 E9.43904
G1 X154.513 Y154.067 E9.44821
G1 X154.760 Y153.686 E9.46709
G1 X154.902 Y153.361 E9.48184
G1 X155.029 Y152.841 E9.50409
G1 X155.052 Y152.476 E9.51930
G1 X154.977 Y151.881 E9.54423
G1 X154.863 Y151.537 E9.55930
G1 X154.641 Y151.108 E9.57938
G1 X154.294 Y150.685 E9.60213
G1 X154.025 Y150.455 E9.61684
G1 X153.621 Y150.206 E9.63657
G1 X153.164 Y150.034 E9.65687
G1 X152.708 Y149.958 E9.67609
G1 X152.499 Y149.949 E9.68479
G1 X152.023 Y149.990 E9.70465
G1 X151.433 Y150.181 E9.73043
G1 X151.048 Y150.400 E9.74885
G1 X150.584 Y150.812 E9.77465
G1 X150.286 Y151.227 E9.79589
G0 F9000 X150.725 Y151.473
;TYPE:WALL-OUTER
G1 F1800 X150.525 Y151.947 E9.81728
G1 X150.457 Y152.327 E9.83333
G1 X150.449 Y152.474 E9.83945
G1 X150.481 Y152.856 E9.85538
G1 X150.586 Y153.235 E9.87173
G1 X150.798 Y153.645 E9.89092
G1 X151.184 Y154.072 E9.91486
G1 X151.457 Y154.266 E9.92878
G1 X151.806 Y154.429 E9.94479
G1 X152.065 Y154.504 E9.95600
G1 X152.452 Y154.550 E9.97221
G1 X152.904 Y154.511 E9.99107
G1 X153.280 Y154.396 E10.00742
G1 X153.631 Y154.212 E10.02389
G1 X154.014 Y153.882 E10.04491
G1 X154.111 Y153.768 E10.05113
G1 X154.318 Y153.448 E10.06698
G1 X154.427 Y153.200 E10.07824
G1 X154.533 Y152.766 E10.09682
G1 X154.550 Y152.492 E10.10823
G1 X154.487 Y151.992 E10.12918
G1 X154.401 Y151.732 E10.14057
G1 X154.221 Y151.385 E10.15682
G1 X153.935 Y151.036 E10.17558
G1 X153.730 Y150.860 E10.18681
G1 X153.400 Y150.657 E10.20292
G1 X153.033 Y150.519 E10.21922
G1 X152.655 Y150.456 E10.23515
G1 X152.510 Y150.450 E10.24119
G1 X152.123 Y150.483 E10.25733
G1 X151.636 Y150.641 E10.27862
G1 X151.341 Y150.809 E10.29273
G1 X150.957 Y151.149 E10.31406
G1 X150.725 Y151.473 E10.33063
G1 F2400 E9.73063
G1 Z0.700
G0 F9000 X147.450 Y149.585
G1 Z0.200
G1 F2400 E10.33063
G1 F1800 X152.500 Y146.670 E10.57305
G1 X157.550 Y149.585 E10.81547
G1 X157.549 Y155.415 E11.05785
G1 X152.501 Y158.330 E11.30020
G1 X147.450 Y155.415 E11.54266
G1 X147.450 Y149.585 E11.78504
G0 F9000 X148.177 Y149.945
;TYPE:SKIN
G1 F1800 X149.907 Y151.675 E11.88676
G0 F9000 X150.116 Y151.177
G1 F1800 X148.626 Y149.686 E11.97440
G0 F9000 X149.074 Y149.427
G1 F1800 X150.406 Y150.760 E12.05274
G0 F9000 X150.767 Y150.413
G1 F1800 X149.522 Y149.169 E12.12591
G0 F9000 X149.970 Y148.909
G1 F1800 X151.182 Y150.121 E12.19717
G0 F9000 X151.682 Y149.914
G1 F1800 X150.418 Y148.650 E12.27149
G0 F9000 X150.866 Y148.392
G1 F1800 X152.267 Y149.792 E12.35384
G0 F9000 X153.012 Y149.830
G1 F1800 X151.315 Y148.133 E12.45361
G0 F9000 X151.763 Y147.874
G1 F1800 X156.873 Y152.984 E12.75406
G0 F9000 X156.874 Y152.278
G1 F1800 X152.211 Y147.615 E13.02823
G0 F9000 X153.098 Y147.795
G1 F1800 X156.874 Y151.571 E13.25024
G0 F9000 X156.874 Y150.864
G1 F1800 X154.772 Y148.761 E13.37386
G1 F2400 E12.77386
G1 Z0.700
G0 F9000 X156.445 Y149.728
G1 Z0.200
G1 F2400 E13.37386
G1 F1800 X156.874 Y150.156 E13.39906
G1 F2400 E12.79906
G1 Z0.700
G0 F9000 X155.166 Y151.984
G1 Z0.200
G1 F2400 E13.39906
G1 F1800 X156.873 Y153.691 E13.49942
G0 F9000 X156.873 Y154.398
G1 F1800 X155.209 Y152.735 E13.59723
G0 F9000 X155.090 Y153.322
G1 F1800 X156.821 Y155.053 E13.69901
G0 F9000 X156.373 Y155.312
G1 F1800 X154.880 Y153.819 E13.78679
G0 F9000 X154.594 Y154.240
G1 F1800 X155.924 Y155.571 E13.86502
G0 F9000 X155.477 Y155.830
G1 F1800 X154.232 Y154.585 E13.93822
G0 F9000 X153.816 Y154.876
G1 F1800 X155.028 Y156.089 E14.00951
G0 F9000 X154.580 Y156.348
G1 F1800 X153.321 Y155.089 E14.08353
G0 F9000 X152.728 Y155.203
G1 F1800 X154.132 Y156.607 E14.16608
G0 F9000 X153.684 Y156.865
G1 F1800 X151.993 Y155.175 E14.26548
G1 F2400 E13.66548
G1 Z0.700
G0 F9000 X151.898 Y157.201
G1 Z0.200
G1 F2400 E14.26548
G1 F1800 X148.124 Y153.428 E14.48734
G0 F9000 X148.124 Y154.135
G1 F1800 X150.225 Y156.235 E14.61085
G1 F2400 E14.01085
G1 Z0.700
G0 F9000 X148.552 Y155.270
G1 Z0.200
G1 F2400 E14.61085
G1 F1800 X148.124 Y154.842 E14.63601
G1 F2400 E14.03601
G1 Z0.700
G0 F9000 X148.124 Y152.720
G1 Z0.200
G1 F2400 E14.63601
G1 F1800 X152.787 Y157.383 E14.91018
G0 F9000 X153.235 Y157.124
G1 F1800 X148.124 Y152.013 E15.21068
G0 F9000 X148.124 Y151.306
G1 F1800 X149.821 Y153.003 E15.31046
G0 F9000 X149.784 Y152.259
G1 F1800 X148.124 Y150.599 E15.40806
;LAYER:1
M106 S10
G0 F9000 X147.750 Y149.759 Z0.400
;TYPE:WALL-INNER
G1 F1500 X152.500 Y147.016 E15.63611
G1 X157.250 Y149.758 E15.86413
G1 X157.249 Y155.242 E16.09213
G1 X152.501 Y157.984 E16.32008
G1 X147.750 Y155.241 E16.54816
G1 X147.750 Y149.759 E16.77608
G1 F2400 E16.17608
G1 Z0.900
G0 F9000 X150.444 Y151.166
G1 Z0.400
G1 F2400 E16.77608
G1 F1500 X150.232 Y151.568 E16.79497
G1 X150.101 Y151.999 E16.81370
G1 X150.047 Y152.523 E16.83560
G1 X150.097 Y153.000 E16.85554
G1 X150.293 Y153.569 E16.88056
G1 X150.465 Y153.867 E16.89487
G1 X150.669 Y154.130 E16.90871
G1 X150.999 Y154.439 E16.92750
G1 X151.293 Y154.637 E16.94224
G1 X151.837 Y154.860 E16.96668
G1 X152.193 Y154.931 E16.98177
G1 X152.529 Y154.953 E16.99577
G1 X153.129 Y154.873 E17.02094
G1 X153.590 Y154.697 E17.04145
G1 X153.997 Y154.443 E17.06140
G1 X154.347 Y154.113 E17.08140
G1 X154.635 Y153.712 E17.10192
G1 X154.860 Y153.163 E17.12659
G1 X154.931 Y152.807 E17.14168
G1 X154.953 Y152.471 E17.15568
G1 X154.873 Y151.871 E17.18085
G1 X154.697 Y151.410 E17.20136
G1 X154.443 Y151.003 E17.22131
G1 X154.113 Y150.653 E17.24131
G1 X153.712 Y150.365 E17.26184
G1 X153.163 Y150.140 E17.28650
G1 X152.807 Y150.069 E17.30160
G1 X152.471 Y150.047 E17.31559
G1 X151.871 Y150.127 E17.34076
G1 X151.438 Y150.292 E17.36003
G1 X151.256 Y150.388 E17.36858
G1 X150.909 Y150.635 E17.38629
G1 X150.763 Y150.771 E17.39458
G1 X150.444 Y151.166 E17.41569
G0 F9000 X150.870 Y151.430
;TYPE:WALL-OUTER
G1 F1500 X150.697 Y151.759 E17.43115
G1 X150.589 Y152.114 E17.44657
G1 X150.549 Y152.514 E17.46329
G1 X150.588 Y152.891 E17.47904
G1 X150.750 Y153.360 E17.49967
G1 X150.881 Y153.587 E17.51057
G1 X151.040 Y153.792 E17.52136
G1 X151.312 Y154.046 E17.53683
G1 X151.530 Y154.194 E17.54778
G1 X151.989 Y154.382 E17.56840
G1 X152.250 Y154.434 E17.57947
G1 X152.512 Y154.451 E17.59038
G1 X153.005 Y154.385 E17.61106
G1 X153.367 Y154.247 E17.62717
G1 X153.690 Y154.045 E17.64301
G1 X153.969 Y153.782 E17.65895
G1 X154.194 Y153.468 E17.67501
G1 X154.382 Y153.011 E17.69555
G1 X154.434 Y152.750 E17.70662
G1 X154.451 Y152.488 E17.71753
G1 X154.385 Y151.995 E17.73821
G1 X154.247 Y151.633 E17.75432
G1 X154.045 Y151.310 E17.77016
G1 X153.782 Y151.031 E17.78610
G1 X153.468 Y150.806 E17.80216
G1 X153.011 Y150.618 E17.82270
G1 X152.750 Y150.566 E17.83377
G1 X152.488 Y150.549 E17.84468
G1 X151.995 Y150.615 E17.86536
G1 X151.644 Y150.749 E17.88098
G1 X151.519 Y150.815 E17.88686
G1 X151.226 Y151.024 E17.90182
G1 X151.122 Y151.120 E17.90771
G1 X150.870 Y151.430 E17.92432
G1 F2400 E17.32432
G1 Z0.900
G0 F9000 X147.250 Y149.470
G1 Z0.400
G1 F2400 E17.92432
G1 F1500 X152.500 Y146.439 E18.17635
G1 X157.750 Y149.470 E18.42839
G1 X157.749 Y155.531 E18.68037
G1 X152.501 Y158.561 E18.93232
G1 X147.250 Y155.530 E19.18439
G1 X147.250 Y149.470 E19.43633
G0 F9000 X147.924 Y150.120
;TYPE:SKIN
G1 F1500 X148.544 Y149.501 E19.47276
G0 F9000 X147.924 Y150.827
G1 F1500 X150.218 Y148.534 E19.60760
G1 F2400 E19.00760
G1 Z0.900
G0 F9000 X151.892 Y147.567
G1 Z0.400
G1 F2400 E19.60760
G1 F1500 X147.924 Y151.535 E19.84091
G0 F9000 X147.924 Y152.242
G1 F1500 X152.784 Y147.382 E20.12666
G0 F9000 X153.232 Y147.641
G1 F1500 X147.924 Y152.949 E20.43875
G0 F9000 X147.924 Y153.656
G1 F1500 X150.065 Y151.516 E20.56460
G0 F9000 X149.883 Y152.404
G1 F1500 X147.924 Y154.363 E20.67978
G0 F9000 X147.924 Y155.070
G1 F1500 X149.932 Y153.062 E20.79784
G0 F9000 X150.114 Y153.587
G1 F1500 X148.329 Y155.372 E20.90280
G0 F9000 X148.778 Y155.631
G1 F1500 X150.374 Y154.035 E20.99663
G0 F9000 X150.709 Y154.406
G1 F1500 X149.226 Y155.890 E21.08386
G0 F9000 X149.674 Y156.148
G1 F1500 X151.103 Y154.719 E21.16788
G0 F9000 X151.586 Y154.944
G1 F1500 X150.123 Y156.407 E21.25390
G0 F9000 X150.571 Y156.666
G1 F1500 X152.141 Y155.096 E21.34621
G0 F9000 X152.860 Y155.084
G1 F1500 X151.019 Y156.925 E21.45445
G0 F9000 X151.467 Y157.184
G1 F1500 X154.016 Y154.635 E21.60432
G0 F9000 X154.618 Y154.034
G1 F1500 X157.073 Y151.578 E21.74870
G0 F9000 X157.073 Y150.871
G1 F1500 X155.101 Y152.843 E21.86464
G0 F9000 X155.086 Y152.150
G1 F1500 X157.073 Y150.164 E21.98144
G0 F9000 X156.818 Y149.712
G1 F1500 X154.949 Y151.581 E22.09133
G0 F9000 X154.714 Y151.108
G1 F1500 X156.370 Y149.453 E22.18867
G0 F9000 X155.921 Y149.194
G1 F1500 X154.406 Y150.709 E22.27774
G0 F9000 X154.029 Y150.379
G1 F1500 X155.473 Y148.935 E22.36265
G0 F9000 X155.026 Y148.676
G1 F1500 X153.580 Y150.122 E22.44766
G0 F9000 X153.053 Y149.941
G1 F1500 X154.577 Y148.417 E22.53727
G0 F9000 X154.129 Y148.158
G1 F1500 X152.409 Y149.878 E22.63840
G0 F9000 X151.499 Y150.081
G1 F1500 X153.681 Y147.899 E22.76669
G1 F2400 E22.16669
G1 Z0.900
G0 F9000 X157.073 Y152.286
G1 Z0.400
G1 F2400 E22.76669
G1 F1500 X151.916 Y157.442 E23.06988
G0 F9000 X152.364 Y157.701
G1 F1500 X157.073 Y152.993 E23.34672
G0 F9000 X157.073 Y153.700
G1 F1500 X153.662 Y157.110 E23.54724
G1 F2400 E22.94724
G1 Z0.900
G0 F9000 X155.335 Y156.144
G1 Z0.400
G1 F2400 E23.54724
G1 F1500 X157.073 Y154.407 E23.64940
;LAYER:2
M106 S20
G0 F9000 X157.449 Y155.358 Z0.600
;TYPE:WALL-INNER
G1 F1620 X152.501 Y158.215 E23.88694
G1 X147.550 Y155.357 E24.12462
G1 X147.550 Y149.642 E24.36222
G1 X152.500 Y146.785 E24.59983
G1 X157.450 Y149.643 E24.83747
G1 X157.449 Y155.358 E25.07507
G1 F2400 E24.47507
G1 Z1.100
G0 F9000 X154.533 Y153.871
G1 Z0.600
G1 F2400 E25.07507
G1 F1620 X154.705 Y153.571 E25.08945
G1 X154.874 Y153.119 E25.10951
G1 X154.944 Y152.683 E25.12787
G1 X154.952 Y152.446 E25.13773
G1 X154.871 Y151.872 E25.16183
G1 X154.764 Y151.562 E25.17546
G1 X154.622 Y151.272 E25.18889
G1 X154.433 Y150.994 E25.20286
G1 X154.213 Y150.746 E25.21665
G1 X153.871 Y150.467 E25.23500
G1 X153.571 Y150.295 E25.24937
G1 X153.119 Y150.126 E25.26944
G1 X152.683 Y150.056 E25.28780
G1 X152.446 Y150.048 E25.29766
G1 X151.872 Y150.129 E25.32176
G1 X151.571 Y150.233 E25.33500
G1 X151.387 Y150.317 E25.34341
G1 X150.990 Y150.565 E25.36287
G1 X150.568 Y150.989 E25.38774
G1 X150.355 Y151.309 E25.40372
G1 X150.132 Y151.863 E25.42855
G1 X150.069 Y152.180 E25.44198
G1 X150.047 Y152.560 E25.45781
G1 X150.128 Y153.124 E25.48150
G1 X150.244 Y153.463 E25.49639
G1 X150.477 Y153.888 E25.51655
G1 X150.887 Y154.350 E25.54223
G1 X151.261 Y154.614 E25.56126
G1 X151.441 Y154.710 E25.56974
G1 X151.881 Y154.874 E25.58926
G1 X152.317 Y154.944 E25.60762
G1 X152.554 Y154.952 E25.61748
G1 X153.128 Y154.871 E25.64158
G1 X153.438 Y154.764 E25.65522
G1 X153.728 Y154.622 E25.66864
G1 X154.006 Y154.433 E25.68262
G1 X154.254 Y154.213 E25.69640
G1 X154.533 Y153.871 E25.71475
G0 F9000 X154.120 Y153.586
;TYPE:WALL-OUTER
G1 F1620 X154.251 Y153.358 E25.72568
G1 X154.388 Y152.990 E25.74201
G1 X154.445 Y152.635 E25.75696
G1 X154.451 Y152.473 E25.76369
G1 X154.382 Y151.989 E25.78402
G1 X154.301 Y151.754 E25.79435
G1 X154.189 Y151.524 E25.80499
G1 X154.038 Y151.302 E25.81615
G1 X153.866 Y151.108 E25.82693
G1 X153.586 Y150.880 E25.84194
G1 X153.358 Y150.749 E25.85288
G1 X152.990 Y150.612 E25.86920
G1 X152.635 Y150.555 E25.88415
G1 X152.473 Y150.549 E25.89089
G1 X151.989 Y150.618 E25.91122
G1 X151.624 Y150.758 E25.92747
G1 X151.304 Y150.958 E25.94316
G1 X150.957 Y151.307 E25.96362
G1 X150.800 Y151.544 E25.97544
G1 X150.613 Y152.006 E25.99616
G1 X150.566 Y152.243 E26.00620
G1 X150.549 Y152.539 E26.01853
G1 X150.616 Y153.006 E26.03815
G1 X150.703 Y153.260 E26.04931
G1 X150.888 Y153.599 E26.06536
G1 X151.222 Y153.975 E26.08627
G1 X151.646 Y154.253 E26.10735
G1 X152.010 Y154.388 E26.12349
G1 X152.365 Y154.445 E26.13844
G1 X152.527 Y154.451 E26.14518
G1 X153.011 Y154.382 E26.16551
G1 X153.246 Y154.301 E26.17584
G1 X153.476 Y154.189 E26.18648
G1 X153.698 Y154.038 E26.19764
G1 X153.892 Y153.866 E26.20842
G1 X154.120 Y153.586 E26.22343
G1 F2400 E25.62343
G1 Z1.100
G0 F9000 X157.949 Y155.646
G1 Z0.600
G1 F2400 E26.22343
G1 F1620 X152.501 Y158.792 E26.48498
G1 X147.050 Y155.646 E26.74665
G1 X147.050 Y149.354 E27.00824
G1 X152.500 Y146.208 E27.26986
G1 X157.950 Y149.354 E27.53149
G1 X157.949 Y155.646 E27.79308
G0 F9000 X157.114 Y155.347
;TYPE:SKIN
G1 F1620 X155.012 Y153.244 E27.91670
G0 F9000 X154.805 Y153.744
G1 F1620 X156.666 Y155.605 E28.02612
G0 F9000 X156.218 Y155.864
G1 F1620 X154.518 Y154.164 E28.12607
G0 F9000 X154.169 Y154.522
G1 F1620 X155.770 Y156.124 E28.22023
G0 F9000 X155.322 Y156.383
G1 F1620 X153.747 Y154.808 E28.31284
G0 F9000 X153.246 Y155.014
G1 F1620 X154.874 Y156.641 E28.40853
G0 F9000 X154.425 Y156.900
G1 F1620 X152.642 Y155.117 E28.51336
G0 F9000 X151.867 Y155.049
G1 F1620 X153.977 Y157.159 E28.63742
G0 F9000 X153.529 Y157.418
G1 F1620 X147.725 Y151.614 E28.97868
G0 F9000 X147.725 Y152.321
G1 F1620 X153.080 Y157.677 E29.29356
G0 F9000 X152.632 Y157.935
G1 F1620 X147.725 Y153.028 E29.58207
G0 F9000 X147.725 Y153.735
G1 F1620 X151.319 Y157.329 E29.79338
G1 F2400 E29.19338
G1 Z1.100
G0 F9000 X149.645 Y156.363
G1 Z0.600
G1 F2400 E29.79338
G1 F1620 X147.725 Y154.442 E29.90630
G0 F9000 X147.725 Y155.149
G1 F1620 X147.972 Y155.397 E29.92085
G1 F2400 E29.32085
G1 Z1.100
G0 F9000 X149.952 Y153.134
G1 Z0.600
G1 F2400 E29.92085
G1 F1620 X147.725 Y150.907 E30.05179
G0 F9000 X147.725 Y150.200
G1 F1620 X149.883 Y152.358 E30.17868
G0 F9000 X149.987 Y151.755
G1 F1620 X147.884 Y149.652 E30.30232
G0 F9000 X148.332 Y149.393
G1 F1620 X150.190 Y151.251 E30.41157
G0 F9000 X150.477 Y150.830
G1 F1620 X148.780 Y149.134 E30.51132
G0 F9000 X149.229 Y148.875
G1 F1620 X150.830 Y150.477 E30.60548
G0 F9000 X151.253 Y150.193
G1 F1620 X149.677 Y148.616 E30.69817
G0 F9000 X150.125 Y148.358
G1 F1620 X151.752 Y149.985 E30.79383
G0 F9000 X152.357 Y149.882
G1 F1620 X150.574 Y148.099 E30.89866
G0 F9000 X151.022 Y147.840
G1 F1620 X153.131 Y149.949 E31.02267
G1 F2400 E30.42267
G1 Z1.100
G0 F9000 X153.678 Y147.667
G1 Z0.600
G1 F2400 E31.02267
G1 F1620 X157.273 Y151.263 E31.23407
G0 F9000 X157.273 Y151.970
G1 F1620 X152.367 Y147.064 E31.52252
G0 F9000 X151.919 Y147.322
G1 F1620 X157.273 Y152.677 E31.83735
G0 F9000 X157.273 Y153.384
G1 F1620 X151.470 Y147.581 E32.17854
G1 F2400 E31.57854
G1 Z1.100
G0 F9000 X155.352 Y148.635
G1 Z0.600
G1 F2400 E32.17854
G1 F1620 X157.273 Y150.556 E32.29149
G0 F9000 X157.273 Y149.849
G1 F1620 X157.026 Y149.601 E32.30604
G1 F2400 E31.70604
G1 Z1.100
G0 F9000 X155.045 Y151.863
G1 Z0.600
G1 F2400 E32.30604
G1 F1620 X157.273 Y154.092 E32.43707
G0 F9000 X157.273 Y154.799
G1 F1620 X155.118 Y152.643 E32.56380
;LAYER:3
M106 S30
G0 F9000 X154.930 Y152.829 Z0.800
;TYPE:WALL-INNER
G1 F1680 X154.953 Y152.457 E32.57930
G1 X154.899 Y151.989 E32.59888
G1 X154.750 Y151.522 E32.61926
G1 X154.457 Y151.023 E32.64332
G1 X154.197 Y150.730 E32.65961
G1 X153.733 Y150.377 E32.68385
G1 X153.261 Y150.170 E32.70527
G1 X152.829 Y150.070 E32.72371
G1 X152.457 Y150.047 E32.73920
G1 X151.989 Y150.101 E32.75879
G1 X151.556 Y150.239 E32.77768
G1 X151.379 Y150.321 E32.78579
G1 X150.997 Y150.562 E32.80457
G1 X150.642 Y150.896 E32.82484
G1 X150.255 Y151.510 E32.85501
G1 X150.119 Y151.913 E32.87270
G1 X150.055 Y152.341 E32.89069
G1 X150.049 Y152.529 E32.89851
G1 X150.105 Y153.046 E32.92013
G1 X150.376 Y153.735 E32.95091
G1 X150.767 Y154.234 E32.97727
G1 X150.929 Y154.380 E32.98633
G1 X151.289 Y154.634 E33.00465
G1 X151.740 Y154.830 E33.02509
G1 X152.171 Y154.930 E33.04349
G1 X152.543 Y154.953 E33.05898
G1 X153.011 Y154.899 E33.07857
G1 X153.478 Y154.750 E33.09895
G1 X153.977 Y154.457 E33.12301
G1 X154.270 Y154.197 E33.13929
G1 X154.623 Y153.733 E33.16353
G1 X154.830 Y153.261 E33.18496
G1 X154.930 Y152.829 E33.20340
G1 F2400 E32.60340
G1 Z1.300
G0 F9000 X157.550 Y155.415
G1 Z0.800
G1 F2400 E33.20340
G1 F1680 X152.500 Y158.330 E33.44582
G1 X147.450 Y155.415 E33.68824
G1 X147.450 Y149.585 E33.93062
G1 X152.500 Y146.670 E34.17305
G1 X157.550 Y149.585 E34.41547
G1 X157.550 Y155.415 E34.65785
G0 F9000 X158.050 Y155.703
;TYPE:WALL-OUTER
G1 F1680 X152.500 Y158.908 E34.92430
G1 X146.950 Y155.703 E35.19076
G1 X146.950 Y149.297 E35.45709
G1 X152.500 Y146.092 E35.72354
G1 X158.050 Y149.297 E35.98999
G1 X158.050 Y155.703 E36.25632
G1 F2400 E35.65632
G1 Z1.300
G0 F9000 X154.189 Y153.478
G1 Z0.800
G1 F2400 E36.25632
G1 F1680 X154.353 Y153.103 E36.27334
G1 X154.433 Y152.757 E36.28810
G1 X154.451 Y152.470 E36.30006
G1 X154.408 Y152.094 E36.31579
G1 X154.291 Y151.727 E36.33181
G1 X154.051 Y151.318 E36.35152
G1 X153.856 Y151.099 E36.36372
G1 X153.478 Y150.811 E36.38347
G1 X153.103 Y150.647 E36.40049
G1 X152.757 Y150.567 E36.41525
G1 X152.470 Y150.549 E36.42721
G1 X152.094 Y150.592 E36.44294
G1 X151.738 Y150.706 E36.45848
G1 X151.619 Y150.761 E36.46393
G1 X151.304 Y150.959 E36.47940
G1 X151.031 Y151.217 E36.49502
G1 X150.710 Y151.726 E36.52004
G1 X150.607 Y152.031 E36.53342
G1 X150.554 Y152.386 E36.54834
G1 X150.550 Y152.510 E36.55350
G1 X150.595 Y152.925 E36.57086
G1 X150.815 Y153.484 E36.59583
G1 X151.134 Y153.891 E36.61733
G1 X151.242 Y153.989 E36.62340
G1 X151.536 Y154.196 E36.63834
G1 X151.897 Y154.353 E36.65471
G1 X152.243 Y154.433 E36.66948
G1 X152.530 Y154.451 E36.68143
G1 X152.906 Y154.408 E36.69716
G1 X153.273 Y154.291 E36.71318
G1 X153.682 Y154.051 E36.73290
G1 X153.901 Y153.856 E36.74509
G1 X154.189 Y153.478 E36.76484
G0 F9000 X154.596 Y154.055
;TYPE:SKIN
G1 F1680 X157.374 Y151.277 E36.92818
G0 F9000 X157.374 Y151.984
G1 F1680 X151.695 Y157.663 E37.26208
G0 F9000 X152.143 Y157.922
G1 F1680 X157.374 Y152.691 E37.56965
G0 F9000 X157.374 Y153.399
G1 F1680 X152.844 Y157.928 E37.83596
G1 F2400 E37.23596
G1 Z1.300
G0 F9000 X151.247 Y157.404
G1 Z0.800
G1 F2400 E37.83596
G1 F1680 X154.016 Y154.635 E37.99877
G0 F9000 X152.853 Y155.091
G1 F1680 X150.799 Y157.145 E38.11954
G0 F9000 X150.350 Y156.887
G1 F1680 X152.137 Y155.100 E38.22461
G0 F9000 X151.580 Y154.950
G1 F1680 X149.902 Y156.628 E38.32327
G0 F9000 X149.454 Y156.369
G1 F1680 X151.105 Y154.717 E38.42037
G0 F9000 X150.704 Y154.411
G1 F1680 X149.005 Y156.110 E38.52026
G0 F9000 X148.557 Y155.851
G1 F1680 X150.382 Y154.026 E38.62757
G0 F9000 X150.125 Y153.576
G1 F1680 X148.109 Y155.593 E38.74613
G0 F9000 X147.660 Y155.334
G1 F1680 X149.931 Y153.063 E38.87965
G0 F9000 X149.877 Y152.410
G1 F1680 X147.624 Y154.663 E39.01212
G0 F9000 X147.624 Y153.956
G1 F1680 X150.069 Y151.511 E39.15588
G1 F2400 E38.55588
G1 Z1.300
G0 F9000 X151.512 Y150.068
G1 Z0.800
G1 F2400 E39.15588
G1 F1680 X153.900 Y147.680 E39.29628
G0 F9000 X154.348 Y147.939
G1 F1680 X152.411 Y149.876 E39.41017
G0 F9000 X153.051 Y149.943
G1 F1680 X154.796 Y148.198 E39.51277
G0 F9000 X155.245 Y148.457
G1 F1680 X153.581 Y150.120 E39.61058
G0 F9000 X154.027 Y150.381
G1 F1680 X155.693 Y148.715 E39.70853
G0 F9000 X156.141 Y148.974
G1 F1680 X154.409 Y150.707 E39.81040
G0 F9000 X154.711 Y151.112
G1 F1680 X156.590 Y149.233 E39.92087
G0 F9000 X157.038 Y149.492
G1 F1680 X154.952 Y151.578 E40.04352
G0 F9000 X155.092 Y152.145
G1 F1680 X157.374 Y149.863 E40.17770
G0 F9000 X157.374 Y150.570
G1 F1680 X155.103 Y152.841 E40.31122
G1 F2400 E39.71122
G1 Z1.300
G0 F9000 X157.374 Y154.106
G1 Z0.800
G1 F2400 E40.31122
G1 F1680 X154.518 Y156.962 E40.47914
G1 F2400 E39.87914
G1 Z1.300
G0 F9000 X156.192 Y155.995
G1 Z0.800
G1 F2400 E40.47914
G1 F1680 X157.374 Y154.813 E40.54864
G1 F2400 E39.94864
G1 Z1.300
G0 F9000 X153.452 Y147.421
G1 Z0.800
G1 F2400 E40.54864
G1 F1680 X147.624 Y153.249 E40.89131
G0 F9000 X147.624 Y152.542
G1 F1680 X153.003 Y147.163 E41.20757
G0 F9000 X152.555 Y146.904
G1 F1680 X147.624 Y151.834 E41.49746
G0 F9000 X147.624 Y151.127
G1 F1680 X151.036 Y147.716 E41.69805
G1 F2400 E41.09805
G1 Z1.300
G0 F9000 X149.362 Y148.682
G1 Z0.800
G1 F2400 E41.69805
G1 F1680 X147.624 Y150.420 E41.80024
;LAYER:4
M106 S40
G0 F9000 X147.450 Y149.585 Z1.000
;TYPE:WALL-INNER
G1 F1260 X152.500 Y146.670 E42.04266
G1 X157.550 Y149.585 E42.28508
G1 X157.550 Y155.415 E42.52746
G1 X152.500 Y158.330 E42.76988
G1 X147.450 Y155.415 E43.01231
G1 X147.450 Y149.585 E43.25469
G1 F2400 E42.65469
G1 Z1.500
G0 F9000 X150.429 Y151.188
G1 Z1.000
G1 F2400 E43.25469
G1 F1260 X150.250 Y151.527 E43.27063
G1 X150.139 Y151.845 E43.28463
G1 X150.063 Y152.244 E43.30152
G1 X150.048 Y152.525 E43.31322
G1 X150.113 Y153.065 E43.33583
G1 X150.267 Y153.515 E43.35560
G1 X150.557 Y154.002 E43.37917
G1 X151.013 Y154.449 E43.40572
G1 X151.317 Y154.649 E43.42085
G1 X151.893 Y154.877 E43.44660
G1 X152.317 Y154.944 E43.46445
G1 X152.528 Y154.951 E43.47322
G1 X153.021 Y154.897 E43.49384
G1 X153.480 Y154.748 E43.51391
G1 X153.907 Y154.510 E43.53423
G1 X154.333 Y154.130 E43.55796
G1 X154.569 Y153.815 E43.57433
G1 X154.783 Y153.395 E43.59393
G1 X154.909 Y152.950 E43.61315
G1 X154.944 Y152.672 E43.62480
G1 X154.950 Y152.502 E43.63187
G1 X154.948 Y152.412 E43.63562
G1 X154.896 Y151.977 E43.65383
G1 X154.748 Y151.520 E43.67380
G1 X154.510 Y151.093 E43.69413
G1 X154.130 Y150.667 E43.71786
G1 X153.815 Y150.431 E43.73422
G1 X153.395 Y150.217 E43.75382
G1 X152.950 Y150.091 E43.77305
G1 X152.672 Y150.056 E43.78470
G1 X152.472 Y150.049 E43.79302
G1 X151.979 Y150.103 E43.81364
G1 X151.546 Y150.244 E43.83257
G1 X151.388 Y150.317 E43.83981
G1 X151.130 Y150.467 E43.85221
G1 X150.794 Y150.738 E43.87016
G1 X150.429 Y151.188 E43.89425
G0 F9000 X150.709 Y151.728
;TYPE:WALL-OUTER
G1 F1260 X150.623 Y151.975 E43.90512
G1 X150.560 Y152.305 E43.91909
G1 X150.549 Y152.508 E43.92754
G1 X150.603 Y152.953 E43.94618
G1 X150.723 Y153.304 E43.96160
G1 X150.954 Y153.691 E43.98034
G1 X151.328 Y154.058 E44.00213
G1 X151.548 Y154.203 E44.01308
G1 X152.026 Y154.392 E44.03445
G1 X152.365 Y154.445 E44.04872
G1 X152.509 Y154.450 E44.05471
G1 X152.915 Y154.406 E44.07168
G1 X153.279 Y154.287 E44.08761
G1 X153.616 Y154.100 E44.10363
G1 X153.963 Y153.790 E44.12297
G1 X154.143 Y153.550 E44.13545
G1 X154.315 Y153.212 E44.15121
G1 X154.418 Y152.849 E44.16690
G1 X154.450 Y152.501 E44.18143
G1 X154.449 Y152.449 E44.18359
G1 X154.405 Y152.084 E44.19888
G1 X154.287 Y151.721 E44.21475
G1 X154.100 Y151.384 E44.23077
G1 X153.790 Y151.037 E44.25012
G1 X153.550 Y150.857 E44.26259
G1 X153.212 Y150.685 E44.27836
G1 X152.849 Y150.582 E44.29404
G1 X152.631 Y150.555 E44.30318
G1 X152.491 Y150.550 E44.30900
G1 X152.085 Y150.594 E44.32598
G1 X151.729 Y150.710 E44.34154
G1 X151.619 Y150.761 E44.34659
G1 X151.414 Y150.880 E44.35644
G1 X151.149 Y151.094 E44.37060
G1 X150.848 Y151.465 E44.39046
G1 X150.709 Y151.728 E44.40283
G1 F2400 E43.80283
G1 Z1.500
G0 F9000 X146.950 Y149.297
G1 Z1.000
G1 F2400 E44.40283
G1 F1260 X152.500 Y146.092 E44.66928
G1 X158.050 Y149.297 E44.93574
G1 X158.050 Y155.703 E45.20207
G1 X152.500 Y158.908 E45.46852
G1 X146.950 Y155.703 E45.73497
G1 X146.950 Y149.297 E46.00130
G1 F2400 E45.40130
G1 Z1.500
G0 F9000 X149.464 Y151.055
;TYPE:FILL
G1 Z1.000
G1 F2400 E46.00130
G1 F1260 X153.227 Y147.292 E46.22255
G1 F2400 E45.62255
G1 Z1.500
G0 F9000 X151.173 Y147.637
G1 Z1.000
G1 F2400 E46.22255
G1 F1260 X153.722 Y150.187 E46.37245
G1 F2400 E45.77245
G1 Z1.500
G0 F9000 X154.810 Y151.274
G1 Z1.000
G1 F2400 E46.37245
G1 F1260 X157.374 Y153.838 E46.52321
G1 F2400 E45.92321
G1 Z1.500
G0 F9000 X155.124 Y152.467
G1 Z1.000
G1 F2400 E46.52321
G1 F1260 X157.374 Y150.217 E46.65550
G1 F2400 E46.05550
G1 Z1.500
G0 F9000 X152.468 Y155.122
G1 Z1.000
G1 F2400 E46.65550
G1 F1260 X150.574 Y157.016 E46.76686
G1 F2400 E46.16686
G1 Z1.500
G0 F9000 X151.289 Y154.825
G1 Z1.000
G1 F2400 E46.76686
G1 F1260 X153.826 Y157.361 E46.91600
G0 F9000 X154.050 Y157.232
;TYPE:SKIN
G1 F1260 X153.981 Y156.809 E46.93321
G1 X154.721 Y156.842 E46.95033
G1 X154.878 Y156.292 E46.96745
G1 X155.618 Y156.325 E46.98458
G1 X155.774 Y155.774 E47.00172
G1 X156.515 Y155.807 E47.01886
G1 X156.671 Y155.256 E47.03601
G1 X157.280 Y155.159 E47.05313
G1 X157.173 Y154.345 E47.07668
G1 X157.173 Y153.638 E47.10020
G1 X157.173 Y152.931 E47.12371
G1 X157.174 Y152.224 E47.14723
G1 X157.174 Y151.516 E47.17072
G1 X157.174 Y150.809 E47.19417
G1 X157.174 Y150.102 E47.21763
G1 X156.752 Y149.327 E47.25432
G0 F9000 X156.171 Y149.454
G1 F1260 X155.079 Y148.361 E47.31855
G0 F9000 X154.499 Y148.488
G1 F1260 X153.406 Y147.395 E47.38282
G0 F9000 X152.826 Y147.522
G1 F1260 X152.069 Y147.119 E47.41412
G1 X151.913 Y147.671 E47.43134
G1 X151.172 Y147.637 E47.44849
G1 X151.017 Y148.188 E47.46567
G1 X150.277 Y148.155 E47.48279
G1 X150.120 Y148.706 E47.49994
G1 X149.380 Y148.673 E47.51706
G1 X149.224 Y149.223 E47.53418
G1 X148.483 Y149.190 E47.55132
G1 X148.327 Y149.741 E47.56846
G1 X147.811 Y149.579 E47.59095
G0 F9000 X147.624 Y150.099
G1 F1260 X149.881 Y152.356 E47.72365
G0 F9000 X149.985 Y151.753
G1 F1260 X148.638 Y150.406 E47.80285
G0 F9000 X149.345 Y150.406
G1 F1260 X150.195 Y151.255 E47.85280
G0 F9000 X150.485 Y150.839
G1 F1260 X150.053 Y150.406 E47.87823
G1 F2400 E47.27823
G1 Z1.500
G0 F9000 X147.624 Y150.806
G1 Z1.000
G1 F2400 E47.87823
G1 F1260 X149.951 Y153.133 E48.01505
G0 F9000 X149.996 Y154.592
G1 F1260 X147.624 Y152.220 E48.15451
G0 F9000 X147.624 Y151.513
G1 F1260 X150.703 Y154.592 E48.33554
G0 F9000 X149.289 Y154.592
G1 F1260 X147.624 Y152.928 E48.43341
G0 F9000 X147.624 Y153.635
G1 F1260 X148.582 Y154.592 E48.48971
G0 F9000 X148.025 Y154.742
G1 F1260 X147.624 Y154.695 E48.51328
G1 X148.247 Y155.671 E48.56142
G0 F9000 X148.828 Y155.545
G1 F1260 X149.920 Y156.637 E48.62562
G0 F9000 X150.500 Y156.511
G1 F1260 X151.593 Y157.603 E48.68986
G0 F9000 X152.172 Y157.476
G1 F1260 X152.929 Y157.878 E48.72114
G1 X153.084 Y157.327 E48.73832
G1 X153.601 Y157.491 E48.76087
;LAYER:5
M106 S51
G1 F2400 E48.16087
G1 Z1.500
G0 F9000 X153.134 Y154.867 Z1.200
;TYPE:WALL-INNER
G1 Z1.200
G1 F2400 E48.76087
G1 F1080 X153.581 Y154.698 E48.78074
G1 X153.991 Y154.443 E48.80082
G1 X154.233 Y154.233 E48.81414
G1 X154.535 Y153.863 E48.83399
G1 X154.763 Y153.437 E48.85408
G1 X154.867 Y153.134 E48.86740
G1 X154.903 Y152.976 E48.87414
G1 X154.945 Y152.662 E48.88731
G1 X154.951 Y152.483 E48.89475
G1 X154.924 Y152.144 E48.90889
G1 X154.897 Y151.990 E48.91539
G1 X154.744 Y151.511 E48.93630
G1 X154.515 Y151.106 E48.95564
G1 X154.331 Y150.869 E48.96812
G1 X153.948 Y150.521 E48.98963
G1 X153.536 Y150.278 E49.00952
G1 X153.131 Y150.129 E49.02746
G1 X152.686 Y150.056 E49.04621
G1 X152.483 Y150.049 E49.05465
G1 X152.144 Y150.076 E49.06879
G1 X151.990 Y150.103 E49.07529
G1 X151.542 Y150.246 E49.09484
G1 X151.380 Y150.320 E49.10225
G1 X151.019 Y150.549 E49.12002
G1 X150.673 Y150.866 E49.13953
G1 X150.465 Y151.138 E49.15377
G1 X150.417 Y151.213 E49.15747
G1 X150.034 Y151.214 E49.17339
G1 X149.619 Y151.213 E49.19065
G1 X148.368 Y151.214 E49.24266
G1 X147.716 Y151.212 E49.26976
G1 X147.450 Y151.212 E49.28082
G1 X147.450 Y149.584 E49.34851
G1 X152.500 Y146.669 E49.59093
G1 X157.550 Y149.584 E49.83335
G1 X157.550 Y155.416 E50.07582
G1 X152.500 Y158.331 E50.31824
G1 X147.450 Y155.416 E50.56066
G1 X147.450 Y153.788 E50.62834
G1 X150.033 Y153.786 E50.73573
G1 X150.420 Y153.787 E50.75182
G1 X150.563 Y154.005 E50.76266
G1 X150.924 Y154.380 E50.78430
G1 X151.277 Y154.623 E50.80212
G1 X151.563 Y154.763 E50.81536
G1 X151.866 Y154.867 E50.82868
G1 X152.024 Y154.903 E50.83541
G1 X152.338 Y154.945 E50.84859
G1 X152.500 Y154.950 E50.85532
G1 X152.819 Y154.929 E50.86861
G1 X152.976 Y154.903 E50.87523
G1 X153.134 Y154.867 E50.88197
G0 F9000 X153.127 Y154.346
;TYPE:WALL-OUTER
G1 F1080 X153.475 Y154.189 E50.89784
G1 X153.584 Y154.120 E50.90320
G1 X153.879 Y153.879 E50.91904
G1 X154.046 Y153.686 E50.92965
G1 X154.120 Y153.584 E50.93489
G1 X154.249 Y153.361 E50.94560
G1 X154.384 Y153.004 E50.96147
G1 X154.446 Y152.628 E50.97731
G1 X154.450 Y152.494 E50.98289
G1 X154.410 Y152.109 E50.99898
G1 X154.283 Y151.712 E51.01631
G1 X154.098 Y151.384 E51.03197
G1 X153.962 Y151.210 E51.04115
G1 X153.650 Y150.926 E51.05869
G1 X153.321 Y150.732 E51.07457
G1 X153.003 Y150.615 E51.08865
G1 X152.636 Y150.555 E51.10411
G1 X152.494 Y150.550 E51.11002
G1 X152.109 Y150.590 E51.12611
G1 X151.613 Y150.763 E51.14795
G1 X151.398 Y150.892 E51.15838
G1 X151.335 Y150.938 E51.16162
G1 X151.043 Y151.205 E51.17807
G1 X150.819 Y151.512 E51.19387
G1 X150.727 Y151.712 E51.20302
G1 X150.033 Y151.714 E51.23188
G1 X146.950 Y151.713 E51.36005
G1 X146.950 Y149.296 E51.46054
G1 X152.500 Y146.091 E51.72699
G1 X158.050 Y149.296 E51.99345
G1 X158.050 Y155.704 E52.25986
G1 X152.500 Y158.909 E52.52631
G1 X146.950 Y155.704 E52.79277
G1 X146.950 Y153.288 E52.89321
G1 X150.724 Y153.288 E53.05012
G1 X150.787 Y153.434 E53.05673
G1 X150.956 Y153.692 E53.06955
G1 X151.249 Y153.997 E53.08713
G1 X151.644 Y154.251 E53.10666
G1 X151.996 Y154.384 E53.12230
G1 X152.372 Y154.446 E53.13815
G1 X152.500 Y154.450 E53.14347
G1 X152.879 Y154.412 E53.15931
G1 X153.127 Y154.346 E53.16997
G0 F9000 X152.468 Y155.122
;TYPE:FILL
G1 F1080 X150.574 Y157.016 E53.28133
G1 F2400 E52.68133
G1 Z1.700
G0 F9000 X151.286 Y154.822
G1 Z1.200
G1 F2400 E53.28133
G1 F1080 X153.826 Y157.361 E53.43065
G1 F2400 E52.83065
G1 Z1.700
G0 F9000 X157.374 Y153.838
G1 Z1.200
G1 F2400 E53.43065
G1 F1080 X154.811 Y151.276 E53.58131
G0 F9000 X155.124 Y152.467
G1 F1080 X157.373 Y150.217 E53.71357
G1 F2400 E53.11357
G1 Z1.700
G0 F9000 X153.718 Y150.183
G1 Z1.200
G1 F2400 E53.71357
G1 F1080 X151.173 Y147.637 E53.86324
G1 F2400 E53.26324
G1 Z1.700
G0 F9000 X153.228 Y147.291
G1 Z1.200
G1 F2400 E53.86324
G1 F1080 X149.483 Y151.036 E54.08343
G0 F9000 X149.130 Y151.036
;TYPE:SKIN
G1 F1080 X149.867 Y150.299 E54.12676
G0 F9000 X150.574 Y150.299
G1 F1080 X149.837 Y151.036 E54.17010
G0 F9000 X149.159 Y150.299
G1 F1080 X148.423 Y151.036 E54.21340
G0 F9000 X147.716 Y151.036
G1 F1080 X148.452 Y150.299 E54.25670
G0 F9000 X147.824 Y150.220
G1 F1080 X147.624 Y150.420 E54.26846
G1 F2400 E53.66846
G1 Z1.700
G0 F9000 X148.814 Y149.231
G1 Z1.200
G1 F2400 E54.26846
G1 F1080 X149.364 Y148.680 E54.30083
G0 F9000 X150.486 Y148.266
G1 F1080 X151.038 Y147.714 E54.33329
G0 F9000 X152.158 Y147.300
G1 F1080 X152.706 Y147.106 E54.35663
G1 X153.154 Y147.365 E54.36533
G1 X153.602 Y147.624 E54.37397
G1 X154.051 Y147.882 E54.38267
G1 X154.499 Y148.141 E54.39128
G1 X154.947 Y148.400 E54.39988
G1 X155.396 Y148.659 E54.40850
G1 X155.844 Y148.918 E54.41711
G1 X156.292 Y149.176 E54.42575
G1 X156.741 Y149.435 E54.43433
G1 X157.205 Y149.678 E54.44286
G1 X157.273 Y150.317 E54.45451
G1 X157.273 Y151.024 E54.46615
G1 X157.273 Y151.731 E54.47779
G1 X157.273 Y152.438 E54.48943
G1 X157.273 Y153.145 E54.50113
G1 X157.273 Y153.852 E54.51283
G1 X157.273 Y154.559 E54.52453
G1 X156.956 Y155.230 E54.53625
G1 X156.189 Y155.998 E54.58138
G0 F9000 X155.064 Y156.415
G1 F1080 X154.516 Y156.963 E54.61360
G0 F9000 X153.391 Y157.381
G1 F1080 X152.567 Y157.851 E54.64578
G1 X151.993 Y157.719 E54.65450
G1 X151.544 Y157.460 E54.66320
G1 X151.096 Y157.201 E54.67194
G1 X150.648 Y156.942 E54.68063
G1 X150.200 Y156.683 E54.68932
G1 X149.751 Y156.424 E54.69799
G1 X149.303 Y156.166 E54.70663
G1 X148.855 Y155.906 E54.71528
G1 X148.407 Y155.647 E54.72397
G1 X147.966 Y155.381 E54.73267
G1 X147.642 Y154.998 E54.74226
G1 X148.326 Y153.961 E54.79391
G0 F9000 X149.034 Y153.961
G1 F1080 X148.295 Y154.699 E54.83733
G0 F9000 X149.002 Y154.699
G1 F1080 X149.741 Y153.961 E54.88075
G0 F9000 X150.374 Y154.035
G1 F1080 X150.063 Y154.698 E54.91972
G1 X150.707 Y154.408 E54.94909
;LAYER:6
M106 S63
G0 F9000 X150.966 Y154.414 Z1.400
;TYPE:WALL-INNER
G1 F960 X151.294 Y154.633 E54.96548
G1 X151.407 Y154.691 E54.97076
G1 X151.719 Y154.824 E54.98486
G1 X152.167 Y154.929 E55.00399
G1 X152.512 Y154.953 E55.01837
G1 X152.973 Y154.907 E55.03763
G1 X153.363 Y154.795 E55.05450
G1 X153.794 Y154.584 E55.07446
G1 X154.235 Y154.237 E55.09778
G1 X154.578 Y153.804 E55.12075
G1 X154.794 Y153.365 E55.14109
G1 X154.929 Y152.841 E55.16359
G1 X154.951 Y152.518 E55.17705
G1 X154.948 Y152.388 E55.18245
G1 X154.870 Y151.854 E55.20489
G1 X154.594 Y151.220 E55.23364
G1 X154.237 Y150.765 E55.25768
G1 X153.804 Y150.422 E55.28065
G1 X153.365 Y150.206 E55.30099
G1 X152.841 Y150.071 E55.32349
G1 X152.488 Y150.047 E55.33820
G1 X152.027 Y150.093 E55.35746
G1 X151.653 Y150.201 E55.37364
G1 X151.352 Y150.332 E55.38729
G1 X150.788 Y150.740 E55.41623
G1 X150.699 Y150.851 E55.42215
G1 X148.368 Y150.851 E55.51906
G1 X147.693 Y150.850 E55.54712
G1 X147.450 Y150.850 E55.55722
G1 X147.450 Y149.584 E55.60986
G1 X152.500 Y146.669 E55.85228
G1 X157.550 Y149.584 E56.09470
G1 X157.550 Y155.416 E56.33717
G1 X152.500 Y158.331 E56.57959
G1 X147.450 Y155.416 E56.82201
G1 X147.450 Y154.149 E56.87469
G1 X148.367 Y154.150 E56.91281
G1 X150.032 Y154.149 E56.98204
G1 X150.484 Y154.150 E57.00083
G1 X150.705 Y154.149 E57.01002
G1 X150.966 Y154.414 E57.02548
G0 F9000 X151.286 Y154.027
;TYPE:WALL-OUTER
G1 F960 X151.619 Y154.238 E57.04187
G1 X151.876 Y154.347 E57.05348
G1 X152.242 Y154.433 E57.06911
G1 X152.504 Y154.451 E57.08002
G1 X152.878 Y154.414 E57.09565
G1 X153.183 Y154.326 E57.10885
G1 X153.527 Y154.158 E57.12476
G1 X153.880 Y153.880 E57.14344
G1 X154.153 Y153.535 E57.16174
G1 X154.323 Y153.190 E57.17773
G1 X154.433 Y152.761 E57.19614
G1 X154.450 Y152.506 E57.20676
G1 X154.449 Y152.429 E57.20997
G1 X154.385 Y151.992 E57.22833
G1 X154.161 Y151.478 E57.25164
G1 X153.880 Y151.120 E57.27056
G1 X153.535 Y150.847 E57.28885
G1 X153.190 Y150.677 E57.30484
G1 X152.761 Y150.567 E57.32325
G1 X152.496 Y150.549 E57.33430
G1 X152.122 Y150.586 E57.34992
G1 X151.822 Y150.672 E57.36290
G1 X151.601 Y150.769 E57.37293
G1 X151.136 Y151.105 E57.39678
G1 X150.939 Y151.351 E57.40988
G1 X146.950 Y151.352 E57.57573
G1 X146.950 Y149.296 E57.66121
G1 X152.500 Y146.091 E57.92766
G1 X158.050 Y149.296 E58.19411
G1 X158.050 Y155.704 E58.46053
G1 X152.500 Y158.909 E58.72698
G1 X146.950 Y155.704 E58.99343
G1 X146.950 Y153.649 E59.07887
G1 X150.926 Y153.648 E59.24417
G1 X151.286 Y154.027 E59.26590
G0 F9000 X151.292 Y154.828
;TYPE:FILL
G1 F960 X153.826 Y157.361 E59.41486
G1 F2400 E58.81486
G1 Z1.900
G0 F9000 X152.466 Y155.125
G1 Z1.400
G1 F2400 E59.41486
G1 F960 X150.574 Y157.016 E59.52608
G1 F2400 E58.92608
G1 Z1.900
G0 F9000 X149.845 Y150.675
G1 Z1.400
G1 F2400 E59.52608
G1 F960 X153.228 Y147.291 E59.72501
G1 F2400 E59.12501
G1 Z1.900
G0 F9000 X151.173 Y147.637
G1 Z1.400
G1 F2400 E59.72501
G1 F960 X153.721 Y150.185 E59.87483
G1 F2400 E59.27483
G1 Z1.900
G0 F9000 X154.804 Y151.269
G1 Z1.400
G1 F2400 E59.87483
G1 F960 X157.374 Y153.838 E60.02590
G1 F2400 E59.42590
G1 Z1.900
G0 F9000 X155.124 Y152.467
G1 Z1.400
G1 F2400 E60.02590
G1 F960 X157.373 Y150.217 E60.15816
G1 F2400 E59.55816
G1 Z1.900
G0 F9000 X150.839 Y150.485
;TYPE:SKIN
G1 Z1.400
G1 F2400 E60.15816
G1 F960 X150.451 Y150.451 E60.17322
G1 X149.743 Y150.450 E60.19948
G1 X149.036 Y150.449 E60.22570
G1 X148.327 Y150.449 E60.25205
G1 X147.749 Y150.224 E60.27784
G1 F2400 E59.67784
G1 Z1.900
G0 F9000 X147.624 Y154.342
G1 Z1.400
G1 F2400 E60.27784
G1 F960 X148.185 Y154.550 E60.30341
G1 X148.891 Y154.549 E60.32994
G1 X149.598 Y154.547 E60.35634
G1 X150.303 Y154.546 E60.38254
G1 X150.878 Y154.767 E60.40815
;LAYER:7
M106 S73
G0 F9000 X151.320 Y154.651 Z1.600
;TYPE:WALL-INNER
G1 F960 X151.846 Y154.864 E60.43175
G1 X152.181 Y154.930 E60.44594
G1 X152.524 Y154.953 E60.46024
G1 X153.142 Y154.872 E60.48615
G1 X153.767 Y154.599 E60.51450
G1 X153.995 Y154.441 E60.52604
G1 X154.248 Y154.221 E60.53998
G1 X154.586 Y153.791 E60.56272
G1 X154.821 Y153.295 E60.58553
G1 X154.929 Y152.833 E60.60526
G1 X154.951 Y152.513 E60.61859
G1 X154.946 Y152.372 E60.62446
G1 X154.869 Y151.853 E60.64627
G1 X154.599 Y151.233 E60.67439
G1 X154.441 Y151.005 E60.68592
G1 X154.221 Y150.752 E60.69986
G1 X153.791 Y150.414 E60.72260
G1 X153.295 Y150.179 E60.74542
G1 X152.833 Y150.071 E60.76514
G1 X152.476 Y150.047 E60.78002
G1 X151.868 Y150.127 E60.80552
G1 X151.321 Y150.348 E60.83004
G1 X151.010 Y150.554 E60.84555
G1 X150.926 Y150.632 E60.85032
G1 X150.034 Y150.633 E60.88740
G1 X149.277 Y150.632 E60.91888
G1 X148.367 Y150.633 E60.95671
G1 X147.450 Y150.632 E60.99483
G1 X147.450 Y149.585 E61.03836
G1 X152.500 Y146.670 E61.28078
G1 X157.550 Y149.585 E61.52321
G1 X157.550 Y155.415 E61.76559
G1 X152.500 Y158.330 E62.00801
G1 X147.450 Y155.415 E62.25043
G1 X147.450 Y154.367 E62.29400
G1 X149.124 Y154.368 E62.36360
G1 X150.926 Y154.367 E62.43852
G1 X151.011 Y154.446 E62.44334
G1 X151.320 Y154.651 E62.45876
G0 F9000 X151.554 Y154.206
;TYPE:WALL-OUTER
G1 F960 X151.989 Y154.383 E62.47829
G1 X152.246 Y154.433 E62.48917
G1 X152.508 Y154.451 E62.50009
G1 X153.007 Y154.385 E62.52102
G1 X153.522 Y154.160 E62.54438
G1 X153.688 Y154.046 E62.55275
G1 X153.884 Y153.875 E62.56357
G1 X154.158 Y153.526 E62.58201
G1 X154.346 Y153.129 E62.60028
G1 X154.433 Y152.758 E62.61612
G1 X154.450 Y152.504 E62.62670
G1 X154.447 Y152.417 E62.63032
G1 X154.384 Y151.992 E62.64819
G1 X154.160 Y151.478 E62.67150
G1 X154.046 Y151.312 E62.67987
G1 X153.875 Y151.116 E62.69068
G1 X153.526 Y150.842 E62.70913
G1 X153.129 Y150.654 E62.72739
G1 X152.758 Y150.567 E62.74324
G1 X152.492 Y150.549 E62.75432
G1 X151.997 Y150.614 E62.77508
G1 X151.555 Y150.793 E62.79490
G1 X151.321 Y150.948 E62.80657
G1 X151.123 Y151.132 E62.81781
G1 X146.950 Y151.133 E62.99130
G1 X146.950 Y149.297 E63.06763
G1 X152.500 Y146.092 E63.33409
G1 X158.050 Y149.297 E63.60054
G1 X158.050 Y155.703 E63.86687
G1 X152.500 Y158.908 E64.13332
G1 X146.950 Y155.703 E64.39978
G1 X146.950 Y153.868 E64.47607
G1 X150.930 Y153.867 E64.64154
G1 X151.123 Y153.868 E64.64956
G1 X151.321 Y154.052 E64.66080
G1 X151.554 Y154.206 E64.67241
G0 F9000 X151.293 Y154.829
;TYPE:FILL
G1 F960 X153.826 Y157.361 E64.82131
G1 F2400 E64.22131
G1 Z2.100
G0 F9000 X152.467 Y155.123
G1 Z1.600
G1 F2400 E64.82131
G1 F960 X150.574 Y157.016 E64.93261
G1 F2400 E64.33261
G1 Z2.100
G0 F9000 X155.123 Y152.467
G1 Z1.600
G1 F2400 E64.93261
G1 F960 X157.374 Y150.217 E65.06493
G1 F2400 E64.46493
G1 Z2.100
G0 F9000 X154.802 Y151.267
G1 Z1.600
G1 F2400 E65.06493
G1 F960 X157.374 Y153.838 E65.21613
G1 F2400 E64.61613
G1 Z2.100
G0 F9000 X153.725 Y150.189
G1 Z1.600
G1 F2400 E65.21613
G1 F960 X151.173 Y147.637 E65.36617
G1 F2400 E64.76617
G1 Z2.100
G0 F9000 X153.227 Y147.292
G1 Z1.600
G1 F2400 E65.36617
G1 F960 X150.062 Y150.457 E65.55226
G0 F9000 X150.011 Y150.154
;TYPE:SKIN
G1 F960 X149.507 Y150.305 E65.56998
G1 X148.800 Y150.304 E65.58768
G1 X148.093 Y150.304 E65.60549
G1 X147.624 Y150.420 E65.62558
G1 F2400 E65.02558
G1 Z2.100
G0 F9000 X150.416 Y150.457
G1 Z1.600
G1 F2400 E65.62558
G1 F960 X150.685 Y150.188 E65.64139
G0 F9000 X150.575 Y154.541
G1 F960 X150.064 Y154.698 E65.65988
G1 X149.357 Y154.698 E65.67834
G1 X148.649 Y154.699 E65.69683
G1 X147.942 Y154.699 E65.71535
G1 X147.624 Y154.663 E65.72865
;LAYER:8
M106 S84
G0 F9000 X148.243 Y154.518 Z1.800
;TYPE:WALL-INNER
G1 F900 X148.461 Y154.519 E65.73771
G1 X150.031 Y154.518 E65.80299
G1 X150.297 Y154.519 E65.81405
G1 X151.115 Y154.518 E65.84806
G1 X151.357 Y154.667 E65.85987
G1 X151.796 Y154.848 E65.87961
G1 X152.174 Y154.930 E65.89569
G1 X152.520 Y154.953 E65.91011
G1 X153.069 Y154.887 E65.93310
G1 X153.530 Y154.726 E65.95340
G1 X153.936 Y154.487 E65.97299
G1 X154.239 Y154.230 E65.98951
G1 X154.540 Y153.862 E66.00927
G1 X154.772 Y153.427 E66.02977
G1 X154.928 Y152.845 E66.05482
G1 X154.951 Y152.515 E66.06857
G1 X154.946 Y152.355 E66.07523
G1 X154.845 Y151.778 E66.09958
G1 X154.628 Y151.277 E66.12228
G1 X154.337 Y150.873 E66.14298
G1 X153.874 Y150.466 E66.16861
G1 X153.427 Y150.228 E66.18966
G1 X152.845 Y150.072 E66.21471
G1 X152.480 Y150.047 E66.22993
G1 X151.931 Y150.113 E66.25291
G1 X151.474 Y150.273 E66.27304
G1 X151.113 Y150.481 E66.29037
G1 X150.300 Y150.482 E66.32417
G1 X149.940 Y150.481 E66.33913
G1 X148.373 Y150.482 E66.40428
G1 X148.250 Y150.481 E66.40940
G1 X147.450 Y150.482 E66.44266
G1 X147.450 Y149.585 E66.47995
G1 X152.500 Y146.670 E66.72237
G1 X157.550 Y149.585 E66.96479
G1 X157.550 Y155.415 E67.20718
G1 X152.500 Y158.330 E67.44960
G1 X147.450 Y155.415 E67.69202
G1 X147.450 Y154.518 E67.72931
G1 X148.243 Y154.518 E67.76228
G0 F9000 X148.245 Y154.018
;TYPE:WALL-OUTER
G1 F900 X148.462 Y154.019 E67.77130
G1 X150.033 Y154.018 E67.83662
G1 X150.298 Y154.019 E67.84764
G1 X151.282 Y154.018 E67.88855
G1 X151.573 Y154.215 E67.90316
G1 X151.945 Y154.369 E67.91990
G1 X152.244 Y154.433 E67.93261
G1 X152.507 Y154.451 E67.94357
G1 X152.955 Y154.397 E67.96233
G1 X153.319 Y154.270 E67.97836
G1 X153.645 Y154.078 E67.99409
G1 X153.881 Y153.878 E68.00695
G1 X154.122 Y153.583 E68.02278
G1 X154.304 Y153.242 E68.03885
G1 X154.433 Y152.762 E68.05952
G1 X154.450 Y152.505 E68.07023
G1 X154.447 Y152.406 E68.07434
G1 X154.363 Y151.923 E68.09473
G1 X154.191 Y151.526 E68.11271
G1 X153.964 Y151.211 E68.12886
G1 X153.587 Y150.880 E68.14971
G1 X153.242 Y150.696 E68.16597
G1 X152.762 Y150.567 E68.18663
G1 X152.493 Y150.549 E68.19784
G1 X152.045 Y150.603 E68.21660
G1 X151.683 Y150.730 E68.23255
G1 X151.386 Y150.900 E68.24678
G1 X151.277 Y150.981 E68.25243
G1 X148.369 Y150.982 E68.37333
G1 X148.248 Y150.981 E68.37836
G1 X146.950 Y150.983 E68.43232
G1 X146.950 Y149.297 E68.50242
G1 X152.500 Y146.092 E68.76887
G1 X158.050 Y149.297 E69.03532
G1 X158.050 Y155.703 E69.30165
G1 X152.500 Y158.908 E69.56811
G1 X146.950 Y155.703 E69.83456
G1 X146.950 Y154.018 E69.90461
G1 X148.245 Y154.018 E69.95845
G1 F2400 E69.35845
G1 Z2.300
G0 F9000 X151.293 Y154.828
;TYPE:FILL
G1 Z1.800
G1 F2400 E69.95845
G1 F900 X153.826 Y157.361 E70.10738
G1 F2400 E69.50738
G1 Z2.300
G0 F9000 X152.467 Y155.123
G1 Z1.800
G1 F2400 E70.10738
G1 F900 X150.574 Y157.016 E70.21869
G1 F2400 E69.61869
G1 Z2.300
G0 F9000 X155.124 Y152.467
G1 Z1.800
G1 F2400 E70.21869
G1 F900 X157.374 Y150.217 E70.35098
G1 F2400 E69.75098
G1 Z2.300
G0 F9000 X154.822 Y151.286
G1 Z1.800
G1 F2400 E70.35098
G1 F900 X157.374 Y153.838 E70.50103
G1 F2400 E69.90103
G1 Z2.300
G0 F9000 X153.721 Y150.185
G1 Z1.800
G1 F2400 E70.50103
G1 F900 X151.173 Y147.637 E70.65084
G1 F2400 E70.05084
G1 Z2.300
G0 F9000 X153.227 Y147.292
G1 Z1.800
G1 F2400 E70.65084
G1 F900 X150.214 Y150.306 E70.82802
;LAYER:9
M106 S94
G0 F9000 X150.033 Y150.376 Z2.000
;TYPE:WALL-INNER
G1 F900 X148.557 Y150.375 E70.88938
G1 X147.450 Y150.376 E70.93541
G1 X147.450 Y149.584 E70.96834
G1 X152.500 Y146.669 E71.21076
G1 X157.550 Y149.584 E71.45318
G1 X157.550 Y155.416 E71.69565
G1 X152.500 Y158.331 E71.93807
G1 X147.450 Y155.416 E72.18049
G1 X147.450 Y154.625 E72.21338
G1 X151.286 Y154.624 E72.37286
G1 X151.388 Y154.686 E72.37782
G1 X151.993 Y154.900 E72.40450
G1 X152.326 Y154.944 E72.41847
G1 X152.536 Y154.952 E72.42720
G1 X153.131 Y154.873 E72.45216
G1 X153.659 Y154.661 E72.47581
G1 X153.879 Y154.526 E72.48654
G1 X154.226 Y154.242 E72.50519
G1 X154.461 Y153.972 E72.52007
G1 X154.769 Y153.440 E72.54562
G1 X154.928 Y152.845 E72.57123
G1 X154.951 Y152.516 E72.58494
G1 X154.947 Y152.355 E72.59164
G1 X154.870 Y151.861 E72.61242
G1 X154.661 Y151.341 E72.63572
G1 X154.526 Y151.121 E72.64645
G1 X154.242 Y150.774 E72.66510
G1 X153.972 Y150.539 E72.67998
G1 X153.440 Y150.231 E72.70554
G1 X152.845 Y150.072 E72.73114
G1 X152.476 Y150.047 E72.74652
G1 X151.874 Y150.126 E72.77176
G1 X151.378 Y150.319 E72.79389
G1 X151.286 Y150.376 E72.79839
G1 X150.452 Y150.375 E72.83306
G1 X150.033 Y150.376 E72.85048
G1 F2400 E72.25048
G1 Z2.500
G0 F9000 X151.601 Y150.768
;TYPE:WALL-OUTER
G1 Z2.000
G1 F2400 E72.85048
G1 F900 X151.426 Y150.876 E72.85903
G1 X146.950 Y150.875 E73.04512
G1 X146.950 Y149.296 E73.11077
G1 X152.500 Y146.091 E73.37722
G1 X158.050 Y149.296 E73.64367
G1 X158.050 Y155.704 E73.91009
G1 X152.500 Y158.909 E74.17654
G1 X146.950 Y155.704 E74.44299
G1 X146.950 Y154.125 E74.50864
G1 X151.428 Y154.124 E74.69481
G1 X151.604 Y154.232 E74.70340
G1 X152.110 Y154.411 E74.72571
G1 X152.368 Y154.445 E74.73653
G1 X152.512 Y154.451 E74.74253
G1 X153.003 Y154.386 E74.76312
G1 X153.434 Y154.212 E74.78244
G1 X153.589 Y154.117 E74.79000
G1 X153.877 Y153.882 E74.80545
G1 X154.052 Y153.680 E74.81656
G1 X154.303 Y153.247 E74.83737
G1 X154.433 Y152.762 E74.85825
G1 X154.450 Y152.505 E74.86896
G1 X154.448 Y152.400 E74.87332
G1 X154.385 Y151.994 E74.89040
G1 X154.212 Y151.566 E74.90960
G1 X154.117 Y151.411 E74.91716
G1 X153.882 Y151.123 E74.93261
G1 X153.680 Y150.948 E74.94372
G1 X153.247 Y150.697 E74.96453
G1 X152.762 Y150.567 E74.98540
G1 X152.492 Y150.549 E74.99665
G1 X151.999 Y150.614 E75.01733
G1 X151.601 Y150.768 E75.03507
G0 F9000 X150.319 Y150.200
;TYPE:FILL
G1 F900 X153.228 Y147.291 E75.20611
G1 F2400 E74.60611
G1 Z2.500
G0 F9000 X151.173 Y147.637
G1 Z2.000
G1 F2400 E75.20611
G1 F900 X153.737 Y150.201 E75.35686
G1 F2400 E74.75686
G1 Z2.500
G0 F9000 X154.828 Y151.293
G1 Z2.000
G1 F2400 E75.35686
G1 F900 X157.374 Y153.838 E75.50653
G1 F2400 E74.90653
G1 Z2.500
G0 F9000 X155.124 Y152.467
G1 Z2.000
G1 F2400 E75.50653
G1 F900 X157.373 Y150.217 E75.63879
G1 F2400 E75.03879
G1 Z2.500
G0 F9000 X152.467 Y155.123
G1 Z2.000
G1 F2400 E75.63879
G1 F900 X150.574 Y157.016 E75.75009
G1 F2400 E75.15009
G1 Z2.500
G0 F9000 X151.303 Y154.839
G1 Z2.000
G1 F2400 E75.75009
G1 F900 X153.826 Y157.361 E75.89840
;LAYER:10
M106 S104
G1 F2400 E75.29840
G1 Z2.500
G0 F9000 X153.288 Y154.823 Z2.200
;TYPE:WALL-INNER
G1 Z2.200
G1 F2400 E75.89840
G1 F900 X153.737 Y154.620 E75.91889
G1 X154.227 Y154.244 E75.94457
G1 X154.540 Y153.862 E75.96510
G1 X154.760 Y153.450 E75.98452
G1 X154.868 Y153.134 E75.99840
G1 X154.930 Y152.819 E76.01175
G1 X154.952 Y152.500 E76.02504
G1 X154.929 Y152.167 E76.03892
G1 X154.823 Y151.712 E76.05835
G1 X154.620 Y151.263 E76.07883
G1 X154.244 Y150.773 E76.10451
G1 X153.862 Y150.460 E76.12504
G1 X153.450 Y150.240 E76.14446
G1 X153.134 Y150.132 E76.15834
G1 X152.819 Y150.070 E76.17169
G1 X152.500 Y150.048 E76.18499
G1 X152.167 Y150.071 E76.19886
G1 X151.720 Y150.175 E76.21794
G1 X151.416 Y150.305 E76.23169
G1 X150.527 Y150.305 E76.26865
G1 X150.037 Y150.306 E76.28902
G1 X148.085 Y150.299 E76.37018
G1 X147.450 Y150.299 E76.39658
G1 X147.450 Y149.584 E76.42630
G1 X152.500 Y146.669 E76.66873
G1 X157.550 Y149.584 E76.91115
G1 X157.550 Y155.416 E77.15361
G1 X152.500 Y158.331 E77.39604
G1 X147.450 Y155.416 E77.63846
G1 X147.450 Y154.705 E77.66802
G1 X149.762 Y154.704 E77.76414
G1 X150.536 Y154.694 E77.79632
G1 X151.423 Y154.695 E77.83320
G1 X151.787 Y154.843 E77.84953
G1 X151.879 Y154.871 E77.85353
G1 X152.181 Y154.930 E77.86633
G1 X152.500 Y154.952 E77.87962
G1 X152.833 Y154.929 E77.89350
G1 X153.288 Y154.823 E77.91292
G0 F9000 X153.127 Y154.347
;TYPE:WALL-OUTER
G1 F900 X153.479 Y154.188 E77.92898
G1 X153.877 Y153.883 E77.94983
G1 X154.122 Y153.583 E77.96593
G1 X154.300 Y153.250 E77.98163
G1 X154.384 Y153.004 E77.99243
G1 X154.433 Y152.754 E78.00303
G1 X154.451 Y152.500 E78.01361
G1 X154.433 Y152.242 E78.02437
G1 X154.347 Y151.873 E78.04012
G1 X154.188 Y151.521 E78.05618
G1 X153.883 Y151.123 E78.07702
G1 X153.583 Y150.878 E78.09313
G1 X153.250 Y150.700 E78.10882
G1 X153.004 Y150.616 E78.11963
G1 X152.754 Y150.567 E78.13022
G1 X152.500 Y150.549 E78.14081
G1 X152.242 Y150.567 E78.15156
G1 X151.876 Y150.652 E78.16718
G1 X151.596 Y150.771 E78.17983
G1 X151.539 Y150.805 E78.18259
G1 X150.036 Y150.806 E78.24508
G1 X146.950 Y150.800 E78.37338
G1 X146.950 Y149.296 E78.43591
G1 X152.500 Y146.091 E78.70236
G1 X158.050 Y149.296 E78.96882
G1 X158.050 Y155.704 E79.23523
G1 X152.500 Y158.909 E79.50168
G1 X146.950 Y155.704 E79.76813
G1 X146.950 Y154.205 E79.83046
G1 X149.759 Y154.204 E79.94724
G1 X150.530 Y154.194 E79.97930
G1 X151.539 Y154.195 E80.02125
G1 X151.954 Y154.371 E80.03999
G1 X152.000 Y154.385 E80.04199
G1 X152.246 Y154.433 E80.05241
G1 X152.500 Y154.451 E80.06299
G1 X152.758 Y154.433 E80.07375
G1 X153.127 Y154.347 E80.08950
G0 F9000 X152.467 Y155.124
;TYPE:FILL
G1 F900 X150.574 Y157.016 E80.20077
G1 F2400 E79.60077
G1 Z2.700
G0 F9000 X151.334 Y154.870
G1 Z2.200
G1 F2400 E80.20077
G1 F900 X153.826 Y157.361 E80.34726
G1 F2400 E79.74726
G1 Z2.700
G0 F9000 X157.374 Y153.838
G1 Z2.200
G1 F2400 E80.34726
G1 F900 X154.822 Y151.286 E80.49731
G0 F9000 X155.125 Y152.466
G1 F900 X157.373 Y150.217 E80.62951
G1 F2400 E80.02951
G1 Z2.700
G0 F9000 X153.722 Y150.187
G1 Z2.200
G1 F2400 E80.62951
G1 F900 X151.173 Y147.637 E80.77941
G1 F2400 E80.17941
G1 Z2.700
G0 F9000 X153.228 Y147.291
G1 Z2.200
G1 F2400 E80.77941
G1 F900 X150.391 Y150.128 E80.94622
;LAYER:11
M106 S114
G0 F9000 X150.507 Y150.230 Z2.400
;TYPE:WALL-INNER
G1 F900 X147.686 Y150.229 E81.06350
G1 X147.450 Y150.229 E81.07331
G1 X147.450 Y149.585 E81.10009
G1 X152.500 Y146.670 E81.34251
G1 X157.550 Y149.585 E81.58493
G1 X157.550 Y155.415 E81.82731
G1 X152.500 Y158.330 E82.06974
G1 X147.450 Y155.415 E82.31216
G1 X147.450 Y154.783 E82.33843
G1 X150.507 Y154.781 E82.46553
G1 X150.507 Y154.735 E82.46744
G1 X151.505 Y154.736 E82.50893
G1 X151.724 Y154.824 E82.51875
G1 X152.022 Y154.904 E82.53157
G1 X152.326 Y154.944 E82.54432
G1 X152.524 Y154.951 E82.55256
G1 X152.979 Y154.906 E82.57157
G1 X153.438 Y154.766 E82.59152
G1 X153.841 Y154.551 E82.61051
G1 X153.997 Y154.439 E82.61849
G1 X154.343 Y154.119 E82.63809
G1 X154.618 Y153.737 E82.65766
G1 X154.824 Y153.276 E82.67865
G1 X154.904 Y152.978 E82.69148
G1 X154.944 Y152.674 E82.70422
G1 X154.951 Y152.476 E82.71246
G1 X154.906 Y152.021 E82.73147
G1 X154.766 Y151.562 E82.75142
G1 X154.551 Y151.159 E82.77041
G1 X154.439 Y151.003 E82.77840
G1 X154.119 Y150.657 E82.79799
G1 X153.737 Y150.382 E82.81756
G1 X153.276 Y150.176 E82.83855
G1 X152.978 Y150.096 E82.85138
G1 X152.674 Y150.056 E82.86413
G1 X152.476 Y150.049 E82.87236
G1 X152.021 Y150.094 E82.89137
G1 X151.582 Y150.227 E82.91044
G1 X151.502 Y150.264 E82.91411
G1 X150.507 Y150.263 E82.95548
G1 X150.507 Y150.230 E82.95685
G0 F9000 X150.299 Y150.763
;TYPE:WALL-OUTER
G1 F900 X150.007 Y150.765 E82.96899
G1 X150.007 Y150.730 E82.97044
G1 X146.950 Y150.730 E83.09754
G1 X146.950 Y149.297 E83.15712
G1 X152.500 Y146.092 E83.42357
G1 X158.050 Y149.297 E83.69002
G1 X158.050 Y155.703 E83.95635
G1 X152.500 Y158.908 E84.22280
G1 X146.950 Y155.703 E84.48926
G1 X146.950 Y154.283 E84.54829
G1 X150.007 Y154.281 E84.67539
G1 X150.007 Y154.235 E84.67730
G1 X151.619 Y154.236 E84.74432
G1 X151.877 Y154.347 E84.75600
G1 X152.120 Y154.413 E84.76647
G1 X152.368 Y154.445 E84.77686
G1 X152.508 Y154.450 E84.78269
G1 X152.880 Y154.413 E84.79823
G1 X153.246 Y154.302 E84.81413
G1 X153.576 Y154.126 E84.82968
G1 X153.680 Y154.051 E84.83501
G1 X153.966 Y153.786 E84.85122
G1 X154.187 Y153.479 E84.86695
G1 X154.300 Y153.249 E84.87760
G1 X154.413 Y152.880 E84.89365
G1 X154.445 Y152.632 E84.90404
G1 X154.450 Y152.492 E84.90987
G1 X154.413 Y152.120 E84.92541
G1 X154.302 Y151.754 E84.94131
G1 X154.126 Y151.424 E84.95686
G1 X154.051 Y151.320 E84.96219
G1 X153.786 Y151.034 E84.97840
G1 X153.479 Y150.813 E84.99413
G1 X153.249 Y150.700 E85.00478
G1 X152.880 Y150.587 E85.02082
G1 X152.632 Y150.555 E85.03122
G1 X152.492 Y150.550 E85.03704
G1 X152.120 Y150.587 E85.05259
G1 X151.761 Y150.696 E85.06819
G1 X151.613 Y150.764 E85.07496
G1 X150.299 Y150.763 E85.12959
G0 F9000 X150.465 Y150.055
;TYPE:FILL
G1 F900 X153.227 Y147.292 E85.29201
G1 F2400 E84.69201
G1 Z2.900
G0 F9000 X151.173 Y147.637
G1 Z2.400
G1 F2400 E85.29201
G1 F900 X153.716 Y150.180 E85.44153
G1 F2400 E84.84153
G1 Z2.900
G0 F9000 X154.810 Y151.274
G1 Z2.400
G1 F2400 E85.44153
G1 F900 X157.374 Y153.838 E85.59228
G1 F2400 E84.99228
G1 Z2.900
G0 F9000 X155.124 Y152.467
G1 Z2.400
G1 F2400 E85.59228
G1 F900 X157.374 Y150.217 E85.72457
G1 F2400 E85.12457
G1 Z2.900
G0 F9000 X152.468 Y155.122
G1 Z2.400
G1 F2400 E85.72457
G1 F900 X150.574 Y157.016 E85.83593
G1 F2400 E85.23593
G1 Z2.900
G0 F9000 X151.374 Y154.910
G1 Z2.400
G1 F2400 E85.83593
G1 F900 X153.826 Y157.361 E85.98007
;LAYER:12
M106 S127
G1 F2400 E85.38007
G1 Z2.900
G0 F9000 X153.132 Y154.867 Z2.600
;TYPE:WALL-INNER
G1 Z2.600
G1 F2400 E85.98007
G1 F900 X153.581 Y154.698 E86.00002
G1 X153.991 Y154.443 E86.02009
G1 X154.233 Y154.233 E86.03341
G1 X154.535 Y153.863 E86.05327
G1 X154.763 Y153.437 E86.07336
G1 X154.867 Y153.134 E86.08668
G1 X154.903 Y152.978 E86.09333
G1 X154.945 Y152.661 E86.10663
G1 X154.951 Y152.476 E86.11432
G1 X154.906 Y152.021 E86.13333
G1 X154.770 Y151.574 E86.15276
G1 X154.539 Y151.142 E86.17312
G1 X154.234 Y150.767 E86.19322
G1 X153.847 Y150.453 E86.21394
G1 X153.439 Y150.234 E86.23319
G1 X152.990 Y150.097 E86.25271
G1 X152.674 Y150.056 E86.26596
G1 X152.476 Y150.049 E86.27419
G1 X152.021 Y150.094 E86.29320
G1 X151.534 Y150.250 E86.31446
G1 X150.507 Y150.250 E86.35716
G1 X150.507 Y150.165 E86.36070
G1 X147.450 Y150.164 E86.48779
G1 X147.450 Y149.585 E86.51186
G1 X152.500 Y146.670 E86.75428
G1 X157.550 Y149.585 E86.99671
G1 X157.550 Y155.415 E87.23909
G1 X152.500 Y158.330 E87.48151
G1 X147.450 Y155.415 E87.72393
G1 X147.450 Y154.854 E87.74726
G1 X150.507 Y154.853 E87.87435
G1 X150.507 Y154.750 E87.87863
G1 X151.542 Y154.750 E87.92166
G1 X151.866 Y154.867 E87.93599
G1 X152.022 Y154.903 E87.94264
G1 X152.339 Y154.945 E87.95594
G1 X152.500 Y154.950 E87.96263
G1 X152.821 Y154.929 E87.97601
G1 X153.132 Y154.867 E87.98919
G0 F9000 X153.127 Y154.346
;TYPE:WALL-OUTER
G1 F900 X153.475 Y154.189 E88.00506
G1 X153.584 Y154.120 E88.01043
G1 X153.879 Y153.879 E88.02627
G1 X154.046 Y153.686 E88.03688
G1 X154.120 Y153.584 E88.04212
G1 X154.249 Y153.361 E88.05283
G1 X154.384 Y153.004 E88.06869
G1 X154.446 Y152.628 E88.08454
G1 X154.450 Y152.492 E88.09019
G1 X154.413 Y152.120 E88.10574
G1 X154.303 Y151.758 E88.12147
G1 X154.191 Y151.529 E88.13206
G1 X154.124 Y151.421 E88.13735
G1 X154.047 Y151.315 E88.14280
G1 X153.879 Y151.121 E88.15346
G1 X153.694 Y150.959 E88.16369
G1 X153.581 Y150.878 E88.16947
G1 X153.246 Y150.698 E88.18528
G1 X152.884 Y150.588 E88.20101
G1 X152.632 Y150.555 E88.21158
G1 X152.492 Y150.550 E88.21740
G1 X152.120 Y150.587 E88.23294
G1 X151.760 Y150.696 E88.24858
G1 X151.644 Y150.750 E88.25390
G1 X150.007 Y150.750 E88.32196
G1 X150.007 Y150.665 E88.32549
G1 X146.950 Y150.665 E88.45259
G1 X146.950 Y149.297 E88.50946
G1 X152.500 Y146.092 E88.77592
G1 X158.050 Y149.297 E89.04237
G1 X158.050 Y155.703 E89.30870
G1 X152.500 Y158.908 E89.57515
G1 X146.950 Y155.703 E89.84160
G1 X146.950 Y154.354 E89.89769
G1 X150.007 Y154.353 E90.02478
G1 X150.007 Y154.249 E90.02911
G1 X151.642 Y154.250 E90.09708
G1 X151.996 Y154.384 E90.11282
G1 X152.372 Y154.446 E90.12866
G1 X152.500 Y154.450 E90.13399
G1 X152.875 Y154.412 E90.14966
G1 X153.127 Y154.346 E90.16049
G0 F9000 X152.468 Y155.122
;TYPE:FILL
G1 F900 X150.574 Y157.016 E90.27185
G1 F2400 E89.67185
G1 Z3.100
G0 F9000 X151.388 Y154.924
G1 Z2.600
G1 F2400 E90.27185
G1 F900 X153.826 Y157.361 E90.41516
G1 F2400 E89.81516
G1 Z3.100
G0 F9000 X157.374 Y153.838
G1 Z2.600
G1 F2400 E90.41516
G1 F900 X154.804 Y151.269 E90.56624
G0 F9000 X155.124 Y152.467
G1 F900 X157.374 Y150.217 E90.69853
G1 F2400 E90.09853
G1 Z3.100
G0 F9000 X153.724 Y150.188
G1 Z2.600
G1 F2400 E90.69853
G1 F900 X151.173 Y147.637 E90.84852
G1 F2400 E90.24852
G1 Z3.100
G0 F9000 X153.227 Y147.292
G1 Z2.600
G1 F2400 E90.84852
G1 F900 X150.530 Y149.990 E91.00712
;LAYER:13
M106 S137
G0 F9000 X150.507 Y150.107 Z2.800
;TYPE:WALL-INNER
G1 F900 X147.450 Y150.106 E91.13422
G1 X147.450 Y149.584 E91.15592
G1 X152.500 Y146.669 E91.39834
G1 X157.550 Y149.584 E91.64077
G1 X157.550 Y155.416 E91.88323
G1 X152.500 Y158.331 E92.12565
G1 X147.450 Y155.416 E92.36808
G1 X147.450 Y154.920 E92.38870
G1 X149.206 Y154.920 E92.46170
G1 X150.507 Y154.918 E92.51579
G1 X150.507 Y154.735 E92.52340
G1 X151.529 Y154.736 E92.56589
G1 X151.839 Y154.861 E92.57979
G1 X152.193 Y154.931 E92.59479
G1 X152.530 Y154.953 E92.60883
G1 X153.129 Y154.873 E92.63395
G1 X153.602 Y154.692 E92.65501
G1 X154.123 Y154.343 E92.68108
G1 X154.545 Y153.858 E92.70781
G1 X154.815 Y153.307 E92.73332
G1 X154.901 Y152.990 E92.74698
G1 X154.931 Y152.807 E92.75469
G1 X154.953 Y152.470 E92.76873
G1 X154.873 Y151.871 E92.79385
G1 X154.692 Y151.398 E92.81491
G1 X154.343 Y150.877 E92.84098
G1 X153.858 Y150.455 E92.86771
G1 X153.307 Y150.185 E92.89322
G1 X152.990 Y150.099 E92.90687
G1 X152.807 Y150.069 E92.91458
G1 X152.470 Y150.047 E92.92862
G1 X151.865 Y150.128 E92.95400
G1 X151.523 Y150.264 E92.96930
G1 X150.507 Y150.264 E93.01154
G1 X150.507 Y150.107 E93.01807
G0 F9000 X150.007 Y150.607
;TYPE:WALL-OUTER
G1 F900 X146.950 Y150.606 E93.14517
G1 X146.950 Y149.296 E93.19963
G1 X152.500 Y146.091 E93.46608
G1 X158.050 Y149.296 E93.73253
G1 X158.050 Y155.704 E93.99895
G1 X152.500 Y158.909 E94.26540
G1 X146.950 Y155.704 E94.53185
G1 X146.950 Y154.420 E94.58524
G1 X150.007 Y154.419 E94.71233
G1 X150.007 Y154.236 E94.71994
G1 X150.044 Y154.235 E94.72148
G1 X151.627 Y154.236 E94.78729
G1 X151.990 Y154.382 E94.80356
G1 X152.250 Y154.434 E94.81458
G1 X152.513 Y154.451 E94.82554
G1 X153.005 Y154.385 E94.84618
G1 X153.371 Y154.245 E94.86247
G1 X153.790 Y153.964 E94.88344
G1 X154.125 Y153.579 E94.90466
G1 X154.345 Y153.130 E94.92545
G1 X154.434 Y152.750 E94.94168
G1 X154.451 Y152.487 E94.95263
G1 X154.385 Y151.995 E94.97327
G1 X154.245 Y151.629 E94.98956
G1 X153.964 Y151.210 E95.01054
G1 X153.579 Y150.875 E95.03175
G1 X153.130 Y150.655 E95.05254
G1 X152.750 Y150.566 E95.06877
G1 X152.487 Y150.549 E95.07973
G1 X151.993 Y150.615 E95.10045
G1 X151.618 Y150.764 E95.11722
G1 X150.007 Y150.764 E95.18420
G1 X150.007 Y150.607 E95.19073
G0 F9000 X150.588 Y149.932
;TYPE:FILL
G1 F900 X153.228 Y147.291 E95.34598
G1 F2400 E94.74598
G1 Z3.300
G0 F9000 X151.173 Y147.637
G1 Z2.800
G1 F2400 E95.34598
G1 F900 X153.736 Y150.200 E95.49667
G1 F2400 E94.89667
G1 Z3.300
G0 F9000 X154.838 Y151.302
G1 Z2.800
G1 F2400 E95.49667
G1 F900 X157.374 Y153.838 E95.64578
G1 F2400 E95.04578
G1 Z3.300
G0 F9000 X155.127 Y152.463
G1 Z2.800
G1 F2400 E95.64578
G1 F900 X157.373 Y150.217 E95.77784
G1 F2400 E95.17784
G1 Z3.300
G0 F9000 X152.467 Y155.123
G1 Z2.800
G1 F2400 E95.77784
G1 F900 X150.574 Y157.016 E95.88914
G1 F2400 E95.28914
G1 Z3.300
G0 F9000 X151.374 Y154.910
G1 Z2.800
G1 F2400 E95.88914
G1 F900 X153.826 Y157.361 E96.03328
;LAYER:14
M106 S147
G1 F2400 E95.43328
G1 Z3.300
G0 F9000 X153.144 Y154.868 Z3.000
;TYPE:WALL-INNER
G1 Z3.000
G1 F2400 E96.03328
G1 F900 X153.615 Y154.685 E96.05428
G1 X154.134 Y154.333 E96.08036
G1 X154.546 Y153.856 E96.10656
G1 X154.773 Y153.420 E96.12700
G1 X154.903 Y152.989 E96.14571
G1 X154.944 Y152.672 E96.15900
G1 X154.952 Y152.444 E96.16849
G1 X154.868 Y151.856 E96.19318
G1 X154.685 Y151.385 E96.21419
G1 X154.333 Y150.866 E96.24026
G1 X153.856 Y150.454 E96.26647
G1 X153.420 Y150.227 E96.28690
G1 X152.989 Y150.097 E96.30562
G1 X152.672 Y150.056 E96.31891
G1 X152.444 Y150.048 E96.32839
G1 X151.858 Y150.131 E96.35300
G1 X151.412 Y150.305 E96.37290
G1 X150.507 Y150.305 E96.41053
G1 X150.507 Y150.052 E96.42105
G1 X147.450 Y150.052 E96.54814
G1 X147.450 Y149.585 E96.56756
G1 X152.500 Y146.670 E96.80998
G1 X157.550 Y149.585 E97.05240
G1 X157.550 Y155.415 E97.29479
G1 X152.500 Y158.330 E97.53721
G1 X147.450 Y155.415 E97.77963
G1 X147.450 Y154.979 E97.79776
G1 X149.653 Y154.980 E97.88935
G1 X150.507 Y154.972 E97.92485
G1 X150.507 Y154.694 E97.93641
G1 X151.428 Y154.695 E97.97470
G1 X151.585 Y154.774 E97.98201
G1 X152.011 Y154.903 E98.00051
G1 X152.328 Y154.944 E98.01380
G1 X152.556 Y154.952 E98.02329
G1 X153.144 Y154.868 E98.04798
G0 F9000 X153.017 Y154.381
;TYPE:WALL-OUTER
G1 F900 X153.381 Y154.240 E98.06421
G1 X153.799 Y153.956 E98.08522
G1 X154.129 Y153.573 E98.10624
G1 X154.308 Y153.231 E98.12229
G1 X154.412 Y152.884 E98.13735
G1 X154.445 Y152.631 E98.14796
G1 X154.451 Y152.471 E98.15461
G1 X154.381 Y151.983 E98.17511
G1 X154.240 Y151.619 E98.19134
G1 X153.956 Y151.201 E98.21235
G1 X153.573 Y150.871 E98.23337
G1 X153.231 Y150.692 E98.24942
G1 X152.884 Y150.588 E98.26448
G1 X152.631 Y150.555 E98.27508
G1 X152.471 Y150.549 E98.28174
G1 X151.984 Y150.618 E98.30219
G1 X151.643 Y150.749 E98.31738
G1 X151.541 Y150.805 E98.32222
G1 X150.007 Y150.806 E98.38599
G1 X150.007 Y150.552 E98.39655
G1 X146.950 Y150.552 E98.52365
G1 X146.950 Y149.297 E98.57582
G1 X152.500 Y146.092 E98.84228
G1 X158.050 Y149.297 E99.10873
G1 X158.050 Y155.703 E99.37506
G1 X152.500 Y158.908 E99.64151
G1 X146.950 Y155.703 E99.90797
G1 X146.950 Y154.479 E99.95885
G1 X149.651 Y154.480 E100.07115
G1 X150.007 Y154.477 E100.08595
G1 X150.007 Y154.195 E100.09767
G1 X151.547 Y154.195 E100.16170
G1 X151.771 Y154.308 E100.17213
G1 X152.116 Y154.412 E100.18711
G1 X152.369 Y154.445 E100.19772
G1 X152.529 Y154.451 E100.20438
G1 X153.017 Y154.381 E100.22487
G0 F9000 X152.468 Y155.122
;TYPE:FILL
G1 F900 X150.574 Y157.016 E100.33623
G1 F2400 E99.73623
G1 Z3.500
G0 F9000 X151.333 Y154.869
G1 Z3.000
G1 F2400 E100.33623
G1 F900 X153.826 Y157.361 E100.48278
G1 F2400 E99.88278
G1 Z3.500
G0 F9000 X157.374 Y153.838
G1 Z3.000
G1 F2400 E100.48278
G1 F900 X154.841 Y151.306 E100.63168
G0 F9000 X155.126 Y152.464
G1 F900 X157.374 Y150.217 E100.76383
G1 F2400 E100.16383
G1 Z3.500
G0 F9000 X153.722 Y150.186
G1 Z3.000
G1 F2400 E100.76383
G1 F900 X151.173 Y147.637 E100.91370
G1 F2400 E100.31370
G1 Z3.500
G0 F9000 X153.227 Y147.292
G1 Z3.000
G1 F2400 E100.91370
G1 F900 X150.643 Y149.876 E101.06563
;LAYER:15
M106 S158
G0 F9000 X150.507 Y150.003 Z3.200
;TYPE:WALL-INNER
G1 F900 X147.450 Y150.004 E101.19272
G1 X147.450 Y149.585 E101.21014
G1 X152.500 Y146.670 E101.45257
G1 X157.550 Y149.585 E101.69499
G1 X157.550 Y155.415 E101.93737
G1 X152.500 Y158.330 E102.17979
G1 X147.450 Y155.415 E102.42221
G1 X147.450 Y155.034 E102.43805
G1 X150.507 Y155.034 E102.56515
G1 X150.507 Y154.625 E102.58215
G1 X151.312 Y154.624 E102.61562
G1 X151.694 Y154.819 E102.63345
G1 X152.170 Y154.930 E102.65377
G1 X152.545 Y154.953 E102.66939
G1 X153.011 Y154.899 E102.68890
G1 X153.432 Y154.768 E102.70723
G1 X153.766 Y154.600 E102.72277
G1 X154.153 Y154.313 E102.74280
G1 X154.559 Y153.837 E102.76881
G1 X154.820 Y153.298 E102.79371
G1 X154.930 Y152.830 E102.81370
G1 X154.953 Y152.455 E102.82932
G1 X154.899 Y151.989 E102.84882
G1 X154.768 Y151.568 E102.86715
G1 X154.600 Y151.234 E102.88270
G1 X154.313 Y150.847 E102.90273
G1 X153.837 Y150.441 E102.92874
G1 X153.298 Y150.180 E102.95364
G1 X152.830 Y150.070 E102.97362
G1 X152.455 Y150.047 E102.98924
G1 X151.989 Y150.101 E103.00875
G1 X151.560 Y150.235 E103.02743
G1 X151.294 Y150.376 E103.03995
G1 X150.507 Y150.375 E103.07267
G1 X150.507 Y150.003 E103.08814
G0 F9000 X150.007 Y150.503
;TYPE:WALL-OUTER
G1 F900 X146.950 Y150.504 E103.21523
G1 X146.950 Y149.297 E103.26541
G1 X152.500 Y146.092 E103.53187
G1 X158.050 Y149.297 E103.79832
G1 X158.050 Y155.703 E104.06465
G1 X152.500 Y158.908 E104.33110
G1 X146.950 Y155.703 E104.59755
G1 X146.950 Y154.534 E104.64616
G1 X150.007 Y154.534 E104.77325
G1 X150.007 Y154.125 E104.79026
G1 X151.432 Y154.124 E104.84950
G1 X151.867 Y154.346 E104.86980
G1 X152.243 Y154.433 E104.88585
G1 X152.532 Y154.451 E104.89789
G1 X152.907 Y154.408 E104.91358
G1 X153.244 Y154.303 E104.92826
G1 X153.503 Y154.173 E104.94030
G1 X153.810 Y153.945 E104.95620
G1 X154.137 Y153.561 E104.97717
G1 X154.346 Y153.130 E104.99709
G1 X154.433 Y152.757 E105.01301
G1 X154.451 Y152.468 E105.02505
G1 X154.408 Y152.093 E105.04074
G1 X154.303 Y151.756 E105.05542
G1 X154.173 Y151.497 E105.06747
G1 X153.945 Y151.190 E105.08336
G1 X153.561 Y150.863 E105.10433
G1 X153.130 Y150.654 E105.12425
G1 X152.757 Y150.567 E105.14017
G1 X152.468 Y150.549 E105.15221
G1 X152.093 Y150.592 E105.16790
G1 X151.753 Y150.698 E105.18271
G1 X151.420 Y150.876 E105.19841
G1 X150.007 Y150.876 E105.25715
G1 X150.007 Y150.503 E105.27266
G0 F9000 X150.680 Y149.839
;TYPE:FILL
G1 F900 X153.227 Y147.292 E105.42241
G1 F2400 E104.82241
G1 Z3.700
G0 F9000 X151.173 Y147.637
G1 Z3.200
G1 F2400 E105.42241
G1 F900 X153.732 Y150.197 E105.57290
G1 F2400 E104.97290
G1 Z3.700
G0 F9000 X154.821 Y151.286
G1 Z3.200
G1 F2400 E105.57290
G1 F900 X157.374 Y153.838 E105.72298
G1 F2400 E105.12298
G1 Z3.700
G0 F9000 X155.126 Y152.464
G1 Z3.200
G1 F2400 E105.72298
G1 F900 X157.374 Y150.217 E105.85512
G1 F2400 E105.25512
G1 Z3.700
G0 F9000 X152.469 Y155.122
G1 Z3.200
G1 F2400 E105.85512
G1 F900 X150.574 Y157.016 E105.96651
G1 F2400 E105.36651
G1 Z3.700
G0 F9000 X151.263 Y154.799
G1 Z3.200
G1 F2400 E105.96651
G1 F900 X153.826 Y157.361 E106.11718
;LAYER:16
M106 S168
G1 F2400 E105.51718
G1 Z3.700
G0 F9000 X153.024 Y154.897 Z3.400
;TYPE:WALL-INNER
G1 Z3.400
G1 F2400 E106.11718
G1 F900 X153.498 Y154.742 E106.13791
G1 X154.023 Y154.423 E106.16345
G1 X154.364 Y154.091 E106.18324
G1 X154.543 Y153.855 E106.19555
G1 X154.724 Y153.528 E106.21109
G1 X154.879 Y153.091 E106.23037
G1 X154.944 Y152.684 E106.24751
G1 X154.951 Y152.473 E106.25628
G1 X154.897 Y151.976 E106.27707
G1 X154.742 Y151.502 E106.29780
G1 X154.423 Y150.977 E106.32334
G1 X154.091 Y150.636 E106.34313
G1 X153.855 Y150.457 E106.35544
G1 X153.528 Y150.276 E106.37098
G1 X153.091 Y150.121 E106.39026
G1 X152.684 Y150.056 E106.40739
G1 X152.473 Y150.049 E106.41617
G1 X151.976 Y150.103 E106.43696
G1 X151.540 Y150.246 E106.45603
G1 X151.352 Y150.334 E106.46466
G1 X151.112 Y150.482 E106.47639
G1 X150.507 Y150.482 E106.50154
G1 X150.507 Y149.960 E106.52324
G1 X147.450 Y149.961 E106.65034
G1 X147.450 Y149.584 E106.66601
G1 X152.500 Y146.669 E106.90843
G1 X157.550 Y149.584 E107.15085
G1 X157.550 Y155.416 E107.39332
G1 X152.500 Y158.331 E107.63574
G1 X147.450 Y155.416 E107.87816
G1 X147.450 Y155.083 E107.89201
G1 X150.507 Y155.083 E108.01910
G1 X150.507 Y154.519 E108.04255
G1 X151.124 Y154.517 E108.06820
G1 X151.282 Y154.633 E108.07635
G1 X151.895 Y154.876 E108.10377
G1 X152.316 Y154.944 E108.12150
G1 X152.527 Y154.951 E108.13028
G1 X153.024 Y154.897 E108.15106
G0 F9000 X152.918 Y154.406
;TYPE:WALL-OUTER
G1 F900 X153.287 Y154.285 E108.16721
G1 X153.715 Y154.025 E108.18803
G1 X153.988 Y153.759 E108.20387
G1 X154.123 Y153.581 E108.21316
G1 X154.267 Y153.322 E108.22548
G1 X154.392 Y152.967 E108.24113
G1 X154.445 Y152.635 E108.25511
G1 X154.450 Y152.491 E108.26110
G1 X154.406 Y152.082 E108.27820
G1 X154.285 Y151.713 E108.29434
G1 X154.025 Y151.285 E108.31516
G1 X153.759 Y151.012 E108.33101
G1 X153.581 Y150.877 E108.34030
G1 X153.322 Y150.733 E108.35262
G1 X152.967 Y150.608 E108.36827
G1 X152.635 Y150.555 E108.38224
G1 X152.491 Y150.550 E108.38823
G1 X152.082 Y150.594 E108.40534
G1 X151.725 Y150.711 E108.42096
G1 X151.383 Y150.902 E108.43724
G1 X151.277 Y150.982 E108.44276
G1 X150.007 Y150.981 E108.49556
G1 X150.007 Y150.460 E108.51722
G1 X146.950 Y150.461 E108.64432
G1 X146.950 Y149.296 E108.69275
G1 X152.500 Y146.091 E108.95921
G1 X158.050 Y149.296 E109.22566
G1 X158.050 Y155.704 E109.49207
G1 X152.500 Y158.909 E109.75853
G1 X146.950 Y155.704 E110.02498
G1 X146.950 Y154.583 E110.07159
G1 X150.007 Y154.583 E110.19868
G1 X150.007 Y154.018 E110.22217
G1 X150.351 Y154.019 E110.23647
G1 X151.287 Y154.017 E110.27539
G1 X151.526 Y154.192 E110.28770
G1 X152.028 Y154.391 E110.31015
G1 X152.365 Y154.445 E110.32434
G1 X152.509 Y154.450 E110.33033
G1 X152.918 Y154.406 E110.34744
G0 F9000 X152.468 Y155.122
;TYPE:FILL
G1 F900 X150.574 Y157.017 E110.45882
G1 F2400 E109.85882
G1 Z3.900
G0 F9000 X151.286 Y154.822
G1 Z3.400
G1 F2400 E110.45882
G1 F900 X153.826 Y157.361 E110.60814
G1 F2400 E110.00814
G1 Z3.900
G0 F9000 X157.374 Y153.838
G1 Z3.400
G1 F2400 E110.60814
G1 F900 X154.803 Y151.267 E110.75930
G0 F9000 X155.125 Y152.466
G1 F900 X157.373 Y150.217 E110.89151
G1 F2400 E110.29151
G1 Z3.900
G0 F9000 X153.715 Y150.179
G1 Z3.400
G1 F2400 E110.89151
G1 F900 X151.173 Y147.637 E111.04097
G1 F2400 E110.44097
G1 Z3.900
G0 F9000 X153.228 Y147.291
G1 Z3.400
G1 F2400 E111.04097
G1 F900 X150.681 Y149.838 E111.19072
;LAYER:17
M106 S178
G0 F9000 X151.010 Y150.554 Z3.600
;TYPE:WALL-INNER
G1 F900 X150.925 Y150.633 E111.19554
G1 X150.507 Y150.633 E111.21292
G1 X150.507 Y149.922 E111.24248
G1 X147.450 Y149.923 E111.36958
G1 X147.450 Y149.584 E111.38367
G1 X152.500 Y146.669 E111.62609
G1 X157.550 Y149.584 E111.86852
G1 X157.550 Y155.416 E112.11098
G1 X152.500 Y158.331 E112.35340
G1 X147.450 Y155.416 E112.59583
G1 X147.450 Y155.126 E112.60788
G1 X150.507 Y155.124 E112.73498
G1 X150.507 Y154.366 E112.76649
G1 X150.925 Y154.366 E112.78387
G1 X151.012 Y154.447 E112.78881
G1 X151.322 Y154.651 E112.80424
G1 X151.768 Y154.839 E112.82436
G1 X152.171 Y154.929 E112.84153
G1 X152.512 Y154.953 E112.85574
G1 X152.984 Y154.905 E112.87547
G1 X153.506 Y154.739 E112.89824
G1 X154.035 Y154.414 E112.92405
G1 X154.381 Y154.071 E112.94431
G1 X154.630 Y153.719 E112.96223
G1 X154.839 Y153.236 E112.98411
G1 X154.929 Y152.829 E113.00144
G1 X154.953 Y152.488 E113.01566
G1 X154.905 Y152.016 E113.03538
G1 X154.739 Y151.494 E113.05815
G1 X154.414 Y150.965 E113.08397
G1 X154.071 Y150.619 E113.10422
G1 X153.719 Y150.370 E113.12215
G1 X153.236 Y150.161 E113.14403
G1 X152.829 Y150.071 E113.16136
G1 X152.488 Y150.047 E113.17557
G1 X152.016 Y150.095 E113.19529
G1 X151.529 Y150.250 E113.21654
G1 X151.298 Y150.363 E113.22723
G1 X151.010 Y150.554 E113.24160
G0 F9000 X151.321 Y150.948
;TYPE:WALL-OUTER
G1 F900 X151.122 Y151.133 E113.25290
G1 X150.007 Y151.134 E113.29925
G1 X150.007 Y150.422 E113.32886
G1 X146.950 Y150.423 E113.45595
G1 X146.950 Y149.296 E113.50281
G1 X152.500 Y146.091 E113.76926
G1 X158.050 Y149.296 E114.03571
G1 X158.050 Y155.704 E114.30213
G1 X152.500 Y158.909 E114.56858
G1 X146.950 Y155.704 E114.83503
G1 X146.950 Y154.627 E114.87981
G1 X150.007 Y154.625 E115.00690
G1 X150.007 Y153.867 E115.03842
G1 X150.909 Y153.866 E115.07592
G1 X151.122 Y153.867 E115.08477
G1 X151.321 Y154.052 E115.09607
G1 X151.559 Y154.208 E115.10790
G1 X151.921 Y154.361 E115.12424
G1 X152.243 Y154.433 E115.13796
G1 X152.504 Y154.451 E115.14883
G1 X152.882 Y154.413 E115.16463
G1 X153.296 Y154.281 E115.18270
G1 X153.724 Y154.018 E115.20358
G1 X153.998 Y153.747 E115.21960
G1 X154.191 Y153.473 E115.23354
G1 X154.361 Y153.081 E115.25130
G1 X154.433 Y152.757 E115.26510
G1 X154.451 Y152.496 E115.27598
G1 X154.413 Y152.118 E115.29177
G1 X154.281 Y151.704 E115.30984
G1 X154.018 Y151.276 E115.33072
G1 X153.747 Y151.002 E115.34674
G1 X153.473 Y150.809 E115.36068
G1 X153.081 Y150.639 E115.37844
G1 X152.757 Y150.567 E115.39224
G1 X152.496 Y150.549 E115.40312
G1 X152.118 Y150.587 E115.41891
G1 X151.716 Y150.715 E115.43645
G1 X151.547 Y150.798 E115.44428
G1 X151.321 Y150.948 E115.45556
G0 F9000 X150.681 Y149.838
;TYPE:FILL
G1 F900 X153.228 Y147.291 E115.60531
G1 F2400 E115.00531
G1 Z4.100
G0 F9000 X151.173 Y147.637
G1 Z3.600
G1 F2400 E115.60531
G1 F900 X153.712 Y150.176 E115.75460
G1 F2400 E115.15460
G1 Z4.100
G0 F9000 X154.806 Y151.271
G1 Z3.600
G1 F2400 E115.75460
G1 F900 X157.374 Y153.838 E115.90555
G1 F2400 E115.30555
G1 Z4.100
G0 F9000 X155.125 Y152.465
G1 Z3.600
G1 F2400 E115.90555
G1 F900 X157.373 Y150.217 E116.03773
G1 F2400 E115.43773
G1 Z4.100
G0 F9000 X152.467 Y155.124
G1 Z3.600
G1 F2400 E116.03773
G1 F900 X150.574 Y157.017 E116.14903
G1 F2400 E115.54903
G1 Z4.100
G0 F9000 X151.290 Y154.825
G1 Z3.600
G1 F2400 E116.14903
G1 F900 X153.826 Y157.361 E116.29814
;LAYER:18
M106 S191
G1 F2400 E115.69814
G1 Z4.100
G0 F9000 X153.111 Y154.876 Z3.800
;TYPE:WALL-INNER
G1 Z3.800
G1 F2400 E116.29814
G1 F900 X153.450 Y154.760 E116.31303
G1 X153.874 Y154.534 E116.33301
G1 X154.343 Y154.122 E116.35896
G1 X154.664 Y153.657 E116.38245
G1 X154.864 Y153.152 E116.40504
G1 X154.930 Y152.819 E116.41915
G1 X154.953 Y152.476 E116.43344
G1 X154.876 Y151.889 E116.45806
G1 X154.760 Y151.550 E116.47295
G1 X154.534 Y151.126 E116.49293
G1 X154.122 Y150.657 E116.51888
G1 X153.657 Y150.336 E116.54237
G1 X153.152 Y150.136 E116.56495
G1 X152.819 Y150.070 E116.57907
G1 X152.476 Y150.047 E116.59336
G1 X151.889 Y150.124 E116.61797
G1 X151.532 Y150.246 E116.63366
G1 X150.961 Y150.589 E116.66135
G1 X150.688 Y150.852 E116.67711
G1 X150.507 Y150.852 E116.68464
G1 X150.507 Y149.889 E116.72467
G1 X147.450 Y149.888 E116.85177
G1 X147.450 Y149.585 E116.86437
G1 X152.500 Y146.670 E117.10679
G1 X157.550 Y149.585 E117.34921
G1 X157.550 Y155.415 E117.59159
G1 X152.500 Y158.330 E117.83402
G1 X147.450 Y155.415 E118.07644
G1 X147.450 Y155.164 E118.08687
G1 X150.507 Y155.163 E118.21397
G1 X150.507 Y154.149 E118.25613
G1 X150.688 Y154.148 E118.26365
G1 X150.982 Y154.426 E118.28047
G1 X151.381 Y154.683 E118.30021
G1 X151.851 Y154.865 E118.32116
G1 X152.181 Y154.930 E118.33514
G1 X152.524 Y154.953 E118.34944
G1 X153.111 Y154.876 E118.37405
G0 F9000 X152.996 Y154.387
;TYPE:WALL-OUTER
G1 F900 X153.250 Y154.300 E118.38521
G1 X153.587 Y154.120 E118.40110
G1 X153.966 Y153.787 E118.42207
G1 X154.220 Y153.420 E118.44063
G1 X154.383 Y153.010 E118.45897
G1 X154.433 Y152.754 E118.46981
G1 X154.451 Y152.492 E118.48073
G1 X154.387 Y152.004 E118.50120
G1 X154.300 Y151.750 E118.51236
G1 X154.120 Y151.413 E118.52824
G1 X153.787 Y151.034 E118.54922
G1 X153.420 Y150.780 E118.56777
G1 X153.010 Y150.617 E118.58612
G1 X152.754 Y150.567 E118.59696
G1 X152.492 Y150.549 E118.60788
G1 X152.004 Y150.613 E118.62834
G1 X151.744 Y150.702 E118.63977
G1 X151.267 Y150.988 E118.66289
G1 X151.041 Y151.206 E118.67594
G1 X150.932 Y151.352 E118.68352
G1 X150.007 Y151.353 E118.72198
G1 X150.007 Y150.389 E118.76205
G1 X146.950 Y150.389 E118.88915
G1 X146.950 Y149.297 E118.93455
G1 X152.500 Y146.092 E119.20100
G1 X158.050 Y149.297 E119.46746
G1 X158.050 Y155.703 E119.73379
G1 X152.500 Y158.908 E120.00024
G1 X146.950 Y155.703 E120.26669
G1 X146.950 Y154.663 E120.30993
G1 X150.007 Y154.663 E120.43703
G1 X150.007 Y153.647 E120.47927
G1 X150.511 Y153.649 E120.50022
G1 X150.931 Y153.647 E120.51768
G1 X151.041 Y153.795 E120.52535
G1 X151.291 Y154.031 E120.53964
G1 X151.609 Y154.235 E120.55535
G1 X151.991 Y154.383 E120.57238
G1 X152.246 Y154.433 E120.58318
G1 X152.508 Y154.451 E120.59410
G1 X152.996 Y154.387 E120.61457
G0 F9000 X152.467 Y155.123
;TYPE:FILL
G1 F900 X150.574 Y157.016 E120.72587
G1 F2400 E120.12587
G1 Z4.300
G0 F9000 X151.305 Y154.840
G1 Z3.800
G1 F2400 E120.72587
G1 F900 X153.826 Y157.361 E120.87409
G1 F2400 E120.27409
G1 Z4.300
G0 F9000 X157.374 Y153.838
G1 Z3.800
G1 F2400 E120.87409
G1 F900 X154.812 Y151.277 E121.02470
G0 F9000 X155.127 Y152.463
G1 F900 X157.374 Y150.217 E121.15678
G1 F2400 E120.55678
G1 Z4.300
G0 F9000 X153.700 Y150.165
G1 Z3.800
G1 F2400 E121.15678
G1 F900 X151.173 Y147.637 E121.30539
G1 F2400 E120.70539
G1 Z4.300
G0 F9000 X153.227 Y147.292
G1 Z3.800
G1 F2400 E121.30539
G1 F900 X150.681 Y149.838 E121.45509
;LAYER:19
M106 S201
G0 F9000 X151.150 Y150.455 Z4.000
;TYPE:WALL-INNER
G1 F1020 X151.019 Y150.549 E121.46179
G1 X150.673 Y150.866 E121.48130
G1 X150.507 Y151.083 E121.49266
G1 X150.507 Y149.860 E121.54350
G1 X147.450 Y149.860 E121.67060
G1 X147.450 Y149.585 E121.68203
G1 X152.500 Y146.670 E121.92445
G1 X157.550 Y149.585 E122.16688
G1 X157.550 Y155.415 E122.40926
G1 X152.500 Y158.330 E122.65168
G1 X147.450 Y155.415 E122.89410
G1 X147.450 Y155.197 E122.90317
G1 X150.507 Y155.196 E123.03026
G1 X150.507 Y153.919 E123.08335
G1 X150.563 Y154.005 E123.08762
G1 X150.937 Y154.393 E123.11003
G1 X151.491 Y154.737 E123.13714
G1 X152.004 Y154.902 E123.15954
G1 X152.326 Y154.944 E123.17304
G1 X152.544 Y154.952 E123.18211
G1 X153.219 Y154.848 E123.21051
G1 X153.790 Y154.587 E123.23661
G1 X154.122 Y154.339 E123.25384
G1 X154.451 Y153.987 E123.27387
G1 X154.739 Y153.502 E123.29732
G1 X154.902 Y152.996 E123.31942
G1 X154.944 Y152.674 E123.33292
G1 X154.952 Y152.456 E123.34199
G1 X154.848 Y151.781 E123.37038
G1 X154.587 Y151.210 E123.39649
G1 X154.339 Y150.878 E123.41372
G1 X153.987 Y150.549 E123.43375
G1 X153.502 Y150.261 E123.45720
G1 X152.996 Y150.098 E123.47930
G1 X152.674 Y150.056 E123.49280
G1 X152.456 Y150.048 E123.50187
G1 X151.773 Y150.153 E123.53060
G1 X151.150 Y150.455 E123.55938
G0 F9000 X151.407 Y150.886
;TYPE:WALL-OUTER
G1 F1020 X151.043 Y151.205 E123.57951
G1 X150.819 Y151.512 E123.59531
G1 X150.726 Y151.715 E123.60459
G1 X150.035 Y151.717 E123.63332
G1 X150.007 Y151.717 E123.63448
G1 X150.007 Y150.360 E123.69090
G1 X146.950 Y150.359 E123.81799
G1 X146.950 Y149.297 E123.86215
G1 X152.500 Y146.092 E124.12860
G1 X158.050 Y149.297 E124.39505
G1 X158.050 Y155.703 E124.66138
G1 X152.500 Y158.908 E124.92784
G1 X146.950 Y155.703 E125.19429
G1 X146.950 Y154.696 E125.23616
G1 X150.007 Y154.696 E125.36325
G1 X150.007 Y153.283 E125.42200
G1 X150.723 Y153.285 E125.45176
G1 X150.787 Y153.434 E125.45851
G1 X150.956 Y153.692 E125.47133
G1 X151.254 Y154.001 E125.48918
G1 X151.702 Y154.280 E125.51112
G1 X152.114 Y154.412 E125.52911
G1 X152.368 Y154.445 E125.53975
G1 X152.515 Y154.451 E125.54587
G1 X153.074 Y154.365 E125.56938
G1 X153.533 Y154.154 E125.59039
G1 X153.787 Y153.965 E125.60355
G1 X154.049 Y153.685 E125.61949
G1 X154.280 Y153.295 E125.63834
G1 X154.412 Y152.886 E125.65621
G1 X154.445 Y152.632 E125.66685
G1 X154.451 Y152.485 E125.67297
G1 X154.365 Y151.926 E125.69649
G1 X154.154 Y151.467 E125.71749
G1 X153.965 Y151.213 E125.73065
G1 X153.685 Y150.951 E125.74659
G1 X153.295 Y150.720 E125.76544
G1 X152.886 Y150.588 E125.78331
G1 X152.632 Y150.555 E125.79396
G1 X152.485 Y150.549 E125.80007
G1 X151.923 Y150.636 E125.82372
G1 X151.407 Y150.886 E125.84755
G0 F9000 X150.681 Y149.838
;TYPE:FILL
G1 F1020 X153.227 Y147.292 E125.99725
G1 F2400 E125.39725
G1 Z4.500
G0 F9000 X151.173 Y147.638
G1 Z4.000
G1 F2400 E125.99725
G1 F1020 X153.729 Y150.193 E126.14750
G1 F2400 E125.54750
G1 Z4.500
G0 F9000 X154.806 Y151.271
G1 Z4.000
G1 F2400 E126.14750
G1 F1020 X157.374 Y153.838 E126.29846
G1 F2400 E125.69846
G1 Z4.500
G0 F9000 X155.126 Y152.464
G1 Z4.000
G1 F2400 E126.29846
G1 F1020 X157.374 Y150.217 E126.43061
G1 F2400 E125.83061
G1 Z4.500
G0 F9000 X152.467 Y155.123
G1 Z4.000
G1 F2400 E126.43061
G1 F1020 X150.574 Y157.016 E126.54191
G1 F2400 E125.94191
G1 Z4.500
G0 F9000 X151.270 Y154.806
G1 Z4.000
G1 F2400 E126.54191
G1 F1020 X153.826 Y157.361 E126.69216
G0 F9000 X153.393 Y157.380
;TYPE:SKIN
G1 F1020 X152.567 Y157.851 E126.72434
G1 X151.992 Y157.719 E126.73297
G1 X151.544 Y157.460 E126.74158
G1 X151.096 Y157.201 E126.75018
G1 X150.648 Y156.942 E126.75879
G1 X150.199 Y156.684 E126.76740
G1 X149.751 Y156.425 E126.77601
G1 X149.303 Y156.166 E126.78461
G1 X148.854 Y155.907 E126.79319
G1 X148.407 Y155.648 E126.80178
G1 X148.109 Y155.592 E126.81439
G1 F2400 E126.21439
G1 Z4.500
G0 F9000 X148.819 Y149.226
G1 Z4.000
G1 F2400 E126.81439
G1 F1020 X149.362 Y148.683 E126.84631
G0 F9000 X150.492 Y148.259
G1 F1020 X151.035 Y147.716 E126.87824
G0 F9000 X152.166 Y147.293
G1 F1020 X152.706 Y147.106 E126.90110
G1 X153.154 Y147.365 E126.90966
G1 X153.603 Y147.624 E126.91824
G1 X154.051 Y147.882 E126.92683
G1 X154.499 Y148.141 E126.93540
G1 X154.947 Y148.400 E126.94396
G1 X155.396 Y148.659 E126.95254
G1 X155.844 Y148.918 E126.96114
G1 X156.292 Y149.176 E126.96974
G1 X156.741 Y149.435 E126.97832
G1 X157.206 Y149.677 E126.98686
G1 X157.274 Y150.316 E126.99856
G1 X157.274 Y151.023 E127.01026
G1 X157.274 Y151.730 E127.02196
G1 X157.274 Y152.437 E127.03366
G1 X157.274 Y153.145 E127.04537
G1 X157.274 Y153.852 E127.05707
G1 X157.274 Y154.559 E127.06877
G1 X156.956 Y155.230 E127.08050
G1 X156.192 Y155.995 E127.12545
G0 F9000 X155.066 Y156.414
G1 F1020 X154.518 Y156.962 E127.15767
;LAYER:20
M106 S211
G1 F2400 E126.55767
G1 Z4.500
G0 F9000 X153.717 Y154.632 Z4.200
;TYPE:WALL-INNER
G1 Z4.200
G1 F2400 E127.15767
G1 F1080 X154.118 Y154.344 E127.17820
G1 X154.454 Y153.984 E127.19867
G1 X154.769 Y153.440 E127.22480
G1 X154.928 Y152.845 E127.25041
G1 X154.953 Y152.476 E127.26579
G1 X154.873 Y151.865 E127.29141
G1 X154.632 Y151.283 E127.31760
G1 X154.344 Y150.882 E127.33812
G1 X153.984 Y150.546 E127.35859
G1 X153.440 Y150.231 E127.38473
G1 X152.845 Y150.072 E127.41033
G1 X152.476 Y150.047 E127.42571
G1 X151.862 Y150.128 E127.45146
G1 X151.257 Y150.385 E127.47879
G1 X150.890 Y150.650 E127.49761
G1 X150.561 Y150.999 E127.51755
G1 X150.507 Y151.082 E127.52166
G1 X150.507 Y149.834 E127.57355
G1 X147.450 Y149.836 E127.70065
G1 X147.450 Y149.584 E127.71112
G1 X152.500 Y146.669 E127.95354
G1 X157.550 Y149.584 E128.19597
G1 X157.550 Y155.416 E128.43843
G1 X152.500 Y158.331 E128.68085
G1 X147.450 Y155.416 E128.92328
G1 X147.450 Y155.224 E128.93126
G1 X148.594 Y155.225 E128.97882
G1 X150.507 Y155.223 E129.05835
G1 X150.507 Y153.918 E129.11261
G1 X150.557 Y154.002 E129.11667
G1 X151.020 Y154.457 E129.14366
G1 X151.387 Y154.683 E129.16158
G1 X151.721 Y154.825 E129.17667
G1 X152.167 Y154.929 E129.19571
G1 X152.524 Y154.953 E129.21059
G1 X153.135 Y154.873 E129.23621
G1 X153.717 Y154.632 E129.26239
G0 F9000 X153.472 Y154.192
;TYPE:WALL-OUTER
G1 F1080 X153.786 Y153.967 E129.27845
G1 X154.050 Y153.684 E129.29455
G1 X154.303 Y153.247 E129.31554
G1 X154.433 Y152.762 E129.33641
G1 X154.451 Y152.492 E129.34766
G1 X154.386 Y151.996 E129.36846
G1 X154.192 Y151.528 E129.38953
G1 X153.967 Y151.214 E129.40559
G1 X153.684 Y150.950 E129.42168
G1 X153.247 Y150.697 E129.44267
G1 X152.762 Y150.567 E129.46355
G1 X152.492 Y150.549 E129.47480
G1 X151.995 Y150.615 E129.49564
G1 X151.504 Y150.823 E129.51781
G1 X151.221 Y151.027 E129.53231
G1 X150.955 Y151.310 E129.54846
G1 X150.792 Y151.559 E129.56083
G1 X150.624 Y151.970 E129.57929
G1 X150.560 Y152.305 E129.59347
G1 X150.549 Y152.508 E129.60192
G1 X150.603 Y152.953 E129.62056
G1 X150.723 Y153.304 E129.63598
G1 X150.954 Y153.691 E129.65472
G1 X151.331 Y154.061 E129.67668
G1 X151.617 Y154.238 E129.69067
G1 X151.876 Y154.348 E129.70237
G1 X152.242 Y154.433 E129.71799
G1 X152.508 Y154.451 E129.72907
G1 X153.004 Y154.386 E129.74987
G1 X153.472 Y154.192 E129.77093
G1 F2400 E129.17093
G1 Z4.700
G0 F9000 X150.007 Y154.724
G1 Z4.200
G1 F2400 E129.77093
G1 F1080 X150.007 Y150.335 E129.95340
G1 X146.950 Y150.336 E130.08050
G1 X146.950 Y149.296 E130.12374
G1 X152.500 Y146.091 E130.39019
G1 X158.050 Y149.296 E130.65664
G1 X158.050 Y155.704 E130.92306
G1 X152.500 Y158.909 E131.18951
G1 X146.950 Y155.704 E131.45596
G1 X146.950 Y154.724 E131.49671
G1 X150.007 Y154.724 E131.62380
G0 F9000 X151.299 Y154.835
;TYPE:FILL
G1 F1080 X153.826 Y157.361 E131.77235
G1 F2400 E131.17235
G1 Z4.700
G0 F9000 X152.467 Y155.123
G1 Z4.200
G1 F2400 E131.77235
G1 F1080 X150.574 Y157.017 E131.88368
G1 F2400 E131.28368
G1 Z4.700
G0 F9000 X155.127 Y152.463
G1 Z4.200
G1 F2400 E131.88368
G1 F1080 X157.373 Y150.217 E132.01574
G1 F2400 E131.41574
G1 Z4.700
G0 F9000 X154.823 Y151.287
G1 Z4.200
G1 F2400 E132.01574
G1 F1080 X157.374 Y153.838 E132.16573
G1 F2400 E131.56573
G1 Z4.700
G0 F9000 X153.737 Y150.201
G1 Z4.200
G1 F2400 E132.16573
G1 F1080 X151.173 Y147.637 E132.31648
G1 F2400 E131.71648
G1 Z4.700
G0 F9000 X153.228 Y147.291
G1 Z4.200
G1 F2400 E132.31648
G1 F1080 X150.681 Y149.838 E132.46623
G0 F9000 X149.896 Y148.836
;TYPE:SKIN
G1 F1080 X149.379 Y148.672 E132.48342
G1 X149.224 Y149.223 E132.50060
G1 X148.483 Y149.189 E132.51781
G1 X148.551 Y149.612 E132.53562
G1 F2400 E131.93562
G1 Z4.700
G0 F9000 X150.052 Y148.284
G1 Z4.200
G1 F2400 E132.53562
G1 F1080 X150.569 Y148.447 E132.55279
G1 X150.724 Y147.895 E132.57000
G1 X151.465 Y147.929 E132.58721
G1 X151.621 Y147.378 E132.60435
G1 X152.215 Y147.266 E132.62154
G1 X152.826 Y147.522 E132.64908
G0 F9000 X153.403 Y147.393
G1 F1080 X154.498 Y148.488 E132.71347
G0 F9000 X155.077 Y148.360
G1 F1080 X156.170 Y149.453 E132.77773
G0 F9000 X156.751 Y149.326
G1 F1080 X157.173 Y150.102 E132.81431
G1 X157.173 Y150.809 E132.83782
G1 X157.173 Y151.516 E132.86134
G1 X157.173 Y152.224 E132.88489
G1 X157.173 Y152.931 E132.90840
G1 X157.173 Y153.638 E132.93192
G1 X157.173 Y154.345 E132.95543
G1 X157.134 Y155.013 E132.97897
G1 X156.964 Y155.549 E132.99617
G1 X156.223 Y155.515 E133.01338
G1 X156.067 Y156.067 E133.03055
G1 X155.326 Y156.033 E133.04776
G1 X155.170 Y156.584 E133.06495
G1 X154.429 Y156.550 E133.08210
G1 X154.274 Y157.102 E133.09931
G1 X153.533 Y157.068 E133.11652
G1 X153.377 Y157.620 E133.13369
G1 X152.782 Y157.732 E133.15085
G1 X152.172 Y157.476 E133.17836
G0 F9000 X151.595 Y157.605
G1 F1080 X150.501 Y156.511 E133.24268
G0 F9000 X149.922 Y156.639
G1 F1080 X148.829 Y155.547 E133.30691
G0 F9000 X148.248 Y155.673
G1 F1080 X147.988 Y155.413 E133.32220
;LAYER:21
M106 S221
G0 F9000 X149.456 Y155.248 Z4.400
;TYPE:WALL-INNER
G1 F1500 X150.507 Y155.241 E133.36590
G1 X150.507 Y153.902 E133.42157
G1 X150.767 Y154.234 E133.43910
G1 X150.929 Y154.380 E133.44817
G1 X151.267 Y154.618 E133.46535
G1 X151.427 Y154.703 E133.47289
G1 X151.864 Y154.870 E133.49234
G1 X152.314 Y154.944 E133.51130
G1 X152.524 Y154.951 E133.52003
G1 X152.979 Y154.906 E133.53904
G1 X153.438 Y154.766 E133.55899
G1 X153.862 Y154.540 E133.57897
G1 X154.244 Y154.227 E133.59950
G1 X154.627 Y153.728 E133.62565
G1 X154.868 Y153.146 E133.65184
G1 X154.944 Y152.686 E133.67122
G1 X154.951 Y152.476 E133.67996
G1 X154.906 Y152.021 E133.69897
G1 X154.766 Y151.562 E133.71892
G1 X154.540 Y151.138 E133.73890
G1 X154.227 Y150.756 E133.75943
G1 X153.728 Y150.373 E133.78558
G1 X153.146 Y150.132 E133.81177
G1 X152.686 Y150.056 E133.83115
G1 X152.476 Y150.049 E133.83989
G1 X152.021 Y150.094 E133.85890
G1 X151.560 Y150.234 E133.87893
G1 X151.143 Y150.459 E133.89863
G1 X150.977 Y150.581 E133.90719
G1 X150.642 Y150.896 E133.92631
G1 X150.507 Y151.110 E133.93683
G1 X150.507 Y149.816 E133.99063
G1 X147.450 Y149.817 E134.11772
G1 X147.450 Y149.585 E134.12737
G1 X152.500 Y146.670 E134.36979
G1 X157.550 Y149.585 E134.61221
G1 X157.550 Y155.415 E134.85460
G1 X152.500 Y158.330 E135.09702
G1 X147.450 Y155.415 E135.33944
G1 X147.450 Y155.247 E135.34642
G1 X149.456 Y155.248 E135.42982
G0 F9000 X149.455 Y154.748
;TYPE:WALL-OUTER
G1 F1500 X150.007 Y154.744 E135.45277
G1 X150.007 Y150.316 E135.63687
G1 X146.950 Y150.317 E135.76396
G1 X146.950 Y149.297 E135.80637
G1 X152.500 Y146.092 E136.07282
G1 X158.050 Y149.297 E136.33928
G1 X158.050 Y155.703 E136.60561
G1 X152.500 Y158.908 E136.87206
G1 X146.950 Y155.703 E137.13851
G1 X146.950 Y154.746 E137.17830
G1 X149.455 Y154.748 E137.28245
G1 F2400 E136.68245
G1 Z4.900
G0 F9000 X151.134 Y153.891
G1 Z4.400
G1 F2400 E137.28245
G1 F1500 X151.242 Y153.989 E137.28851
G1 X151.528 Y154.191 E137.30307
G1 X151.634 Y154.246 E137.30803
G1 X151.995 Y154.385 E137.32411
G1 X152.364 Y154.445 E137.33966
G1 X152.508 Y154.450 E137.34565
G1 X152.880 Y154.413 E137.36119
G1 X153.246 Y154.302 E137.37709
G1 X153.583 Y154.122 E137.39297
G1 X153.883 Y153.877 E137.40908
G1 X154.190 Y153.476 E137.43007
G1 X154.384 Y153.008 E137.45114
G1 X154.445 Y152.636 E137.46681
G1 X154.450 Y152.492 E137.47280
G1 X154.413 Y152.120 E137.48834
G1 X154.302 Y151.754 E137.50424
G1 X154.122 Y151.417 E137.52013
G1 X153.877 Y151.117 E137.53623
G1 X153.476 Y150.810 E137.55723
G1 X153.008 Y150.616 E137.57829
G1 X152.636 Y150.555 E137.59396
G1 X152.492 Y150.550 E137.59995
G1 X152.120 Y150.587 E137.61549
G1 X151.753 Y150.698 E137.63144
G1 X151.411 Y150.882 E137.64758
G1 X151.031 Y151.217 E137.66864
G1 X150.710 Y151.726 E137.69366
G1 X150.607 Y152.031 E137.70704
G1 X150.554 Y152.386 E137.72197
G1 X150.550 Y152.510 E137.72713
G1 X150.595 Y152.925 E137.74448
G1 X150.815 Y153.484 E137.76946
G1 X151.134 Y153.891 E137.79096
G0 F9000 X151.106 Y154.717
;TYPE:SKIN
G1 F1500 X150.682 Y155.141 E137.81588
G0 F9000 X150.409 Y155.414
G1 F1500 X149.454 Y156.368 E137.87201
G0 F9000 X149.006 Y156.110
G1 F1500 X149.345 Y155.417 E137.91280
G1 X148.420 Y155.635 E137.93817
G1 X148.109 Y155.592 E137.95122
G1 F2400 E137.35122
G1 Z4.900
G0 F9000 X149.903 Y156.627
G1 Z4.400
G1 F2400 E137.95122
G1 F1500 X151.582 Y154.948 E138.04994
G0 F9000 X152.145 Y155.092
G1 F1500 X150.351 Y156.886 E138.15542
G0 F9000 X150.799 Y157.145
G1 F1500 X152.851 Y155.093 E138.27607
G0 F9000 X154.003 Y154.648
G1 F1500 X151.247 Y157.404 E138.43811
G0 F9000 X151.695 Y157.663
G1 F1500 X157.374 Y151.984 E138.77202
G0 F9000 X157.374 Y152.691
G1 F1500 X152.143 Y157.922 E139.07958
G0 F9000 X152.844 Y157.928
G1 F1500 X157.374 Y153.399 E139.34590
G0 F9000 X157.374 Y154.106
G1 F1500 X154.518 Y156.962 E139.51382
G1 F2400 E138.91382
G1 Z4.900
G0 F9000 X156.192 Y155.995
G1 Z4.400
G1 F2400 E139.51382
G1 F1500 X157.374 Y154.813 E139.58332
G1 F2400 E138.98332
G1 Z4.900
G0 F9000 X154.588 Y154.063
G1 Z4.400
G1 F2400 E139.58332
G1 F1500 X157.374 Y151.277 E139.74712
G0 F9000 X157.374 Y150.570
G1 F1500 X155.093 Y152.851 E139.88124
G0 F9000 X155.093 Y152.144
G1 F1500 X157.374 Y149.863 E140.01535
G0 F9000 X157.038 Y149.492
G1 F1500 X154.952 Y151.578 E140.13800
G0 F9000 X154.719 Y151.103
G1 F1500 X156.590 Y149.233 E140.24798
G0 F9000 X156.141 Y148.974
G1 F1500 X154.410 Y150.705 E140.34975
G0 F9000 X154.026 Y150.383
G1 F1500 X155.693 Y148.715 E140.44780
G0 F9000 X155.245 Y148.457
G1 F1500 X153.580 Y150.122 E140.54569
G0 F9000 X153.054 Y149.940
G1 F1500 X154.796 Y148.198 E140.64811
G0 F9000 X154.348 Y147.939
G1 F1500 X152.407 Y149.880 E140.76224
G0 F9000 X151.517 Y150.063
G1 F1500 X153.900 Y147.680 E140.90235
G0 F9000 X153.452 Y147.421
G1 F1500 X150.681 Y150.192 E141.06527
G0 F9000 X150.526 Y149.640
G1 F1500 X153.003 Y147.163 E141.21091
G0 F9000 X152.555 Y146.904
G1 F1500 X149.818 Y149.640 E141.37181
G0 F9000 X149.111 Y149.640
G1 F1500 X151.037 Y147.715 E141.48502
G1 F2400 E140.88502
G1 Z4.900
G0 F9000 X149.364 Y148.681
G1 Z4.400
G1 F2400 E141.48502
G1 F1500 X148.404 Y149.640 E141.54143
;LAYER:22
M106 S232
G1 F2400 E140.94143
G1 Z4.900
G0 F9000 X150.507 Y149.802 Z4.600
;TYPE:WALL-INNER
G1 Z4.600
G1 F2400 E141.54143
G1 F1440 X147.551 Y149.803 E141.66433
G1 X147.550 Y149.642 E141.67102
G1 X152.500 Y146.785 E141.90864
G1 X157.450 Y149.643 E142.14628
G1 X157.449 Y155.358 E142.38388
G1 X152.501 Y158.215 E142.62142
G1 X147.550 Y155.357 E142.85909
G1 X147.550 Y155.265 E142.86292
G1 X149.125 Y155.264 E142.92840
G1 X150.507 Y155.266 E142.98586
G1 X150.507 Y153.922 E143.04173
G1 X150.887 Y154.350 E143.06553
G1 X151.260 Y154.613 E143.08450
G1 X151.429 Y154.704 E143.09248
G1 X151.865 Y154.870 E143.11188
G1 X152.314 Y154.944 E143.13080
G1 X152.524 Y154.951 E143.13954
G1 X152.979 Y154.906 E143.15854
G1 X153.438 Y154.766 E143.17850
G1 X153.862 Y154.540 E143.19847
G1 X154.235 Y154.235 E143.21850
G1 X154.548 Y153.852 E143.23907
G1 X154.814 Y153.312 E143.26409
G1 X154.904 Y152.978 E143.27848
G1 X154.944 Y152.674 E143.29122
G1 X154.951 Y152.476 E143.29946
G1 X154.906 Y152.021 E143.31847
G1 X154.766 Y151.562 E143.33842
G1 X154.540 Y151.138 E143.35840
G1 X154.235 Y150.765 E143.37843
G1 X153.852 Y150.452 E143.39899
G1 X153.312 Y150.186 E143.42402
G1 X152.978 Y150.096 E143.43840
G1 X152.674 Y150.056 E143.45115
G1 X152.476 Y150.049 E143.45938
G1 X152.021 Y150.094 E143.47839
G1 X151.585 Y150.227 E143.49734
G1 X151.386 Y150.317 E143.50643
G1 X150.990 Y150.565 E143.52585
G1 X150.568 Y150.989 E143.55072
G1 X150.507 Y151.081 E143.55531
G1 X150.507 Y149.802 E143.60849
G0 F9000 X150.007 Y150.302
;TYPE:WALL-OUTER
G1 F1440 X147.050 Y150.303 E143.73142
G1 X147.050 Y149.354 E143.77088
G1 X152.500 Y146.208 E144.03250
G1 X157.950 Y149.354 E144.29413
G1 X157.949 Y155.646 E144.55572
G1 X152.501 Y158.792 E144.81727
G1 X147.050 Y155.646 E145.07894
G1 X147.051 Y154.765 E145.11556
G1 X150.007 Y154.765 E145.23846
G1 X150.007 Y150.302 E145.42401
G0 F9000 X150.957 Y151.307
G1 F1440 X150.800 Y151.544 E145.43583
G1 X150.613 Y152.006 E145.45655
G1 X150.566 Y152.243 E145.46660
G1 X150.549 Y152.539 E145.47892
G1 X150.616 Y153.006 E145.49854
G1 X150.703 Y153.260 E145.50970
G1 X150.888 Y153.599 E145.52576
G1 X151.222 Y153.975 E145.54667
G1 X151.523 Y154.187 E145.56197
G1 X151.637 Y154.248 E145.56735
G1 X151.996 Y154.385 E145.58332
G1 X152.364 Y154.445 E145.59882
G1 X152.508 Y154.450 E145.60481
G1 X152.880 Y154.413 E145.62036
G1 X153.246 Y154.302 E145.63626
G1 X153.583 Y154.122 E145.65214
G1 X153.880 Y153.880 E145.66807
G1 X154.125 Y153.580 E145.68417
G1 X154.344 Y153.135 E145.70479
G1 X154.413 Y152.880 E145.71578
G1 X154.445 Y152.632 E145.72617
G1 X154.450 Y152.492 E145.73200
G1 X154.413 Y152.120 E145.74754
G1 X154.302 Y151.754 E145.76344
G1 X154.122 Y151.417 E145.77932
G1 X153.880 Y151.120 E145.79525
G1 X153.580 Y150.875 E145.81135
G1 X153.135 Y150.656 E145.83197
G1 X152.880 Y150.587 E145.84296
G1 X152.632 Y150.555 E145.85335
G1 X152.492 Y150.550 E145.85918
G1 X152.120 Y150.587 E145.87472
G1 X151.762 Y150.696 E145.89028
G1 X151.623 Y150.758 E145.89661
G1 X151.304 Y150.958 E145.91226
G1 X150.957 Y151.307 E145.93272
G0 F9000 X150.830 Y150.476
;TYPE:SKIN
G1 F1440 X150.680 Y150.327 E145.94151
G0 F9000 X151.253 Y150.193
G1 F1440 X149.677 Y148.616 E146.03420
G0 F9000 X150.125 Y148.358
G1 F1440 X151.758 Y149.990 E146.13019
G0 F9000 X152.358 Y149.884
G1 F1440 X150.574 Y148.099 E146.23511
G0 F9000 X151.022 Y147.840
G1 F1440 X153.139 Y149.957 E146.35958
G1 F2400 E145.75958
G1 Z5.100
G0 F9000 X153.678 Y147.667
G1 Z4.600
G1 F2400 E146.35958
G1 F1440 X157.273 Y151.263 E146.57098
G0 F9000 X157.273 Y151.970
G1 F1440 X152.367 Y147.064 E146.85944
G0 F9000 X151.919 Y147.322
G1 F1440 X157.273 Y152.677 E147.17426
G0 F9000 X157.273 Y153.384
G1 F1440 X151.470 Y147.581 E147.51546
G1 F2400 E146.91546
G1 Z5.100
G0 F9000 X149.980 Y149.627
G1 Z4.600
G1 F2400 E147.51546
G1 F1440 X149.229 Y148.875 E147.55964
G0 F9000 X148.780 Y149.134
G1 F1440 X148.919 Y149.627 E147.58860
G1 X148.332 Y149.393 E147.61488
G1 F2400 E147.01488
G1 Z5.100
G0 F9000 X150.681 Y154.570
G1 Z4.600
G1 F2400 E147.61488
G1 F1440 X153.529 Y157.418 E147.78233
G0 F9000 X153.977 Y157.159
G1 F1440 X151.864 Y155.046 E147.90656
G0 F9000 X152.639 Y155.114
G1 F1440 X154.425 Y156.900 E148.01157
G0 F9000 X154.874 Y156.641
G1 F1440 X153.240 Y155.008 E148.10762
G0 F9000 X153.741 Y154.801
G1 F1440 X155.322 Y156.383 E148.20060
G0 F9000 X155.770 Y156.124
G1 F1440 X154.165 Y154.519 E148.29497
G0 F9000 X154.518 Y154.164
G1 F1440 X156.218 Y155.864 E148.39492
G0 F9000 X156.666 Y155.605
G1 F1440 X154.799 Y153.738 E148.50470
G0 F9000 X155.013 Y153.245
G1 F1440 X157.114 Y155.347 E148.62826
G0 F9000 X157.273 Y154.799
G1 F1440 X155.118 Y152.643 E148.75499
G0 F9000 X155.035 Y151.854
G1 F1440 X157.273 Y154.092 E148.88658
G1 F2400 E148.28658
G1 Z5.100
G0 F9000 X157.273 Y150.556
G1 Z4.600
G1 F2400 E148.88658
G1 F1440 X155.352 Y148.635 E148.99952
G1 F2400 E148.39952
G1 Z5.100
G0 F9000 X157.026 Y149.601
G1 Z4.600
G1 F2400 E148.99952
G1 F1440 X157.273 Y149.849 E149.01408
G0 F9000 X150.681 Y155.277
G1 F1440 X153.080 Y157.677 E149.15516
G0 F9000 X152.632 Y157.935
G1 F1440 X150.137 Y155.440 E149.30185
G0 F9000 X149.430 Y155.440
G1 F1440 X151.319 Y157.329 E149.41292
G1 F2400 E148.81292
G1 Z5.100
G0 F9000 X149.646 Y156.363
G1 Z4.600
G1 F2400 E149.41292
G1 F1440 X148.722 Y155.440 E149.46722
;LAYER:23
M106 S242
G1 F2400 E148.86722
G1 Z5.100
G0 F9000 X150.507 Y155.276 Z4.800
;TYPE:WALL-INNER
G1 Z4.800
G1 F2400 E149.46722
G1 F1320 X150.507 Y153.921 E149.52355
G1 X150.669 Y154.130 E149.53455
G1 X150.999 Y154.439 E149.55334
G1 X151.266 Y154.618 E149.56671
G1 X151.440 Y154.708 E149.57485
G1 X151.865 Y154.870 E149.59376
G1 X152.314 Y154.944 E149.61268
G1 X152.524 Y154.951 E149.62142
G1 X152.979 Y154.906 E149.64042
G1 X153.426 Y154.770 E149.65985
G1 X153.737 Y154.618 E149.67424
G1 X154.107 Y154.351 E149.69321
G1 X154.351 Y154.107 E149.70756
G1 X154.625 Y153.727 E149.72704
G1 X154.823 Y153.288 E149.74706
G1 X154.929 Y152.833 E149.76648
G1 X154.953 Y152.488 E149.78086
G1 X154.906 Y152.021 E149.80037
G1 X154.770 Y151.574 E149.81980
G1 X154.618 Y151.263 E149.83419
G1 X154.351 Y150.893 E149.85316
G1 X154.107 Y150.649 E149.86750
G1 X153.727 Y150.375 E149.88698
G1 X153.288 Y150.177 E149.90700
G1 X152.833 Y150.071 E149.92643
G1 X152.488 Y150.047 E149.94081
G1 X152.021 Y150.094 E149.96032
G1 X151.584 Y150.227 E149.97931
G1 X151.256 Y150.388 E149.99450
G1 X150.909 Y150.635 E150.01221
G1 X150.763 Y150.771 E150.02050
G1 X150.507 Y151.079 E150.03716
G1 X150.507 Y149.793 E150.09062
G1 X147.751 Y149.792 E150.20520
G1 X147.751 Y149.757 E150.20666
G1 X152.499 Y147.016 E150.43459
G1 X157.250 Y149.758 E150.66265
G1 X157.249 Y155.242 E150.89065
G1 X152.501 Y157.984 E151.11860
G1 X147.816 Y155.280 E151.34349
G1 X150.507 Y155.276 E151.45537
G0 F9000 X150.007 Y154.777
;TYPE:WALL-OUTER
G1 F1320 X150.007 Y150.293 E151.64179
G1 X147.251 Y150.292 E151.75638
G1 X147.251 Y149.469 E151.79059
G1 X152.499 Y146.439 E152.04253
G1 X157.750 Y149.470 E152.29460
G1 X157.749 Y155.531 E152.54659
G1 X152.501 Y158.561 E152.79853
G1 X147.250 Y155.530 E153.05060
G1 X147.251 Y154.781 E153.08174
G1 X150.007 Y154.777 E153.19632
G0 F9000 X151.040 Y153.792
G1 F1320 X151.312 Y154.046 E153.21180
G1 X151.521 Y154.187 E153.22228
G1 X151.644 Y154.251 E153.22804
G1 X151.996 Y154.385 E153.24370
G1 X152.364 Y154.445 E153.25920
G1 X152.508 Y154.450 E153.26519
G1 X152.880 Y154.413 E153.28074
G1 X153.242 Y154.303 E153.29647
G1 X153.479 Y154.187 E153.30744
G1 X153.782 Y153.969 E153.32296
G1 X153.969 Y153.782 E153.33395
G1 X154.190 Y153.476 E153.34964
G1 X154.347 Y153.127 E153.36555
G1 X154.433 Y152.758 E153.38131
G1 X154.451 Y152.496 E153.39222
G1 X154.413 Y152.120 E153.40794
G1 X154.303 Y151.758 E153.42367
G1 X154.187 Y151.521 E153.43464
G1 X153.969 Y151.218 E153.45015
G1 X153.782 Y151.031 E153.46115
G1 X153.476 Y150.810 E153.47684
G1 X153.127 Y150.653 E153.49275
G1 X152.758 Y150.567 E153.50851
G1 X152.496 Y150.549 E153.51942
G1 X152.120 Y150.587 E153.53514
G1 X151.761 Y150.696 E153.55073
G1 X151.519 Y150.815 E153.56195
G1 X151.226 Y151.024 E153.57691
G1 X151.122 Y151.120 E153.58279
G1 X150.870 Y151.430 E153.59940
G1 X150.697 Y151.759 E153.61486
G1 X150.589 Y152.114 E153.63028
G1 X150.549 Y152.514 E153.64700
G1 X150.588 Y152.891 E153.66275
G1 X150.750 Y153.360 E153.68338
G1 X150.881 Y153.587 E153.69428
G1 X151.040 Y153.792 E153.70507
G0 F9000 X151.104 Y154.719
;TYPE:SKIN
G1 F1320 X150.527 Y155.295 E153.72981
G1 X149.449 Y156.019 E153.77084
G1 X149.310 Y155.451 E153.79661
G1 X148.777 Y155.632 E153.82001
G1 F2400 E153.22001
G1 Z5.300
G0 F9000 X150.122 Y156.408
G1 Z4.800
G1 F2400 E153.82001
G1 F1320 X151.581 Y154.949 E153.90580
G0 F9000 X152.145 Y155.092
G1 F1320 X150.570 Y156.667 E153.99840
G0 F9000 X151.018 Y156.926
G1 F1320 X152.851 Y155.093 E154.10617
G0 F9000 X154.031 Y154.620
G1 F1320 X151.467 Y157.184 E154.25693
G0 F9000 X151.915 Y157.443
G1 F1320 X157.073 Y152.286 E154.56017
G0 F9000 X157.073 Y152.993
G1 F1320 X152.363 Y157.702 E154.83707
G0 F9000 X153.662 Y157.110
G1 F1320 X157.073 Y153.700 E155.03759
G0 F9000 X157.073 Y154.407
G1 F1320 X155.335 Y156.144 E155.13975
G1 F2400 E154.53975
G1 Z5.300
