;-- START GCODE --
;Sliced for Type A Machines Series 1
;Sliced at: Sun 08-11-2020 10:02:04
;Basic settings: Layer height: 0.2 Walls: 1 Fill: 20
;Print Speed: 45 Support: 0
;Retraction Speed: 40 Retraction Distance: 0.6
;Print time: 4 minutes
;Filament used: 0.18m 0.0g
;Settings based on: Type A Machines ProMatte
G21        ;metric values
G90        ;absolute positioning
G28     ;move to endstops
G29		;allows for auto-levelling
G1 Z15.0 F12000 ;move the platform down 15mm
G1 X150 Y5 F9000 ;center
M140 S50 ;Prep Heat Bed
M109 S210 ;Heat To temp
M190 S50 ;Heat Bed to temp
G1 X150 Y5 Z0.3 ;move the platform to purge extrusion
G92 E0 ;zero the extruded length
G1 F200 X250 E30 ;extrude 30mm of feed stock
G92 E0 ;zero the extruded length again
G1 X150 Y150  Z25 F12000 ;recenter and begin
G1 F9000

;Layer count: 25
;LAYER:0
M107
G0 F9000 X142.250 Y146.582 Z0.200
;TYPE:SKIRT
G1 F1800 X150.255 Y141.961 E0.38428
G1 X152.489 Y140.658 E0.49180
G1 X160.513 Y145.290 E0.87700
G1 X162.750 Y146.595 E0.98467
G1 X162.750 Y158.418 E1.47621
G1 X154.745 Y163.039 E1.86049
G1 X152.511 Y164.342 E1.96802
G1 X144.487 Y159.710 E2.35321
G1 X142.250 Y158.405 E2.46088
G1 X142.250 Y146.582 E2.95243
G0 F9000 X142.750 Y146.871
G1 F1800 X150.505 Y142.394 E3.32471
G1 X152.490 Y141.236 E3.42025
G1 X160.262 Y145.723 E3.79336
G1 X162.250 Y146.882 E3.88903
G1 X162.250 Y158.129 E4.35663
G1 X154.495 Y162.606 E4.72891
G1 X152.510 Y163.764 E4.82446
G1 X144.738 Y159.277 E5.19756
G1 X142.750 Y158.118 E5.29324
G1 X142.750 Y146.871 E5.76083
G0 F9000 X143.250 Y147.159
G1 F1800 X150.755 Y142.827 E6.12110
G1 X152.491 Y141.814 E6.20467
G1 X160.011 Y146.155 E6.56566
G1 X161.750 Y147.169 E6.64936
G1 X161.750 Y157.841 E7.09305
G1 X154.245 Y162.173 E7.45332
G1 X152.509 Y163.186 E7.53688
G1 X144.989 Y158.845 E7.89788
G1 X143.250 Y157.831 E7.98157
G1 X143.250 Y147.159 E8.42526
G1 F2400 E7.82526
G1 Z0.700
G0 F9000 X147.250 Y149.470
;TYPE:WALL-INNER
G1 Z0.200
G1 F2400 E8.42526
G1 F1800 X152.500 Y146.439 E8.67729
G1 X157.750 Y149.469 E8.92931
G1 X157.750 Y155.530 E9.18129
G1 X152.500 Y158.561 E9.43333
G1 X147.250 Y155.531 E9.68534
G1 X147.250 Y149.470 E9.93733
G1 F2400 E9.33733
G1 Z0.700
G0 F9000 X150.390 Y151.254
G1 Z0.200
G1 F2400 E9.93733
G1 F1800 X150.237 Y151.554 E9.95133
G1 X150.104 Y151.990 E9.97028
G1 X150.046 Y152.534 E9.99303
G1 X150.132 Y153.147 E10.01876
G1 X150.303 Y153.589 E10.03847
G1 X150.485 Y153.894 E10.05323
G1 X150.678 Y154.138 E10.06617
G1 X151.036 Y154.465 E10.08632
G1 X151.335 Y154.655 E10.10105
G1 X151.624 Y154.788 E10.11428
G1 X151.919 Y154.880 E10.12713
G1 X152.267 Y154.939 E10.14180
G1 X152.586 Y154.950 E10.15507
G1 X152.909 Y154.917 E10.16857
G1 X153.231 Y154.840 E10.18233
G1 X153.538 Y154.721 E10.19602
G1 X153.823 Y154.562 E10.20959
G1 X154.096 Y154.361 E10.22369
G1 X154.411 Y154.035 E10.24253
G1 X154.529 Y153.873 E10.25087
G1 X154.701 Y153.582 E10.26492
G1 X154.894 Y153.025 E10.28943
G1 X154.930 Y152.815 E10.29829
G1 X154.954 Y152.470 E10.31266
G1 X154.869 Y151.857 E10.33839
G1 X154.687 Y151.389 E10.35927
G1 X154.429 Y150.986 E10.37916
G1 X154.198 Y150.733 E10.39341
G1 X153.948 Y150.523 E10.40698
G1 X153.650 Y150.335 E10.42163
G1 X153.106 Y150.125 E10.44587
G1 X152.733 Y150.061 E10.46161
G1 X152.414 Y150.050 E10.47488
G1 X152.091 Y150.083 E10.48838
G1 X151.770 Y150.160 E10.50210
G1 X151.474 Y150.274 E10.51529
G1 X151.297 Y150.366 E10.52358
G1 X150.914 Y150.629 E10.54290
G1 X150.582 Y150.973 E10.56277
G1 X150.390 Y151.254 E10.57692
G0 F9000 X150.821 Y151.510
;TYPE:WALL-OUTER
G1 F1800 X150.702 Y151.742 E10.58776
G1 X150.591 Y152.106 E10.60359
G1 X150.567 Y152.244 E10.60941
G1 X150.549 Y152.516 E10.62074
G1 X150.619 Y153.020 E10.64190
G1 X150.757 Y153.376 E10.65777
G1 X150.893 Y153.604 E10.66881
G1 X151.145 Y153.901 E10.68500
G1 X151.340 Y154.067 E10.69565
G1 X151.568 Y154.212 E10.70688
G1 X151.804 Y154.321 E10.71769
G1 X152.176 Y154.423 E10.73373
G1 X152.309 Y154.440 E10.73930
G1 X152.569 Y154.449 E10.75012
G1 X152.824 Y154.423 E10.76077
G1 X153.082 Y154.361 E10.77181
G1 X153.325 Y154.267 E10.78264
G1 X153.552 Y154.141 E10.79343
G1 X153.765 Y153.984 E10.80443
G1 X154.028 Y153.712 E10.82016
G1 X154.112 Y153.597 E10.82608
G1 X154.245 Y153.371 E10.83699
G1 X154.408 Y152.900 E10.85771
G1 X154.433 Y152.756 E10.86378
G1 X154.451 Y152.487 E10.87499
G1 X154.382 Y151.984 E10.89610
G1 X154.239 Y151.616 E10.91252
G1 X154.031 Y151.291 E10.92856
G1 X153.851 Y151.094 E10.93965
G1 X153.653 Y150.928 E10.95039
G1 X153.425 Y150.784 E10.96161
G1 X152.965 Y150.606 E10.98211
G1 X152.691 Y150.560 E10.99366
G1 X152.431 Y150.551 E11.00448
G1 X152.176 Y150.577 E11.01514
G1 X151.919 Y150.639 E11.02613
G1 X151.679 Y150.731 E11.03681
G1 X151.555 Y150.795 E11.04261
G1 X151.239 Y151.012 E11.05855
G1 X150.971 Y151.290 E11.07461
G1 X150.821 Y151.510 E11.08568
G1 F2400 E10.48568
G1 Z0.700
G0 F9000 X146.750 Y149.181
G1 Z0.200
G1 F2400 E11.08568
G1 F1800 X152.500 Y145.861 E11.36172
G1 X158.250 Y149.180 E11.63774
G1 X158.250 Y155.819 E11.91376
G1 X152.500 Y159.139 E12.18981
G1 X146.750 Y155.820 E12.46583
G1 X146.750 Y149.181 E12.74185
G0 F9000 X147.665 Y149.432
;TYPE:SKIN
G1 F1800 X149.991 Y151.759 E12.87864
G0 F9000 X150.193 Y151.254
G1 F1800 X148.113 Y149.174 E13.00093
G0 F9000 X148.561 Y148.915
G1 F1800 X150.476 Y150.830 E13.11353
G0 F9000 X150.827 Y150.474
G1 F1800 X149.010 Y148.656 E13.22039
G0 F9000 X149.458 Y148.397
G1 F1800 X151.251 Y150.190 E13.32581
G0 F9000 X151.752 Y149.984
G1 F1800 X149.906 Y148.138 E13.43435
G0 F9000 X150.354 Y147.880
G1 F1800 X152.355 Y149.880 E13.55197
G0 F9000 X153.134 Y149.952
G1 F1800 X150.803 Y147.621 E13.68902
G0 F9000 X151.251 Y147.362
G1 F1800 X157.574 Y153.685 E14.06079
G0 F9000 X157.574 Y154.392
G1 F1800 X155.045 Y151.863 E14.20949
G0 F9000 X155.116 Y152.641
G1 F1800 X157.574 Y155.099 E14.35401
G0 F9000 X157.334 Y155.566
G1 F1800 X155.004 Y153.236 E14.49100
G0 F9000 X154.806 Y153.745
G1 F1800 X156.885 Y155.825 E14.61327
G0 F9000 X156.437 Y156.083
G1 F1800 X154.522 Y154.169 E14.72584
G0 F9000 X154.170 Y154.524
G1 F1800 X155.989 Y156.342 E14.83276
G0 F9000 X155.540 Y156.601
G1 F1800 X153.745 Y154.806 E14.93830
G0 F9000 X153.247 Y155.015
G1 F1800 X155.092 Y156.860 E15.04677
G0 F9000 X154.644 Y157.119
G1 F1800 X152.644 Y155.119 E15.16437
G0 F9000 X151.862 Y155.044
G1 F1800 X154.195 Y157.377 E15.30154
G0 F9000 X153.747 Y157.636
G1 F1800 X147.424 Y151.313 E15.67331
G0 F9000 X147.424 Y152.020
G1 F1800 X153.299 Y157.895 E16.01873
G0 F9000 X152.851 Y158.154
G1 F1800 X147.424 Y152.727 E16.33782
G0 F9000 X147.424 Y153.435
G1 F1800 X152.138 Y158.149 E16.61499
G1 F2400 E16.01499
G1 Z0.700
G0 F9000 X150.465 Y157.183
G1 Z0.200
G1 F2400 E16.61499
G1 F1800 X147.424 Y154.142 E16.79379
G0 F9000 X147.424 Y154.849
G1 F1800 X148.792 Y156.217 E16.87422
G1 F2400 E16.27422
G1 Z0.700
G0 F9000 X149.954 Y153.135
G1 Z0.200
G1 F2400 E16.87422
G1 F1800 X147.424 Y150.606 E17.02294
G0 F9000 X147.424 Y149.899
G1 F1800 X149.889 Y152.364 E17.16788
G1 F2400 E16.56788
G1 Z0.700
G0 F9000 X151.699 Y147.103
G1 Z0.200
G1 F2400 E17.16788
G1 F1800 X157.574 Y152.978 E17.51330
G0 F9000 X157.574 Y152.271
G1 F1800 X152.148 Y146.844 E17.83236
G0 F9000 X152.860 Y146.850
G1 F1800 X157.574 Y151.564 E18.10953
G0 F9000 X157.574 Y150.856
G1 F1800 X154.533 Y147.815 E18.28833
G1 F2400 E17.68833
G1 Z0.700
G0 F9000 X156.206 Y148.781
G1 Z0.200
G1 F2400 E18.28833
G1 F1800 X157.574 Y150.149 E18.36876
;LAYER:1
M106 S10
G0 F9000 X157.750 Y149.470 Z0.400
;TYPE:WALL-INNER
G1 F1800 X157.750 Y155.531 E18.62075
G1 X152.500 Y158.562 E18.87278
G1 X147.250 Y155.531 E19.12481
G1 X147.250 Y149.470 E19.37680
G1 X152.500 Y146.439 E19.62884
G1 X157.750 Y149.470 E19.88087
G1 F2400 E19.28087
G1 Z0.900
G0 F9000 X154.505 Y151.086
G1 Z0.400
G1 F2400 E19.88087
G1 F1800 X154.079 Y150.621 E19.90709
G1 X153.686 Y150.357 E19.92677
G1 X153.511 Y150.267 E19.93495
G1 X153.093 Y150.122 E19.95335
G1 X152.732 Y150.061 E19.96857
G1 X152.402 Y150.050 E19.98230
G1 X152.062 Y150.087 E19.99652
G1 X151.641 Y150.205 E20.01469
G1 X151.323 Y150.351 E20.02924
G1 X151.147 Y150.457 E20.03778
G1 X150.667 Y150.866 E20.06400
G1 X150.311 Y151.391 E20.09037
G1 X150.134 Y151.860 E20.11121
G1 X150.071 Y152.174 E20.12453
G1 X150.047 Y152.542 E20.13986
G1 X150.101 Y153.011 E20.15949
G1 X150.253 Y153.483 E20.18010
G1 X150.483 Y153.896 E20.19976
G1 X150.811 Y154.282 E20.22082
G1 X151.289 Y154.630 E20.24540
G1 X151.489 Y154.733 E20.25475
G1 X151.907 Y154.878 E20.27315
G1 X152.268 Y154.939 E20.28837
G1 X152.598 Y154.950 E20.30209
G1 X152.938 Y154.913 E20.31631
G1 X153.396 Y154.785 E20.33608
G1 X153.948 Y154.479 E20.36232
G1 X154.216 Y154.250 E20.37698
G1 X154.443 Y153.996 E20.39114
G1 X154.697 Y153.593 E20.41095
G1 X154.898 Y153.013 E20.43647
G1 X154.944 Y152.676 E20.45061
G1 X154.951 Y152.457 E20.45972
G1 X154.899 Y151.994 E20.47909
G1 X154.758 Y151.540 E20.49885
G1 X154.505 Y151.086 E20.52046
G0 F9000 X154.097 Y151.381
;TYPE:WALL-OUTER
G1 F1800 X153.751 Y151.003 E20.54177
G1 X153.431 Y150.788 E20.55780
G1 X153.314 Y150.728 E20.56326
G1 X152.960 Y150.605 E20.57884
G1 X152.691 Y150.560 E20.59018
G1 X152.421 Y150.551 E20.60141
G1 X152.157 Y150.580 E20.61245
G1 X151.807 Y150.678 E20.62757
G1 X151.440 Y150.864 E20.64467
G1 X151.043 Y151.203 E20.66638
G1 X150.758 Y151.623 E20.68748
G1 X150.616 Y151.999 E20.70419
G1 X150.568 Y152.239 E20.71436
G1 X150.549 Y152.529 E20.72645
G1 X150.592 Y152.905 E20.74218
G1 X150.714 Y153.283 E20.75869
G1 X150.896 Y153.609 E20.77422
G1 X151.154 Y153.913 E20.79079
G1 X151.552 Y154.203 E20.81127
G1 X151.686 Y154.272 E20.81753
G1 X152.040 Y154.395 E20.83311
G1 X152.309 Y154.440 E20.84445
G1 X152.579 Y154.449 E20.85568
G1 X152.843 Y154.420 E20.86673
G1 X153.205 Y154.319 E20.88235
G1 X153.661 Y154.066 E20.90403
G1 X153.865 Y153.892 E20.91518
G1 X154.042 Y153.694 E20.92622
G1 X154.244 Y153.375 E20.94192
G1 X154.409 Y152.896 E20.96298
G1 X154.445 Y152.634 E20.97398
G1 X154.450 Y152.477 E20.98051
G1 X154.408 Y152.097 E20.99640
G1 X154.296 Y151.738 E21.01204
G1 X154.097 Y151.381 E21.02903
G1 F2400 E20.42903
G1 Z0.900
G0 F9000 X158.250 Y149.181
G1 Z0.400
G1 F2400 E21.02903
G1 F1800 X158.250 Y155.819 E21.30501
G1 X152.500 Y159.139 E21.58105
G1 X146.750 Y155.819 E21.85709
G1 X146.750 Y149.181 E22.13307
G1 X152.500 Y145.861 E22.40912
G1 X158.250 Y149.181 E22.68516
G0 F9000 X157.573 Y149.664
;TYPE:SKIN
G1 F1800 X155.091 Y152.146 E22.83109
G0 F9000 X154.952 Y151.578
G1 F1800 X157.184 Y149.346 E22.96232
G0 F9000 X156.735 Y149.087
G1 F1800 X154.716 Y151.107 E23.08106
G0 F9000 X154.401 Y150.714
G1 F1800 X156.287 Y148.829 E23.19192
G0 F9000 X155.839 Y148.570
G1 F1800 X154.030 Y150.378 E23.29826
G0 F9000 X153.589 Y150.112
G1 F1800 X155.390 Y148.311 E23.40415
G0 F9000 X154.943 Y148.051
G1 F1800 X153.056 Y149.939 E23.51513
G0 F9000 X152.412 Y149.875
G1 F1800 X154.495 Y147.793 E23.63757
G0 F9000 X154.046 Y147.534
G1 F1800 X151.506 Y150.074 E23.78691
G1 F2400 E23.18691
G1 Z0.900
G0 F9000 X150.083 Y151.497
G1 Z0.400
G1 F2400 E23.78691
G1 F1800 X147.425 Y154.155 E23.94319
G0 F9000 X147.425 Y154.862
G1 F1800 X149.880 Y152.407 E24.08754
G0 F9000 X149.932 Y153.062
G1 F1800 X147.514 Y155.480 E24.22971
G0 F9000 X147.962 Y155.739
G1 F1800 X150.113 Y153.589 E24.35615
G0 F9000 X150.373 Y154.036
G1 F1800 X148.411 Y155.998 E24.47150
G0 F9000 X148.859 Y156.257
G1 F1800 X150.700 Y154.416 E24.57975
G0 F9000 X151.110 Y154.713
G1 F1800 X149.307 Y156.515 E24.68573
G0 F9000 X149.756 Y156.774
G1 F1800 X151.582 Y154.948 E24.79309
G0 F9000 X152.143 Y155.093
G1 F1800 X150.204 Y157.033 E24.90713
G0 F9000 X150.652 Y157.292
G1 F1800 X152.848 Y155.096 E25.03624
G0 F9000 X154.007 Y154.644
G1 F1800 X151.100 Y157.551 E25.20716
G0 F9000 X151.548 Y157.810
G1 F1800 X157.573 Y151.785 E25.56141
G0 F9000 X157.573 Y152.492
G1 F1800 X151.996 Y158.069 E25.88932
G0 F9000 X152.445 Y158.328
G1 F1800 X157.573 Y153.199 E26.19085
G0 F9000 X157.573 Y153.906
G1 F1800 X153.969 Y157.510 E26.40275
G1 F2400 E25.80275
G1 Z0.900
G0 F9000 X155.642 Y156.544
G1 Z0.400
G1 F2400 E26.40275
G1 F1800 X157.573 Y154.613 E26.51629
G0 F9000 X157.573 Y155.320
G1 F1800 X157.316 Y155.578 E26.53143
G1 F2400 E25.93143
G1 Z0.900
G0 F9000 X154.640 Y154.012
G1 Z0.400
G1 F2400 E26.53143
G1 F1800 X157.573 Y151.078 E26.70391
G0 F9000 X157.573 Y150.371
G1 F1800 X155.096 Y152.848 E26.84955
G1 F2400 E26.24955
G1 Z0.900
G0 F9000 X153.598 Y147.275
G1 Z0.400
G1 F2400 E26.84955
G1 F1800 X147.425 Y153.448 E27.21249
G0 F9000 X147.425 Y152.741
G1 F1800 X153.150 Y147.016 E27.54910
G0 F9000 X152.701 Y146.757
G1 F1800 X147.425 Y152.034 E27.85934
G0 F9000 X147.425 Y151.327
G1 F1800 X151.582 Y147.170 E28.10376
G1 F2400 E27.50376
G1 Z0.900
G0 F9000 X149.908 Y148.136
G1 Z0.400
G1 F2400 E28.10376
G1 F1800 X147.425 Y150.620 E28.24978
G0 F9000 X147.425 Y149.913
G1 F1800 X148.235 Y149.103 E28.29740
;LAYER:2
M106 S20
G0 F9000 X147.250 Y149.470 Z0.600
;TYPE:WALL-INNER
G1 F1800 X152.500 Y146.439 E28.54944
G1 X157.750 Y149.470 E28.80147
G1 X157.750 Y155.531 E29.05346
G1 X152.500 Y158.562 E29.30549
G1 X147.250 Y155.531 E29.55752
G1 X147.250 Y149.470 E29.80951
G1 F2400 E29.20951
G1 Z1.100
G0 F9000 X150.456 Y151.147
G1 Z0.600
G1 F2400 E29.80951
G1 F1800 X150.197 Y151.654 E29.83318
G1 X150.072 Y152.157 E29.85473
G1 X150.046 Y152.582 E29.87243
G1 X150.170 Y153.275 E29.90170
G1 X150.384 Y153.737 E29.92287
G1 X150.604 Y154.053 E29.93888
G1 X150.929 Y154.385 E29.95819
G1 X151.315 Y154.646 E29.97757
G1 X151.643 Y154.798 E29.99260
G1 X152.229 Y154.938 E30.01764
G1 X152.597 Y154.951 E30.03295
G1 X153.097 Y154.878 E30.05396
G1 X153.558 Y154.713 E30.07432
G1 X153.957 Y154.473 E30.09368
G1 X154.321 Y154.144 E30.11408
G1 X154.626 Y153.723 E30.13569
G1 X154.825 Y153.277 E30.15599
G1 X154.928 Y152.837 E30.17478
G1 X154.953 Y152.458 E30.19057
G1 X154.895 Y151.966 E30.21117
G1 X154.682 Y151.379 E30.23713
G1 X154.424 Y150.979 E30.25692
G1 X154.081 Y150.623 E30.27747
G1 X153.651 Y150.335 E30.29899
G1 X153.200 Y150.150 E30.31926
G1 X152.757 Y150.062 E30.33803
G1 X152.403 Y150.049 E30.35276
G1 X151.904 Y150.121 E30.37372
G1 X151.466 Y150.277 E30.39305
G1 X151.308 Y150.360 E30.40047
G1 X151.016 Y150.548 E30.41491
G1 X150.668 Y150.872 E30.43468
G1 X150.456 Y151.147 E30.44912
G0 F9000 X150.880 Y151.416
;TYPE:WALL-OUTER
G1 F1800 X150.668 Y151.831 E30.46849
G1 X150.568 Y152.233 E30.48571
G1 X150.549 Y152.553 E30.49904
G1 X150.651 Y153.124 E30.52316
G1 X150.821 Y153.490 E30.53993
G1 X150.984 Y153.726 E30.55186
G1 X151.251 Y153.999 E30.56773
G1 X151.562 Y154.209 E30.58334
G1 X151.808 Y154.323 E30.59461
G1 X152.296 Y154.440 E30.61547
G1 X152.570 Y154.450 E30.62687
G1 X152.976 Y154.391 E30.64393
G1 X153.343 Y154.259 E30.66014
G1 X153.658 Y154.070 E30.67541
G1 X153.947 Y153.808 E30.69163
G1 X154.191 Y153.472 E30.70890
G1 X154.349 Y153.116 E30.72509
G1 X154.432 Y152.763 E30.74017
G1 X154.451 Y152.471 E30.75233
G1 X154.405 Y152.082 E30.76862
G1 X154.231 Y151.602 E30.78984
G1 X154.031 Y151.291 E30.80522
G1 X153.758 Y151.009 E30.82153
G1 X153.414 Y150.778 E30.83876
G1 X153.055 Y150.631 E30.85489
G1 X152.699 Y150.560 E30.86998
G1 X152.430 Y150.550 E30.88117
G1 X152.025 Y150.609 E30.89819
G1 X151.667 Y150.736 E30.91398
G1 X151.324 Y150.945 E30.93068
G1 X151.039 Y151.210 E30.94686
G1 X150.880 Y151.416 E30.95768
G1 F2400 E30.35768
G1 Z1.100
G0 F9000 X146.750 Y149.181
G1 Z0.600
G1 F2400 E30.95768
G1 F1800 X152.500 Y145.861 E31.23372
G1 X158.250 Y149.181 E31.50977
G1 X158.250 Y155.819 E31.78574
G1 X152.500 Y159.139 E32.06179
G1 X146.750 Y155.819 E32.33783
G1 X146.750 Y149.181 E32.61381
G0 F9000 X147.665 Y149.432
;TYPE:SKIN
G1 F1800 X149.990 Y151.758 E32.75054
G0 F9000 X150.201 Y151.262
G1 F1800 X148.113 Y149.174 E32.87331
G0 F9000 X148.561 Y148.915
G1 F1800 X150.477 Y150.831 E32.98596
G0 F9000 X150.832 Y150.479
G1 F1800 X149.010 Y148.656 E33.09312
G0 F9000 X149.458 Y148.397
G1 F1800 X151.251 Y150.190 E33.19854
G0 F9000 X151.755 Y149.987
G1 F1800 X149.906 Y148.138 E33.30725
G0 F9000 X150.354 Y147.880
G1 F1800 X152.353 Y149.878 E33.42476
G0 F9000 X153.143 Y149.961
G1 F1800 X150.803 Y147.621 E33.56234
G0 F9000 X151.251 Y147.362
G1 F1800 X157.574 Y153.685 E33.93411
G0 F9000 X157.574 Y154.392
G1 F1800 X155.042 Y151.860 E34.08298
G0 F9000 X155.115 Y152.640
G1 F1800 X157.574 Y155.099 E34.22756
G0 F9000 X157.334 Y155.567
G1 F1800 X155.011 Y153.243 E34.36417
G0 F9000 X154.806 Y153.745
G1 F1800 X156.886 Y155.825 E34.48647
G0 F9000 X156.438 Y156.084
G1 F1800 X154.519 Y154.166 E34.59927
G0 F9000 X154.166 Y154.519
G1 F1800 X155.989 Y156.343 E34.70648
G0 F9000 X155.541 Y156.602
G1 F1800 X153.744 Y154.804 E34.81217
G0 F9000 X153.242 Y155.010
G1 F1800 X155.093 Y156.861 E34.92100
G0 F9000 X154.644 Y157.119
G1 F1800 X152.645 Y155.120 E35.03853
G0 F9000 X151.842 Y155.024
G1 F1800 X154.197 Y157.379 E35.17700
G0 F9000 X153.749 Y157.638
G1 F1800 X147.424 Y151.313 E35.54888
G0 F9000 X147.424 Y152.020
G1 F1800 X153.300 Y157.896 E35.89437
G0 F9000 X152.852 Y158.155
G1 F1800 X147.424 Y152.727 E36.21352
G0 F9000 X147.424 Y153.435
G1 F1800 X152.141 Y158.152 E36.49086
G1 F2400 E35.89086
G1 Z1.100
G0 F9000 X150.468 Y157.185
G1 Z0.600
G1 F2400 E36.49086
G1 F1800 X147.424 Y154.142 E36.66980
G0 F9000 X147.424 Y154.849
G1 F1800 X148.794 Y156.218 E36.75033
G1 F2400 E36.15033
G1 Z1.100
G0 F9000 X149.971 Y153.153
G1 Z0.600
G1 F2400 E36.75033
G1 F1800 X147.424 Y150.606 E36.90008
G0 F9000 X147.424 Y149.899
G1 F1800 X149.885 Y152.360 E37.04478
G1 F2400 E36.44478
G1 Z1.100
G0 F9000 X151.699 Y147.103
G1 Z0.600
G1 F2400 E37.04478
G1 F1800 X157.574 Y152.978 E37.39020
G0 F9000 X157.574 Y152.271
G1 F1800 X152.148 Y146.844 E37.70926
G0 F9000 X152.860 Y146.850
G1 F1800 X157.574 Y151.564 E37.98643
G0 F9000 X157.574 Y150.856
G1 F1800 X154.534 Y147.817 E38.16514
G1 F2400 E37.56514
G1 Z1.100
G0 F9000 X156.208 Y148.783
G1 Z0.600
G1 F2400 E38.16514
G1 F1800 X157.574 Y150.149 E38.24545
;LAYER:3
M106 S30
G0 F9000 X157.750 Y149.470 Z0.800
;TYPE:WALL-INNER
G1 F1800 X157.750 Y155.531 E38.49744
G1 X152.500 Y158.562 E38.74947
G1 X147.250 Y155.531 E39.00151
G1 X147.250 Y153.787 E39.07402
G1 X147.300 Y153.745 E39.07673
G1 X147.463 Y153.551 E39.08727
G1 X147.590 Y153.347 E39.09726
G1 X147.734 Y152.967 E39.11415
G1 X147.790 Y152.571 E39.13078
G1 X147.740 Y152.052 E39.15246
G1 X147.601 Y151.674 E39.16920
G1 X147.435 Y151.410 E39.18217
G1 X147.250 Y151.209 E39.19352
G1 X147.250 Y149.470 E39.26582
G1 X152.500 Y146.439 E39.51786
G1 X157.750 Y149.470 E39.76989
G1 F2400 E39.16989
G1 Z1.300
G0 F9000 X154.611 Y151.250
G1 Z0.800
G1 F2400 E39.76989
G1 F1800 X154.319 Y150.854 E39.79035
G1 X153.943 Y150.514 E39.81142
G1 X153.347 Y150.196 E39.83951
G1 X152.769 Y150.062 E39.86417
G1 X152.406 Y150.049 E39.87928
G1 X151.917 Y150.116 E39.89980
G1 X151.339 Y150.340 E39.92557
G1 X151.027 Y150.540 E39.94098
G1 X150.662 Y150.879 E39.96169
G1 X150.445 Y151.161 E39.97648
G1 X150.166 Y151.746 E40.00343
G1 X150.072 Y152.159 E40.02104
G1 X150.047 Y152.510 E40.03567
G1 X150.094 Y152.988 E40.05563
G1 X150.347 Y153.679 E40.08623
G1 X150.603 Y154.056 E40.10517
G1 X151.037 Y154.468 E40.13005
G1 X151.338 Y154.659 E40.14487
G1 X151.774 Y154.843 E40.16455
G1 X152.241 Y154.938 E40.18436
G1 X152.594 Y154.951 E40.19905
G1 X153.073 Y154.886 E40.21914
G1 X153.578 Y154.705 E40.24145
G1 X154.081 Y154.378 E40.26639
G1 X154.456 Y153.980 E40.28913
G1 X154.752 Y153.473 E40.31353
G1 X154.877 Y153.097 E40.33001
G1 X154.944 Y152.687 E40.34728
G1 X154.952 Y152.471 E40.35627
G1 X154.896 Y151.986 E40.37656
G1 X154.811 Y151.682 E40.38969
G1 X154.611 Y151.250 E40.40948
G0 F9000 X154.178 Y151.506
;TYPE:WALL-OUTER
G1 F1800 X153.946 Y151.191 E40.42574
G1 X153.653 Y150.926 E40.44217
G1 X153.170 Y150.668 E40.46493
G1 X152.703 Y150.560 E40.48486
G1 X152.431 Y150.550 E40.49618
G1 X152.043 Y150.603 E40.51246
G1 X151.566 Y150.788 E40.53373
G1 X151.334 Y150.937 E40.54519
G1 X151.033 Y151.217 E40.56229
G1 X150.874 Y151.424 E40.57314
G1 X150.641 Y151.911 E40.59558
G1 X150.568 Y152.232 E40.60927
G1 X150.549 Y152.503 E40.62056
G1 X150.585 Y152.876 E40.63614
G1 X150.795 Y153.449 E40.66151
G1 X150.986 Y153.730 E40.67564
G1 X151.346 Y154.072 E40.69629
G1 X151.571 Y154.214 E40.70735
G1 X151.923 Y154.363 E40.72324
G1 X152.300 Y154.440 E40.73924
G1 X152.569 Y154.450 E40.75043
G1 X152.954 Y154.397 E40.76658
G1 X153.355 Y154.254 E40.78428
G1 X153.758 Y153.991 E40.80429
G1 X154.053 Y153.679 E40.82214
G1 X154.294 Y153.266 E40.84202
G1 X154.390 Y152.978 E40.85464
G1 X154.445 Y152.638 E40.86896
G1 X154.451 Y152.490 E40.87512
G1 X154.404 Y152.083 E40.89216
G1 X154.340 Y151.856 E40.90196
G1 X154.178 Y151.506 E40.91800
G1 F2400 E40.31800
G1 Z1.300
G0 F9000 X158.250 Y149.181
G1 Z0.800
G1 F2400 E40.91800
G1 F1800 X158.250 Y155.819 E41.19397
G1 X152.500 Y159.139 E41.47002
G1 X146.750 Y155.819 E41.74606
G1 X146.750 Y153.531 E41.84118
G1 X146.824 Y153.490 E41.84470
G1 X146.946 Y153.389 E41.85129
G1 X147.057 Y153.257 E41.85846
G1 X147.139 Y153.124 E41.86495
G1 X147.247 Y152.842 E41.87751
G1 X147.287 Y152.560 E41.88935
G1 X147.249 Y152.165 E41.90585
G1 X147.150 Y151.896 E41.91776
G1 X147.036 Y151.715 E41.92666
G1 X146.912 Y151.580 E41.93428
G1 X146.750 Y151.471 E41.94240
G1 X146.750 Y149.181 E42.03760
G1 X152.500 Y145.861 E42.31365
G1 X158.250 Y149.181 E42.58969
G0 F9000 X157.573 Y149.664
;TYPE:SKIN
G1 F1800 X155.091 Y152.146 E42.73562
G0 F9000 X154.953 Y151.576
G1 F1800 X157.184 Y149.346 E42.86677
G0 F9000 X156.735 Y149.087
G1 F1800 X154.719 Y151.103 E42.98530
G0 F9000 X154.413 Y150.703
G1 F1800 X156.287 Y148.829 E43.09549
G0 F9000 X155.839 Y148.570
G1 F1800 X154.040 Y150.369 E43.20126
G0 F9000 X153.580 Y150.122
G1 F1800 X155.390 Y148.311 E43.30771
G0 F9000 X154.943 Y148.051
G1 F1800 X153.047 Y149.947 E43.41919
G0 F9000 X152.414 Y149.874
G1 F1800 X154.495 Y147.793 E43.54154
G0 F9000 X154.046 Y147.534
G1 F1800 X151.485 Y150.095 E43.69212
G1 F2400 E43.09212
G1 Z1.300
G0 F9000 X150.095 Y151.485
G1 Z0.800
G1 F2400 E43.69212
G1 F1800 X147.425 Y154.155 E43.84911
G0 F9000 X147.425 Y154.862
G1 F1800 X149.878 Y152.409 E43.99333
G0 F9000 X149.933 Y153.061
G1 F1800 X147.514 Y155.480 E44.13556
G0 F9000 X147.962 Y155.739
G1 F1800 X150.123 Y153.578 E44.26262
G0 F9000 X150.376 Y154.033
G1 F1800 X148.411 Y155.998 E44.37815
G0 F9000 X148.859 Y156.257
G1 F1800 X150.714 Y154.401 E44.48725
G0 F9000 X151.105 Y154.717
G1 F1800 X149.307 Y156.515 E44.59297
G0 F9000 X149.756 Y156.774
G1 F1800 X151.581 Y154.949 E44.70027
G0 F9000 X152.141 Y155.096
G1 F1800 X150.204 Y157.033 E44.81416
G0 F9000 X150.652 Y157.292
G1 F1800 X152.853 Y155.091 E44.94357
G0 F9000 X154.041 Y154.611
G1 F1800 X151.100 Y157.551 E45.11646
G0 F9000 X151.548 Y157.810
G1 F1800 X157.573 Y151.785 E45.47070
G0 F9000 X157.573 Y152.492
G1 F1800 X151.996 Y158.069 E45.79861
G0 F9000 X152.445 Y158.328
G1 F1800 X157.573 Y153.199 E46.10015
G0 F9000 X157.573 Y153.906
G1 F1800 X153.969 Y157.510 E46.31205
G1 F2400 E45.71205
G1 Z1.300
G0 F9000 X155.642 Y156.544
G1 Z0.800
G1 F2400 E46.31205
G1 F1800 X157.573 Y154.613 E46.42558
G0 F9000 X157.573 Y155.320
G1 F1800 X157.316 Y155.578 E46.44072
G1 F2400 E45.84072
G1 Z1.300
G0 F9000 X154.640 Y154.012
G1 Z0.800
G1 F2400 E46.44072
G1 F1800 X157.573 Y151.078 E46.61320
G0 F9000 X157.573 Y150.371
G1 F1800 X155.093 Y152.851 E46.75902
G1 F2400 E46.15902
G1 Z1.300
G0 F9000 X153.598 Y147.275
G1 Z0.800
G1 F2400 E46.75902
G1 F1800 X147.912 Y152.961 E47.09333
G0 F9000 X147.933 Y152.233
G1 F1800 X153.150 Y147.016 E47.40007
G0 F9000 X152.701 Y146.757
G1 F1800 X147.788 Y151.671 E47.68897
G0 F9000 X147.515 Y151.237
G1 F1800 X151.582 Y147.170 E47.92809
G1 F2400 E47.32809
G1 Z1.300
G0 F9000 X149.908 Y148.136
G1 Z0.800
G1 F2400 E47.92809
G1 F1800 X147.425 Y150.620 E48.07411
G0 F9000 X147.425 Y149.913
G1 F1800 X148.235 Y149.103 E48.12174
;LAYER:4
M106 S40
G1 F2400 E47.52174
G1 Z1.300
G0 F9000 X147.411 Y150.964 Z1.000
;TYPE:WALL-INNER
G1 Z1.000
G1 F2400 E48.12174
G1 F1080 X147.250 Y150.837 E48.13026
G1 X147.250 Y149.470 E48.18709
G1 X152.500 Y146.439 E48.43913
G1 X157.750 Y149.470 E48.69116
G1 X157.750 Y155.531 E48.94315
G1 X152.500 Y158.562 E49.19518
G1 X147.250 Y155.531 E49.44722
G1 X147.250 Y154.169 E49.50384
G1 X147.274 Y154.155 E49.50500
G1 X147.622 Y153.808 E49.52543
G1 X147.861 Y153.373 E49.54607
G1 X147.972 Y152.993 E49.56252
G1 X148.019 Y152.584 E49.57964
G1 X148.017 Y152.493 E49.58342
G1 X148.019 Y152.417 E49.58659
G1 X147.968 Y151.985 E49.60467
G1 X147.859 Y151.625 E49.62031
G1 X147.632 Y151.213 E49.63987
G1 X147.411 Y150.964 E49.65371
G1 F2400 E49.05371
G1 Z1.500
G0 F9000 X150.093 Y152.037
G1 Z1.000
G1 F2400 E49.65371
G1 F1080 X150.053 Y152.374 E49.66782
G1 X150.049 Y152.515 E49.67368
G1 X150.073 Y152.855 E49.68785
G1 X150.210 Y153.377 E49.71029
G1 X150.358 Y153.693 E49.72480
G1 X150.571 Y154.016 E49.74088
G1 X150.930 Y154.384 E49.76226
G1 X151.228 Y154.596 E49.77746
G1 X151.668 Y154.806 E49.79773
G1 X152.071 Y154.913 E49.81507
G1 X152.267 Y154.939 E49.82329
G1 X152.606 Y154.951 E49.83739
G1 X153.207 Y154.849 E49.86273
G1 X153.599 Y154.693 E49.88027
G1 X154.078 Y154.380 E49.90406
G1 X154.406 Y154.041 E49.92367
G1 X154.485 Y153.935 E49.92917
G1 X154.750 Y153.476 E49.95120
G1 X154.868 Y153.136 E49.96617
G1 X154.944 Y152.689 E49.98502
G1 X154.951 Y152.475 E49.99392
G1 X154.902 Y151.994 E50.01402
G1 X154.678 Y151.373 E50.04147
G1 X154.451 Y151.021 E50.05888
G1 X154.034 Y150.582 E50.08405
G1 X153.402 Y150.216 E50.11442
G1 X152.932 Y150.087 E50.13468
G1 X152.733 Y150.061 E50.14302
G1 X152.394 Y150.049 E50.15713
G1 X151.794 Y150.151 E50.18243
G1 X151.417 Y150.300 E50.19928
G1 X150.999 Y150.559 E50.21973
G1 X150.555 Y150.999 E50.24572
G1 X150.213 Y151.612 E50.27490
G1 X150.093 Y152.037 E50.29326
G0 F9000 X150.552 Y152.411
;TYPE:WALL-OUTER
G1 F1080 X150.550 Y152.505 E50.29717
G1 X150.568 Y152.774 E50.30838
G1 X150.682 Y153.206 E50.32695
G1 X150.795 Y153.448 E50.33806
G1 X150.962 Y153.701 E50.35066
G1 X151.257 Y154.003 E50.36821
G1 X151.483 Y154.163 E50.37972
G1 X151.841 Y154.335 E50.39624
G1 X152.169 Y154.422 E50.41035
G1 X152.309 Y154.440 E50.41621
G1 X152.573 Y154.450 E50.42720
G1 X153.071 Y154.365 E50.44820
G1 X153.367 Y154.247 E50.46145
G1 X153.757 Y153.992 E50.48082
G1 X154.067 Y153.659 E50.49974
G1 X154.293 Y153.267 E50.51855
G1 X154.382 Y153.011 E50.52982
G1 X154.445 Y152.638 E50.54554
G1 X154.450 Y152.492 E50.55162
G1 X154.411 Y152.106 E50.56775
G1 X154.225 Y151.590 E50.59055
G1 X154.068 Y151.344 E50.60268
G1 X153.721 Y150.979 E50.62362
G1 X153.207 Y150.681 E50.64832
G1 X152.832 Y150.578 E50.66449
G1 X152.691 Y150.560 E50.67040
G1 X152.427 Y150.550 E50.68139
G1 X151.929 Y150.635 E50.70239
G1 X151.642 Y150.749 E50.71523
G1 X151.310 Y150.954 E50.73145
G1 X150.957 Y151.304 E50.75212
G1 X150.678 Y151.804 E50.77592
G1 X150.585 Y152.135 E50.79022
G1 X150.552 Y152.411 E50.80177
G1 F2400 E50.20177
G1 Z1.500
G0 F9000 X147.518 Y152.440
G1 Z1.000
G1 F2400 E50.80177
G1 F1080 X147.477 Y152.088 E50.81651
G1 X147.396 Y151.820 E50.82815
G1 X147.221 Y151.503 E50.84320
G1 X147.067 Y151.329 E50.85286
G1 X146.902 Y151.199 E50.86159
G1 X146.750 Y151.126 E50.86861
G1 X146.750 Y149.181 E50.94947
G1 X152.500 Y145.861 E51.22551
G1 X158.250 Y149.181 E51.50156
G1 X158.250 Y155.819 E51.77753
G1 X152.500 Y159.139 E52.05358
G1 X146.750 Y155.819 E52.32962
G1 X146.750 Y153.877 E52.41036
G1 X146.788 Y153.863 E52.41204
G1 X146.965 Y153.758 E52.42060
G1 X147.218 Y153.505 E52.43548
G1 X147.396 Y153.180 E52.45088
G1 X147.480 Y152.894 E52.46328
G1 X147.518 Y152.560 E52.47725
G1 X147.517 Y152.499 E52.47979
G1 X147.518 Y152.440 E52.48224
G1 F2400 E51.88224
G1 Z1.500
G0 F9000 X149.464 Y151.055
;TYPE:FILL
G1 Z1.000
G1 F2400 E52.48224
G1 F1080 X153.374 Y147.146 E52.71210
G1 F2400 E52.11210
G1 Z1.500
G0 F9000 X151.027 Y147.491
G1 Z1.000
G1 F2400 E52.71210
G1 F1080 X153.753 Y150.217 E52.87238
G1 F2400 E52.27238
G1 Z1.500
G0 F9000 X154.838 Y151.302
G1 Z1.000
G1 F2400 E52.87238
G1 F1080 X157.574 Y154.038 E53.03325
G1 F2400 E52.43325
G1 Z1.500
G0 F9000 X155.125 Y152.466
G1 Z1.000
G1 F2400 E53.03325
G1 F1080 X157.573 Y150.017 E53.17721
G1 F2400 E52.57721
G1 Z1.500
G0 F9000 X152.470 Y155.120
G1 Z1.000
G1 F2400 E53.17721
G1 F1080 X150.428 Y157.162 E53.29727
G1 F2400 E52.69727
G1 Z1.500
G0 F9000 X151.277 Y154.813
G1 Z1.000
G1 F2400 E53.29727
G1 F1080 X153.973 Y157.508 E53.45576
G1 F2400 E52.85576
G1 Z1.500
G0 F9000 X150.703 Y154.592
;TYPE:SKIN
G1 Z1.000
G1 F2400 E53.45576
G1 F1080 X148.152 Y152.041 E53.60575
G0 F9000 X148.172 Y152.769
G1 F1080 X149.996 Y154.592 E53.71296
G0 F9000 X149.289 Y154.592
G1 F1080 X148.049 Y153.352 E53.78587
G0 F9000 X147.812 Y153.822
G1 F1080 X148.582 Y154.592 E53.83114
G0 F9000 X147.875 Y154.592
G1 F1080 X147.479 Y154.197 E53.85440
G1 F2400 E53.25440
G1 Z1.500
G0 F9000 X149.970 Y153.152
G1 Z1.000
G1 F2400 E53.85440
G1 F1080 X147.424 Y150.606 E54.00409
G0 F9000 X147.931 Y150.406
G1 F1080 X149.879 Y152.353 E54.11860
G0 F9000 X149.990 Y151.757
G1 F1080 X148.638 Y150.406 E54.19806
G0 F9000 X149.346 Y150.407
G1 F1080 X150.205 Y151.266 E54.24857
G0 F9000 X150.475 Y150.829
G1 F1080 X150.053 Y150.407 E54.27338
;LAYER:5
M106 S51
G0 F9000 X150.667 Y150.869 Z1.200
;TYPE:WALL-INNER
G1 F1080 X150.425 Y151.212 E54.29083
G1 X149.526 Y151.213 E54.32821
G1 X147.845 Y151.211 E54.39809
G1 X147.683 Y150.971 E54.41013
G1 X147.604 Y150.878 E54.41521
G1 X147.410 Y150.693 E54.42635
G1 X147.250 Y150.585 E54.43438
G1 X147.250 Y149.470 E54.48073
G1 X152.500 Y146.439 E54.73277
G1 X157.750 Y149.470 E54.98480
G1 X157.750 Y155.531 E55.23679
G1 X152.500 Y158.562 E55.48882
G1 X147.250 Y155.531 E55.74086
G1 X147.250 Y154.415 E55.78725
G1 X147.526 Y154.207 E55.80162
G1 X147.706 Y154.006 E55.81284
G1 X147.839 Y153.788 E55.82346
G1 X149.401 Y153.790 E55.88840
G1 X149.574 Y153.791 E55.89559
G1 X150.425 Y153.789 E55.93097
G1 X150.664 Y154.125 E55.94811
G1 X150.952 Y154.402 E55.96473
G1 X151.338 Y154.661 E55.98405
G1 X151.831 Y154.859 E56.00614
G1 X152.245 Y154.938 E56.02366
G1 X152.581 Y154.950 E56.03764
G1 X152.926 Y154.915 E56.05206
G1 X153.444 Y154.764 E56.07449
G1 X153.896 Y154.518 E56.09589
G1 X154.405 Y154.046 E56.12475
G1 X154.609 Y153.749 E56.13973
G1 X154.769 Y153.434 E56.15441
G1 X154.927 Y152.852 E56.17949
G1 X154.953 Y152.488 E56.19466
G1 X154.906 Y152.037 E56.21351
G1 X154.857 Y151.830 E56.22235
G1 X154.683 Y151.377 E56.24253
G1 X154.283 Y150.813 E56.27128
G1 X153.896 Y150.484 E56.29239
G1 X153.472 Y150.250 E56.31253
G1 X153.077 Y150.117 E56.32986
G1 X152.746 Y150.061 E56.34381
G1 X152.419 Y150.050 E56.35742
G1 X152.074 Y150.085 E56.37183
G1 X151.585 Y150.227 E56.39300
G1 X151.397 Y150.311 E56.40156
G1 X151.032 Y150.535 E56.41937
G1 X150.667 Y150.869 E56.43994
G0 F9000 X151.045 Y151.201
;TYPE:WALL-OUTER
G1 F1080 X150.785 Y151.571 E56.45874
G1 X150.724 Y151.712 E56.46513
G1 X147.528 Y151.710 E56.59800
G1 X147.429 Y151.487 E56.60815
G1 X147.291 Y151.282 E56.61842
G1 X147.101 Y151.087 E56.62974
G1 X146.878 Y150.937 E56.64091
G1 X146.750 Y150.886 E56.64664
G1 X146.750 Y149.181 E56.71753
G1 X152.500 Y145.861 E56.99357
G1 X158.250 Y149.181 E57.26962
G1 X158.250 Y155.819 E57.54559
G1 X152.500 Y159.139 E57.82164
G1 X146.750 Y155.819 E58.09768
G1 X146.750 Y154.105 E58.16894
G1 X146.904 Y154.050 E58.17574
G1 X147.186 Y153.837 E58.19043
G1 X147.303 Y153.707 E58.19770
G1 X147.480 Y153.417 E58.21183
G1 X147.526 Y153.288 E58.21752
G1 X149.404 Y153.290 E58.29560
G1 X149.575 Y153.291 E58.30271
G1 X150.724 Y153.288 E58.35048
G1 X150.790 Y153.440 E58.35737
G1 X151.044 Y153.797 E58.37558
G1 X151.267 Y154.011 E58.38843
G1 X151.573 Y154.216 E58.40375
G1 X151.973 Y154.377 E58.42167
G1 X152.302 Y154.440 E58.43560
G1 X152.564 Y154.449 E58.44650
G1 X152.830 Y154.422 E58.45762
G1 X153.252 Y154.299 E58.47589
G1 X153.602 Y154.109 E58.49245
G1 X154.024 Y153.717 E58.51639
G1 X154.178 Y153.494 E58.52766
G1 X154.300 Y153.253 E58.53889
G1 X154.432 Y152.768 E58.55979
G1 X154.451 Y152.496 E58.57112
G1 X154.412 Y152.120 E58.58684
G1 X154.378 Y151.977 E58.59295
G1 X154.239 Y151.615 E58.60907
G1 X153.912 Y151.154 E58.63257
G1 X153.610 Y150.897 E58.64906
G1 X153.270 Y150.709 E58.66521
G1 X152.955 Y150.604 E58.67902
G1 X152.695 Y150.560 E58.68998
G1 X152.436 Y150.551 E58.70075
G1 X152.170 Y150.578 E58.71187
G1 X151.758 Y150.698 E58.72971
G1 X151.631 Y150.754 E58.73548
G1 X151.334 Y150.936 E58.74996
G1 X151.045 Y151.201 E58.76626
G1 F2400 E58.16626
G1 Z1.700
G0 F9000 X149.483 Y151.036
;TYPE:FILL
G1 Z1.200
G1 F2400 E58.76626
G1 F1080 X153.374 Y147.146 E58.99501
G1 F2400 E58.39501
G1 Z1.700
G0 F9000 X151.027 Y147.491
G1 Z1.200
G1 F2400 E58.99501
G1 F1080 X153.725 Y150.189 E59.15364
G1 F2400 E58.55364
G1 Z1.700
G0 F9000 X154.842 Y151.307
G1 Z1.200
G1 F2400 E59.15364
G1 F1080 X157.574 Y154.038 E59.31424
G1 F2400 E58.71424
G1 Z1.700
G0 F9000 X155.125 Y152.465
G1 Z1.200
G1 F2400 E59.31424
G1 F1080 X157.573 Y150.017 E59.45818
G1 F2400 E58.85818
G1 Z1.700
G0 F9000 X152.471 Y155.120
G1 Z1.200
G1 F2400 E59.45818
G1 F1080 X150.428 Y157.162 E59.57827
G1 F2400 E58.97827
G1 Z1.700
G0 F9000 X151.296 Y154.831
G1 Z1.200
G1 F2400 E59.57827
G1 F1080 X153.973 Y157.508 E59.73567
G1 F2400 E59.13567
G1 Z1.700
G0 F9000 X150.707 Y154.408
;TYPE:SKIN
G1 Z1.200
G1 F2400 E59.73567
G1 F1080 X150.398 Y154.363 E59.75272
G1 X149.710 Y154.698 E59.78454
G0 F9000 X149.003 Y154.698
G1 F1080 X149.739 Y153.962 E59.82781
G0 F9000 X149.032 Y153.962
G1 F1080 X148.296 Y154.698 E59.87109
G0 F9000 X148.325 Y153.962
G1 F1080 X147.448 Y154.840 E59.92268
G1 F2400 E59.32268
G1 Z1.700
G0 F9000 X148.423 Y151.035
G1 Z1.200
G1 F2400 E59.92268
G1 F1080 X149.158 Y150.301 E59.96587
G0 F9000 X149.864 Y150.301
G1 F1080 X149.130 Y151.035 E60.00902
G0 F9000 X149.837 Y151.036
G1 F1080 X150.572 Y150.301 E60.05224
G1 F2400 E59.45224
G1 Z1.700
G0 F9000 X148.452 Y150.300
G1 Z1.200
G1 F2400 E60.05224
G1 F1080 X147.674 Y150.723 E60.08766
G1 X147.745 Y150.300 E60.10549
;LAYER:6
M106 S63
G0 F9000 X147.487 Y150.553 Z1.400
;TYPE:WALL-INNER
G1 F1020 X147.250 Y150.401 E60.11719
G1 X147.250 Y149.470 E60.15590
G1 X152.500 Y146.439 E60.40793
G1 X157.750 Y149.470 E60.65997
G1 X157.750 Y155.531 E60.91196
G1 X152.500 Y158.562 E61.16399
G1 X147.250 Y155.531 E61.41602
G1 X147.250 Y154.603 E61.45461
G1 X147.364 Y154.544 E61.45994
G1 X147.665 Y154.278 E61.47664
G1 X147.767 Y154.149 E61.48348
G1 X148.963 Y154.149 E61.53320
G1 X149.526 Y154.150 E61.55661
G1 X150.717 Y154.148 E61.60613
G1 X150.932 Y154.388 E61.61952
G1 X151.322 Y154.650 E61.63906
G1 X151.621 Y154.788 E61.65275
G1 X151.931 Y154.884 E61.66624
G1 X152.254 Y154.939 E61.67986
G1 X152.581 Y154.950 E61.69346
G1 X152.908 Y154.917 E61.70713
G1 X153.234 Y154.839 E61.72107
G1 X153.618 Y154.682 E61.73831
G1 X154.078 Y154.379 E61.76121
G1 X154.410 Y154.036 E61.78106
G1 X154.624 Y153.725 E61.79676
G1 X154.864 Y153.161 E61.82224
G1 X154.944 Y152.689 E61.84214
G1 X154.952 Y152.463 E61.85154
G1 X154.870 Y151.863 E61.87672
G1 X154.694 Y151.406 E61.89708
G1 X154.529 Y151.126 E61.91059
G1 X154.455 Y151.024 E61.91583
G1 X154.200 Y150.732 E61.93195
G1 X153.830 Y150.441 E61.95152
G1 X153.521 Y150.270 E61.96620
G1 X153.081 Y150.118 E61.98556
G1 X152.746 Y150.061 E61.99968
G1 X152.419 Y150.050 E62.01329
G1 X152.092 Y150.083 E62.02695
G1 X151.770 Y150.160 E62.04072
G1 X151.403 Y150.306 E62.05714
G1 X151.017 Y150.544 E62.07599
G1 X150.706 Y150.851 E62.09416
G1 X147.763 Y150.851 E62.21651
G1 X147.719 Y150.782 E62.21992
G1 X147.487 Y150.553 E62.23347
G0 F9000 X146.875 Y150.754
;TYPE:WALL-OUTER
G1 F1020 X146.750 Y150.716 E62.23890
G1 X146.750 Y149.181 E62.30272
G1 X152.500 Y145.861 E62.57876
G1 X158.250 Y149.181 E62.85481
G1 X158.250 Y155.819 E63.13078
G1 X152.500 Y159.139 E63.40683
G1 X146.750 Y155.819 E63.68287
G1 X146.750 Y154.292 E63.74636
G1 X146.771 Y154.287 E63.74726
G1 X147.079 Y154.128 E63.76167
G1 X147.300 Y153.933 E63.77392
G1 X147.440 Y153.755 E63.78333
G1 X147.498 Y153.649 E63.78836
G1 X150.939 Y153.648 E63.93142
G1 X151.263 Y154.008 E63.95155
G1 X151.567 Y154.213 E63.96680
G1 X151.800 Y154.320 E63.97746
G1 X152.048 Y154.397 E63.98825
G1 X152.305 Y154.440 E63.99909
G1 X152.564 Y154.449 E64.00986
G1 X152.824 Y154.423 E64.02073
G1 X153.080 Y154.362 E64.03167
G1 X153.384 Y154.237 E64.04533
G1 X153.757 Y153.992 E64.06389
G1 X154.026 Y153.714 E64.07997
G1 X154.183 Y153.486 E64.09148
G1 X154.381 Y153.020 E64.11253
G1 X154.445 Y152.638 E64.12863
G1 X154.451 Y152.488 E64.13487
G1 X154.383 Y151.988 E64.15585
G1 X154.243 Y151.625 E64.17203
G1 X154.110 Y151.401 E64.18286
G1 X154.063 Y151.335 E64.18623
G1 X153.854 Y151.096 E64.19943
G1 X153.553 Y150.859 E64.21535
G1 X153.317 Y150.729 E64.22656
G1 X152.956 Y150.604 E64.24244
G1 X152.695 Y150.560 E64.25344
G1 X152.436 Y150.551 E64.26422
G1 X152.176 Y150.577 E64.27508
G1 X151.921 Y150.638 E64.28598
G1 X151.628 Y150.755 E64.29910
G1 X151.328 Y150.940 E64.31375
G1 X150.963 Y151.301 E64.33509
G1 X150.928 Y151.351 E64.33763
G1 X147.488 Y151.350 E64.48065
G1 X147.328 Y151.098 E64.49306
G1 X147.173 Y150.946 E64.50209
G1 X146.875 Y150.754 E64.51683
G1 F2400 E63.91683
G1 Z1.900
G0 F9000 X149.845 Y150.675
;TYPE:FILL
G1 Z1.400
G1 F2400 E64.51683
G1 F1020 X153.374 Y147.146 E64.72432
G1 F2400 E64.12432
G1 Z1.900
G0 F9000 X151.027 Y147.491
G1 Z1.400
G1 F2400 E64.72432
G1 F1020 X153.712 Y150.176 E64.88218
G1 F2400 E64.28218
G1 Z1.900
G0 F9000 X154.831 Y151.296
G1 Z1.400
G1 F2400 E64.88218
G1 F1020 X157.574 Y154.038 E65.04343
G1 F2400 E64.44343
G1 Z1.900
G0 F9000 X155.127 Y152.464
G1 Z1.400
G1 F2400 E65.04343
G1 F1020 X157.573 Y150.017 E65.18728
G1 F2400 E64.58728
G1 Z1.900
G0 F9000 X152.471 Y155.120
G1 Z1.400
G1 F2400 E65.18728
G1 F1020 X150.428 Y157.162 E65.30737
G1 F2400 E64.70737
G1 Z1.900
G0 F9000 X151.294 Y154.830
G1 Z1.400
G1 F2400 E65.30737
G1 F1020 X153.973 Y157.508 E65.46485
G1 F2400 E64.86485
G1 Z1.900
G0 F9000 X150.879 Y154.768
;TYPE:SKIN
G1 Z1.400
G1 F2400 E65.46485
G1 F1020 X150.303 Y154.545 E65.49100
G1 X149.596 Y154.545 E65.51710
G1 X148.888 Y154.545 E65.54324
G1 X148.181 Y154.545 E65.56940
G1 X147.733 Y154.451 E65.58843
G1 F2400 E64.98843
G1 Z1.900
G0 F9000 X148.200 Y150.675
G1 Z1.400
G1 F2400 E65.58843
G1 F1020 X148.108 Y150.230 E65.61457
G1 X149.038 Y150.452 E65.64065
G1 X149.745 Y150.452 E65.66675
G1 X150.452 Y150.452 E65.69285
G1 X150.832 Y150.479 E65.70869
;LAYER:7
M106 S73
G0 F9000 X150.967 Y150.585 Z1.600
;TYPE:WALL-INNER
G1 F900 X150.918 Y150.632 E65.71152
G1 X147.728 Y150.633 E65.84414
G1 X147.524 Y150.430 E65.85611
G1 X147.250 Y150.246 E65.86983
G1 X147.250 Y149.470 E65.90209
G1 X152.500 Y146.439 E66.15412
G1 X157.750 Y149.470 E66.40616
G1 X157.750 Y155.531 E66.65815
G1 X152.500 Y158.562 E66.91018
G1 X147.250 Y155.531 E67.16221
G1 X147.250 Y154.755 E67.19448
G1 X147.561 Y154.539 E67.21022
G1 X147.725 Y154.367 E67.22010
G1 X149.525 Y154.367 E67.29493
G1 X150.224 Y154.368 E67.32400
G1 X150.930 Y154.367 E67.35335
G1 X151.057 Y154.483 E67.36050
G1 X151.358 Y154.670 E67.37523
G1 X151.907 Y154.880 E67.39967
G1 X152.254 Y154.939 E67.41430
G1 X152.589 Y154.951 E67.42824
G1 X153.002 Y154.900 E67.44554
G1 X153.396 Y154.784 E67.46262
G1 X153.884 Y154.523 E67.48562
G1 X154.157 Y154.305 E67.50015
G1 X154.429 Y154.015 E67.51668
G1 X154.684 Y153.616 E67.53637
G1 X154.820 Y153.291 E67.55101
G1 X154.928 Y152.840 E67.57029
G1 X154.954 Y152.476 E67.58547
G1 X154.872 Y151.876 E67.61064
G1 X154.753 Y151.532 E67.62578
G1 X154.535 Y151.134 E67.64464
G1 X154.401 Y150.952 E67.65404
G1 X153.966 Y150.532 E67.67918
G1 X153.532 Y150.274 E67.70017
G1 X153.081 Y150.118 E67.72001
G1 X152.746 Y150.061 E67.73414
G1 X152.411 Y150.049 E67.74807
G1 X151.998 Y150.100 E67.76538
G1 X151.631 Y150.208 E67.78128
G1 X151.377 Y150.321 E67.79284
G1 X150.967 Y150.585 E67.81311
G0 F9000 X151.278 Y150.980
;TYPE:WALL-OUTER
G1 F900 X151.118 Y151.132 E67.82229
G1 X147.482 Y151.133 E67.97345
G1 X147.395 Y151.006 E67.97985
G1 X147.206 Y150.819 E67.99091
G1 X146.970 Y150.661 E68.00272
G1 X146.750 Y150.576 E68.01252
G1 X146.750 Y149.181 E68.07052
G1 X152.500 Y145.861 E68.34656
G1 X158.250 Y149.181 E68.62261
G1 X158.250 Y155.819 E68.89858
G1 X152.500 Y159.139 E69.17463
G1 X146.750 Y155.819 E69.45067
G1 X146.750 Y154.429 E69.50846
G1 X146.973 Y154.339 E69.51846
G1 X147.234 Y154.158 E69.53166
G1 X147.428 Y153.954 E69.54337
G1 X147.485 Y153.867 E69.54769
G1 X151.123 Y153.867 E69.69894
G1 X151.360 Y154.082 E69.71225
G1 X151.581 Y154.220 E69.72308
G1 X152.040 Y154.395 E69.74350
G1 X152.305 Y154.440 E69.75468
G1 X152.567 Y154.450 E69.76558
G1 X152.900 Y154.409 E69.77953
G1 X153.205 Y154.319 E69.79275
G1 X153.608 Y154.104 E69.81174
G1 X153.817 Y153.937 E69.82286
G1 X154.032 Y153.707 E69.83595
G1 X154.239 Y153.383 E69.85194
G1 X154.343 Y153.135 E69.86312
G1 X154.432 Y152.764 E69.87898
G1 X154.451 Y152.492 E69.89031
G1 X154.383 Y151.993 E69.91125
G1 X154.294 Y151.735 E69.92260
G1 X154.112 Y151.403 E69.93834
G1 X154.023 Y151.282 E69.94458
G1 X153.661 Y150.932 E69.96552
G1 X153.321 Y150.730 E69.98196
G1 X152.956 Y150.604 E69.99801
G1 X152.695 Y150.560 E70.00902
G1 X152.433 Y150.550 E70.01992
G1 X152.100 Y150.591 E70.03387
G1 X151.804 Y150.679 E70.04671
G1 X151.615 Y150.762 E70.05529
G1 X151.278 Y150.980 E70.07198
G0 F9000 X150.062 Y150.457
;TYPE:FILL
G1 F900 X153.374 Y147.146 E70.26668
G1 F2400 E69.66668
G1 Z2.100
G0 F9000 X151.027 Y147.491
G1 Z1.600
G1 F2400 E70.26668
G1 F900 X153.712 Y150.176 E70.42455
G1 F2400 E69.82455
G1 Z2.100
G0 F9000 X154.810 Y151.274
G1 Z1.600
G1 F2400 E70.42455
G1 F900 X157.574 Y154.038 E70.58706
G1 F2400 E69.98706
G1 Z2.100
G0 F9000 X155.129 Y152.462
G1 Z1.600
G1 F2400 E70.58706
G1 F900 X157.573 Y150.017 E70.73079
G1 F2400 E70.13079
G1 Z2.100
G0 F9000 X152.470 Y155.120
G1 Z1.600
G1 F2400 E70.73079
G1 F900 X150.428 Y157.162 E70.85085
G1 F2400 E70.25085
G1 Z2.100
G0 F9000 X151.298 Y154.833
G1 Z1.600
G1 F2400 E70.85085
G1 F900 X153.973 Y157.508 E71.00813
;LAYER:8
M106 S84
G1 F2400 E70.40813
G1 Z2.100
G0 F9000 X153.228 Y154.846 Z1.800
;TYPE:WALL-INNER
G1 Z1.800
G1 F2400 E71.00813
G1 F900 X153.809 Y154.575 E71.03478
G1 X154.215 Y154.257 E71.05622
G1 X154.613 Y153.752 E71.08295
G1 X154.864 Y153.161 E71.10965
G1 X154.944 Y152.689 E71.12955
G1 X154.952 Y152.466 E71.13883
G1 X154.881 Y151.907 E71.16226
G1 X154.692 Y151.398 E71.18483
G1 X154.426 Y150.980 E71.20543
G1 X154.083 Y150.626 E71.22592
G1 X153.688 Y150.356 E71.24582
G1 X153.369 Y150.207 E71.26045
G1 X152.932 Y150.087 E71.27929
G1 X152.733 Y150.061 E71.28764
G1 X152.394 Y150.049 E71.30174
G1 X151.772 Y150.154 E71.32797
G1 X151.210 Y150.416 E71.35375
G1 X151.117 Y150.481 E71.35846
G1 X150.765 Y150.482 E71.37310
G1 X147.698 Y150.481 E71.50061
G1 X147.433 Y150.247 E71.51531
G1 X147.250 Y150.139 E71.52414
G1 X147.250 Y149.470 E71.55195
G1 X152.500 Y146.439 E71.80399
G1 X157.750 Y149.470 E72.05602
G1 X157.750 Y155.531 E72.30801
G1 X152.500 Y158.562 E72.56004
G1 X147.250 Y155.531 E72.81208
G1 X147.250 Y154.861 E72.83993
G1 X147.592 Y154.636 E72.85695
G1 X147.694 Y154.518 E72.86344
G1 X149.381 Y154.519 E72.93358
G1 X149.662 Y154.518 E72.94526
G1 X151.134 Y154.519 E73.00646
G1 X151.328 Y154.655 E73.01631
G1 X151.732 Y154.828 E73.03458
G1 X152.236 Y154.938 E73.05603
G1 X152.606 Y154.951 E73.07142
G1 X153.228 Y154.846 E73.09764
G0 F9000 X153.078 Y154.364
;TYPE:WALL-OUTER
G1 F900 X153.546 Y154.146 E73.11911
G1 X153.859 Y153.900 E73.13566
G1 X154.179 Y153.495 E73.15712
G1 X154.381 Y153.020 E73.17858
G1 X154.445 Y152.638 E73.19468
G1 X154.451 Y152.489 E73.20088
G1 X154.392 Y152.027 E73.22025
G1 X154.242 Y151.622 E73.23820
G1 X154.031 Y151.291 E73.25452
G1 X153.759 Y151.010 E73.27078
G1 X153.440 Y150.792 E73.28684
G1 X153.196 Y150.678 E73.29804
G1 X152.832 Y150.578 E73.31373
G1 X152.691 Y150.560 E73.31964
G1 X152.427 Y150.550 E73.33063
G1 X151.922 Y150.636 E73.35193
G1 X151.462 Y150.850 E73.37302
G1 X151.277 Y150.981 E73.38244
G1 X147.476 Y150.981 E73.54047
G1 X147.417 Y150.900 E73.54464
G1 X147.137 Y150.653 E73.56016
G1 X146.956 Y150.546 E73.56890
G1 X146.750 Y150.475 E73.57796
G1 X146.750 Y149.181 E73.63176
G1 X152.500 Y145.861 E73.90780
G1 X158.250 Y149.181 E74.18385
G1 X158.250 Y155.819 E74.45982
G1 X152.500 Y159.139 E74.73587
G1 X146.750 Y155.819 E75.01191
G1 X146.750 Y154.520 E75.06592
G1 X146.910 Y154.473 E75.07285
G1 X146.975 Y154.444 E75.07581
G1 X147.259 Y154.257 E75.08995
G1 X147.464 Y154.018 E75.10304
G1 X149.380 Y154.019 E75.18270
G1 X149.660 Y154.018 E75.19434
G1 X151.291 Y154.019 E75.26215
G1 X151.573 Y154.216 E75.27645
G1 X151.885 Y154.350 E75.29057
G1 X152.299 Y154.440 E75.30818
G1 X152.573 Y154.450 E75.31958
G1 X153.078 Y154.364 E75.34088
G0 F9000 X152.470 Y155.120
;TYPE:FILL
G1 F900 X150.428 Y157.162 E75.46094
G1 F2400 E74.86094
G1 Z2.300
G0 F9000 X151.295 Y154.830
G1 Z1.800
G1 F2400 E75.46094
G1 F900 X153.973 Y157.508 E75.61839
G1 F2400 E75.01839
G1 Z2.300
G0 F9000 X157.574 Y154.038
G1 Z1.800
G1 F2400 E75.61839
G1 F900 X154.838 Y151.303 E75.77923
G0 F9000 X155.127 Y152.463
G1 F900 X157.573 Y150.017 E75.92305
G1 F2400 E75.32305
G1 Z2.300
G0 F9000 X153.708 Y150.173
G1 Z1.800
G1 F2400 E75.92305
G1 F900 X151.027 Y147.491 E76.08071
G1 F2400 E75.48071
G1 Z2.300
G0 F9000 X153.374 Y147.146
G1 Z1.800
G1 F2400 E76.08071
G1 F900 X150.214 Y150.306 E76.26650
;LAYER:9
M106 S94
G0 F9000 X150.446 Y150.377 Z2.000
;TYPE:WALL-INNER
G1 F900 X148.104 Y150.375 E76.36387
G1 X147.678 Y150.376 E76.38158
G1 X147.494 Y150.204 E76.39206
G1 X147.254 Y150.073 E76.40342
G1 X147.252 Y149.469 E76.42854
G1 X152.500 Y146.439 E76.68048
G1 X157.750 Y149.470 E76.93251
G1 X157.750 Y155.531 E77.18450
G1 X152.500 Y158.562 E77.43653
G1 X147.250 Y155.531 E77.68857
G1 X147.250 Y154.929 E77.71360
G1 X147.430 Y154.842 E77.72191
G1 X147.684 Y154.624 E77.73582
G1 X148.772 Y154.625 E77.78106
G1 X149.528 Y154.623 E77.81249
G1 X151.284 Y154.624 E77.88549
G1 X151.359 Y154.669 E77.88913
G1 X151.907 Y154.880 E77.91354
G1 X152.254 Y154.939 E77.92818
G1 X152.603 Y154.951 E77.94270
G1 X153.169 Y154.860 E77.96653
G1 X153.540 Y154.721 E77.98300
G1 X153.944 Y154.481 E78.00254
G1 X154.213 Y154.255 E78.01714
G1 X154.522 Y153.889 E78.03706
G1 X154.753 Y153.468 E78.05702
G1 X154.903 Y152.975 E78.07845
G1 X154.944 Y152.678 E78.09091
G1 X154.951 Y152.487 E78.09886
G1 X154.928 Y152.160 E78.11249
G1 X154.817 Y151.696 E78.13232
G1 X154.611 Y151.250 E78.15275
G1 X154.327 Y150.865 E78.17264
G1 X154.073 Y150.619 E78.18734
G1 X153.667 Y150.342 E78.20777
G1 X153.094 Y150.120 E78.23332
G1 X152.746 Y150.061 E78.24800
G1 X152.397 Y150.049 E78.26251
G1 X151.831 Y150.140 E78.28635
G1 X151.490 Y150.268 E78.30149
G1 X151.286 Y150.376 E78.31109
G1 X150.446 Y150.377 E78.34601
G0 F9000 X151.601 Y150.769
;TYPE:WALL-OUTER
G1 F900 X151.427 Y150.876 E78.35450
G1 X147.477 Y150.877 E78.51872
G1 X147.465 Y150.861 E78.51956
G1 X147.199 Y150.612 E78.53470
G1 X146.855 Y150.424 E78.55100
G1 X146.755 Y150.395 E78.55533
G1 X146.751 Y149.181 E78.60580
G1 X152.500 Y145.861 E78.88181
G1 X158.250 Y149.181 E79.15786
G1 X158.250 Y155.819 E79.43383
G1 X152.500 Y159.139 E79.70988
G1 X146.750 Y155.819 E79.98592
G1 X146.750 Y154.611 E80.03614
G1 X146.765 Y154.608 E80.03678
G1 X147.154 Y154.420 E80.05474
G1 X147.419 Y154.192 E80.06928
G1 X147.472 Y154.124 E80.07286
G1 X151.423 Y154.124 E80.23712
G1 X151.580 Y154.218 E80.24473
G1 X152.040 Y154.395 E80.26522
G1 X152.305 Y154.440 E80.27640
G1 X152.572 Y154.450 E80.28751
G1 X153.040 Y154.374 E80.30722
G1 X153.323 Y154.268 E80.31978
G1 X153.653 Y154.072 E80.33574
G1 X153.858 Y153.900 E80.34687
G1 X154.108 Y153.604 E80.36297
G1 X154.294 Y153.265 E80.37905
G1 X154.411 Y152.884 E80.39562
G1 X154.445 Y152.635 E80.40607
G1 X154.450 Y152.496 E80.41185
G1 X154.432 Y152.236 E80.42269
G1 X154.342 Y151.861 E80.43872
G1 X154.178 Y151.506 E80.45498
G1 X153.949 Y151.195 E80.47104
G1 X153.756 Y151.008 E80.48221
G1 X153.433 Y150.787 E80.49848
G1 X152.961 Y150.605 E80.51951
G1 X152.695 Y150.560 E80.53073
G1 X152.428 Y150.550 E80.54184
G1 X151.960 Y150.626 E80.56155
G1 X151.601 Y150.769 E80.57761
G0 F9000 X150.318 Y150.201
;TYPE:FILL
G1 F900 X153.374 Y147.146 E80.75727
G1 F2400 E80.15727
G1 Z2.500
G0 F9000 X151.027 Y147.491
G1 Z2.000
G1 F2400 E80.75727
G1 F900 X153.704 Y150.168 E80.91466
G1 F2400 E80.31466
G1 Z2.500
G0 F9000 X154.817 Y151.281
G1 Z2.000
G1 F2400 E80.91466
G1 F900 X157.574 Y154.038 E81.07676
G1 F2400 E80.47676
G1 Z2.500
G0 F9000 X155.123 Y152.467
G1 Z2.000
G1 F2400 E81.07676
G1 F900 X157.573 Y150.017 E81.22081
G1 F2400 E80.62081
G1 Z2.500
G0 F9000 X152.470 Y155.120
G1 Z2.000
G1 F2400 E81.22081
G1 F900 X150.428 Y157.162 E81.34088
G1 F2400 E80.74088
G1 Z2.500
G0 F9000 X151.296 Y154.831
G1 Z2.000
G1 F2400 E81.34088
G1 F900 X153.973 Y157.508 E81.49827
;LAYER:10
M106 S104
G1 F2400 E80.89827
G1 Z2.500
G0 F9000 X153.057 Y154.888 Z2.200
;TYPE:WALL-INNER
G1 Z2.200
G1 F2400 E81.49827
G1 F900 X153.381 Y154.787 E81.51238
G1 X153.677 Y154.649 E81.52596
G1 X153.974 Y154.460 E81.54060
G1 X154.428 Y154.022 E81.56682
G1 X154.749 Y153.480 E81.59301
G1 X154.903 Y152.975 E81.61496
G1 X154.944 Y152.678 E81.62743
G1 X154.951 Y152.475 E81.63587
G1 X154.903 Y152.012 E81.65523
G1 X154.759 Y151.543 E81.67562
G1 X154.522 Y151.111 E81.69611
G1 X154.213 Y150.745 E81.71602
G1 X153.944 Y150.519 E81.73063
G1 X153.522 Y150.268 E81.75104
G1 X152.944 Y150.089 E81.77620
G1 X152.406 Y150.049 E81.79863
G1 X151.943 Y150.112 E81.81806
G1 X151.623 Y150.211 E81.83198
G1 X151.417 Y150.305 E81.84140
G1 X150.485 Y150.306 E81.88014
G1 X148.118 Y150.305 E81.97855
G1 X147.676 Y150.306 E81.99693
G1 X147.417 Y150.092 E82.01090
G1 X147.250 Y150.016 E82.01853
G1 X147.250 Y149.470 E82.04123
G1 X152.500 Y146.439 E82.29326
G1 X157.750 Y149.470 E82.54529
G1 X157.750 Y155.531 E82.79728
G1 X152.500 Y158.562 E83.04932
G1 X147.250 Y155.531 E83.30135
G1 X147.250 Y154.986 E83.32401
G1 X147.408 Y154.911 E83.33128
G1 X147.684 Y154.695 E83.34585
G1 X151.423 Y154.695 E83.50130
G1 X151.775 Y154.843 E83.51718
G1 X152.241 Y154.938 E83.53695
G1 X152.594 Y154.951 E83.55163
G1 X153.057 Y154.888 E83.57106
G0 F9000 X152.948 Y154.398
;TYPE:WALL-OUTER
G1 F900 X153.200 Y154.320 E83.58203
G1 X153.436 Y154.210 E83.59285
G1 X153.663 Y154.065 E83.60405
G1 X154.032 Y153.709 E83.62537
G1 X154.293 Y153.269 E83.64664
G1 X154.411 Y152.884 E83.66338
G1 X154.445 Y152.635 E83.67383
G1 X154.450 Y152.492 E83.67978
G1 X154.411 Y152.112 E83.69566
G1 X154.296 Y151.739 E83.71189
G1 X154.108 Y151.396 E83.72815
G1 X153.858 Y151.100 E83.74426
G1 X153.653 Y150.928 E83.75538
G1 X153.317 Y150.728 E83.77164
G1 X152.836 Y150.579 E83.79257
G1 X152.691 Y150.560 E83.79865
G1 X152.431 Y150.550 E83.80947
G1 X152.052 Y150.602 E83.82538
G1 X151.801 Y150.680 E83.83630
G1 X151.599 Y150.771 E83.84551
G1 X151.540 Y150.805 E83.84834
G1 X147.473 Y150.806 E84.01743
G1 X147.150 Y150.519 E84.03540
G1 X146.760 Y150.341 E84.05322
G1 X146.750 Y150.339 E84.05364
G1 X146.750 Y149.181 E84.10179
G1 X152.500 Y145.861 E84.37783
G1 X158.250 Y149.181 E84.65388
G1 X158.250 Y155.819 E84.92985
G1 X152.500 Y159.139 E85.20590
G1 X146.750 Y155.819 E85.48194
G1 X146.750 Y154.659 E85.53017
G1 X146.793 Y154.649 E85.53200
G1 X147.147 Y154.482 E85.54828
G1 X147.331 Y154.341 E85.55791
G1 X147.471 Y154.195 E85.56632
G1 X151.541 Y154.195 E85.73553
G1 X151.923 Y154.363 E85.75288
G1 X152.300 Y154.440 E85.76888
G1 X152.569 Y154.450 E85.78007
G1 X152.948 Y154.398 E85.79598
G0 F9000 X152.470 Y155.120
;TYPE:FILL
G1 F900 X150.428 Y157.162 E85.91604
G1 F2400 E85.31604
G1 Z2.700
G0 F9000 X151.334 Y154.869
G1 Z2.200
G1 F2400 E85.91604
G1 F900 X153.973 Y157.508 E86.07120
G1 F2400 E85.47120
G1 Z2.700
G0 F9000 X157.574 Y154.038
G1 Z2.200
G1 F2400 E86.07120
G1 F900 X154.809 Y151.274 E86.23374
G0 F9000 X155.125 Y152.466
G1 F900 X157.573 Y150.017 E86.37771
G1 F2400 E85.77771
G1 Z2.700
G0 F9000 X153.712 Y150.176
G1 Z2.200
G1 F2400 E86.37771
G1 F900 X151.027 Y147.491 E86.53557
G1 F2400 E85.93557
G1 Z2.700
G0 F9000 X153.374 Y147.146
G1 Z2.200
G1 F2400 E86.53557
G1 F900 X150.390 Y150.130 E86.71102
;LAYER:11
M106 S114
G0 F9000 X150.819 Y150.265 Z2.400
;TYPE:WALL-INNER
G1 F900 X147.843 Y150.263 E86.83475
G1 X147.680 Y150.263 E86.84153
G1 X147.661 Y150.242 E86.84270
G1 X147.308 Y149.998 E86.86054
G1 X147.250 Y149.972 E86.86319
G1 X147.250 Y149.470 E86.88406
G1 X152.500 Y146.439 E87.13609
G1 X157.750 Y149.470 E87.38813
G1 X157.750 Y155.531 E87.64011
G1 X152.500 Y158.562 E87.89215
G1 X147.250 Y155.531 E88.14418
G1 X147.250 Y155.039 E88.16464
G1 X147.645 Y154.770 E88.18451
G1 X147.679 Y154.735 E88.18653
G1 X149.033 Y154.737 E88.24283
G1 X151.519 Y154.736 E88.34618
G1 X151.752 Y154.833 E88.35668
G1 X151.943 Y154.886 E88.36492
G1 X152.254 Y154.939 E88.37803
G1 X152.581 Y154.950 E88.39164
G1 X152.920 Y154.916 E88.40580
G1 X153.392 Y154.786 E88.42615
G1 X153.947 Y154.485 E88.45240
G1 X154.400 Y154.049 E88.47854
G1 X154.528 Y153.875 E88.48752
G1 X154.759 Y153.458 E88.50734
G1 X154.900 Y153.001 E88.52723
G1 X154.944 Y152.678 E88.54078
G1 X154.952 Y152.463 E88.54972
G1 X154.869 Y151.850 E88.57544
G1 X154.613 Y151.248 E88.60264
G1 X154.223 Y150.755 E88.62877
G1 X153.954 Y150.526 E88.64346
G1 X153.533 Y150.275 E88.66384
G1 X153.081 Y150.118 E88.68373
G1 X152.746 Y150.061 E88.69786
G1 X152.419 Y150.050 E88.71146
G1 X152.080 Y150.084 E88.72563
G1 X151.636 Y150.206 E88.74477
G1 X151.506 Y150.264 E88.75069
G1 X150.819 Y150.265 E88.77925
G0 F9000 X151.805 Y150.678
;TYPE:WALL-OUTER
G1 F900 X151.613 Y150.764 E88.78800
G1 X147.460 Y150.764 E88.96066
G1 X147.330 Y150.621 E88.96870
G1 X147.061 Y150.435 E88.98229
G1 X146.851 Y150.340 E88.99188
G1 X146.750 Y150.315 E88.99620
G1 X146.750 Y149.181 E89.04335
G1 X152.500 Y145.861 E89.31939
G1 X158.250 Y149.181 E89.59544
G1 X158.250 Y155.819 E89.87141
G1 X152.500 Y159.139 E90.14746
G1 X146.750 Y155.819 E90.42350
G1 X146.750 Y154.673 E90.47115
G1 X147.025 Y154.587 E90.48313
G1 X147.324 Y154.383 E90.49817
G1 X147.471 Y154.235 E90.50685
G1 X151.619 Y154.236 E90.67930
G1 X152.052 Y154.397 E90.69851
G1 X152.305 Y154.440 E90.70918
G1 X152.564 Y154.449 E90.71995
G1 X152.828 Y154.423 E90.73098
G1 X153.204 Y154.319 E90.74720
G1 X153.649 Y154.078 E90.76824
G1 X154.023 Y153.718 E90.78982
G1 X154.106 Y153.605 E90.79565
G1 X154.296 Y153.261 E90.81199
G1 X154.410 Y152.892 E90.82804
G1 X154.445 Y152.635 E90.83883
G1 X154.451 Y152.488 E90.84494
G1 X154.382 Y151.984 E90.86609
G1 X154.179 Y151.505 E90.88772
G1 X153.862 Y151.104 E90.90897
G1 X153.662 Y150.934 E90.91989
G1 X153.321 Y150.730 E90.93641
G1 X152.956 Y150.604 E90.95246
G1 X152.695 Y150.560 E90.96347
G1 X152.436 Y150.551 E90.97424
G1 X152.172 Y150.577 E90.98527
G1 X151.805 Y150.678 E91.00109
G0 F9000 X150.431 Y150.089
;TYPE:FILL
G1 F900 X153.374 Y147.146 E91.17413
G1 F2400 E90.57413
G1 Z2.900
G0 F9000 X151.027 Y147.491
G1 Z2.400
G1 F2400 E91.17413
G1 F900 X153.714 Y150.178 E91.33212
G1 F2400 E90.73212
G1 Z2.900
G0 F9000 X154.816 Y151.280
G1 Z2.400
G1 F2400 E91.33212
G1 F900 X157.574 Y154.038 E91.49428
G1 F2400 E90.89428
G1 Z2.900
G0 F9000 X155.127 Y152.464
G1 Z2.400
G1 F2400 E91.49428
G1 F900 X157.573 Y150.017 E91.63812
G1 F2400 E91.03812
G1 Z2.900
G0 F9000 X152.471 Y155.120
G1 Z2.400
G1 F2400 E91.63812
G1 F900 X150.428 Y157.162 E91.75821
G1 F2400 E91.15821
G1 Z2.900
G0 F9000 X151.374 Y154.910
G1 Z2.400
G1 F2400 E91.75821
G1 F900 X153.973 Y157.508 E91.91100
;LAYER:12
M106 S127
G1 F2400 E91.31100
G1 Z2.900
G0 F9000 X152.907 Y154.916 Z2.600
;TYPE:WALL-INNER
G1 Z2.600
G1 F2400 E91.91100
G1 F900 X153.378 Y154.787 E91.93130
G1 X153.532 Y154.722 E91.93825
G1 X153.816 Y154.565 E91.95174
G1 X154.203 Y154.261 E91.97220
G1 X154.422 Y154.019 E91.98577
G1 X154.686 Y153.605 E92.00618
G1 X154.863 Y153.147 E92.02660
G1 X154.945 Y152.666 E92.04688
G1 X154.950 Y152.500 E92.05379
G1 X154.927 Y152.172 E92.06746
G1 X154.863 Y151.853 E92.08098
G1 X154.686 Y151.395 E92.10140
G1 X154.520 Y151.114 E92.11497
G1 X154.203 Y150.739 E92.13538
G1 X153.951 Y150.527 E92.14907
G1 X153.679 Y150.353 E92.16250
G1 X153.532 Y150.278 E92.16936
G1 X153.069 Y150.117 E92.18974
G1 X152.733 Y150.061 E92.20390
G1 X152.419 Y150.050 E92.21696
G1 X152.104 Y150.082 E92.23013
G1 X151.622 Y150.213 E92.25089
G1 X151.534 Y150.250 E92.25486
G1 X147.676 Y150.250 E92.41526
G1 X147.420 Y150.054 E92.42866
G1 X147.250 Y149.959 E92.43676
G1 X147.250 Y149.470 E92.45709
G1 X152.500 Y146.439 E92.70912
G1 X157.750 Y149.470 E92.96116
G1 X157.750 Y155.531 E93.21315
G1 X152.500 Y158.562 E93.46518
G1 X147.250 Y155.531 E93.71721
G1 X147.250 Y155.041 E93.73759
G1 X147.542 Y154.860 E93.75187
G1 X147.677 Y154.749 E93.75913
G1 X151.538 Y154.750 E93.91966
G1 X151.931 Y154.883 E93.93691
G1 X152.254 Y154.938 E93.95053
G1 X152.582 Y154.949 E93.96417
G1 X152.907 Y154.916 E93.97775
G0 F9000 X152.695 Y154.440
;TYPE:WALL-OUTER
G1 F900 X153.077 Y154.362 E93.99396
G1 X153.199 Y154.320 E93.99933
G1 X153.437 Y154.209 E94.01025
G1 X153.656 Y154.070 E94.02103
G1 X153.855 Y153.902 E94.03186
G1 X154.030 Y153.708 E94.04272
G1 X154.177 Y153.493 E94.05355
G1 X154.296 Y153.260 E94.06442
G1 X154.380 Y153.015 E94.07519
G1 X154.446 Y152.631 E94.09139
G1 X154.450 Y152.500 E94.09684
G1 X154.410 Y152.113 E94.11302
G1 X154.341 Y151.861 E94.12388
G1 X154.240 Y151.621 E94.13470
G1 X154.107 Y151.397 E94.14553
G1 X153.945 Y151.192 E94.15640
G1 X153.758 Y151.011 E94.16722
G1 X153.548 Y150.857 E94.17804
G1 X153.321 Y150.731 E94.18884
G1 X153.199 Y150.680 E94.19434
G1 X152.824 Y150.577 E94.21050
G1 X152.691 Y150.560 E94.21608
G1 X152.436 Y150.551 E94.22669
G1 X152.048 Y150.604 E94.24297
G1 X151.801 Y150.680 E94.25371
G1 X151.641 Y150.750 E94.26097
G1 X147.469 Y150.750 E94.43442
G1 X147.328 Y150.609 E94.44271
G1 X147.151 Y150.476 E94.45192
G1 X146.957 Y150.372 E94.46107
G1 X146.750 Y150.296 E94.47024
G1 X146.750 Y149.181 E94.51659
G1 X152.500 Y145.861 E94.79264
G1 X158.250 Y149.181 E95.06868
G1 X158.250 Y155.819 E95.34466
G1 X152.500 Y159.139 E95.62070
G1 X146.750 Y155.819 E95.89675
G1 X146.750 Y154.704 E95.94310
G1 X147.055 Y154.579 E95.95681
G1 X147.242 Y154.460 E95.96602
G1 X147.328 Y154.391 E95.97061
G1 X147.470 Y154.249 E95.97896
G1 X151.645 Y154.250 E96.15253
G1 X151.923 Y154.362 E96.16499
G1 X152.176 Y154.423 E96.17581
G1 X152.435 Y154.449 E96.18664
G1 X152.695 Y154.440 E96.19745
G0 F9000 X152.472 Y155.119
;TYPE:FILL
G1 F900 X150.428 Y157.162 E96.31760
G1 F2400 E95.71760
G1 Z3.100
G0 F9000 X151.388 Y154.924
G1 Z2.600
G1 F2400 E96.31760
G1 F900 X153.973 Y157.508 E96.46956
G1 F2400 E95.86956
G1 Z3.100
G0 F9000 X157.574 Y154.038
G1 Z2.600
G1 F2400 E96.46956
G1 F900 X154.828 Y151.292 E96.63102
G0 F9000 X155.122 Y152.468
G1 F900 X157.573 Y150.017 E96.77512
G1 F2400 E96.17512
G1 Z3.100
G0 F9000 X153.708 Y150.172
G1 Z2.600
G1 F2400 E96.77512
G1 F900 X151.027 Y147.491 E96.93276
G1 F2400 E96.33276
G1 Z3.100
G0 F9000 X153.374 Y147.146
G1 Z2.600
G1 F2400 E96.93276
G1 F900 X150.444 Y150.075 E97.10500
;LAYER:13
M106 S137
G0 F9000 X149.526 Y150.265 Z2.800
;TYPE:WALL-INNER
G1 F900 X147.802 Y150.263 E97.17668
G1 X147.673 Y150.263 E97.18204
G1 X147.523 Y150.132 E97.19032
G1 X147.250 Y149.984 E97.20323
G1 X147.250 Y149.470 E97.22460
G1 X152.500 Y146.439 E97.47663
G1 X157.750 Y149.470 E97.72867
G1 X157.750 Y155.531 E97.98065
G1 X152.500 Y158.562 E98.23269
G1 X147.250 Y155.531 E98.48472
G1 X147.250 Y155.030 E98.50555
G1 X147.629 Y154.783 E98.52436
G1 X147.680 Y154.735 E98.52727
G1 X149.074 Y154.737 E98.58523
G1 X151.511 Y154.736 E98.68655
G1 X151.631 Y154.790 E98.69202
G1 X151.931 Y154.884 E98.70509
G1 X152.254 Y154.939 E98.71871
G1 X152.592 Y154.950 E98.73277
G1 X152.919 Y154.915 E98.74644
G1 X153.263 Y154.831 E98.76116
G1 X153.820 Y154.568 E98.78677
G1 X154.203 Y154.264 E98.80710
G1 X154.440 Y153.999 E98.82188
G1 X154.694 Y153.595 E98.84172
G1 X154.864 Y153.150 E98.86153
G1 X154.929 Y152.825 E98.87531
G1 X154.954 Y152.464 E98.89035
G1 X154.869 Y151.865 E98.91551
G1 X154.749 Y151.520 E98.93069
G1 X154.508 Y151.089 E98.95122
G1 X154.075 Y150.616 E98.97788
G1 X153.534 Y150.274 E99.00449
G1 X153.080 Y150.118 E99.02445
G1 X152.746 Y150.061 E99.03854
G1 X152.408 Y150.050 E99.05260
G1 X152.081 Y150.085 E99.06627
G1 X151.755 Y150.164 E99.08022
G1 X151.513 Y150.264 E99.09110
G1 X149.526 Y150.265 E99.17371
G1 F2400 E98.57371
G1 Z3.300
G0 F9000 X147.410 Y150.697
;TYPE:WALL-OUTER
G1 Z2.800
G1 F2400 E99.17371
G1 F900 X147.236 Y150.545 E99.18332
G1 X146.859 Y150.341 E99.20114
G1 X146.750 Y150.314 E99.20581
G1 X146.750 Y149.181 E99.25291
G1 X152.500 Y145.861 E99.52896
G1 X158.250 Y149.181 E99.80500
G1 X158.250 Y155.819 E100.08098
G1 X152.500 Y159.139 E100.35702
G1 X146.750 Y155.819 E100.63307
G1 X146.750 Y154.684 E100.68025
G1 X146.987 Y154.605 E100.69064
G1 X147.319 Y154.388 E100.70713
G1 X147.467 Y154.235 E100.71598
G1 X151.618 Y154.236 E100.88856
G1 X151.809 Y154.322 E100.89727
G1 X152.048 Y154.397 E100.90768
G1 X152.305 Y154.440 E100.91852
G1 X152.574 Y154.449 E100.92971
G1 X152.833 Y154.422 E100.94053
G1 X153.095 Y154.358 E100.95174
G1 X153.554 Y154.141 E100.97285
G1 X153.859 Y153.899 E100.98904
G1 X154.039 Y153.697 E101.00029
G1 X154.245 Y153.370 E101.01636
G1 X154.382 Y153.011 E101.03233
G1 X154.432 Y152.759 E101.04301
G1 X154.451 Y152.482 E101.05456
G1 X154.381 Y151.984 E101.07546
G1 X154.291 Y151.726 E101.08682
G1 X154.100 Y151.384 E101.10311
G1 X153.752 Y151.003 E101.12456
G1 X153.316 Y150.728 E101.14599
G1 X152.956 Y150.604 E101.16182
G1 X152.695 Y150.560 E101.17283
G1 X152.426 Y150.551 E101.18402
G1 X152.167 Y150.578 E101.19485
G1 X151.911 Y150.641 E101.20581
G1 X151.614 Y150.764 E101.21917
G1 X147.466 Y150.764 E101.39162
G1 X147.410 Y150.697 E101.39526
G1 F2400 E100.79526
G1 Z3.300
G0 F9000 X150.431 Y150.089
;TYPE:FILL
G1 Z2.800
G1 F2400 E101.39526
G1 F900 X153.374 Y147.146 E101.56829
G1 F2400 E100.96829
G1 Z3.300
G0 F9000 X151.027 Y147.491
G1 Z2.800
G1 F2400 E101.56829
G1 F900 X153.718 Y150.183 E101.72654
G1 F2400 E101.12654
G1 Z3.300
G0 F9000 X154.812 Y151.277
G1 Z2.800
G1 F2400 E101.72654
G1 F900 X157.574 Y154.038 E101.88891
G1 F2400 E101.28891
G1 Z3.300
G0 F9000 X155.129 Y152.462
G1 Z2.800
G1 F2400 E101.88891
G1 F900 X157.573 Y150.017 E102.03263
G1 F2400 E101.43263
G1 Z3.300
G0 F9000 X152.472 Y155.119
G1 Z2.800
G1 F2400 E102.03263
G1 F900 X150.428 Y157.162 E102.15278
G1 F2400 E101.55278
G1 Z3.300
G0 F9000 X151.375 Y154.910
G1 Z2.800
G1 F2400 E102.15278
G1 F900 X153.973 Y157.508 E102.30554
;LAYER:14
M106 S147
G1 F2400 E101.70554
G1 Z3.300
G0 F9000 X153.403 Y154.780 Z3.000
;TYPE:WALL-INNER
G1 Z3.000
G1 F2400 E102.30554
G1 F900 X153.823 Y154.565 E102.32515
G1 X154.221 Y154.247 E102.34633
G1 X154.534 Y153.870 E102.36671
G1 X154.761 Y153.454 E102.38641
G1 X154.900 Y152.992 E102.40647
G1 X154.930 Y152.813 E102.41401
G1 X154.953 Y152.463 E102.42859
G1 X154.898 Y151.987 E102.44852
G1 X154.746 Y151.511 E102.46929
G1 X154.432 Y150.985 E102.49476
G1 X154.056 Y150.602 E102.51707
G1 X153.521 Y150.268 E102.54329
G1 X153.059 Y150.114 E102.56354
G1 X152.746 Y150.061 E102.57674
G1 X152.417 Y150.050 E102.59043
G1 X152.056 Y150.088 E102.60552
G1 X151.600 Y150.219 E102.62524
G1 X151.428 Y150.305 E102.63324
G1 X149.526 Y150.306 E102.71231
G1 X148.076 Y150.305 E102.77260
G1 X147.685 Y150.306 E102.78885
G1 X147.418 Y150.098 E102.80292
G1 X147.250 Y150.003 E102.81095
G1 X147.250 Y149.470 E102.83311
G1 X152.500 Y146.439 E103.08514
G1 X157.750 Y149.470 E103.33718
G1 X157.750 Y155.531 E103.58916
G1 X152.500 Y158.562 E103.84120
G1 X147.250 Y155.531 E104.09323
G1 X147.250 Y154.993 E104.11560
G1 X147.421 Y154.903 E104.12363
G1 X147.654 Y154.724 E104.13585
G1 X147.685 Y154.694 E104.13764
G1 X148.800 Y154.695 E104.18400
G1 X149.527 Y154.694 E104.21422
G1 X151.422 Y154.695 E104.29301
G1 X151.908 Y154.880 E104.31463
G1 X152.254 Y154.939 E104.32922
G1 X152.583 Y154.950 E104.34291
G1 X152.944 Y154.912 E104.35800
G1 X153.403 Y154.780 E104.37786
G0 F9000 X153.218 Y154.313
;TYPE:WALL-OUTER
G1 F900 X153.550 Y154.143 E104.39336
G1 X153.869 Y153.888 E104.41034
G1 X154.118 Y153.588 E104.42655
G1 X154.297 Y153.260 E104.44209
G1 X154.433 Y152.755 E104.46383
G1 X154.451 Y152.476 E104.47545
G1 X154.407 Y152.092 E104.49152
G1 X154.287 Y151.718 E104.50785
G1 X154.033 Y151.293 E104.52844
G1 X153.741 Y150.995 E104.54578
G1 X153.306 Y150.723 E104.56711
G1 X152.938 Y150.601 E104.58323
G1 X152.695 Y150.560 E104.59348
G1 X152.435 Y150.551 E104.60429
G1 X152.153 Y150.581 E104.61608
G1 X151.783 Y150.687 E104.63208
G1 X151.546 Y150.805 E104.64309
G1 X147.469 Y150.806 E104.81259
G1 X147.245 Y150.588 E104.82559
G1 X147.150 Y150.521 E104.83042
G1 X146.999 Y150.436 E104.83763
G1 X146.750 Y150.348 E104.84861
G1 X146.750 Y149.181 E104.89712
G1 X152.500 Y145.861 E105.17317
G1 X158.250 Y149.181 E105.44921
G1 X158.250 Y155.819 E105.72519
G1 X152.500 Y159.139 E106.00123
G1 X146.750 Y155.819 E106.27728
G1 X146.750 Y154.649 E106.32592
G1 X146.910 Y154.606 E106.33281
G1 X147.151 Y154.480 E106.34411
G1 X147.416 Y154.259 E106.35846
G1 X147.469 Y154.194 E106.36195
G1 X151.539 Y154.195 E106.53116
G1 X152.040 Y154.395 E106.55359
G1 X152.305 Y154.440 E106.56476
G1 X152.565 Y154.449 E106.57558
G1 X152.847 Y154.419 E106.58737
G1 X153.218 Y154.313 E106.60341
G0 F9000 X152.471 Y155.120
;TYPE:FILL
G1 F900 X150.428 Y157.162 E106.72350
G1 F2400 E106.12350
G1 Z3.500
G0 F9000 X151.333 Y154.869
G1 Z3.000
G1 F2400 E106.72350
G1 F900 X153.973 Y157.508 E106.87869
G1 F2400 E106.27869
G1 Z3.500
G0 F9000 X157.574 Y154.038
G1 Z3.000
G1 F2400 E106.87869
G1 F900 X154.804 Y151.269 E107.04153
G0 F9000 X155.127 Y152.464
G1 F900 X157.573 Y150.017 E107.18537
G1 F2400 E106.58537
G1 Z3.500
G0 F9000 X153.727 Y150.191
G1 Z3.000
G1 F2400 E107.18537
G1 F900 X151.027 Y147.491 E107.34412
G1 F2400 E106.74412
G1 Z3.500
G0 F9000 X153.374 Y147.146
G1 Z3.000
G1 F2400 E107.34412
G1 F900 X150.389 Y150.130 E107.51960
;LAYER:15
M106 S158
G0 F9000 X150.474 Y150.377 Z3.200
;TYPE:WALL-INNER
G1 F900 X148.061 Y150.376 E107.61992
G1 X147.696 Y150.377 E107.63510
G1 X147.528 Y150.231 E107.64435
G1 X147.250 Y150.071 E107.65769
G1 X147.250 Y149.470 E107.68267
G1 X152.500 Y146.439 E107.93471
G1 X157.750 Y149.470 E108.18674
G1 X157.750 Y155.531 E108.43873
G1 X152.500 Y158.562 E108.69076
G1 X147.250 Y155.531 E108.94280
G1 X147.250 Y154.942 E108.96728
G1 X147.299 Y154.923 E108.96947
G1 X147.678 Y154.646 E108.98899
G1 X147.697 Y154.624 E108.99019
G1 X148.816 Y154.624 E109.03672
G1 X149.527 Y154.623 E109.06628
G1 X151.285 Y154.624 E109.13937
G1 X151.346 Y154.662 E109.14235
G1 X151.805 Y154.851 E109.16299
G1 X152.243 Y154.938 E109.18156
G1 X152.597 Y154.951 E109.19628
G1 X153.117 Y154.875 E109.21813
G1 X153.701 Y154.640 E109.24431
G1 X154.131 Y154.335 E109.26622
G1 X154.611 Y153.758 E109.29743
G1 X154.866 Y153.141 E109.32518
G1 X154.929 Y152.823 E109.33866
G1 X154.953 Y152.451 E109.35416
G1 X154.895 Y151.973 E109.37418
G1 X154.741 Y151.500 E109.39486
G1 X154.424 Y150.973 E109.42043
G1 X153.930 Y150.504 E109.44875
G1 X153.391 Y150.213 E109.47421
G1 X152.932 Y150.087 E109.49400
G1 X152.733 Y150.061 E109.50235
G1 X152.403 Y150.049 E109.51608
G1 X151.900 Y150.122 E109.53721
G1 X151.496 Y150.265 E109.55502
G1 X151.286 Y150.376 E109.56490
G1 X150.474 Y150.377 E109.59866
G0 F9000 X151.600 Y150.770
;TYPE:WALL-OUTER
G1 F900 X151.429 Y150.876 E109.60702
G1 X147.466 Y150.877 E109.77179
G1 X147.342 Y150.731 E109.77975
G1 X147.237 Y150.641 E109.78550
G1 X146.867 Y150.428 E109.80325
G1 X146.750 Y150.394 E109.80831
G1 X146.750 Y149.181 E109.85875
G1 X152.500 Y145.861 E110.13479
G1 X158.250 Y149.181 E110.41083
G1 X158.250 Y155.819 E110.68681
G1 X152.500 Y159.139 E110.96285
G1 X146.750 Y155.819 E111.23890
G1 X146.750 Y154.599 E111.28962
G1 X147.058 Y154.480 E111.30335
G1 X147.335 Y154.277 E111.31763
G1 X147.466 Y154.124 E111.32600
G1 X151.428 Y154.124 E111.49072
G1 X151.575 Y154.216 E111.49793
G1 X151.950 Y154.370 E111.51479
G1 X152.301 Y154.440 E111.52967
G1 X152.570 Y154.450 E111.54086
G1 X152.986 Y154.389 E111.55834
G1 X153.460 Y154.198 E111.57958
G1 X153.788 Y153.965 E111.59631
G1 X154.178 Y153.497 E111.62164
G1 X154.385 Y152.996 E111.64418
G1 X154.432 Y152.758 E111.65426
G1 X154.451 Y152.466 E111.66643
G1 X154.404 Y152.082 E111.68251
G1 X154.283 Y151.709 E111.69881
G1 X154.031 Y151.289 E111.71918
G1 X153.634 Y150.913 E111.74191
G1 X153.204 Y150.680 E111.76224
G1 X152.832 Y150.578 E111.77828
G1 X152.691 Y150.560 E111.78419
G1 X152.430 Y150.550 E111.79505
G1 X152.020 Y150.610 E111.81228
G1 X151.600 Y150.770 E111.83096
G0 F9000 X150.318 Y150.201
;TYPE:FILL
G1 F900 X153.374 Y147.146 E112.01061
G1 F2400 E111.41061
G1 Z3.700
G0 F9000 X151.027 Y147.491
G1 Z3.200
G1 F2400 E112.01061
G1 F900 X153.736 Y150.200 E112.16989
G1 F2400 E111.56989
G1 Z3.700
G0 F9000 X154.807 Y151.272
G1 Z3.200
G1 F2400 E112.16989
G1 F900 X157.574 Y154.038 E112.33255
G1 F2400 E111.73255
G1 Z3.700
G0 F9000 X155.127 Y152.463
G1 Z3.200
G1 F2400 E112.33255
G1 F900 X157.573 Y150.017 E112.47637
G1 F2400 E111.87637
G1 Z3.700
G0 F9000 X152.470 Y155.120
G1 Z3.200
G1 F2400 E112.47637
G1 F900 X150.428 Y157.162 E112.59643
G1 F2400 E111.99643
G1 Z3.700
G0 F9000 X151.291 Y154.827
G1 Z3.200
G1 F2400 E112.59643
G1 F900 X153.973 Y157.508 E112.75409
;LAYER:16
M106 S168
G1 F2400 E112.15409
G1 Z3.700
G0 F9000 X153.062 Y154.887 Z3.400
;TYPE:WALL-INNER
G1 Z3.400
G1 F2400 E112.75409
G1 F900 X153.425 Y154.769 E112.76996
G1 X153.740 Y154.615 E112.78454
G1 X154.203 Y154.268 E112.80859
G1 X154.545 Y153.852 E112.83098
G1 X154.757 Y153.461 E112.84947
G1 X154.878 Y153.093 E112.86558
G1 X154.944 Y152.687 E112.88268
G1 X154.952 Y152.470 E112.89171
G1 X154.893 Y151.964 E112.91289
G1 X154.738 Y151.497 E112.93335
G1 X154.501 Y151.084 E112.95314
G1 X154.307 Y150.844 E112.96597
G1 X153.952 Y150.522 E112.98590
G1 X153.481 Y150.251 E113.00849
G1 X152.941 Y150.089 E113.03193
G1 X152.406 Y150.049 E113.05423
G1 X151.938 Y150.113 E113.07387
G1 X151.558 Y150.237 E113.09049
G1 X151.111 Y150.482 E113.11168
G1 X150.795 Y150.483 E113.12482
G1 X147.698 Y150.481 E113.25358
G1 X147.467 Y150.270 E113.26659
G1 X147.250 Y150.139 E113.27713
G1 X147.250 Y149.470 E113.30494
G1 X152.500 Y146.439 E113.55697
G1 X157.750 Y149.470 E113.80901
G1 X157.750 Y155.531 E114.06100
G1 X152.500 Y158.562 E114.31303
G1 X147.250 Y155.531 E114.56506
G1 X147.250 Y154.861 E114.59292
G1 X147.579 Y154.645 E114.60928
G1 X147.698 Y154.517 E114.61655
G1 X149.429 Y154.519 E114.68851
G1 X151.133 Y154.518 E114.75936
G1 X151.330 Y154.656 E114.76936
G1 X151.774 Y154.843 E114.78939
G1 X152.241 Y154.938 E114.80920
G1 X152.594 Y154.951 E114.82389
G1 X153.062 Y154.887 E114.84353
G0 F9000 X152.950 Y154.398
;TYPE:WALL-OUTER
G1 F900 X153.237 Y154.304 E114.85608
G1 X153.478 Y154.186 E114.86724
G1 X153.855 Y153.904 E114.88681
G1 X154.128 Y153.572 E114.90468
G1 X154.296 Y153.262 E114.91934
G1 X154.391 Y152.974 E114.93195
G1 X154.445 Y152.638 E114.94610
G1 X154.451 Y152.490 E114.95226
G1 X154.402 Y152.073 E114.96971
G1 X154.279 Y151.702 E114.98596
G1 X154.087 Y151.367 E115.00201
G1 X153.942 Y151.188 E115.01159
G1 X153.656 Y150.929 E115.02763
G1 X153.282 Y150.713 E115.04559
G1 X152.835 Y150.579 E115.06499
G1 X152.691 Y150.560 E115.07103
G1 X152.431 Y150.550 E115.08185
G1 X152.050 Y150.602 E115.09783
G1 X151.757 Y150.698 E115.11065
G1 X151.376 Y150.907 E115.12872
G1 X151.283 Y150.982 E115.13369
G1 X147.476 Y150.981 E115.29196
G1 X147.418 Y150.902 E115.29604
G1 X147.166 Y150.673 E115.31019
G1 X146.961 Y150.549 E115.32016
G1 X146.750 Y150.475 E115.32945
G1 X146.750 Y149.181 E115.38325
G1 X152.500 Y145.861 E115.65929
G1 X158.250 Y149.181 E115.93534
G1 X158.250 Y155.819 E116.21131
G1 X152.500 Y159.139 E116.48736
G1 X146.750 Y155.819 E116.76340
G1 X146.750 Y154.529 E116.81704
G1 X146.974 Y154.444 E116.82700
G1 X147.254 Y154.260 E116.84093
G1 X147.482 Y154.017 E116.85478
G1 X151.290 Y154.018 E117.01310
G1 X151.573 Y154.216 E117.02746
G1 X151.923 Y154.363 E117.04324
G1 X152.300 Y154.440 E117.05924
G1 X152.569 Y154.450 E117.07043
G1 X152.950 Y154.398 E117.08642
G0 F9000 X152.470 Y155.120
;TYPE:FILL
G1 F900 X150.428 Y157.162 E117.20648
G1 F2400 E116.60648
G1 Z3.900
G0 F9000 X151.295 Y154.830
G1 Z3.400
G1 F2400 E117.20648
G1 F900 X153.973 Y157.508 E117.36393
G1 F2400 E116.76393
G1 Z3.900
G0 F9000 X157.574 Y154.038
G1 Z3.400
G1 F2400 E117.36393
G1 F900 X154.813 Y151.278 E117.52624
G0 F9000 X155.127 Y152.464
G1 F900 X157.573 Y150.017 E117.67009
G1 F2400 E117.07009
G1 Z3.900
G0 F9000 X153.725 Y150.189
G1 Z3.400
G1 F2400 E117.67009
G1 F900 X151.027 Y147.491 E117.82872
G1 F2400 E117.22872
G1 Z3.900
G0 F9000 X153.374 Y147.146
G1 Z3.400
G1 F2400 E117.82872
G1 F900 X150.213 Y150.306 E118.01454
;LAYER:17
M106 S178
G0 F9000 X150.965 Y150.587 Z3.600
;TYPE:WALL-INNER
G1 F900 X150.917 Y150.633 E118.01731
G1 X147.723 Y150.633 E118.15010
G1 X147.489 Y150.402 E118.16377
G1 X147.250 Y150.247 E118.17561
G1 X147.250 Y149.470 E118.20792
G1 X152.500 Y146.439 E118.45995
G1 X157.750 Y149.470 E118.71198
G1 X157.750 Y155.531 E118.96397
G1 X152.500 Y158.562 E119.21601
G1 X147.250 Y155.531 E119.46804
G1 X147.250 Y154.755 E119.50030
G1 X147.601 Y154.503 E119.51827
G1 X147.728 Y154.366 E119.52603
G1 X150.944 Y154.366 E119.65974
G1 X151.175 Y154.561 E119.67231
G1 X151.346 Y154.661 E119.68054
G1 X151.643 Y154.798 E119.69414
G1 X152.229 Y154.938 E119.71919
G1 X152.606 Y154.951 E119.73487
G1 X153.215 Y154.848 E119.76055
G1 X153.695 Y154.644 E119.78223
G1 X154.249 Y154.224 E119.81114
G1 X154.642 Y153.699 E119.83840
G1 X154.860 Y153.168 E119.86227
G1 X154.929 Y152.827 E119.87673
G1 X154.953 Y152.488 E119.89086
G1 X154.903 Y152.012 E119.91076
G1 X154.754 Y151.526 E119.93189
G1 X154.389 Y150.931 E119.96091
G1 X153.918 Y150.499 E119.98749
G1 X153.518 Y150.267 E120.00671
G1 X152.944 Y150.089 E120.03170
G1 X152.733 Y150.061 E120.04055
G1 X152.394 Y150.049 E120.05465
G1 X151.792 Y150.151 E120.08003
G1 X151.388 Y150.314 E120.09815
G1 X150.965 Y150.587 E120.11908
G0 F9000 X151.277 Y150.980
;TYPE:WALL-OUTER
G1 F900 X151.119 Y151.133 E120.12822
G1 X147.485 Y151.133 E120.27930
G1 X147.426 Y151.043 E120.28378
G1 X147.174 Y150.793 E120.29854
G1 X146.971 Y150.662 E120.30858
G1 X146.750 Y150.571 E120.31852
G1 X146.750 Y149.181 E120.37631
G1 X152.500 Y145.861 E120.65235
G1 X158.250 Y149.181 E120.92840
G1 X158.250 Y155.819 E121.20437
G1 X152.500 Y159.139 E121.48042
G1 X146.750 Y155.819 E121.75646
G1 X146.750 Y154.429 E121.81425
G1 X146.977 Y154.336 E121.82445
G1 X147.268 Y154.126 E121.83937
G1 X147.429 Y153.953 E121.84919
G1 X147.486 Y153.866 E121.85352
G1 X151.128 Y153.866 E122.00493
G1 X151.464 Y154.151 E122.02325
G1 X151.808 Y154.323 E122.03924
G1 X152.296 Y154.440 E122.06011
G1 X152.573 Y154.450 E122.07163
G1 X153.074 Y154.365 E122.09276
G1 X153.442 Y154.208 E122.10939
G1 X153.891 Y153.868 E122.13281
G1 X154.203 Y153.450 E122.15449
G1 X154.379 Y153.022 E122.17373
G1 X154.432 Y152.760 E122.18484
G1 X154.451 Y152.496 E122.19585
G1 X154.411 Y152.112 E122.21190
G1 X154.295 Y151.733 E122.22838
G1 X154.000 Y151.252 E122.25184
G1 X153.620 Y150.904 E122.27326
G1 X153.316 Y150.728 E122.28786
G1 X152.836 Y150.579 E122.30876
G1 X152.691 Y150.560 E122.31484
G1 X152.427 Y150.550 E122.32582
G1 X151.929 Y150.635 E122.34683
G1 X151.619 Y150.760 E122.36072
G1 X151.277 Y150.980 E122.37763
G0 F9000 X150.062 Y150.458
;TYPE:FILL
G1 F900 X153.374 Y147.146 E122.57236
G1 F2400 E121.97236
G1 Z4.100
G0 F9000 X151.027 Y147.491
G1 Z3.600
G1 F2400 E122.57236
G1 F900 X153.715 Y150.179 E122.73041
G1 F2400 E122.13041
G1 Z4.100
G0 F9000 X154.796 Y151.260
G1 Z3.600
G1 F2400 E122.73041
G1 F900 X157.574 Y154.038 E122.89374
G1 F2400 E122.29374
G1 Z4.100
G0 F9000 X155.125 Y152.466
G1 Z3.600
G1 F2400 E122.89374
G1 F900 X157.573 Y150.017 E123.03771
G1 F2400 E122.43771
G1 Z4.100
G0 F9000 X152.470 Y155.120
G1 Z3.600
G1 F2400 E123.03771
G1 F900 X150.428 Y157.162 E123.15777
G1 F2400 E122.55777
G1 Z4.100
G0 F9000 X151.294 Y154.830
G1 Z3.600
G1 F2400 E123.15777
G1 F900 X153.973 Y157.508 E123.31525
;LAYER:18
M106 S191
G1 F2400 E122.71525
G1 Z4.100
G0 F9000 X153.381 Y154.789 Z3.800
;TYPE:WALL-INNER
G1 Z3.800
G1 F2400 E123.31525
G1 F1020 X153.826 Y154.564 E123.33598
G1 X154.260 Y154.209 E123.35930
G1 X154.615 Y153.747 E123.38352
G1 X154.864 Y153.161 E123.40999
G1 X154.944 Y152.689 E123.42989
G1 X154.952 Y152.463 E123.43930
G1 X154.872 Y151.876 E123.46393
G1 X154.747 Y151.514 E123.47985
G1 X154.385 Y150.928 E123.50848
G1 X153.962 Y150.529 E123.53266
G1 X153.532 Y150.274 E123.55344
G1 X153.081 Y150.118 E123.57329
G1 X152.746 Y150.061 E123.58741
G1 X152.419 Y150.050 E123.60102
G1 X152.080 Y150.084 E123.61518
G1 X151.640 Y150.205 E123.63415
G1 X151.393 Y150.313 E123.64536
G1 X151.017 Y150.544 E123.66371
G1 X150.705 Y150.852 E123.68193
G1 X149.525 Y150.854 E123.73099
G1 X147.768 Y150.852 E123.80404
G1 X147.615 Y150.669 E123.81396
G1 X147.250 Y150.385 E123.83319
G1 X147.250 Y149.470 E123.87123
G1 X152.500 Y146.439 E124.12326
G1 X157.750 Y149.470 E124.37529
G1 X157.750 Y155.531 E124.62728
G1 X152.500 Y158.562 E124.87932
G1 X147.250 Y155.531 E125.13135
G1 X147.250 Y154.615 E125.16943
G1 X147.618 Y154.329 E125.18881
G1 X147.768 Y154.147 E125.19862
G1 X149.526 Y154.149 E125.27170
G1 X150.716 Y154.147 E125.32118
G1 X150.932 Y154.388 E125.33463
G1 X151.338 Y154.661 E125.35497
G1 X151.838 Y154.860 E125.37735
G1 X152.245 Y154.938 E125.39458
G1 X152.581 Y154.950 E125.40856
G1 X152.920 Y154.916 E125.42272
G1 X153.381 Y154.789 E125.44260
G0 F9000 X153.200 Y154.320
;TYPE:WALL-OUTER
G1 F1020 X153.551 Y154.143 E125.45894
G1 X153.899 Y153.858 E125.47764
G1 X154.180 Y153.493 E125.49680
G1 X154.381 Y153.020 E125.51816
G1 X154.445 Y152.638 E125.53427
G1 X154.451 Y152.488 E125.54051
G1 X154.383 Y151.993 E125.56128
G1 X154.292 Y151.729 E125.57289
G1 X153.994 Y151.247 E125.59645
G1 X153.659 Y150.931 E125.61560
G1 X153.321 Y150.730 E125.63195
G1 X152.956 Y150.604 E125.64800
G1 X152.695 Y150.560 E125.65900
G1 X152.436 Y150.551 E125.66978
G1 X152.172 Y150.577 E125.68081
G1 X151.807 Y150.678 E125.69655
G1 X151.625 Y150.757 E125.70480
G1 X151.328 Y150.940 E125.71930
G1 X150.963 Y151.300 E125.74062
G1 X150.927 Y151.352 E125.74325
G1 X147.494 Y151.351 E125.88598
G1 X147.402 Y151.193 E125.89358
G1 X147.266 Y151.031 E125.90237
G1 X146.984 Y150.812 E125.91721
G1 X146.750 Y150.708 E125.92786
G1 X146.750 Y149.181 E125.99135
G1 X152.500 Y145.861 E126.26739
G1 X158.250 Y149.181 E126.54344
G1 X158.250 Y155.819 E126.81941
G1 X152.500 Y159.139 E127.09546
G1 X146.750 Y155.819 E127.37150
G1 X146.750 Y154.292 E127.43499
G1 X146.984 Y154.188 E127.44563
G1 X147.267 Y153.968 E127.46053
G1 X147.426 Y153.776 E127.47090
G1 X147.498 Y153.647 E127.47704
G1 X150.939 Y153.647 E127.62010
G1 X151.263 Y154.008 E127.64027
G1 X151.573 Y154.216 E127.65579
G1 X151.979 Y154.378 E127.67396
G1 X152.302 Y154.440 E127.68764
G1 X152.564 Y154.449 E127.69853
G1 X152.828 Y154.423 E127.70956
G1 X153.200 Y154.320 E127.72561
G0 F9000 X152.471 Y155.120
;TYPE:FILL
G1 F1020 X150.428 Y157.162 E127.84570
G1 F2400 E127.24570
G1 Z4.300
G0 F9000 X151.296 Y154.831
G1 Z3.800
G1 F2400 E127.84570
G1 F1020 X153.973 Y157.508 E128.00310
G1 F2400 E127.40310
G1 Z4.300
G0 F9000 X157.574 Y154.038
G1 Z3.800
G1 F2400 E128.00310
G1 F1020 X154.794 Y151.258 E128.16655
G0 F9000 X155.127 Y152.464
G1 F1020 X157.573 Y150.017 E128.31040
G1 F2400 E127.71040
G1 Z4.300
G0 F9000 X153.712 Y150.176
G1 Z3.800
G1 F2400 E128.31040
G1 F1020 X151.027 Y147.491 E128.46827
G1 F2400 E127.86827
G1 Z4.300
G0 F9000 X153.374 Y147.146
G1 Z3.800
G1 F2400 E128.46827
G1 F1020 X149.843 Y150.676 E128.67585
G0 F9000 X149.615 Y150.675
;TYPE:SKIN
G1 F1020 X149.038 Y150.452 E128.70203
G1 X148.331 Y150.452 E128.72819
G1 X147.755 Y150.230 E128.75385
G1 F2400 E128.15385
G1 Z4.300
G0 F9000 X149.876 Y150.230
G1 Z3.800
G1 F2400 E128.75385
G1 F1020 X150.453 Y150.452 E128.78002
G1 X150.832 Y150.479 E128.79581
G1 F2400 E128.19581
G1 Z4.300
G0 F9000 X150.432 Y154.321
G1 Z3.800
G1 F2400 E128.79581
G1 F1020 X150.524 Y154.767 E128.82202
G1 X149.594 Y154.544 E128.84826
G1 X148.887 Y154.544 E128.87448
G1 X148.180 Y154.544 E128.90070
G1 X147.581 Y154.652 E128.91897
G1 X147.500 Y154.924 E128.93077
;LAYER:19
M106 S201
G0 F9000 X147.443 Y154.284 Z4.000
;TYPE:WALL-INNER
G1 F1080 X147.694 Y154.022 E128.94585
G1 X147.839 Y153.786 E128.95737
G1 X149.282 Y153.787 E129.01736
G1 X149.625 Y153.788 E129.03162
G1 X150.423 Y153.786 E129.06480
G1 X150.664 Y154.125 E129.08209
G1 X150.952 Y154.402 E129.09870
G1 X151.333 Y154.657 E129.11776
G1 X151.751 Y154.833 E129.13662
G1 X151.943 Y154.886 E129.14490
G1 X152.254 Y154.939 E129.15802
G1 X152.581 Y154.950 E129.17162
G1 X152.903 Y154.918 E129.18507
G1 X153.167 Y154.858 E129.19633
G1 X153.550 Y154.718 E129.21328
G1 X154.065 Y154.389 E129.23869
G1 X154.327 Y154.135 E129.25386
G1 X154.618 Y153.740 E129.27426
G1 X154.864 Y153.161 E129.30041
G1 X154.944 Y152.689 E129.32032
G1 X154.952 Y152.455 E129.33005
G1 X154.844 Y151.765 E129.35909
G1 X154.546 Y151.149 E129.38754
G1 X154.415 Y150.972 E129.39669
G1 X154.189 Y150.722 E129.41070
G1 X153.754 Y150.394 E129.43335
G1 X153.398 Y150.220 E129.44983
G1 X153.225 Y150.160 E129.45744
G1 X153.057 Y150.114 E129.46468
G1 X152.746 Y150.061 E129.47780
G1 X152.419 Y150.050 E129.49140
G1 X152.097 Y150.082 E129.50485
G1 X151.828 Y150.143 E129.51632
G1 X151.416 Y150.300 E129.53465
G1 X151.032 Y150.535 E129.55337
G1 X150.667 Y150.869 E129.57394
G1 X150.425 Y151.213 E129.59143
G1 X149.525 Y151.216 E129.62884
G1 X147.842 Y151.213 E129.69881
G1 X147.797 Y151.125 E129.70292
G1 X147.553 Y150.819 E129.71920
G1 X147.250 Y150.573 E129.73542
G1 X147.250 Y149.470 E129.78128
G1 X152.500 Y146.439 E130.03331
G1 X157.750 Y149.470 E130.28535
G1 X157.750 Y155.531 E130.53733
G1 X152.500 Y158.562 E130.78937
G1 X147.250 Y155.531 E131.04140
G1 X147.250 Y154.423 E131.08747
G1 X147.443 Y154.284 E131.09736
G0 F9000 X147.297 Y153.713
;TYPE:WALL-OUTER
G1 F1080 X147.479 Y153.417 E131.11180
G1 X147.526 Y153.285 E131.11763
G1 X150.723 Y153.285 E131.25054
G1 X150.790 Y153.439 E131.25753
G1 X151.044 Y153.797 E131.27578
G1 X151.267 Y154.011 E131.28863
G1 X151.572 Y154.215 E131.30388
G1 X151.915 Y154.360 E131.31936
G1 X152.305 Y154.440 E131.33592
G1 X152.564 Y154.449 E131.34669
G1 X152.822 Y154.423 E131.35747
G1 X153.026 Y154.377 E131.36616
G1 X153.327 Y154.267 E131.37949
G1 X153.753 Y153.995 E131.40050
G1 X153.949 Y153.805 E131.41185
G1 X154.181 Y153.491 E131.42808
G1 X154.381 Y153.020 E131.44936
G1 X154.445 Y152.638 E131.46546
G1 X154.451 Y152.485 E131.47183
G1 X154.361 Y151.916 E131.49578
G1 X154.116 Y151.408 E131.51922
G1 X154.028 Y151.289 E131.52538
G1 X153.850 Y151.093 E131.53638
G1 X153.491 Y150.822 E131.55509
G1 X153.206 Y150.683 E131.56827
G1 X152.948 Y150.603 E131.57950
G1 X152.695 Y150.560 E131.59017
G1 X152.436 Y150.551 E131.60094
G1 X152.178 Y150.577 E131.61172
G1 X151.973 Y150.623 E131.62046
G1 X151.637 Y150.751 E131.63541
G1 X151.334 Y150.936 E131.65017
G1 X151.045 Y151.201 E131.66647
G1 X150.785 Y151.571 E131.68527
G1 X150.724 Y151.712 E131.69166
G1 X149.525 Y151.716 E131.74151
G1 X147.532 Y151.712 E131.82436
G1 X147.525 Y151.691 E131.82529
G1 X147.375 Y151.398 E131.83897
G1 X147.195 Y151.172 E131.85098
G1 X146.988 Y151.003 E131.86209
G1 X146.750 Y150.892 E131.87301
G1 X146.750 Y149.181 E131.94415
G1 X152.500 Y145.861 E132.22019
G1 X158.250 Y149.181 E132.49623
G1 X158.250 Y155.819 E132.77221
G1 X152.500 Y159.139 E133.04825
G1 X146.750 Y155.819 E133.32430
G1 X146.750 Y154.115 E133.39514
G1 X146.986 Y153.997 E133.40611
G1 X147.106 Y153.911 E133.41225
G1 X147.297 Y153.713 E133.42369
G1 F2400 E132.82369
G1 Z4.500
G0 F9000 X149.483 Y151.037
;TYPE:FILL
G1 Z4.000
G1 F2400 E133.42369
G1 F1080 X153.374 Y147.146 E133.65246
G1 F2400 E133.05246
G1 Z4.500
G0 F9000 X151.027 Y147.491
G1 Z4.000
G1 F2400 E133.65246
G1 F1080 X153.715 Y150.180 E133.81054
G1 F2400 E133.21054
G1 Z4.500
G0 F9000 X154.789 Y151.254
G1 Z4.000
G1 F2400 E133.81054
G1 F1080 X157.574 Y154.038 E133.97426
G1 F2400 E133.37426
G1 Z4.500
G0 F9000 X155.126 Y152.464
G1 Z4.000
G1 F2400 E133.97426
G1 F1080 X157.573 Y150.017 E134.11813
G1 F2400 E133.51813
G1 Z4.500
G0 F9000 X152.471 Y155.120
G1 Z4.000
G1 F2400 E134.11813
G1 F1080 X150.428 Y157.162 E134.23822
G1 F2400 E133.63822
G1 Z4.500
G0 F9000 X151.294 Y154.830
G1 Z4.000
G1 F2400 E134.23822
G1 F1080 X153.973 Y157.508 E134.39571
G1 F2400 E133.79571
G1 Z4.500
G0 F9000 X150.708 Y154.408
;TYPE:SKIN
G1 Z4.000
G1 F2400 E134.39571
G1 F1080 X150.399 Y154.363 E134.41277
G1 X149.710 Y154.698 E134.44462
G0 F9000 X149.003 Y154.698
G1 F1080 X149.741 Y153.960 E134.48801
G0 F9000 X149.034 Y153.960
G1 F1080 X148.296 Y154.698 E134.53140
G0 F9000 X148.327 Y153.960
G1 F1080 X147.452 Y154.835 E134.58285
G1 F2400 E133.98285
G1 Z4.500
G0 F9000 X148.422 Y151.037
G1 Z4.000
G1 F2400 E134.58285
G1 F1080 X149.158 Y150.301 E134.62612
G0 F9000 X149.864 Y150.301
G1 F1080 X149.129 Y151.037 E134.66937
G0 F9000 X149.836 Y151.037
G1 F1080 X150.572 Y150.301 E134.71264
G1 F2400 E134.11264
G1 Z4.500
G0 F9000 X148.451 Y150.301
G1 Z4.000
G1 F2400 E134.71264
G1 F1080 X147.671 Y150.726 E134.74809
G1 X147.744 Y150.301 E134.76602
;LAYER:20
M106 S211
G0 F9000 X147.479 Y151.031 Z4.200
;TYPE:WALL-INNER
G1 F1080 X147.250 Y150.839 E134.77844
G1 X147.250 Y149.470 E134.83536
G1 X152.500 Y146.439 E135.08740
G1 X157.750 Y149.470 E135.33943
G1 X157.750 Y155.531 E135.59142
G1 X152.500 Y158.562 E135.84345
G1 X147.250 Y155.531 E136.09549
G1 X147.250 Y154.162 E136.15240
G1 X147.490 Y153.961 E136.16542
G1 X147.754 Y153.596 E136.18414
G1 X147.931 Y153.154 E136.20394
G1 X147.971 Y152.987 E136.21108
G1 X148.012 Y152.661 E136.22474
G1 X148.018 Y152.482 E136.23219
G1 X147.970 Y151.997 E136.25245
G1 X147.863 Y151.640 E136.26794
G1 X147.689 Y151.298 E136.28390
G1 X147.479 Y151.031 E136.29802
G1 F2400 E135.69802
G1 Z4.700
G0 F9000 X150.093 Y152.038
G1 Z4.200
G1 F2400 E136.29802
G1 F1080 X150.053 Y152.375 E136.31213
G1 X150.049 Y152.515 E136.31795
G1 X150.073 Y152.855 E136.33212
G1 X150.210 Y153.377 E136.35456
G1 X150.358 Y153.693 E136.36907
G1 X150.571 Y154.016 E136.38515
G1 X150.930 Y154.384 E136.40653
G1 X151.339 Y154.657 E136.42697
G1 X151.574 Y154.768 E136.43778
G1 X151.926 Y154.883 E136.45317
G1 X152.254 Y154.939 E136.46700
G1 X152.594 Y154.951 E136.48115
G1 X153.069 Y154.886 E136.50108
G1 X153.521 Y154.730 E136.52096
G1 X153.830 Y154.559 E136.53564
G1 X154.204 Y154.265 E136.55542
G1 X154.520 Y153.891 E136.57578
G1 X154.725 Y153.525 E136.59322
G1 X154.817 Y153.297 E136.60344
G1 X154.901 Y152.989 E136.61671
G1 X154.944 Y152.678 E136.62977
G1 X154.951 Y152.487 E136.63771
G1 X154.929 Y152.173 E136.65080
G1 X154.862 Y151.845 E136.66472
G1 X154.712 Y151.441 E136.68263
G1 X154.429 Y150.984 E136.70498
G1 X154.083 Y150.626 E136.72568
G1 X153.678 Y150.349 E136.74608
G1 X153.227 Y150.157 E136.76646
G1 X152.759 Y150.062 E136.78631
G1 X152.406 Y150.049 E136.80100
G1 X151.927 Y150.114 E136.82110
G1 X151.427 Y150.294 E136.84319
G1 X150.999 Y150.559 E136.86412
G1 X150.555 Y150.999 E136.89011
G1 X150.213 Y151.612 E136.91929
G1 X150.093 Y152.038 E136.93769
G0 F9000 X150.552 Y152.412
;TYPE:WALL-OUTER
G1 F1080 X150.550 Y152.505 E136.94156
G1 X150.568 Y152.774 E136.95277
G1 X150.682 Y153.206 E136.97134
G1 X150.795 Y153.448 E136.98245
G1 X150.962 Y153.701 E136.99505
G1 X151.257 Y154.003 E137.01260
G1 X151.474 Y154.157 E137.02367
G1 X151.759 Y154.303 E137.03698
G1 X152.046 Y154.396 E137.04952
G1 X152.305 Y154.440 E137.06044
G1 X152.569 Y154.450 E137.07143
G1 X152.952 Y154.397 E137.08750
G1 X153.317 Y154.271 E137.10356
G1 X153.553 Y154.141 E137.11476
G1 X153.855 Y153.903 E137.13074
G1 X154.107 Y153.605 E137.14697
G1 X154.273 Y153.309 E137.16108
G1 X154.342 Y153.137 E137.16878
G1 X154.410 Y152.888 E137.17951
G1 X154.445 Y152.635 E137.19013
G1 X154.450 Y152.496 E137.19592
G1 X154.432 Y152.240 E137.20659
G1 X154.380 Y151.982 E137.21753
G1 X154.261 Y151.662 E137.23172
G1 X154.032 Y151.293 E137.24978
G1 X153.759 Y151.010 E137.26613
G1 X153.437 Y150.790 E137.28234
G1 X153.078 Y150.637 E137.29856
G1 X152.700 Y150.560 E137.31460
G1 X152.431 Y150.550 E137.32579
G1 X152.046 Y150.603 E137.34195
G1 X151.646 Y150.747 E137.35963
G1 X151.310 Y150.954 E137.37603
G1 X150.957 Y151.304 E137.39670
G1 X150.678 Y151.804 E137.42050
G1 X150.585 Y152.135 E137.43480
G1 X150.552 Y152.412 E137.44640
G1 F2400 E136.84640
G1 Z4.700
G0 F9000 X147.517 Y152.499
G1 Z4.200
G1 F2400 E137.44640
G1 F1080 X147.477 Y152.094 E137.46332
G1 X147.397 Y151.827 E137.47490
G1 X147.266 Y151.569 E137.48693
G1 X147.118 Y151.380 E137.49691
G1 X146.907 Y151.203 E137.50836
G1 X146.750 Y151.126 E137.51563
G1 X146.750 Y149.181 E137.59650
G1 X152.500 Y145.861 E137.87254
G1 X158.250 Y149.181 E138.14859
G1 X158.250 Y155.819 E138.42456
G1 X152.500 Y159.139 E138.70061
G1 X146.750 Y155.819 E138.97665
G1 X146.750 Y153.866 E139.05785
G1 X146.901 Y153.803 E139.06465
G1 X147.121 Y153.618 E139.07660
G1 X147.313 Y153.353 E139.09021
G1 X147.453 Y153.002 E139.10592
G1 X147.513 Y152.621 E139.12195
G1 X147.517 Y152.499 E139.12703
G1 F2400 E138.52703
G1 Z4.700
G0 F9000 X149.463 Y151.056
;TYPE:FILL
G1 Z4.200
G1 F2400 E139.12703
G1 F1080 X153.374 Y147.146 E139.35695
G1 F2400 E138.75695
G1 Z4.700
G0 F9000 X151.027 Y147.491
G1 Z4.200
G1 F2400 E139.35695
G1 F1080 X153.707 Y150.171 E139.51452
G1 F2400 E138.91452
G1 Z4.700
G0 F9000 X154.817 Y151.281
G1 Z4.200
G1 F2400 E139.51452
G1 F1080 X157.574 Y154.038 E139.67662
G1 F2400 E139.07662
G1 Z4.700
G0 F9000 X155.124 Y152.467
G1 Z4.200
G1 F2400 E139.67662
G1 F1080 X157.573 Y150.017 E139.82065
G1 F2400 E139.22065
G1 Z4.700
G0 F9000 X152.470 Y155.120
G1 Z4.200
G1 F2400 E139.82065
G1 F1080 X150.428 Y157.162 E139.94071
G1 F2400 E139.34071
G1 Z4.700
G0 F9000 X151.292 Y154.828
G1 Z4.200
G1 F2400 E139.94071
G1 F1080 X153.973 Y157.508 E140.09831
G1 F2400 E139.49831
G1 Z4.700
G0 F9000 X150.574 Y154.593
;TYPE:SKIN
G1 Z4.200
G1 F2400 E140.09831
G1 F1080 X150.580 Y154.278 E140.11141
G0 F9000 X150.074 Y154.592
G1 F1080 X150.093 Y153.538 E140.15524
G0 F9000 X149.574 Y154.592
G1 F1080 X149.647 Y150.405 E140.32934
G0 F9000 X149.147 Y150.405
G1 F1080 X149.074 Y154.592 E140.50344
G0 F9000 X148.574 Y154.592
G1 F1080 X148.647 Y150.405 E140.67754
G0 F9000 X148.147 Y150.404
G1 F1080 X148.121 Y151.895 E140.73954
G0 F9000 X147.638 Y150.948
G1 F1080 X147.648 Y150.334 E140.76507
G1 F2400 E140.16507
G1 Z4.700
G0 F9000 X150.147 Y150.406
G1 Z4.200
G1 F2400 E140.76507
G1 F1080 X150.386 Y151.030 E140.80624
G1 X150.647 Y150.407 E140.83432
G1 F2400 E140.23432
G1 Z4.700
G0 F9000 X148.098 Y153.203
G1 Z4.200
G1 F2400 E140.83432
G1 F1080 X148.074 Y154.592 E140.89208
G0 F9000 X147.571 Y154.739
G1 F1080 X147.582 Y154.111 E140.91819
;LAYER:21
M106 S221
G0 F9000 X147.327 Y153.718 Z4.400
;TYPE:WALL-INNER
G1 F1800 X147.594 Y153.341 E140.93740
G1 X147.738 Y152.942 E140.95504
G1 X147.782 Y152.610 E140.96896
G1 X147.785 Y152.426 E140.97661
G1 X147.733 Y152.037 E140.99293
G1 X147.586 Y151.646 E141.01029
G1 X147.422 Y151.396 E141.02272
G1 X147.250 Y151.220 E141.03296
G1 X147.250 Y149.469 E141.10575
G1 X152.500 Y146.438 E141.35779
G1 X157.750 Y149.469 E141.60982
G1 X157.750 Y155.531 E141.86185
G1 X152.500 Y158.562 E142.11389
G1 X147.250 Y155.531 E142.36592
G1 X147.250 Y153.784 E142.43855
G1 X147.327 Y153.718 E142.44277
G1 F2400 E141.84277
G1 Z4.900
G0 F9000 X150.093 Y152.978
G1 Z4.400
G1 F2400 E142.44277
G1 F1800 X150.293 Y153.574 E142.46890
G1 X150.548 Y153.987 E142.48908
G1 X151.031 Y154.464 E142.51731
G1 X151.315 Y154.644 E142.53129
G1 X151.612 Y154.782 E142.54490
G1 X152.064 Y154.912 E142.56446
G1 X152.267 Y154.939 E142.57297
G1 X152.606 Y154.951 E142.58707
G1 X153.215 Y154.848 E142.61275
G1 X153.675 Y154.652 E142.63354
G1 X154.063 Y154.392 E142.65296
G1 X154.523 Y153.894 E142.68114
G1 X154.802 Y153.340 E142.70693
G1 X154.903 Y152.975 E142.72268
G1 X154.944 Y152.678 E142.73514
G1 X154.951 Y152.487 E142.74309
G1 X154.927 Y152.148 E142.75722
G1 X154.762 Y151.542 E142.78333
G1 X154.434 Y150.989 E142.81006
G1 X154.092 Y150.635 E142.83052
G1 X153.819 Y150.435 E142.84459
G1 X153.521 Y150.270 E142.85876
G1 X153.081 Y150.118 E142.87811
G1 X152.746 Y150.061 E142.89224
G1 X152.394 Y150.049 E142.90688
G1 X151.773 Y150.154 E142.93306
G1 X151.205 Y150.416 E142.95907
G1 X150.792 Y150.738 E142.98084
G1 X150.451 Y151.148 E143.00301
G1 X150.166 Y151.746 E143.03056
G1 X150.072 Y152.159 E143.04817
G1 X150.047 Y152.510 E143.06279
G1 X150.093 Y152.978 E143.08235
G0 F9000 X150.549 Y152.503
;TYPE:WALL-OUTER
G1 F1800 X150.585 Y152.873 E143.09780
G1 X150.749 Y153.361 E143.11921
G1 X150.942 Y153.674 E143.13449
G1 X151.344 Y154.071 E143.15798
G1 X151.680 Y154.269 E143.17420
G1 X152.167 Y154.421 E143.19541
G1 X152.309 Y154.440 E143.20136
G1 X152.573 Y154.450 E143.21235
G1 X153.074 Y154.365 E143.23347
G1 X153.436 Y154.211 E143.24983
G1 X153.736 Y154.009 E143.26487
G1 X154.108 Y153.606 E143.28767
G1 X154.337 Y153.151 E143.30885
G1 X154.411 Y152.884 E143.32036
G1 X154.445 Y152.635 E143.33081
G1 X154.450 Y152.496 E143.33660
G1 X154.432 Y152.232 E143.34760
G1 X154.297 Y151.739 E143.36885
G1 X154.034 Y151.294 E143.39034
G1 X153.762 Y151.013 E143.40660
G1 X153.549 Y150.857 E143.41757
G1 X153.317 Y150.729 E143.42859
G1 X152.956 Y150.604 E143.44447
G1 X152.695 Y150.560 E143.45548
G1 X152.427 Y150.550 E143.46663
G1 X151.922 Y150.636 E143.48792
G1 X151.467 Y150.846 E143.50876
G1 X151.142 Y151.099 E143.52588
G1 X150.876 Y151.419 E143.54318
G1 X150.641 Y151.911 E143.56585
G1 X150.568 Y152.232 E143.57954
G1 X150.549 Y152.503 E143.59083
G1 F2400 E142.99083
G1 Z4.900
G0 F9000 X147.284 Y152.456
G1 Z4.400
G1 F2400 E143.59083
G1 F1800 X147.245 Y152.160 E143.60324
G1 X147.137 Y151.874 E143.61595
G1 X147.030 Y151.710 E143.62410
G1 X146.812 Y151.504 E143.63657
G1 X146.750 Y151.474 E143.63943
G1 X146.750 Y149.181 E143.73476
G1 X152.500 Y145.861 E144.01081
G1 X158.250 Y149.181 E144.28685
G1 X158.250 Y155.819 E144.56283
G1 X152.500 Y159.139 E144.83887
G1 X146.750 Y155.819 E145.11491
G1 X146.750 Y153.527 E145.21021
G1 X146.819 Y153.494 E145.21339
G1 X146.955 Y153.378 E145.22082
G1 X147.147 Y153.108 E145.23459
G1 X147.249 Y152.823 E145.24718
G1 X147.283 Y152.573 E145.25767
G1 X147.284 Y152.456 E145.26253
G0 F9000 X147.935 Y152.230
;TYPE:SKIN
G1 F1800 X153.150 Y147.015 E145.56915
G0 F9000 X152.702 Y146.757
G1 F1800 X147.785 Y151.674 E145.85825
G0 F9000 X147.514 Y151.238
G1 F1800 X151.585 Y147.167 E146.09761
G1 F2400 E145.49761
G1 Z4.900
G0 F9000 X149.911 Y148.133
G1 Z4.400
G1 F2400 E146.09761
G1 F1800 X147.424 Y150.620 E146.24384
G0 F9000 X147.424 Y149.913
G1 F1800 X148.238 Y149.099 E146.29170
G1 F2400 E145.69170
G1 Z4.900
G0 F9000 X150.095 Y151.485
G1 Z4.400
G1 F2400 E146.29170
G1 F1800 X147.425 Y154.155 E146.44868
G0 F9000 X147.425 Y154.862
G1 F1800 X149.878 Y152.409 E146.59291
G0 F9000 X149.935 Y153.059
G1 F1800 X147.514 Y155.480 E146.73526
G0 F9000 X147.962 Y155.739
G1 F1800 X150.112 Y153.589 E146.86167
G0 F9000 X150.372 Y154.036
G1 F1800 X148.411 Y155.998 E146.97700
G0 F9000 X148.859 Y156.257
G1 F1800 X150.716 Y154.399 E147.08621
G0 F9000 X151.105 Y154.717
G1 F1800 X149.307 Y156.515 E147.19193
G0 F9000 X149.756 Y156.774
G1 F1800 X151.577 Y154.953 E147.29899
G0 F9000 X152.140 Y155.097
G1 F1800 X150.204 Y157.033 E147.41282
G0 F9000 X150.652 Y157.292
G1 F1800 X152.860 Y155.084 E147.54265
G0 F9000 X154.022 Y154.629
G1 F1800 X151.100 Y157.551 E147.71445
G0 F9000 X151.548 Y157.810
G1 F1800 X157.574 Y151.784 E148.06875
G0 F9000 X157.574 Y152.491
G1 F1800 X151.996 Y158.069 E148.39672
G0 F9000 X152.445 Y158.328
G1 F1800 X157.574 Y153.198 E148.69831
G0 F9000 X157.574 Y153.906
G1 F1800 X153.969 Y157.510 E148.91024
G1 F2400 E148.31024
G1 Z4.900
G0 F9000 X155.642 Y156.544
G1 Z4.400
G1 F2400 E148.91024
G1 F1800 X157.574 Y154.613 E149.02381
G0 F9000 X157.574 Y155.320
G1 F1800 X157.316 Y155.578 E149.03898
G1 F2400 E148.43898
G1 Z4.900
G0 F9000 X154.675 Y153.976
G1 Z4.400
G1 F2400 E149.03898
G1 F1800 X157.574 Y151.077 E149.20943
G0 F9000 X157.574 Y150.370
G1 F1800 X155.096 Y152.848 E149.35513
G0 F9000 X155.101 Y152.136
G1 F1800 X157.574 Y149.663 E149.50053
G0 F9000 X157.184 Y149.345
G1 F1800 X154.952 Y151.578 E149.63179
G0 F9000 X154.710 Y151.112
G1 F1800 X156.736 Y149.087 E149.75088
G0 F9000 X156.288 Y148.828
G1 F1800 X154.407 Y150.709 E149.86148
G0 F9000 X154.034 Y150.375
G1 F1800 X155.839 Y148.569 E149.96763
G0 F9000 X155.392 Y148.309
G1 F1800 X153.592 Y150.110 E150.07350
G0 F9000 X153.058 Y149.937
G1 F1800 X154.944 Y148.051 E150.18439
G0 F9000 X154.495 Y147.792
G1 F1800 X152.414 Y149.874 E150.30677
G0 F9000 X151.489 Y150.091
G1 F1800 X154.047 Y147.533 E150.45717
G0 F9000 X153.599 Y147.274
G1 F1800 X147.911 Y152.962 E150.79160
;LAYER:22
M106 S232
G1 F2400 E150.19160
G1 Z4.900
G0 F9000 X150.046 Y152.582 Z4.600
;TYPE:WALL-INNER
G1 Z4.600
G1 F2400 E150.79160
G1 F1860 X150.170 Y153.275 E150.82087
G1 X150.384 Y153.737 E150.84204
G1 X150.604 Y154.053 E150.85805
G1 X150.929 Y154.385 E150.87736
G1 X151.303 Y154.638 E150.89614
G1 X151.794 Y154.847 E150.91832
G1 X152.241 Y154.938 E150.93729
G1 X152.594 Y154.951 E150.95197
G1 X153.057 Y154.888 E150.97140
G1 X153.402 Y154.781 E150.98642
G1 X153.934 Y154.493 E151.01157
G1 X154.417 Y154.033 E151.03930
G1 X154.690 Y153.606 E151.06037
G1 X154.866 Y153.148 E151.08077
G1 X154.944 Y152.689 E151.10013
G1 X154.951 Y152.475 E151.10903
G1 X154.906 Y152.037 E151.12733
G1 X154.857 Y151.830 E151.13618
G1 X154.690 Y151.394 E151.15559
G1 X154.426 Y150.980 E151.17600
G1 X154.075 Y150.617 E151.19700
G1 X153.533 Y150.271 E151.22373
G1 X152.944 Y150.089 E151.24936
G1 X152.406 Y150.049 E151.27179
G1 X151.943 Y150.112 E151.29122
G1 X151.631 Y150.209 E151.30480
G1 X151.308 Y150.360 E151.31962
G1 X151.016 Y150.548 E151.33406
G1 X150.668 Y150.872 E151.35383
G1 X150.456 Y151.147 E151.36827
G1 X150.197 Y151.654 E151.39194
G1 X150.072 Y152.157 E151.41348
G1 X150.046 Y152.582 E151.43119
G1 F2400 E150.83119
G1 Z5.100
G0 F9000 X147.250 Y155.531
G1 Z4.600
G1 F2400 E151.43119
G1 F1860 X147.250 Y149.470 E151.68317
G1 X152.500 Y146.439 E151.93521
G1 X157.750 Y149.470 E152.18724
G1 X157.750 Y155.531 E152.43923
G1 X152.500 Y158.562 E152.69126
G1 X147.250 Y155.531 E152.94330
G0 F9000 X146.750 Y155.819
;TYPE:WALL-OUTER
G1 F1860 X146.750 Y149.181 E153.21927
G1 X152.500 Y145.861 E153.49532
G1 X158.250 Y149.181 E153.77136
G1 X158.250 Y155.819 E154.04734
G1 X152.500 Y159.139 E154.32338
G1 X146.750 Y155.819 E154.59943
G1 F2400 E153.99943
G1 Z5.100
G0 F9000 X150.821 Y153.490
G1 Z4.600
G1 F2400 E154.59943
G1 F1860 X150.984 Y153.726 E154.61135
G1 X151.251 Y153.999 E154.62723
G1 X151.680 Y154.269 E154.64830
G1 X151.929 Y154.364 E154.65938
G1 X152.300 Y154.440 E154.67513
G1 X152.569 Y154.450 E154.68632
G1 X152.948 Y154.398 E154.70222
G1 X153.207 Y154.318 E154.71349
G1 X153.637 Y154.085 E154.73383
G1 X154.028 Y153.713 E154.75626
G1 X154.241 Y153.379 E154.77273
G1 X154.381 Y153.015 E154.78895
G1 X154.445 Y152.638 E154.80485
G1 X154.450 Y152.492 E154.81092
G1 X154.378 Y151.977 E154.83254
G1 X154.241 Y151.621 E154.84840
G1 X154.031 Y151.291 E154.86466
G1 X153.756 Y151.007 E154.88110
G1 X153.321 Y150.729 E154.90256
G1 X152.836 Y150.579 E154.92366
G1 X152.691 Y150.560 E154.92974
G1 X152.431 Y150.550 E154.94056
G1 X152.052 Y150.602 E154.95647
G1 X151.661 Y150.740 E154.97371
G1 X151.560 Y150.793 E154.97845
G1 X151.324 Y150.945 E154.99012
G1 X151.039 Y151.210 E155.00630
G1 X150.880 Y151.416 E155.01712
G1 X150.668 Y151.831 E155.03649
G1 X150.568 Y152.233 E155.05371
G1 X150.549 Y152.553 E155.06704
G1 X150.651 Y153.124 E155.09116
G1 X150.821 Y153.490 E155.10793
G0 F9000 X149.971 Y153.153
;TYPE:SKIN
G1 F1860 X147.424 Y150.606 E155.25769
G0 F9000 X147.424 Y151.313
G1 F1860 X153.749 Y157.638 E155.62957
G0 F9000 X154.197 Y157.379
G1 F1860 X151.856 Y155.038 E155.76722
G0 F9000 X152.645 Y155.120
G1 F1860 X154.644 Y157.119 E155.88475
G0 F9000 X155.093 Y156.861
G1 F1860 X153.244 Y155.011 E155.99349
G0 F9000 X153.737 Y154.797
G1 F1860 X155.541 Y156.602 E156.09959
G0 F9000 X155.989 Y156.343
G1 F1860 X154.162 Y154.516 E156.20701
G0 F9000 X154.525 Y154.171
G1 F1860 X156.438 Y156.084 E156.31949
G0 F9000 X156.886 Y155.825
G1 F1860 X154.806 Y153.746 E156.44176
G0 F9000 X155.014 Y153.246
G1 F1860 X157.334 Y155.567 E156.57819
G0 F9000 X157.574 Y155.099
G1 F1860 X155.119 Y152.644 E156.72254
G0 F9000 X155.043 Y151.861
G1 F1860 X157.574 Y154.392 E156.87135
G0 F9000 X157.574 Y153.685
G1 F1860 X151.251 Y147.362 E157.24312
G0 F9000 X150.803 Y147.621
G1 F1860 X153.152 Y149.970 E157.38123
G0 F9000 X152.353 Y149.878
G1 F1860 X150.354 Y147.880 E157.49873
G0 F9000 X149.906 Y148.138
G1 F1860 X151.755 Y149.987 E157.60745
G0 F9000 X151.252 Y150.192
G1 F1860 X149.458 Y148.397 E157.71296
G0 F9000 X149.010 Y148.656
G1 F1860 X150.832 Y150.479 E157.82011
G0 F9000 X150.478 Y150.832
G1 F1860 X148.561 Y148.915 E157.93283
G0 F9000 X148.113 Y149.174
G1 F1860 X150.200 Y151.261 E158.05553
G0 F9000 X149.990 Y151.758
G1 F1860 X147.665 Y149.432 E158.19226
G0 F9000 X147.424 Y149.899
G1 F1860 X149.885 Y152.360 E158.33696
G1 F2400 E157.73696
G1 Z5.100
G0 F9000 X147.424 Y152.020
G1 Z4.600
G1 F2400 E158.33696
G1 F1860 X153.300 Y157.896 E158.68245
G0 F9000 X152.852 Y158.155
G1 F1860 X147.424 Y152.727 E159.00159
