;-- START GCODE --
;Sliced for Type A Machines Series 1
;Sliced at: Sun 08-11-2020 10:22:04
;Basic settings: Layer height: 0.2 Walls: 1 Fill: 20
;Print Speed: 45 Support: 0
;Retraction Speed: 40 Retraction Distance: 0.6
;Print time: 4 minutes
;Filament used: 0.17m 0.0g
;Settings based on: Type A Machines ProMatte
G21        ;metric values
G90        ;absolute positioning
G28     ;move to endstops
G29		;allows for auto-levelling
G1 Z15.0 F12000 ;move the platform down 15mm
G1 X150 Y5 F9000 ;center
M140 S50 ;Prep Heat Bed
M109 S210 ;Heat To temp
M190 S50 ;Heat Bed to temp
G1 X150 Y5 Z0.3 ;move the platform to purge extrusion
G92 E0 ;zero the extruded length
G1 F200 X250 E30 ;extrude 30mm of feed stock
G92 E0 ;zero the extruded length again
G1 X150 Y150  Z25 F12000 ;recenter and begin
G1 F9000

;Layer count: 25
;LAYER:0
M107
G0 F9000 X142.552 Y146.757 Z0.200
;TYPE:SKIRT
G1 F1800 X147.475 Y143.913 E0.23637
G1 X152.500 Y141.012 E0.47760
G1 X162.450 Y146.755 E0.95524
G1 X162.450 Y152.443 E1.19172
G1 X162.448 Y158.243 E1.43285
G1 X157.525 Y161.087 E1.66923
G1 X152.500 Y163.988 E1.91046
G1 X142.550 Y158.245 E2.38809
G1 X142.550 Y152.557 E2.62457
G1 X142.552 Y146.757 E2.86571
G0 F9000 X143.052 Y147.045
G1 F1800 X147.725 Y144.346 E3.09007
G1 X152.500 Y141.589 E3.31930
G1 X161.950 Y147.044 E3.77295
G1 X161.950 Y152.443 E3.99741
G1 X161.948 Y157.955 E4.22657
G1 X157.275 Y160.654 E4.45093
G1 X152.500 Y163.411 E4.68017
G1 X143.050 Y157.956 E5.13381
G1 X143.050 Y152.557 E5.35828
G1 X143.052 Y147.045 E5.58744
G0 F9000 X143.551 Y147.334
G1 F1800 X147.975 Y144.779 E5.79984
G1 X152.500 Y142.166 E6.01708
G1 X161.450 Y147.332 E6.44671
G1 X161.449 Y157.666 E6.87635
G1 X157.025 Y160.221 E7.08875
G1 X152.500 Y162.834 E7.30599
G1 X143.550 Y157.668 E7.73563
G1 X143.551 Y147.334 E8.16526
G1 F2400 E7.56526
G1 Z0.700
G0 F9000 X147.551 Y149.642
;TYPE:WALL-INNER
G1 Z0.200
G1 F2400 E8.16526
G1 F1800 X152.499 Y146.785 E8.40281
G1 X157.450 Y149.643 E8.64048
G1 X157.449 Y155.358 E8.87808
G1 X152.501 Y158.215 E9.11563
G1 X147.550 Y155.357 E9.35330
G1 X147.551 Y149.642 E9.59090
G1 F2400 E8.99090
G1 Z0.700
G0 F9000 X150.286 Y151.227
G1 Z0.200
G1 F2400 E9.59090
G1 F1800 X150.042 Y151.804 E9.61695
G1 X149.959 Y152.270 E9.63663
G1 X149.948 Y152.481 E9.64541
G1 X149.986 Y152.944 E9.66472
G1 X150.118 Y153.418 E9.68518
G1 X150.383 Y153.932 E9.70922
G1 X150.849 Y154.448 E9.73813
G1 X151.204 Y154.700 E9.75623
G1 X151.630 Y154.898 E9.77576
G1 X151.965 Y154.995 E9.79026
G1 X152.444 Y155.053 E9.81032
G1 X152.999 Y155.004 E9.83348
G1 X153.471 Y154.861 E9.85399
G1 X153.914 Y154.628 E9.87480
G1 X154.370 Y154.235 E9.89982
G1 X154.513 Y154.067 E9.90900
G1 X154.760 Y153.686 E9.92787
G1 X154.902 Y153.361 E9.94262
G1 X155.029 Y152.841 E9.96487
G1 X155.052 Y152.476 E9.98008
G1 X154.977 Y151.881 E10.00501
G1 X154.863 Y151.537 E10.02008
G1 X154.641 Y151.108 E10.04016
G1 X154.294 Y150.685 E10.06291
G1 X154.025 Y150.455 E10.07762
G1 X153.621 Y150.206 E10.09735
G1 X153.164 Y150.034 E10.11765
G1 X152.708 Y149.958 E10.13687
G1 X152.499 Y149.949 E10.14557
G1 X152.023 Y149.990 E10.16543
G1 X151.433 Y150.181 E10.19122
G1 X151.048 Y150.400 E10.20963
G1 X150.584 Y150.812 E10.23543
G1 X150.286 Y151.227 E10.25667
G0 F9000 X150.725 Y151.473
;TYPE:WALL-OUTER
G1 F1800 X150.525 Y151.947 E10.27806
G1 X150.457 Y152.327 E10.29411
G1 X150.449 Y152.474 E10.30023
G1 X150.481 Y152.856 E10.31617
G1 X150.586 Y153.235 E10.33252
G1 X150.798 Y153.645 E10.35171
G1 X151.184 Y154.072 E10.37564
G1 X151.457 Y154.266 E10.38956
G1 X151.806 Y154.429 E10.40558
G1 X152.065 Y154.504 E10.41679
G1 X152.452 Y154.550 E10.43299
G1 X152.904 Y154.511 E10.45185
G1 X153.280 Y154.396 E10.46820
G1 X153.631 Y154.212 E10.48468
G1 X154.014 Y153.882 E10.50569
G1 X154.111 Y153.768 E10.51192
G1 X154.318 Y153.448 E10.52776
G1 X154.427 Y153.200 E10.53902
G1 X154.533 Y152.766 E10.55760
G1 X154.550 Y152.492 E10.56901
G1 X154.487 Y151.992 E10.58996
G1 X154.401 Y151.732 E10.60135
G1 X154.221 Y151.385 E10.61760
G1 X153.935 Y151.036 E10.63636
G1 X153.730 Y150.860 E10.64759
G1 X153.400 Y150.657 E10.66370
G1 X153.033 Y150.519 E10.68000
G1 X152.655 Y150.456 E10.69594
G1 X152.510 Y150.450 E10.70197
G1 X152.123 Y150.483 E10.71812
G1 X151.636 Y150.641 E10.73940
G1 X151.341 Y150.809 E10.75352
G1 X150.957 Y151.149 E10.77484
G1 X150.725 Y151.473 E10.79141
G1 F2400 E10.19141
G1 Z0.700
G0 F9000 X147.051 Y149.354
G1 Z0.200
G1 F2400 E10.79141
G1 F1800 X152.499 Y146.208 E11.05296
G1 X157.950 Y149.354 E11.31462
G1 X157.949 Y155.646 E11.57621
G1 X152.501 Y158.792 E11.83777
G1 X147.050 Y155.646 E12.09943
G1 X147.051 Y149.354 E12.36102
G0 F9000 X147.885 Y149.652
;TYPE:SKIN
G1 F1800 X149.907 Y151.675 E12.47994
G0 F9000 X150.116 Y151.177
G1 F1800 X148.332 Y149.393 E12.58483
G0 F9000 X148.780 Y149.134
G1 F1800 X150.406 Y150.760 E12.68043
G0 F9000 X150.767 Y150.413
G1 F1800 X149.229 Y148.875 E12.77086
G0 F9000 X149.677 Y148.616
G1 F1800 X151.182 Y150.121 E12.85935
G0 F9000 X151.682 Y149.914
G1 F1800 X150.125 Y148.358 E12.95086
G0 F9000 X150.574 Y148.099
G1 F1800 X152.267 Y149.792 E13.05041
G0 F9000 X153.012 Y149.830
G1 F1800 X151.022 Y147.840 E13.16741
G0 F9000 X151.470 Y147.580
G1 F1800 X157.273 Y153.384 E13.50863
G0 F9000 X157.273 Y152.677
G1 F1800 X151.918 Y147.322 E13.82349
G0 F9000 X152.366 Y147.063
G1 F1800 X157.273 Y151.970 E14.11200
G0 F9000 X157.273 Y151.263
G1 F1800 X153.679 Y147.669 E14.32331
G1 F2400 E13.72331
G1 Z0.700
G0 F9000 X155.353 Y148.635
G1 Z0.200
G1 F2400 E14.32331
G1 F1800 X157.273 Y150.556 E14.43623
G0 F9000 X157.273 Y149.849
G1 F1800 X157.026 Y149.601 E14.45078
G1 F2400 E13.85078
G1 Z0.700
G0 F9000 X155.166 Y151.984
G1 Z0.200
G1 F2400 E14.45078
G1 F1800 X157.273 Y154.092 E14.57470
G0 F9000 X157.273 Y154.799
G1 F1800 X155.209 Y152.735 E14.69605
G0 F9000 X155.090 Y153.322
G1 F1800 X157.114 Y155.347 E14.81508
G0 F9000 X156.666 Y155.605
G1 F1800 X154.880 Y153.819 E14.92009
G0 F9000 X154.594 Y154.240
G1 F1800 X156.218 Y155.864 E15.01558
G0 F9000 X155.770 Y156.124
G1 F1800 X154.232 Y154.585 E15.10604
G0 F9000 X153.816 Y154.876
G1 F1800 X155.322 Y156.383 E15.19461
G0 F9000 X154.874 Y156.641
G1 F1800 X153.321 Y155.089 E15.28590
G0 F9000 X152.728 Y155.203
G1 F1800 X154.425 Y156.900 E15.38567
G0 F9000 X153.977 Y157.159
G1 F1800 X151.993 Y155.175 E15.50232
G1 F2400 E14.90232
G1 Z0.700
G0 F9000 X151.319 Y157.329
G1 Z0.200
G1 F2400 E15.50232
G1 F1800 X147.725 Y153.735 E15.71364
G0 F9000 X147.725 Y154.442
G1 F1800 X149.645 Y156.363 E15.82656
G1 F2400 E15.22656
G1 Z0.700
G0 F9000 X147.972 Y155.397
G1 Z0.200
G1 F2400 E15.82656
G1 F1800 X147.725 Y155.149 E15.84111
G0 F9000 X147.725 Y153.028
G1 F1800 X152.632 Y157.935 E16.12962
G0 F9000 X153.080 Y157.677
G1 F1800 X147.725 Y152.322 E16.44447
G0 F9000 X147.725 Y151.615
G1 F1800 X153.529 Y157.418 E16.78570
G1 F2400 E16.18570
G1 Z0.700
G0 F9000 X149.821 Y153.003
G1 Z0.200
G1 F2400 E16.78570
G1 F1800 X147.725 Y150.907 E16.90893
G0 F9000 X147.725 Y150.200
G1 F1800 X149.784 Y152.259 E17.03000
;LAYER:1
M106 S10
G0 F9000 X150.101 Y151.999 Z0.400
;TYPE:WALL-INNER
G1 F1680 X150.047 Y152.523 E17.05190
G1 X150.097 Y153.000 E17.07184
G1 X150.293 Y153.569 E17.09686
G1 X150.465 Y153.867 E17.11116
G1 X150.669 Y154.130 E17.12500
G1 X150.999 Y154.439 E17.14380
G1 X151.293 Y154.637 E17.15853
G1 X151.837 Y154.860 E17.18298
G1 X152.193 Y154.931 E17.19807
G1 X152.529 Y154.953 E17.21207
G1 X153.129 Y154.873 E17.23723
G1 X153.590 Y154.697 E17.25775
G1 X153.997 Y154.443 E17.27769
G1 X154.347 Y154.113 E17.29769
G1 X154.635 Y153.712 E17.31822
G1 X154.860 Y153.163 E17.34289
G1 X154.931 Y152.807 E17.35798
G1 X154.953 Y152.471 E17.37198
G1 X154.873 Y151.871 E17.39714
G1 X154.697 Y151.410 E17.41766
G1 X154.443 Y151.003 E17.43760
G1 X154.113 Y150.653 E17.45760
G1 X153.712 Y150.365 E17.47813
G1 X153.163 Y150.140 E17.50280
G1 X152.807 Y150.069 E17.51789
G1 X152.471 Y150.047 E17.53189
G1 X151.871 Y150.127 E17.55705
G1 X151.438 Y150.292 E17.57632
G1 X151.256 Y150.388 E17.58487
G1 X150.909 Y150.635 E17.60258
G1 X150.763 Y150.771 E17.61088
G1 X150.444 Y151.166 E17.63199
G1 X150.232 Y151.568 E17.65088
G1 X150.101 Y151.999 E17.66961
G1 F2400 E17.06961
G1 Z0.900
G0 F9000 X147.450 Y149.584
G1 Z0.400
G1 F2400 E17.66961
G1 F1680 X152.500 Y146.668 E17.91205
G1 X157.550 Y149.585 E18.15452
G1 X157.550 Y155.416 E18.39694
G1 X152.500 Y158.332 E18.63938
G1 X147.450 Y155.415 E18.88185
G1 X147.450 Y149.584 E19.12427
G0 F9000 X146.950 Y149.296
;TYPE:WALL-OUTER
G1 F1680 X152.500 Y146.091 E19.39072
G1 X158.050 Y149.296 E19.65718
G1 X158.050 Y155.704 E19.92359
G1 X152.500 Y158.909 E20.19004
G1 X146.950 Y155.704 E20.45650
G1 X146.950 Y149.296 E20.72291
G1 F2400 E20.12291
G1 Z0.900
G0 F9000 X150.870 Y151.430
G1 Z0.400
G1 F2400 E20.72291
G1 F1680 X150.697 Y151.759 E20.73836
G1 X150.589 Y152.114 E20.75379
G1 X150.549 Y152.514 E20.77050
G1 X150.588 Y152.891 E20.78626
G1 X150.750 Y153.360 E20.80689
G1 X150.881 Y153.587 E20.81779
G1 X151.040 Y153.792 E20.82857
G1 X151.312 Y154.046 E20.84405
G1 X151.530 Y154.194 E20.85500
G1 X151.989 Y154.382 E20.87562
G1 X152.250 Y154.434 E20.88669
G1 X152.512 Y154.451 E20.89760
G1 X153.005 Y154.385 E20.91828
G1 X153.367 Y154.247 E20.93439
G1 X153.690 Y154.045 E20.95023
G1 X153.969 Y153.782 E20.96617
G1 X154.194 Y153.468 E20.98223
G1 X154.382 Y153.011 E21.00277
G1 X154.434 Y152.750 E21.01384
G1 X154.451 Y152.488 E21.02475
G1 X154.385 Y151.995 E21.04543
G1 X154.247 Y151.633 E21.06154
G1 X154.045 Y151.310 E21.07738
G1 X153.782 Y151.031 E21.09332
G1 X153.468 Y150.806 E21.10938
G1 X153.011 Y150.618 E21.12992
G1 X152.750 Y150.566 E21.14099
G1 X152.488 Y150.549 E21.15190
G1 X151.995 Y150.615 E21.17258
G1 X151.644 Y150.749 E21.18820
G1 X151.519 Y150.815 E21.19408
G1 X151.226 Y151.024 E21.20904
G1 X151.122 Y151.120 E21.21493
G1 X150.870 Y151.430 E21.23154
G0 F9000 X150.065 Y151.516
;TYPE:SKIN
G1 F1680 X147.625 Y153.955 E21.37497
G0 F9000 X147.625 Y154.662
G1 F1680 X149.883 Y152.404 E21.50773
G0 F9000 X149.932 Y153.062
G1 F1680 X147.660 Y155.334 E21.64132
G0 F9000 X148.109 Y155.593
G1 F1680 X150.113 Y153.588 E21.75917
G0 F9000 X150.374 Y154.035
G1 F1680 X148.557 Y155.851 E21.86598
G0 F9000 X149.005 Y156.111
G1 F1680 X150.709 Y154.406 E21.96619
G0 F9000 X151.103 Y154.719
G1 F1680 X149.453 Y156.370 E22.06324
G0 F9000 X149.901 Y156.629
G1 F1680 X151.586 Y154.944 E22.16231
G0 F9000 X152.141 Y155.096
G1 F1680 X150.349 Y156.887 E22.26764
G0 F9000 X150.797 Y157.147
G1 F1680 X152.860 Y155.084 E22.38894
G0 F9000 X154.016 Y154.635
G1 F1680 X151.245 Y157.406 E22.55186
G0 F9000 X151.694 Y157.665
G1 F1680 X157.373 Y151.985 E22.88580
G0 F9000 X157.373 Y152.692
G1 F1680 X152.142 Y157.923 E23.19336
G0 F9000 X152.838 Y157.935
G1 F1680 X157.373 Y153.399 E23.46003
G0 F9000 X157.373 Y154.106
G1 F1680 X154.512 Y156.968 E23.62827
G1 F2400 E23.02827
G1 Z0.900
G0 F9000 X156.185 Y156.001
G1 Z0.400
G1 F2400 E23.62827
G1 F1680 X157.373 Y154.813 E23.69812
G1 F2400 E23.09812
G1 Z0.900
G0 F9000 X154.618 Y154.034
G1 Z0.400
G1 F2400 E23.69812
G1 F1680 X157.373 Y151.278 E23.86014
G0 F9000 X157.373 Y150.571
G1 F1680 X155.101 Y152.843 E23.99372
G0 F9000 X155.086 Y152.150
G1 F1680 X157.373 Y149.864 E24.12816
G0 F9000 X157.038 Y149.492
G1 F1680 X154.949 Y151.581 E24.25098
G0 F9000 X154.714 Y151.108
G1 F1680 X156.590 Y149.232 E24.36129
G0 F9000 X156.142 Y148.973
G1 F1680 X154.406 Y150.709 E24.46336
G0 F9000 X154.029 Y150.379
G1 F1680 X155.694 Y148.715 E24.56122
G0 F9000 X155.246 Y148.456
G1 F1680 X153.580 Y150.122 E24.65918
G0 F9000 X153.053 Y149.941
G1 F1680 X154.798 Y148.196 E24.76178
G0 F9000 X154.350 Y147.938
G1 F1680 X152.409 Y149.878 E24.87587
G0 F9000 X151.499 Y150.081
G1 F1680 X153.901 Y147.679 E25.01710
G0 F9000 X153.453 Y147.420
G1 F1680 X147.625 Y153.248 E25.35976
G0 F9000 X147.625 Y152.541
G1 F1680 X153.005 Y147.160 E25.67611
G0 F9000 X152.557 Y146.902
G1 F1680 X147.625 Y151.834 E25.96610
G0 F9000 X147.625 Y151.127
G1 F1680 X151.042 Y147.709 E26.16703
G1 F2400 E25.56703
G1 Z0.900
G0 F9000 X149.369 Y148.676
G1 Z0.400
G1 F2400 E26.16703
G1 F1680 X147.625 Y150.419 E26.26954
;LAYER:2
M106 S20
G0 F9000 X147.450 Y149.585 Z0.600
;TYPE:WALL-INNER
G1 F1680 X152.500 Y146.670 E26.51197
G1 X157.550 Y149.585 E26.75439
G1 X157.550 Y155.415 E26.99677
G1 X152.500 Y158.330 E27.23919
G1 X147.450 Y155.415 E27.48161
G1 X147.450 Y149.585 E27.72400
G1 F2400 E27.12400
G1 Z1.100
G0 F9000 X150.355 Y151.309
G1 Z0.600
G1 F2400 E27.72400
G1 F1680 X150.132 Y151.863 E27.74883
G1 X150.069 Y152.180 E27.76226
G1 X150.047 Y152.560 E27.77809
G1 X150.128 Y153.124 E27.80178
G1 X150.244 Y153.463 E27.81667
G1 X150.477 Y153.888 E27.83682
G1 X150.887 Y154.350 E27.86251
G1 X151.261 Y154.614 E27.88154
G1 X151.441 Y154.710 E27.89002
G1 X151.881 Y154.874 E27.90954
G1 X152.317 Y154.944 E27.92790
G1 X152.554 Y154.952 E27.93776
G1 X153.128 Y154.871 E27.96186
G1 X153.438 Y154.764 E27.97549
G1 X153.728 Y154.622 E27.98892
G1 X154.006 Y154.433 E28.00290
G1 X154.254 Y154.213 E28.01668
G1 X154.533 Y153.871 E28.03503
G1 X154.705 Y153.571 E28.04941
G1 X154.874 Y153.119 E28.06947
G1 X154.944 Y152.683 E28.08783
G1 X154.952 Y152.446 E28.09769
G1 X154.871 Y151.872 E28.12179
G1 X154.764 Y151.562 E28.13542
G1 X154.622 Y151.272 E28.14885
G1 X154.433 Y150.994 E28.16282
G1 X154.213 Y150.746 E28.17660
G1 X153.871 Y150.467 E28.19495
G1 X153.571 Y150.295 E28.20933
G1 X153.119 Y150.126 E28.22939
G1 X152.683 Y150.056 E28.24775
G1 X152.446 Y150.048 E28.25761
G1 X151.872 Y150.129 E28.28171
G1 X151.571 Y150.233 E28.29495
G1 X151.387 Y150.317 E28.30336
G1 X150.990 Y150.565 E28.32282
G1 X150.568 Y150.989 E28.34769
G1 X150.355 Y151.309 E28.36368
G0 F9000 X150.800 Y151.544
;TYPE:WALL-OUTER
G1 F1680 X150.613 Y152.006 E28.38440
G1 X150.566 Y152.243 E28.39444
G1 X150.549 Y152.539 E28.40677
G1 X150.616 Y153.006 E28.42638
G1 X150.703 Y153.260 E28.43755
G1 X150.888 Y153.599 E28.45360
G1 X151.222 Y153.975 E28.47451
G1 X151.646 Y154.253 E28.49559
G1 X152.010 Y154.388 E28.51173
G1 X152.365 Y154.445 E28.52668
G1 X152.527 Y154.451 E28.53342
G1 X153.011 Y154.382 E28.55374
G1 X153.246 Y154.301 E28.56408
G1 X153.476 Y154.189 E28.57471
G1 X153.698 Y154.038 E28.58588
G1 X153.892 Y153.866 E28.59666
G1 X154.120 Y153.586 E28.61167
G1 X154.251 Y153.358 E28.62260
G1 X154.388 Y152.990 E28.63893
G1 X154.445 Y152.635 E28.65387
G1 X154.451 Y152.473 E28.66061
G1 X154.382 Y151.989 E28.68094
G1 X154.301 Y151.754 E28.69127
G1 X154.189 Y151.524 E28.70191
G1 X154.038 Y151.302 E28.71307
G1 X153.866 Y151.108 E28.72385
G1 X153.586 Y150.880 E28.73886
G1 X153.358 Y150.749 E28.74980
G1 X152.990 Y150.612 E28.76612
G1 X152.635 Y150.555 E28.78107
G1 X152.473 Y150.549 E28.78781
G1 X151.989 Y150.618 E28.80814
G1 X151.624 Y150.758 E28.82439
G1 X151.304 Y150.958 E28.84008
G1 X150.957 Y151.307 E28.86054
G1 X150.800 Y151.544 E28.87236
G1 F2400 E28.27236
G1 Z1.100
G0 F9000 X146.950 Y149.297
G1 Z0.600
G1 F2400 E28.87236
G1 F1680 X152.500 Y146.092 E29.13881
G1 X158.050 Y149.297 E29.40526
G1 X158.050 Y155.703 E29.67159
G1 X152.500 Y158.908 E29.93805
G1 X146.950 Y155.703 E30.20450
G1 X146.950 Y149.297 E30.47083
G0 F9000 X147.811 Y149.579
;TYPE:SKIN
G1 F1680 X149.987 Y151.755 E30.59877
G0 F9000 X150.190 Y151.250
G1 F1680 X148.259 Y149.320 E30.71228
G0 F9000 X148.708 Y149.061
G1 F1680 X150.477 Y150.830 E30.81629
G0 F9000 X150.830 Y150.477
G1 F1680 X149.156 Y148.802 E30.91474
G0 F9000 X149.604 Y148.544
G1 F1680 X151.253 Y150.193 E31.01170
G0 F9000 X151.752 Y149.985
G1 F1680 X150.053 Y148.285 E31.11162
G0 F9000 X150.501 Y148.026
G1 F1680 X152.357 Y149.882 E31.22075
G0 F9000 X153.131 Y149.949
G1 F1680 X150.948 Y147.766 E31.34910
G0 F9000 X151.397 Y147.508
G1 F1680 X157.374 Y153.485 E31.70052
G0 F9000 X157.374 Y154.192
G1 F1680 X155.045 Y151.863 E31.83746
G0 F9000 X155.118 Y152.643
G1 F1680 X157.374 Y154.899 E31.97010
G0 F9000 X157.187 Y155.419
G1 F1680 X155.012 Y153.244 E32.09798
G0 F9000 X154.805 Y153.744
G1 F1680 X156.739 Y155.678 E32.21170
G0 F9000 X156.291 Y155.937
G1 F1680 X154.518 Y154.164 E32.31594
G0 F9000 X154.169 Y154.522
G1 F1680 X155.842 Y156.196 E32.41434
G0 F9000 X155.394 Y156.455
G1 F1680 X153.747 Y154.808 E32.51117
G0 F9000 X153.246 Y155.014
G1 F1680 X154.946 Y156.713 E32.61110
G0 F9000 X154.497 Y156.972
G1 F1680 X152.642 Y155.117 E32.72017
G0 F9000 X151.867 Y155.049
G1 F1680 X154.050 Y157.232 E32.84852
G0 F9000 X153.601 Y157.491
G1 F1680 X147.624 Y151.513 E33.19997
G0 F9000 X147.624 Y152.220
G1 F1680 X153.153 Y157.749 E33.52506
G0 F9000 X152.705 Y158.008
G1 F1680 X147.624 Y152.928 E33.82377
G0 F9000 X147.624 Y153.635
G1 F1680 X151.593 Y157.603 E34.05710
G1 F2400 E33.45710
G1 Z1.100
G0 F9000 X149.920 Y156.637
G1 Z0.600
G1 F2400 E34.05710
G1 F1680 X147.624 Y154.342 E34.19207
G0 F9000 X147.624 Y155.049
G1 F1680 X148.247 Y155.671 E34.22867
G1 F2400 E33.62867
G1 Z1.100
G0 F9000 X149.952 Y153.134
G1 Z0.600
G1 F2400 E34.22867
G1 F1680 X147.624 Y150.806 E34.36555
G0 F9000 X147.624 Y150.099
G1 F1680 X149.883 Y152.358 E34.49837
G1 F2400 E33.89837
G1 Z1.100
G0 F9000 X151.845 Y147.249
G1 Z0.600
G1 F2400 E34.49837
G1 F1680 X157.374 Y152.778 E34.82345
G0 F9000 X157.374 Y152.071
G1 F1680 X152.293 Y146.990 E35.12219
G0 F9000 X153.406 Y147.395
G1 F1680 X157.374 Y151.363 E35.35550
G0 F9000 X157.374 Y150.656
G1 F1680 X155.079 Y148.361 E35.49043
G1 F2400 E34.89043
G1 Z1.100
G0 F9000 X156.752 Y149.327
G1 Z0.600
G1 F2400 E35.49043
G1 F1680 X157.374 Y149.949 E35.52701
;LAYER:3
M106 S30
G0 F9000 X157.550 Y149.585 Z0.800
;TYPE:WALL-INNER
G1 F1680 X157.550 Y155.415 E35.76939
G1 X152.500 Y158.330 E36.01181
G1 X147.450 Y155.415 E36.25423
G1 X147.450 Y153.565 E36.33115
G1 X147.498 Y153.504 E36.33437
G1 X147.636 Y153.249 E36.34643
G1 X147.715 Y153.026 E36.35626
G1 X147.777 Y152.700 E36.37006
G1 X147.789 Y152.484 E36.37905
G1 X147.756 Y152.139 E36.39346
G1 X147.647 Y151.772 E36.40938
G1 X147.509 Y151.517 E36.42144
G1 X147.450 Y151.438 E36.42553
G1 X147.450 Y149.585 E36.50257
G1 X152.500 Y146.670 E36.74500
G1 X157.550 Y149.585 E36.98742
G1 F2400 E36.38742
G1 Z1.300
G0 F9000 X154.457 Y151.023
G1 Z0.800
G1 F2400 E36.98742
G1 F1680 X154.197 Y150.730 E37.00370
G1 X153.733 Y150.377 E37.02794
G1 X153.261 Y150.170 E37.04937
G1 X152.829 Y150.070 E37.06780
G1 X152.457 Y150.047 E37.08330
G1 X151.989 Y150.101 E37.10289
G1 X151.556 Y150.239 E37.12178
G1 X151.379 Y150.321 E37.12989
G1 X150.997 Y150.562 E37.14867
G1 X150.642 Y150.896 E37.16893
G1 X150.255 Y151.510 E37.19911
G1 X150.119 Y151.913 E37.21679
G1 X150.055 Y152.341 E37.23478
G1 X150.049 Y152.529 E37.24260
G1 X150.105 Y153.046 E37.26422
G1 X150.376 Y153.735 E37.29501
G1 X150.767 Y154.234 E37.32136
G1 X150.929 Y154.380 E37.33043
G1 X151.289 Y154.634 E37.34875
G1 X151.740 Y154.830 E37.36919
G1 X152.171 Y154.930 E37.38759
G1 X152.543 Y154.953 E37.40308
G1 X153.011 Y154.899 E37.42267
G1 X153.478 Y154.750 E37.44305
G1 X153.977 Y154.457 E37.46710
G1 X154.270 Y154.197 E37.48339
G1 X154.623 Y153.733 E37.50763
G1 X154.830 Y153.261 E37.52906
G1 X154.930 Y152.829 E37.54749
G1 X154.953 Y152.457 E37.56299
G1 X154.899 Y151.989 E37.58257
G1 X154.750 Y151.522 E37.60295
G1 X154.457 Y151.023 E37.62701
G0 F9000 X154.051 Y151.318
;TYPE:WALL-OUTER
G1 F1680 X153.856 Y151.099 E37.63920
G1 X153.478 Y150.811 E37.65896
G1 X153.103 Y150.647 E37.67598
G1 X152.757 Y150.567 E37.69074
G1 X152.470 Y150.549 E37.70270
G1 X152.094 Y150.592 E37.71843
G1 X151.738 Y150.706 E37.73397
G1 X151.619 Y150.761 E37.73942
G1 X151.304 Y150.959 E37.75489
G1 X151.031 Y151.217 E37.77051
G1 X150.710 Y151.726 E37.79553
G1 X150.607 Y152.031 E37.80891
G1 X150.554 Y152.386 E37.82383
G1 X150.550 Y152.510 E37.82899
G1 X150.595 Y152.925 E37.84635
G1 X150.815 Y153.484 E37.87132
G1 X151.134 Y153.891 E37.89282
G1 X151.242 Y153.989 E37.89888
G1 X151.536 Y154.196 E37.91383
G1 X151.897 Y154.353 E37.93020
G1 X152.243 Y154.433 E37.94496
G1 X152.530 Y154.451 E37.95692
G1 X152.906 Y154.408 E37.97265
G1 X153.273 Y154.291 E37.98867
G1 X153.682 Y154.051 E38.00838
G1 X153.901 Y153.856 E38.02058
G1 X154.189 Y153.478 E38.04033
G1 X154.353 Y153.103 E38.05735
G1 X154.433 Y152.757 E38.07211
G1 X154.451 Y152.470 E38.08407
G1 X154.408 Y152.094 E38.09980
G1 X154.291 Y151.727 E38.11582
G1 X154.051 Y151.318 E38.13553
G1 F2400 E37.53553
G1 Z1.300
G0 F9000 X158.050 Y149.297
G1 Z0.800
G1 F2400 E38.13553
G1 F1680 X158.050 Y155.703 E38.40186
G1 X152.500 Y158.908 E38.66832
G1 X146.950 Y155.703 E38.93477
G1 X146.950 Y153.381 E39.03131
G1 X147.079 Y153.228 E39.03963
G1 X147.178 Y153.045 E39.04828
G1 X147.231 Y152.895 E39.05489
G1 X147.280 Y152.639 E39.06573
G1 X147.288 Y152.495 E39.07172
G1 X147.263 Y152.235 E39.08258
G1 X147.182 Y151.962 E39.09442
G1 X147.134 Y151.872 E39.09866
G1 X147.088 Y151.790 E39.10257
G1 X146.981 Y151.647 E39.11000
G1 X146.950 Y151.620 E39.11171
G1 X146.950 Y149.297 E39.20829
G1 X152.500 Y146.092 E39.47474
G1 X158.050 Y149.297 E39.74119
G0 F9000 X157.374 Y149.863
;TYPE:SKIN
G1 F1680 X155.092 Y152.145 E39.87536
G0 F9000 X154.952 Y151.578
G1 F1680 X157.038 Y149.492 E39.99801
G0 F9000 X156.590 Y149.233
G1 F1680 X154.711 Y151.112 E40.10849
G0 F9000 X154.409 Y150.707
G1 F1680 X156.141 Y148.974 E40.21036
G0 F9000 X155.693 Y148.715
G1 F1680 X154.027 Y150.381 E40.30831
G0 F9000 X153.581 Y150.120
G1 F1680 X155.245 Y148.457 E40.40612
G0 F9000 X154.796 Y148.198
G1 F1680 X153.051 Y149.943 E40.50872
G0 F9000 X152.411 Y149.876
G1 F1680 X154.348 Y147.939 E40.62260
G0 F9000 X153.900 Y147.680
G1 F1680 X151.512 Y150.068 E40.76301
G1 F2400 E40.16301
G1 Z1.300
G0 F9000 X150.069 Y151.511
G1 Z0.800
G1 F2400 E40.76301
G1 F1680 X147.624 Y153.956 E40.90677
G0 F9000 X147.624 Y154.663
G1 F1680 X149.877 Y152.410 E41.03923
G0 F9000 X149.931 Y153.063
G1 F1680 X147.660 Y155.334 E41.17276
G0 F9000 X148.109 Y155.593
G1 F1680 X150.125 Y153.576 E41.29132
G0 F9000 X150.382 Y154.026
G1 F1680 X148.557 Y155.851 E41.39863
G0 F9000 X149.005 Y156.110
G1 F1680 X150.704 Y154.411 E41.49852
G0 F9000 X151.105 Y154.717
G1 F1680 X149.454 Y156.369 E41.59562
G0 F9000 X149.902 Y156.628
G1 F1680 X151.580 Y154.950 E41.69428
G0 F9000 X152.137 Y155.100
G1 F1680 X150.350 Y156.887 E41.79935
G0 F9000 X150.799 Y157.145
G1 F1680 X152.853 Y155.091 E41.92012
G0 F9000 X154.016 Y154.635
G1 F1680 X151.247 Y157.404 E42.08293
G0 F9000 X151.695 Y157.663
G1 F1680 X157.374 Y151.984 E42.41683
G0 F9000 X157.374 Y152.691
G1 F1680 X152.143 Y157.922 E42.72439
G0 F9000 X152.844 Y157.928
G1 F1680 X157.374 Y153.399 E42.99071
G0 F9000 X157.374 Y154.106
G1 F1680 X154.518 Y156.962 E43.15863
G1 F2400 E42.55863
G1 Z1.300
G0 F9000 X156.192 Y155.995
G1 Z0.800
G1 F2400 E43.15863
G1 F1680 X157.374 Y154.813 E43.22813
G1 F2400 E42.62813
G1 Z1.300
G0 F9000 X154.596 Y154.055
G1 Z0.800
G1 F2400 E43.22813
G1 F1680 X157.374 Y151.277 E43.39146
G0 F9000 X157.374 Y150.570
G1 F1680 X155.103 Y152.841 E43.52499
G1 F2400 E42.92499
G1 Z1.300
G0 F9000 X153.452 Y147.421
G1 Z0.800
G1 F2400 E43.52499
G1 F1680 X147.904 Y152.969 E43.85119
G0 F9000 X147.940 Y152.225
G1 F1680 X153.003 Y147.163 E44.14885
G0 F9000 X152.555 Y146.904
G1 F1680 X147.790 Y151.668 E44.42898
G0 F9000 X147.624 Y151.127
G1 F1680 X151.036 Y147.716 E44.62956
G1 F2400 E44.02956
G1 Z1.300
G0 F9000 X149.362 Y148.682
G1 Z0.800
G1 F2400 E44.62956
G1 F1680 X147.624 Y150.420 E44.73175
;LAYER:4
M106 S40
G0 F9000 X147.625 Y151.201 Z1.000
;TYPE:WALL-INNER
G1 F1080 X147.450 Y151.019 E44.74225
G1 X147.450 Y149.585 E44.80187
G1 X152.500 Y146.670 E45.04429
G1 X157.550 Y149.585 E45.28671
G1 X157.550 Y155.415 E45.52909
G1 X152.500 Y158.330 E45.77152
G1 X147.450 Y155.415 E46.01394
G1 X147.450 Y153.997 E46.07289
G1 X147.477 Y153.976 E46.07431
G1 X147.648 Y153.764 E46.08564
G1 X147.876 Y153.338 E46.10573
G1 X148.003 Y152.799 E46.12875
G1 X148.020 Y152.478 E46.14211
G1 X147.961 Y151.948 E46.16428
G1 X147.853 Y151.616 E46.17880
G1 X147.761 Y151.422 E46.18772
G1 X147.625 Y151.201 E46.19851
G1 F2400 E45.59851
G1 Z1.500
G0 F9000 X150.139 Y151.845
G1 Z1.000
G1 F2400 E46.19851
G1 F1080 X150.063 Y152.244 E46.21540
G1 X150.048 Y152.525 E46.22710
G1 X150.113 Y153.065 E46.24971
G1 X150.267 Y153.515 E46.26949
G1 X150.557 Y154.002 E46.29305
G1 X151.013 Y154.449 E46.31960
G1 X151.317 Y154.649 E46.33473
G1 X151.893 Y154.877 E46.36048
G1 X152.317 Y154.944 E46.37833
G1 X152.528 Y154.951 E46.38711
G1 X153.021 Y154.897 E46.40773
G1 X153.480 Y154.748 E46.42779
G1 X153.907 Y154.510 E46.44811
G1 X154.333 Y154.130 E46.47185
G1 X154.569 Y153.815 E46.48821
G1 X154.783 Y153.395 E46.50781
G1 X154.909 Y152.950 E46.52704
G1 X154.944 Y152.672 E46.53869
G1 X154.950 Y152.502 E46.54576
G1 X154.948 Y152.412 E46.54950
G1 X154.896 Y151.977 E46.56771
G1 X154.748 Y151.520 E46.58769
G1 X154.510 Y151.093 E46.60801
G1 X154.130 Y150.667 E46.63174
G1 X153.815 Y150.431 E46.64811
G1 X153.395 Y150.217 E46.66770
G1 X152.950 Y150.091 E46.68693
G1 X152.672 Y150.056 E46.69858
G1 X152.472 Y150.049 E46.70690
G1 X151.979 Y150.103 E46.72752
G1 X151.546 Y150.244 E46.74645
G1 X151.388 Y150.317 E46.75369
G1 X151.130 Y150.467 E46.76610
G1 X150.794 Y150.738 E46.78404
G1 X150.429 Y151.188 E46.80813
G1 X150.250 Y151.527 E46.82407
G1 X150.139 Y151.845 E46.83807
G0 F9000 X150.623 Y151.975
;TYPE:WALL-OUTER
G1 F1080 X150.560 Y152.305 E46.85204
G1 X150.549 Y152.508 E46.86049
G1 X150.603 Y152.953 E46.87913
G1 X150.723 Y153.304 E46.89455
G1 X150.954 Y153.691 E46.91329
G1 X151.328 Y154.058 E46.93508
G1 X151.548 Y154.203 E46.94603
G1 X152.026 Y154.392 E46.96740
G1 X152.365 Y154.445 E46.98167
G1 X152.509 Y154.450 E46.98766
G1 X152.915 Y154.406 E47.00463
G1 X153.279 Y154.287 E47.02056
G1 X153.616 Y154.100 E47.03658
G1 X153.963 Y153.790 E47.05592
G1 X154.143 Y153.550 E47.06840
G1 X154.315 Y153.212 E47.08416
G1 X154.418 Y152.849 E47.09985
G1 X154.450 Y152.501 E47.11438
G1 X154.449 Y152.449 E47.11654
G1 X154.405 Y152.084 E47.13183
G1 X154.287 Y151.721 E47.14770
G1 X154.100 Y151.384 E47.16372
G1 X153.790 Y151.037 E47.18307
G1 X153.550 Y150.857 E47.19554
G1 X153.212 Y150.685 E47.21131
G1 X152.849 Y150.582 E47.22699
G1 X152.631 Y150.555 E47.23613
G1 X152.491 Y150.550 E47.24195
G1 X152.085 Y150.594 E47.25893
G1 X151.729 Y150.710 E47.27450
G1 X151.619 Y150.761 E47.27954
G1 X151.414 Y150.880 E47.28939
G1 X151.149 Y151.094 E47.30355
G1 X150.848 Y151.465 E47.32341
G1 X150.709 Y151.728 E47.33578
G1 X150.623 Y151.975 E47.34666
G1 F2400 E46.74666
G1 Z1.500
G0 F9000 X147.470 Y152.054
G1 Z1.000
G1 F2400 E47.34666
G1 F1080 X147.388 Y151.801 E47.35771
G1 X147.321 Y151.661 E47.36417
G1 X147.227 Y151.508 E47.37163
G1 X146.993 Y151.265 E47.38566
G1 X146.950 Y151.237 E47.38779
G1 X146.950 Y149.297 E47.46845
G1 X152.500 Y146.092 E47.73490
G1 X158.050 Y149.297 E48.00135
G1 X158.050 Y155.703 E48.26768
G1 X152.500 Y158.908 E48.53413
G1 X146.950 Y155.703 E48.80059
G1 X146.950 Y153.751 E48.88174
G1 X147.125 Y153.616 E48.89093
G1 X147.229 Y153.487 E48.89782
G1 X147.405 Y153.159 E48.91330
G1 X147.506 Y152.728 E48.93170
G1 X147.519 Y152.493 E48.94149
G1 X147.470 Y152.054 E48.95985
G1 F2400 E48.35985
G1 Z1.500
G0 F9000 X149.464 Y151.055
;TYPE:FILL
G1 Z1.000
G1 F2400 E48.95985
G1 F1080 X153.227 Y147.292 E49.18110
G1 F2400 E48.58110
G1 Z1.500
G0 F9000 X151.173 Y147.637
G1 Z1.000
G1 F2400 E49.18110
G1 F1080 X153.722 Y150.187 E49.33100
G1 F2400 E48.73100
G1 Z1.500
G0 F9000 X154.810 Y151.274
G1 Z1.000
G1 F2400 E49.33100
G1 F1080 X157.374 Y153.838 E49.48175
G1 F2400 E48.88175
G1 Z1.500
G0 F9000 X155.124 Y152.467
G1 Z1.000
G1 F2400 E49.48175
G1 F1080 X157.374 Y150.217 E49.61405
G1 F2400 E49.01405
G1 Z1.500
G0 F9000 X152.468 Y155.122
G1 Z1.000
G1 F2400 E49.61405
G1 F1080 X150.574 Y157.016 E49.72541
G1 F2400 E49.12541
G1 Z1.500
G0 F9000 X151.289 Y154.825
G1 Z1.000
G1 F2400 E49.72541
G1 F1080 X153.826 Y157.361 E49.87454
G1 F2400 E49.27454
G1 Z1.500
G0 F9000 X150.703 Y154.592
;TYPE:SKIN
G1 Z1.000
G1 F2400 E49.87454
G1 F1080 X148.145 Y152.035 E50.02491
G0 F9000 X148.178 Y152.774
G1 F1080 X149.996 Y154.592 E50.13180
G0 F9000 X149.289 Y154.592
G1 F1080 X148.051 Y153.354 E50.20459
G0 F9000 X147.813 Y153.824
G1 F1080 X148.582 Y154.592 E50.24978
G0 F9000 X147.875 Y154.592
G1 F1080 X147.624 Y154.342 E50.26451
G1 F2400 E49.66451
G1 Z1.500
G0 F9000 X149.951 Y153.133
G1 Z1.000
G1 F2400 E50.26451
G1 F1080 X147.624 Y150.806 E50.40133
G0 F9000 X147.930 Y150.405
G1 F1080 X149.881 Y152.356 E50.51604
G0 F9000 X149.985 Y151.753
G1 F1080 X148.638 Y150.405 E50.59527
G0 F9000 X149.345 Y150.405
G1 F1080 X150.195 Y151.255 E50.64524
G0 F9000 X150.485 Y150.839
G1 F1080 X150.052 Y150.405 E50.67073
;LAYER:5
M106 S51
G0 F9000 X150.673 Y150.866 Z1.200
;TYPE:WALL-INNER
G1 F1020 X150.465 Y151.138 E50.68497
G1 X150.417 Y151.213 E50.68867
G1 X149.526 Y151.214 E50.72571
G1 X148.982 Y151.213 E50.74833
G1 X147.849 Y151.214 E50.79543
G1 X147.576 Y150.849 E50.81438
G1 X147.450 Y150.732 E50.82153
G1 X147.450 Y149.585 E50.86922
G1 X152.500 Y146.670 E51.11164
G1 X157.550 Y149.585 E51.35406
G1 X157.550 Y155.415 E51.59645
G1 X152.500 Y158.330 E51.83887
G1 X147.450 Y155.415 E52.08129
G1 X147.450 Y154.275 E52.12869
G1 X147.649 Y154.075 E52.14042
G1 X147.843 Y153.787 E52.15485
G1 X149.525 Y153.786 E52.22478
G1 X150.420 Y153.787 E52.26199
G1 X150.563 Y154.005 E52.27283
G1 X150.924 Y154.380 E52.29447
G1 X151.277 Y154.623 E52.31229
G1 X151.563 Y154.763 E52.32553
G1 X151.866 Y154.867 E52.33885
G1 X152.024 Y154.903 E52.34558
G1 X152.338 Y154.945 E52.35875
G1 X152.500 Y154.950 E52.36549
G1 X152.819 Y154.929 E52.37878
G1 X152.976 Y154.903 E52.38540
G1 X153.134 Y154.867 E52.39214
G1 X153.581 Y154.698 E52.41201
G1 X153.991 Y154.443 E52.43208
G1 X154.233 Y154.233 E52.44540
G1 X154.535 Y153.863 E52.46526
G1 X154.763 Y153.437 E52.48534
G1 X154.867 Y153.134 E52.49866
G1 X154.903 Y152.976 E52.50540
G1 X154.945 Y152.662 E52.51857
G1 X154.951 Y152.483 E52.52602
G1 X154.924 Y152.144 E52.54016
G1 X154.897 Y151.990 E52.54666
G1 X154.744 Y151.511 E52.56756
G1 X154.515 Y151.106 E52.58691
G1 X154.331 Y150.869 E52.59938
G1 X153.948 Y150.521 E52.62089
G1 X153.536 Y150.278 E52.64078
G1 X153.131 Y150.129 E52.65872
G1 X152.686 Y150.056 E52.67747
G1 X152.483 Y150.049 E52.68591
G1 X152.144 Y150.076 E52.70005
G1 X151.990 Y150.103 E52.70655
G1 X151.542 Y150.246 E52.72611
G1 X151.380 Y150.320 E52.73351
G1 X151.019 Y150.549 E52.75128
G1 X150.673 Y150.866 E52.77079
G0 F9000 X151.043 Y151.205
;TYPE:WALL-OUTER
G1 F1020 X150.819 Y151.512 E52.78659
G1 X150.728 Y151.712 E52.79573
G1 X147.530 Y151.714 E52.92869
G1 X147.462 Y151.546 E52.93622
G1 X147.416 Y151.464 E52.94013
G1 X147.280 Y151.268 E52.95005
G1 X147.022 Y151.027 E52.96473
G1 X146.950 Y150.983 E52.96823
G1 X146.950 Y149.297 E53.03833
G1 X152.500 Y146.092 E53.30478
G1 X158.050 Y149.297 E53.57124
G1 X158.050 Y155.703 E53.83757
G1 X152.500 Y158.908 E54.10402
G1 X146.950 Y155.703 E54.37047
G1 X146.950 Y154.008 E54.44094
G1 X147.105 Y153.912 E54.44852
G1 X147.260 Y153.756 E54.45766
G1 X147.459 Y153.461 E54.47246
G1 X147.524 Y153.287 E54.48018
G1 X150.724 Y153.288 E54.61322
G1 X150.787 Y153.434 E54.61983
G1 X150.956 Y153.692 E54.63266
G1 X151.249 Y153.997 E54.65024
G1 X151.644 Y154.251 E54.66976
G1 X151.996 Y154.384 E54.68541
G1 X152.372 Y154.446 E54.70125
G1 X152.500 Y154.450 E54.70658
G1 X152.879 Y154.412 E54.72241
G1 X153.127 Y154.346 E54.73308
G1 X153.475 Y154.189 E54.74895
G1 X153.584 Y154.120 E54.75432
G1 X153.879 Y153.879 E54.77015
G1 X154.046 Y153.686 E54.78076
G1 X154.120 Y153.584 E54.78600
G1 X154.249 Y153.361 E54.79671
G1 X154.384 Y153.004 E54.81258
G1 X154.446 Y152.628 E54.82843
G1 X154.450 Y152.494 E54.83400
G1 X154.410 Y152.109 E54.85009
G1 X154.283 Y151.712 E54.86742
G1 X154.098 Y151.384 E54.88308
G1 X153.962 Y151.210 E54.89226
G1 X153.650 Y150.926 E54.90980
G1 X153.321 Y150.732 E54.92568
G1 X153.003 Y150.615 E54.93977
G1 X152.636 Y150.555 E54.95523
G1 X152.494 Y150.550 E54.96113
G1 X152.109 Y150.590 E54.97723
G1 X151.613 Y150.763 E54.99907
G1 X151.398 Y150.892 E55.00949
G1 X151.335 Y150.938 E55.01273
G1 X151.043 Y151.205 E55.02918
G1 F2400 E54.42918
G1 Z1.700
G0 F9000 X149.482 Y151.038
;TYPE:FILL
G1 Z1.200
G1 F2400 E55.02918
G1 F1020 X153.227 Y147.292 E55.24940
G1 F2400 E54.64940
G1 Z1.700
G0 F9000 X151.173 Y147.637
G1 Z1.200
G1 F2400 E55.24940
G1 F1020 X153.718 Y150.183 E55.39907
G1 F2400 E54.79907
G1 Z1.700
G0 F9000 X154.811 Y151.276
G1 Z1.200
G1 F2400 E55.39907
G1 F1020 X157.374 Y153.838 E55.54974
G1 F2400 E54.94974
G1 Z1.700
G0 F9000 X155.124 Y152.467
G1 Z1.200
G1 F2400 E55.54974
G1 F1020 X157.374 Y150.217 E55.68203
G1 F2400 E55.08203
G1 Z1.700
G0 F9000 X152.468 Y155.122
G1 Z1.200
G1 F2400 E55.68203
G1 F1020 X150.574 Y157.016 E55.79339
G1 F2400 E55.19339
G1 Z1.700
G0 F9000 X151.286 Y154.822
G1 Z1.200
G1 F2400 E55.79339
G1 F1020 X153.826 Y157.361 E55.94270
G1 F2400 E55.34270
G1 Z1.700
G0 F9000 X150.707 Y154.408
;TYPE:SKIN
G1 Z1.200
G1 F2400 E55.94270
G1 F1020 X150.395 Y154.366 E55.95977
G1 X149.710 Y154.698 E55.99141
G0 F9000 X149.003 Y154.698
G1 F1020 X149.741 Y153.961 E56.03478
G0 F9000 X149.034 Y153.961
G1 F1020 X148.296 Y154.698 E56.07814
G0 F9000 X147.624 Y154.663
G1 F1020 X148.326 Y153.961 E56.11941
G1 F2400 E55.51941
G1 Z1.700
G0 F9000 X148.421 Y151.038
G1 Z1.200
G1 F2400 E56.11941
G1 F1020 X149.159 Y150.299 E56.16284
G0 F9000 X148.453 Y150.299
G1 F1020 X147.732 Y150.665 E56.19874
G1 X147.746 Y150.299 E56.21397
G1 F2400 E55.61397
G1 Z1.700
G0 F9000 X149.128 Y151.038
G1 Z1.200
G1 F2400 E56.21397
G1 F1020 X149.866 Y150.300 E56.25736
G0 F9000 X150.573 Y150.300
G1 F1020 X149.836 Y151.037 E56.30069
;LAYER:6
M106 S63
G0 F9000 X150.788 Y150.740 Z1.400
;TYPE:WALL-INNER
G1 F960 X150.699 Y150.851 E56.30660
G1 X149.527 Y150.850 E56.35533
G1 X147.761 Y150.851 E56.42875
G1 X147.541 Y150.598 E56.44269
G1 X147.450 Y150.529 E56.44744
G1 X147.450 Y149.585 E56.48669
G1 X152.500 Y146.670 E56.72911
G1 X157.550 Y149.585 E56.97153
G1 X157.550 Y155.415 E57.21391
G1 X152.500 Y158.330 E57.45634
G1 X147.450 Y155.415 E57.69876
G1 X147.450 Y154.471 E57.73800
G1 X147.541 Y154.406 E57.74265
G1 X147.753 Y154.150 E57.75647
G1 X149.525 Y154.149 E57.83014
G1 X150.203 Y154.150 E57.85833
G1 X150.704 Y154.149 E57.87916
G1 X150.966 Y154.414 E57.89465
G1 X151.294 Y154.633 E57.91105
G1 X151.407 Y154.691 E57.91633
G1 X151.719 Y154.824 E57.93043
G1 X152.167 Y154.929 E57.94956
G1 X152.512 Y154.953 E57.96394
G1 X152.973 Y154.907 E57.98320
G1 X153.363 Y154.795 E58.00007
G1 X153.794 Y154.584 E58.02002
G1 X154.235 Y154.237 E58.04335
G1 X154.578 Y153.804 E58.06632
G1 X154.794 Y153.365 E58.08666
G1 X154.929 Y152.841 E58.10916
G1 X154.951 Y152.518 E58.12262
G1 X154.948 Y152.388 E58.12802
G1 X154.870 Y151.854 E58.15046
G1 X154.594 Y151.220 E58.17921
G1 X154.237 Y150.765 E58.20325
G1 X153.804 Y150.422 E58.22622
G1 X153.365 Y150.206 E58.24656
G1 X152.841 Y150.071 E58.26906
G1 X152.488 Y150.047 E58.28377
G1 X152.027 Y150.093 E58.30303
G1 X151.653 Y150.201 E58.31921
G1 X151.352 Y150.332 E58.33286
G1 X150.788 Y150.740 E58.36180
G0 F9000 X151.136 Y151.105
;TYPE:WALL-OUTER
G1 F960 X150.939 Y151.351 E58.37490
G1 X147.499 Y151.351 E58.51792
G1 X147.440 Y151.244 E58.52300
G1 X147.198 Y150.965 E58.53836
G1 X147.043 Y150.848 E58.54643
G1 X146.950 Y150.801 E58.55076
G1 X146.950 Y149.297 E58.61329
G1 X152.500 Y146.092 E58.87974
G1 X158.050 Y149.297 E59.14620
G1 X158.050 Y155.703 E59.41253
G1 X152.500 Y158.908 E59.67898
G1 X146.950 Y155.703 E59.94543
G1 X146.950 Y154.202 E60.00784
G1 X146.998 Y154.179 E60.01005
G1 X147.198 Y154.037 E60.02025
G1 X147.474 Y153.702 E60.03829
G1 X147.501 Y153.650 E60.04073
G1 X150.926 Y153.648 E60.18312
G1 X151.286 Y154.027 E60.20486
G1 X151.619 Y154.238 E60.22125
G1 X151.876 Y154.347 E60.23285
G1 X152.242 Y154.433 E60.24848
G1 X152.504 Y154.451 E60.25940
G1 X152.878 Y154.414 E60.27503
G1 X153.183 Y154.326 E60.28823
G1 X153.527 Y154.158 E60.30414
G1 X153.880 Y153.880 E60.32282
G1 X154.153 Y153.535 E60.34111
G1 X154.323 Y153.190 E60.35710
G1 X154.433 Y152.761 E60.37552
G1 X154.450 Y152.506 E60.38614
G1 X154.449 Y152.429 E60.38934
G1 X154.385 Y151.992 E60.40771
G1 X154.161 Y151.478 E60.43102
G1 X153.880 Y151.120 E60.44994
G1 X153.535 Y150.847 E60.46823
G1 X153.190 Y150.677 E60.48422
G1 X152.761 Y150.567 E60.50263
G1 X152.496 Y150.549 E60.51367
G1 X152.122 Y150.586 E60.52930
G1 X151.822 Y150.672 E60.54227
G1 X151.601 Y150.769 E60.55231
G1 X151.136 Y151.105 E60.57616
G0 F9000 X149.845 Y150.675
;TYPE:FILL
G1 F960 X153.227 Y147.292 E60.77504
G1 F2400 E60.17504
G1 Z1.900
G0 F9000 X151.173 Y147.637
G1 Z1.400
G1 F2400 E60.77504
G1 F960 X153.721 Y150.185 E60.92485
G1 F2400 E60.32485
G1 Z1.900
G0 F9000 X154.804 Y151.269
G1 Z1.400
G1 F2400 E60.92485
G1 F960 X157.374 Y153.838 E61.07593
G1 F2400 E60.47593
G1 Z1.900
G0 F9000 X155.124 Y152.467
G1 Z1.400
G1 F2400 E61.07593
G1 F960 X157.374 Y150.217 E61.20822
G1 F2400 E60.60822
G1 Z1.900
G0 F9000 X152.466 Y155.125
G1 Z1.400
G1 F2400 E61.20822
G1 F960 X150.574 Y157.016 E61.31943
G1 F2400 E60.71943
G1 Z1.900
G0 F9000 X151.292 Y154.828
G1 Z1.400
G1 F2400 E61.31943
G1 F960 X153.826 Y157.361 E61.46839
G1 F2400 E60.86839
G1 Z1.900
G0 F9000 X150.879 Y154.768
;TYPE:SKIN
G1 Z1.400
G1 F2400 E61.46839
G1 F960 X150.303 Y154.546 E61.49447
G1 X149.596 Y154.546 E61.52051
G1 X148.889 Y154.545 E61.54655
G1 X148.182 Y154.545 E61.57254
G1 X147.731 Y154.449 E61.59171
G1 F2400 E60.99171
G1 Z1.900
G0 F9000 X148.200 Y150.675
G1 Z1.400
G1 F2400 E61.59171
G1 F960 X148.108 Y150.229 E61.61791
G1 X149.038 Y150.452 E61.64407
G1 X149.745 Y150.452 E61.67023
G1 X150.452 Y150.452 E61.69639
G1 X150.839 Y150.485 E61.71254
;LAYER:7
M106 S73
G0 F9000 X151.010 Y150.554 Z1.600
;TYPE:WALL-INNER
G1 F900 X150.926 Y150.632 E61.71731
G1 X149.527 Y150.633 E61.77547
G1 X148.537 Y150.632 E61.81663
G1 X147.732 Y150.633 E61.85010
G1 X147.691 Y150.577 E61.85298
G1 X147.450 Y150.393 E61.86559
G1 X147.450 Y149.585 E61.89918
G1 X152.500 Y146.670 E62.14160
G1 X157.550 Y149.585 E62.38403
G1 X157.550 Y155.415 E62.62641
G1 X152.500 Y158.330 E62.86883
G1 X147.450 Y155.415 E63.11125
G1 X147.450 Y154.618 E63.14439
G1 X147.726 Y154.382 E63.15949
G1 X147.736 Y154.368 E63.16020
G1 X150.802 Y154.367 E63.28767
G1 X150.926 Y154.367 E63.29283
G1 X151.011 Y154.446 E63.29765
G1 X151.320 Y154.651 E63.31307
G1 X151.846 Y154.864 E63.33666
G1 X152.181 Y154.930 E63.35086
G1 X152.524 Y154.953 E63.36515
G1 X153.142 Y154.872 E63.39106
G1 X153.767 Y154.599 E63.41942
G1 X153.995 Y154.441 E63.43095
G1 X154.248 Y154.221 E63.44489
G1 X154.586 Y153.791 E63.46763
G1 X154.821 Y153.295 E63.49045
G1 X154.929 Y152.833 E63.51017
G1 X154.951 Y152.513 E63.52351
G1 X154.946 Y152.372 E63.52937
G1 X154.869 Y151.853 E63.55119
G1 X154.599 Y151.233 E63.57930
G1 X154.441 Y151.005 E63.59083
G1 X154.221 Y150.752 E63.60477
G1 X153.791 Y150.414 E63.62751
G1 X153.295 Y150.179 E63.65033
G1 X152.833 Y150.071 E63.67006
G1 X152.476 Y150.047 E63.68493
G1 X151.868 Y150.127 E63.71043
G1 X151.321 Y150.348 E63.73496
G1 X151.010 Y150.554 E63.75046
G0 F9000 X151.555 Y150.793
;TYPE:WALL-OUTER
G1 F900 X151.321 Y150.948 E63.76213
G1 X151.123 Y151.132 E63.77337
G1 X147.477 Y151.133 E63.92495
G1 X147.330 Y150.930 E63.93537
G1 X147.002 Y150.680 E63.95252
G1 X146.950 Y150.654 E63.95494
G1 X146.950 Y149.297 E64.01136
G1 X152.500 Y146.092 E64.27781
G1 X158.050 Y149.297 E64.54426
G1 X158.050 Y155.703 E64.81059
G1 X152.500 Y158.908 E65.07704
G1 X146.950 Y155.703 E65.34350
G1 X146.950 Y154.343 E65.40004
G1 X147.092 Y154.266 E65.40676
G1 X147.355 Y154.041 E65.42115
G1 X147.478 Y153.868 E65.42997
G1 X151.123 Y153.868 E65.58151
G1 X151.321 Y154.052 E65.59275
G1 X151.554 Y154.206 E65.60436
G1 X151.989 Y154.383 E65.62389
G1 X152.246 Y154.433 E65.63477
G1 X152.508 Y154.451 E65.64569
G1 X153.007 Y154.385 E65.66662
G1 X153.522 Y154.160 E65.68998
G1 X153.688 Y154.046 E65.69835
G1 X153.884 Y153.875 E65.70917
G1 X154.158 Y153.526 E65.72762
G1 X154.346 Y153.129 E65.74588
G1 X154.433 Y152.758 E65.76172
G1 X154.450 Y152.504 E65.77230
G1 X154.447 Y152.417 E65.77592
G1 X154.384 Y151.992 E65.79379
G1 X154.160 Y151.478 E65.81710
G1 X154.046 Y151.312 E65.82547
G1 X153.875 Y151.116 E65.83628
G1 X153.526 Y150.842 E65.85473
G1 X153.129 Y150.654 E65.87299
G1 X152.758 Y150.567 E65.88884
G1 X152.492 Y150.549 E65.89992
G1 X151.997 Y150.614 E65.92068
G1 X151.555 Y150.793 E65.94050
G1 F2400 E65.34050
G1 Z2.100
G0 F9000 X150.062 Y150.457
;TYPE:FILL
G1 Z1.600
G1 F2400 E65.94050
G1 F900 X153.227 Y147.292 E66.12659
G1 F2400 E65.52659
G1 Z2.100
G0 F9000 X151.173 Y147.637
G1 Z1.600
G1 F2400 E66.12659
G1 F900 X153.725 Y150.189 E66.27664
G1 F2400 E65.67664
G1 Z2.100
G0 F9000 X154.802 Y151.267
G1 Z1.600
G1 F2400 E66.27664
G1 F900 X157.374 Y153.838 E66.42783
G1 F2400 E65.82783
G1 Z2.100
G0 F9000 X155.123 Y152.467
G1 Z1.600
G1 F2400 E66.42783
G1 F900 X157.374 Y150.217 E66.56015
G1 F2400 E65.96015
G1 Z2.100
G0 F9000 X152.467 Y155.123
G1 Z1.600
G1 F2400 E66.56015
G1 F900 X150.574 Y157.016 E66.67146
G1 F2400 E66.07146
G1 Z2.100
G0 F9000 X151.293 Y154.829
G1 Z1.600
G1 F2400 E66.67146
G1 F900 X153.826 Y157.361 E66.82036
;LAYER:8
M106 S84
G1 F2400 E66.22036
G1 Z2.100
G0 F9000 X153.069 Y154.887 Z1.800
;TYPE:WALL-INNER
G1 Z1.800
G1 F2400 E66.82036
G1 F900 X153.530 Y154.726 E66.84066
G1 X153.936 Y154.487 E66.86025
G1 X154.239 Y154.230 E66.87676
G1 X154.540 Y153.862 E66.89653
G1 X154.772 Y153.427 E66.91703
G1 X154.928 Y152.845 E66.94208
G1 X154.951 Y152.515 E66.95583
G1 X154.946 Y152.355 E66.96249
G1 X154.845 Y151.778 E66.98684
G1 X154.628 Y151.277 E67.00954
G1 X154.337 Y150.873 E67.03024
G1 X153.874 Y150.466 E67.05587
G1 X153.427 Y150.228 E67.07692
G1 X152.845 Y150.072 E67.10197
G1 X152.480 Y150.047 E67.11718
G1 X151.931 Y150.113 E67.14017
G1 X151.474 Y150.273 E67.16030
G1 X151.113 Y150.481 E67.17762
G1 X149.893 Y150.482 E67.22835
G1 X149.402 Y150.481 E67.24876
G1 X147.712 Y150.482 E67.31902
G1 X147.696 Y150.461 E67.32012
G1 X147.450 Y150.269 E67.33309
G1 X147.450 Y149.585 E67.36153
G1 X152.500 Y146.670 E67.60395
G1 X157.550 Y149.585 E67.84637
G1 X157.550 Y155.415 E68.08876
G1 X152.500 Y158.330 E68.33118
G1 X147.450 Y155.415 E68.57360
G1 X147.450 Y154.741 E68.60162
G1 X147.711 Y154.519 E68.61587
G1 X149.524 Y154.518 E68.69124
G1 X149.891 Y154.519 E68.70650
G1 X151.115 Y154.518 E68.75739
G1 X151.357 Y154.667 E68.76921
G1 X151.796 Y154.848 E68.78895
G1 X152.174 Y154.930 E68.80503
G1 X152.520 Y154.953 E68.81945
G1 X153.069 Y154.887 E68.84243
G0 F9000 X152.955 Y154.397
;TYPE:WALL-OUTER
G1 F900 X153.319 Y154.270 E68.85846
G1 X153.645 Y154.078 E68.87419
G1 X153.881 Y153.878 E68.88705
G1 X154.122 Y153.583 E68.90289
G1 X154.304 Y153.242 E68.91896
G1 X154.433 Y152.762 E68.93962
G1 X154.450 Y152.505 E68.95033
G1 X154.447 Y152.406 E68.95445
G1 X154.363 Y151.923 E68.97483
G1 X154.191 Y151.526 E68.99282
G1 X153.964 Y151.211 E69.00896
G1 X153.587 Y150.880 E69.02982
G1 X153.242 Y150.696 E69.04608
G1 X152.762 Y150.567 E69.06674
G1 X152.493 Y150.549 E69.07795
G1 X152.045 Y150.603 E69.09671
G1 X151.683 Y150.730 E69.11266
G1 X151.386 Y150.900 E69.12689
G1 X151.277 Y150.981 E69.13253
G1 X147.471 Y150.982 E69.29077
G1 X147.341 Y150.818 E69.29947
G1 X147.084 Y150.618 E69.31301
G1 X146.950 Y150.549 E69.31927
G1 X146.950 Y149.297 E69.37133
G1 X152.500 Y146.092 E69.63778
G1 X158.050 Y149.297 E69.90423
G1 X158.050 Y155.703 E70.17056
G1 X152.500 Y158.908 E70.43702
G1 X146.950 Y155.703 E70.70347
G1 X146.950 Y154.448 E70.75564
G1 X147.169 Y154.325 E70.76609
G1 X147.347 Y154.175 E70.77577
G1 X147.478 Y154.019 E70.78423
G1 X151.282 Y154.018 E70.94239
G1 X151.573 Y154.215 E70.95700
G1 X151.945 Y154.369 E70.97374
G1 X152.244 Y154.433 E70.98645
G1 X152.507 Y154.451 E70.99741
G1 X152.955 Y154.397 E71.01617
G0 F9000 X152.467 Y155.123
;TYPE:FILL
G1 F900 X150.574 Y157.016 E71.12747
G1 F2400 E70.52747
G1 Z2.300
G0 F9000 X151.293 Y154.828
G1 Z1.800
G1 F2400 E71.12747
G1 F900 X153.826 Y157.361 E71.27640
G1 F2400 E70.67640
G1 Z2.300
G0 F9000 X157.374 Y153.838
G1 Z1.800
G1 F2400 E71.27640
G1 F900 X154.822 Y151.286 E71.42645
G0 F9000 X155.124 Y152.467
G1 F900 X157.374 Y150.217 E71.55874
G1 F2400 E70.95874
G1 Z2.300
G0 F9000 X153.721 Y150.185
G1 Z1.800
G1 F2400 E71.55874
G1 F900 X151.173 Y147.637 E71.70855
G1 F2400 E71.10855
G1 Z2.300
G0 F9000 X153.227 Y147.292
G1 Z1.800
G1 F2400 E71.70855
G1 F900 X150.214 Y150.306 E71.88573
;LAYER:9
M106 S94
G0 F9000 X150.088 Y150.375 Z2.000
;TYPE:WALL-INNER
G1 F900 X149.525 Y150.376 E71.90914
G1 X147.698 Y150.375 E71.98510
G1 X147.450 Y150.186 E71.99806
G1 X147.450 Y149.585 E72.02305
G1 X152.500 Y146.670 E72.26547
G1 X157.550 Y149.585 E72.50789
G1 X157.550 Y155.415 E72.75028
G1 X152.500 Y158.330 E72.99270
G1 X147.450 Y155.415 E73.23512
G1 X147.450 Y154.824 E73.25969
G1 X147.697 Y154.624 E73.27290
G1 X149.279 Y154.625 E73.33868
G1 X151.286 Y154.624 E73.42212
G1 X151.388 Y154.686 E73.42708
G1 X151.993 Y154.900 E73.45376
G1 X152.326 Y154.944 E73.46772
G1 X152.536 Y154.952 E73.47646
G1 X153.131 Y154.873 E73.50142
G1 X153.659 Y154.661 E73.52507
G1 X153.879 Y154.526 E73.53580
G1 X154.226 Y154.242 E73.55444
G1 X154.461 Y153.972 E73.56933
G1 X154.769 Y153.440 E73.59488
G1 X154.928 Y152.845 E73.62049
G1 X154.951 Y152.516 E73.63420
G1 X154.947 Y152.355 E73.64090
G1 X154.870 Y151.861 E73.66168
G1 X154.661 Y151.341 E73.68498
G1 X154.526 Y151.121 E73.69571
G1 X154.242 Y150.774 E73.71436
G1 X153.972 Y150.539 E73.72924
G1 X153.440 Y150.231 E73.75480
G1 X152.845 Y150.072 E73.78040
G1 X152.476 Y150.047 E73.79578
G1 X151.874 Y150.126 E73.82102
G1 X151.378 Y150.319 E73.84315
G1 X151.286 Y150.376 E73.84765
G1 X150.088 Y150.375 E73.89745
G1 F2400 E73.29745
G1 Z2.500
G0 F9000 X151.601 Y150.768
;TYPE:WALL-OUTER
G1 Z2.000
G1 F2400 E73.89745
G1 F900 X151.426 Y150.876 E73.90600
G1 X147.597 Y150.875 E74.06519
G1 X147.465 Y150.876 E74.07068
G1 X147.341 Y150.728 E74.07871
G1 X147.079 Y150.533 E74.09229
G1 X146.950 Y150.471 E74.09824
G1 X146.950 Y149.297 E74.14705
G1 X152.500 Y146.092 E74.41350
G1 X158.050 Y149.297 E74.67995
G1 X158.050 Y155.703 E74.94628
G1 X152.500 Y158.908 E75.21274
G1 X146.950 Y155.703 E75.47919
G1 X146.950 Y154.518 E75.52846
G1 X147.161 Y154.415 E75.53822
G1 X147.353 Y154.260 E75.54848
G1 X147.467 Y154.124 E75.55586
G1 X151.428 Y154.124 E75.72053
G1 X151.604 Y154.232 E75.72912
G1 X152.110 Y154.411 E75.75143
G1 X152.368 Y154.445 E75.76225
G1 X152.512 Y154.451 E75.76825
G1 X153.003 Y154.386 E75.78884
G1 X153.434 Y154.212 E75.80816
G1 X153.589 Y154.117 E75.81572
G1 X153.877 Y153.882 E75.83117
G1 X154.052 Y153.680 E75.84228
G1 X154.303 Y153.247 E75.86309
G1 X154.433 Y152.762 E75.88397
G1 X154.450 Y152.505 E75.89468
G1 X154.448 Y152.400 E75.89904
G1 X154.385 Y151.994 E75.91612
G1 X154.212 Y151.566 E75.93532
G1 X154.117 Y151.411 E75.94288
G1 X153.882 Y151.123 E75.95833
G1 X153.680 Y150.948 E75.96944
G1 X153.247 Y150.697 E75.99025
G1 X152.762 Y150.567 E76.01112
G1 X152.492 Y150.549 E76.02237
G1 X151.999 Y150.614 E76.04305
G1 X151.601 Y150.768 E76.06079
G0 F9000 X150.319 Y150.200
;TYPE:FILL
G1 F900 X153.227 Y147.292 E76.23177
G1 F2400 E75.63177
G1 Z2.500
G0 F9000 X151.173 Y147.637
G1 Z2.000
G1 F2400 E76.23177
G1 F900 X153.737 Y150.201 E76.38252
G1 F2400 E75.78252
G1 Z2.500
G0 F9000 X154.828 Y151.293
G1 Z2.000
G1 F2400 E76.38252
G1 F900 X157.374 Y153.838 E76.53219
G1 F2400 E75.93219
G1 Z2.500
G0 F9000 X155.124 Y152.467
G1 Z2.000
G1 F2400 E76.53219
G1 F900 X157.374 Y150.217 E76.66448
G1 F2400 E76.06448
G1 Z2.500
G0 F9000 X152.467 Y155.123
G1 Z2.000
G1 F2400 E76.66448
G1 F900 X150.574 Y157.016 E76.77578
G1 F2400 E76.17578
G1 Z2.500
G0 F9000 X151.303 Y154.839
G1 Z2.000
G1 F2400 E76.77578
G1 F900 X153.826 Y157.361 E76.92409
;LAYER:10
M106 S104
G1 F2400 E76.32409
G1 Z2.500
G0 F9000 X153.288 Y154.823 Z2.200
;TYPE:WALL-INNER
G1 Z2.200
G1 F2400 E76.92409
G1 F900 X153.737 Y154.620 E76.94458
G1 X154.227 Y154.244 E76.97026
G1 X154.540 Y153.862 E76.99079
G1 X154.760 Y153.450 E77.01021
G1 X154.868 Y153.134 E77.02409
G1 X154.930 Y152.819 E77.03744
G1 X154.953 Y152.488 E77.05124
G1 X154.905 Y152.009 E77.07125
G1 X154.706 Y151.426 E77.09686
G1 X154.446 Y151.008 E77.11733
G1 X154.118 Y150.656 E77.13733
G1 X153.719 Y150.369 E77.15776
G1 X153.217 Y150.159 E77.18039
G1 X152.819 Y150.070 E77.19734
G1 X152.500 Y150.048 E77.21064
G1 X152.167 Y150.071 E77.22452
G1 X151.720 Y150.175 E77.24360
G1 X151.416 Y150.305 E77.25734
G1 X150.177 Y150.305 E77.30885
G1 X149.525 Y150.306 E77.33596
G1 X147.690 Y150.305 E77.41225
G1 X147.450 Y150.119 E77.42487
G1 X147.450 Y149.585 E77.44708
G1 X152.500 Y146.670 E77.68950
G1 X157.550 Y149.585 E77.93192
G1 X157.550 Y155.415 E78.17430
G1 X152.500 Y158.330 E78.41672
G1 X147.450 Y155.415 E78.65915
G1 X147.450 Y154.876 E78.68156
G1 X147.573 Y154.794 E78.68770
G1 X147.675 Y154.694 E78.69364
G1 X149.227 Y154.695 E78.75816
G1 X150.177 Y154.694 E78.79766
G1 X151.423 Y154.695 E78.84946
G1 X151.787 Y154.843 E78.86580
G1 X151.879 Y154.871 E78.86980
G1 X152.181 Y154.930 E78.88259
G1 X152.500 Y154.952 E78.89589
G1 X152.833 Y154.929 E78.90976
G1 X153.288 Y154.823 E78.92919
G0 F9000 X153.127 Y154.347
;TYPE:WALL-OUTER
G1 F900 X153.479 Y154.188 E78.94524
G1 X153.877 Y153.883 E78.96609
G1 X154.122 Y153.583 E78.98219
G1 X154.300 Y153.250 E78.99789
G1 X154.384 Y153.004 E79.00870
G1 X154.433 Y152.754 E79.01929
G1 X154.451 Y152.496 E79.03004
G1 X154.413 Y152.116 E79.04592
G1 X154.251 Y151.641 E79.06679
G1 X154.047 Y151.313 E79.08285
G1 X153.786 Y151.033 E79.09876
G1 X153.473 Y150.808 E79.11479
G1 X153.000 Y150.615 E79.13603
G1 X152.754 Y150.567 E79.14645
G1 X152.500 Y150.549 E79.15703
G1 X152.242 Y150.567 E79.16778
G1 X151.876 Y150.652 E79.18341
G1 X151.596 Y150.771 E79.19605
G1 X151.539 Y150.805 E79.19881
G1 X147.463 Y150.806 E79.36827
G1 X147.345 Y150.670 E79.37576
G1 X147.158 Y150.525 E79.38560
G1 X146.950 Y150.427 E79.39516
G1 X146.950 Y149.297 E79.44214
G1 X152.500 Y146.092 E79.70859
G1 X158.050 Y149.297 E79.97504
G1 X158.050 Y155.703 E80.24137
G1 X152.500 Y158.908 E80.50783
G1 X146.950 Y155.703 E80.77428
G1 X146.950 Y154.580 E80.82097
G1 X147.069 Y154.528 E80.82637
G1 X147.257 Y154.403 E80.83575
G1 X147.472 Y154.194 E80.84822
G1 X151.539 Y154.195 E81.01731
G1 X151.954 Y154.371 E81.03605
G1 X152.000 Y154.385 E81.03805
G1 X152.246 Y154.433 E81.04847
G1 X152.500 Y154.451 E81.05905
G1 X152.758 Y154.433 E81.06981
G1 X153.127 Y154.347 E81.08556
G0 F9000 X152.467 Y155.124
;TYPE:FILL
G1 F900 X150.574 Y157.016 E81.19683
G1 F2400 E80.59683
G1 Z2.700
G0 F9000 X151.334 Y154.869
G1 Z2.200
G1 F2400 E81.19683
G1 F900 X153.826 Y157.361 E81.34335
G1 F2400 E80.74335
G1 Z2.700
G0 F9000 X157.374 Y153.838
G1 Z2.200
G1 F2400 E81.34335
G1 F900 X154.827 Y151.291 E81.49310
G0 F9000 X155.126 Y152.464
G1 F900 X157.374 Y150.217 E81.62525
G1 F2400 E81.02525
G1 Z2.700
G0 F9000 X153.710 Y150.175
G1 Z2.200
G1 F2400 E81.62525
G1 F900 X151.173 Y147.637 E81.77444
G1 F2400 E81.17444
G1 Z2.700
G0 F9000 X153.227 Y147.292
G1 Z2.200
G1 F2400 E81.77444
G1 F900 X150.390 Y150.130 E81.94128
;LAYER:11
M106 S114
G0 F9000 X149.872 Y150.263 Z2.400
;TYPE:WALL-INNER
G1 F840 X149.522 Y150.265 E81.95583
G1 X147.684 Y150.264 E82.03224
G1 X147.450 Y150.094 E82.04427
G1 X147.450 Y149.585 E82.06543
G1 X152.500 Y146.670 E82.30785
G1 X157.550 Y149.585 E82.55027
G1 X157.550 Y155.415 E82.79266
G1 X152.500 Y158.330 E83.03508
G1 X147.450 Y155.415 E83.27750
G1 X147.450 Y154.916 E83.29825
G1 X147.671 Y154.735 E83.31012
G1 X149.339 Y154.736 E83.37947
G1 X149.530 Y154.735 E83.38741
G1 X151.505 Y154.736 E83.46952
G1 X151.724 Y154.824 E83.47934
G1 X152.022 Y154.904 E83.49216
G1 X152.326 Y154.944 E83.50491
G1 X152.524 Y154.951 E83.51315
G1 X152.979 Y154.906 E83.53216
G1 X153.438 Y154.766 E83.55211
G1 X153.841 Y154.551 E83.57110
G1 X153.997 Y154.439 E83.57908
G1 X154.343 Y154.119 E83.59868
G1 X154.618 Y153.737 E83.61825
G1 X154.824 Y153.276 E83.63924
G1 X154.904 Y152.978 E83.65207
G1 X154.944 Y152.674 E83.66481
G1 X154.950 Y152.502 E83.67197
G1 X154.945 Y152.332 E83.67904
G1 X154.870 Y151.867 E83.69862
G1 X154.704 Y151.427 E83.71817
G1 X154.439 Y151.003 E83.73896
G1 X154.119 Y150.657 E83.75856
G1 X153.737 Y150.382 E83.77813
G1 X153.276 Y150.176 E83.79912
G1 X152.978 Y150.096 E83.81195
G1 X152.674 Y150.056 E83.82469
G1 X152.476 Y150.049 E83.83293
G1 X152.021 Y150.094 E83.85194
G1 X151.582 Y150.227 E83.87101
G1 X151.502 Y150.264 E83.87467
G1 X149.872 Y150.263 E83.94244
G0 F9000 X149.873 Y150.763
;TYPE:WALL-OUTER
G1 F840 X149.525 Y150.765 E83.95691
G1 X147.538 Y150.764 E84.03952
G1 X147.461 Y150.764 E84.04272
G1 X147.336 Y150.626 E84.05046
G1 X147.071 Y150.439 E84.06395
G1 X146.950 Y150.388 E84.06941
G1 X146.950 Y149.297 E84.11477
G1 X152.500 Y146.092 E84.38122
G1 X158.050 Y149.297 E84.64767
G1 X158.050 Y155.703 E84.91400
G1 X152.500 Y158.908 E85.18045
G1 X146.950 Y155.703 E85.44691
G1 X146.950 Y154.605 E85.49256
G1 X147.160 Y154.507 E85.50219
G1 X147.412 Y154.301 E85.51572
G1 X147.467 Y154.235 E85.51929
G1 X149.338 Y154.236 E85.59708
G1 X149.527 Y154.235 E85.60494
G1 X151.619 Y154.236 E85.69192
G1 X151.877 Y154.347 E85.70359
G1 X152.120 Y154.413 E85.71406
G1 X152.368 Y154.445 E85.72446
G1 X152.508 Y154.450 E85.73028
G1 X152.880 Y154.413 E85.74582
G1 X153.246 Y154.302 E85.76172
G1 X153.576 Y154.126 E85.77727
G1 X153.680 Y154.051 E85.78260
G1 X153.966 Y153.786 E85.79881
G1 X154.187 Y153.479 E85.81454
G1 X154.300 Y153.249 E85.82520
G1 X154.413 Y152.880 E85.84124
G1 X154.445 Y152.632 E85.85164
G1 X154.450 Y152.501 E85.85709
G1 X154.446 Y152.379 E85.86216
G1 X154.385 Y151.996 E85.87829
G1 X154.251 Y151.642 E85.89402
G1 X154.123 Y151.420 E85.90468
G1 X154.051 Y151.320 E85.90980
G1 X153.786 Y151.034 E85.92601
G1 X153.479 Y150.813 E85.94174
G1 X153.249 Y150.700 E85.95239
G1 X152.880 Y150.587 E85.96843
G1 X152.632 Y150.555 E85.97883
G1 X152.492 Y150.550 E85.98465
G1 X152.120 Y150.587 E86.00020
G1 X151.761 Y150.696 E86.01580
G1 X151.613 Y150.764 E86.02257
G1 X149.873 Y150.763 E86.09491
G0 F9000 X150.431 Y150.089
;TYPE:FILL
G1 F840 X153.227 Y147.292 E86.25933
G1 F2400 E85.65933
G1 Z2.900
G0 F9000 X151.173 Y147.637
G1 Z2.400
G1 F2400 E86.25933
G1 F840 X153.716 Y150.180 E86.40885
G1 F2400 E85.80885
G1 Z2.900
G0 F9000 X154.816 Y151.280
G1 Z2.400
G1 F2400 E86.40885
G1 F840 X157.374 Y153.838 E86.55925
G1 F2400 E85.95925
G1 Z2.900
G0 F9000 X155.123 Y152.467
G1 Z2.400
G1 F2400 E86.55925
G1 F840 X157.374 Y150.217 E86.69157
G1 F2400 E86.09157
G1 Z2.900
G0 F9000 X152.468 Y155.122
G1 Z2.400
G1 F2400 E86.69157
G1 F840 X150.574 Y157.016 E86.80293
G1 F2400 E86.20293
G1 Z2.900
G0 F9000 X151.374 Y154.910
G1 Z2.400
G1 F2400 E86.80293
G1 F840 X153.826 Y157.361 E86.94707
;LAYER:12
M106 S127
G1 F2400 E86.34707
G1 Z2.900
G0 F9000 X152.979 Y154.906 Z2.600
;TYPE:WALL-INNER
G1 Z2.600
G1 F2400 E86.94707
G1 F840 X153.426 Y154.770 E86.96649
G1 X153.714 Y154.629 E86.97983
G1 X153.867 Y154.533 E86.98734
G1 X154.104 Y154.352 E86.99973
G1 X154.344 Y154.112 E87.01385
G1 X154.623 Y153.724 E87.03371
G1 X154.763 Y153.437 E87.04699
G1 X154.867 Y153.134 E87.06031
G1 X154.903 Y152.978 E87.06696
G1 X154.945 Y152.661 E87.08026
G1 X154.951 Y152.476 E87.08795
G1 X154.906 Y152.021 E87.10696
G1 X154.770 Y151.574 E87.12639
G1 X154.539 Y151.142 E87.14676
G1 X154.234 Y150.767 E87.16685
G1 X153.847 Y150.453 E87.18757
G1 X153.439 Y150.234 E87.20682
G1 X152.990 Y150.097 E87.22634
G1 X152.674 Y150.056 E87.23959
G1 X152.476 Y150.049 E87.24783
G1 X152.021 Y150.094 E87.26683
G1 X151.534 Y150.250 E87.28809
G1 X147.677 Y150.250 E87.44845
G1 X147.450 Y150.074 E87.46039
G1 X147.450 Y149.585 E87.48072
G1 X152.500 Y146.670 E87.72314
G1 X157.550 Y149.585 E87.96557
G1 X157.550 Y155.415 E88.20795
G1 X152.500 Y158.330 E88.45037
G1 X147.450 Y155.415 E88.69279
G1 X147.450 Y154.926 E88.71312
G1 X147.677 Y154.750 E88.72507
G1 X151.549 Y154.750 E88.88604
G1 X151.866 Y154.870 E88.90014
G1 X152.314 Y154.944 E88.91901
G1 X152.524 Y154.951 E88.92775
G1 X152.979 Y154.906 E88.94676
G0 F9000 X152.880 Y154.413
;TYPE:WALL-OUTER
G1 F840 X153.242 Y154.303 E88.96249
G1 X153.582 Y154.122 E88.97850
G1 X153.781 Y153.969 E88.98894
G1 X154.046 Y153.686 E89.00506
G1 X154.120 Y153.584 E89.01030
G1 X154.249 Y153.361 E89.02101
G1 X154.384 Y153.004 E89.03688
G1 X154.446 Y152.628 E89.05272
G1 X154.450 Y152.492 E89.05838
G1 X154.413 Y152.120 E89.07392
G1 X154.303 Y151.758 E89.08965
G1 X154.191 Y151.529 E89.10025
G1 X154.124 Y151.421 E89.10553
G1 X154.047 Y151.315 E89.11098
G1 X153.879 Y151.121 E89.12165
G1 X153.694 Y150.959 E89.13187
G1 X153.581 Y150.878 E89.13765
G1 X153.246 Y150.698 E89.15346
G1 X152.884 Y150.588 E89.16919
G1 X152.632 Y150.555 E89.17976
G1 X152.492 Y150.550 E89.18558
G1 X152.120 Y150.587 E89.20112
G1 X151.760 Y150.696 E89.21676
G1 X151.644 Y150.750 E89.22208
G1 X147.468 Y150.750 E89.39570
G1 X147.251 Y150.546 E89.40808
G1 X146.974 Y150.379 E89.42153
G1 X146.950 Y150.369 E89.42261
G1 X146.950 Y149.297 E89.46718
G1 X152.500 Y146.092 E89.73363
G1 X158.050 Y149.297 E90.00008
G1 X158.050 Y155.703 E90.26641
G1 X152.500 Y158.908 E90.53287
G1 X146.950 Y155.703 E90.79932
G1 X146.950 Y154.631 E90.84389
G1 X147.163 Y154.516 E90.85395
G1 X147.334 Y154.386 E90.86288
G1 X147.468 Y154.250 E90.87082
G1 X151.642 Y154.250 E91.04436
G1 X151.996 Y154.385 E91.06011
G1 X152.364 Y154.445 E91.07561
G1 X152.508 Y154.450 E91.08160
G1 X152.880 Y154.413 E91.09714
G0 F9000 X152.468 Y155.122
;TYPE:FILL
G1 F840 X150.574 Y157.016 E91.20850
G1 F2400 E90.60850
G1 Z3.100
G0 F9000 X151.388 Y154.924
G1 Z2.600
G1 F2400 E91.20850
G1 F840 X153.826 Y157.361 E91.35182
G1 F2400 E90.75182
G1 Z3.100
G0 F9000 X157.374 Y153.838
G1 Z2.600
G1 F2400 E91.35182
G1 F840 X154.804 Y151.269 E91.50289
G0 F9000 X155.124 Y152.467
G1 F840 X157.374 Y150.217 E91.63519
G1 F2400 E91.03519
G1 Z3.100
G0 F9000 X153.724 Y150.188
G1 Z2.600
G1 F2400 E91.63519
G1 F840 X151.173 Y147.637 E91.78517
G1 F2400 E91.18517
G1 Z3.100
G0 F9000 X153.227 Y147.292
G1 Z2.600
G1 F2400 E91.78517
G1 F840 X150.445 Y150.074 E91.94875
;LAYER:13
M106 S137
G0 F9000 X149.834 Y150.264 Z2.800
;TYPE:WALL-INNER
G1 F900 X149.357 Y150.265 E91.96858
G1 X147.681 Y150.264 E92.03826
G1 X147.530 Y150.139 E92.04641
G1 X147.450 Y150.092 E92.05026
G1 X147.450 Y149.585 E92.07134
G1 X152.500 Y146.670 E92.31376
G1 X157.550 Y149.585 E92.55619
G1 X157.550 Y155.415 E92.79857
G1 X152.500 Y158.330 E93.04099
G1 X147.450 Y155.415 E93.28341
G1 X147.450 Y154.910 E93.30441
G1 X147.575 Y154.827 E93.31065
G1 X147.672 Y154.735 E93.31620
G1 X151.529 Y154.736 E93.47656
G1 X151.839 Y154.861 E93.49046
G1 X152.193 Y154.931 E93.50546
G1 X152.530 Y154.953 E93.51950
G1 X153.129 Y154.873 E93.54462
G1 X153.602 Y154.692 E93.56568
G1 X154.123 Y154.343 E93.59175
G1 X154.545 Y153.858 E93.61848
G1 X154.815 Y153.307 E93.64399
G1 X154.901 Y152.990 E93.65765
G1 X154.931 Y152.807 E93.66536
G1 X154.953 Y152.470 E93.67940
G1 X154.873 Y151.871 E93.70452
G1 X154.692 Y151.398 E93.72558
G1 X154.343 Y150.877 E93.75165
G1 X153.858 Y150.455 E93.77838
G1 X153.307 Y150.185 E93.80389
G1 X152.990 Y150.099 E93.81754
G1 X152.807 Y150.069 E93.82525
G1 X152.470 Y150.047 E93.83929
G1 X151.865 Y150.128 E93.86467
G1 X151.523 Y150.264 E93.87997
G1 X149.834 Y150.264 E93.95019
G1 F2400 E93.35019
G1 Z3.300
G0 F9000 X151.993 Y150.615
;TYPE:WALL-OUTER
G1 Z2.800
G1 F2400 E93.95019
G1 F900 X151.618 Y150.764 E93.96697
G1 X147.461 Y150.764 E94.13980
G1 X147.340 Y150.631 E94.14727
G1 X147.243 Y150.550 E94.15253
G1 X146.950 Y150.380 E94.16661
G1 X146.950 Y149.297 E94.21164
G1 X152.500 Y146.092 E94.47809
G1 X158.050 Y149.297 E94.74454
G1 X158.050 Y155.703 E95.01087
G1 X152.500 Y158.908 E95.27732
G1 X146.950 Y155.703 E95.54378
G1 X146.950 Y154.613 E95.58909
G1 X147.068 Y154.563 E95.59442
G1 X147.262 Y154.434 E95.60411
G1 X147.471 Y154.235 E95.61611
G1 X151.627 Y154.236 E95.78889
G1 X151.990 Y154.382 E95.80516
G1 X152.250 Y154.434 E95.81618
G1 X152.513 Y154.451 E95.82714
G1 X153.005 Y154.385 E95.84778
G1 X153.371 Y154.245 E95.86407
G1 X153.790 Y153.964 E95.88505
G1 X154.125 Y153.579 E95.90626
G1 X154.345 Y153.130 E95.92705
G1 X154.434 Y152.750 E95.94328
G1 X154.451 Y152.487 E95.95423
G1 X154.385 Y151.995 E95.97487
G1 X154.245 Y151.629 E95.99116
G1 X153.964 Y151.210 E96.01214
G1 X153.579 Y150.875 E96.03336
G1 X153.130 Y150.655 E96.05414
G1 X152.750 Y150.566 E96.07037
G1 X152.487 Y150.549 E96.08133
G1 X151.993 Y150.615 E96.10205
G1 F2400 E95.50205
G1 Z3.300
G0 F9000 X150.431 Y150.089
;TYPE:FILL
G1 Z2.800
G1 F2400 E96.10205
G1 F900 X153.227 Y147.292 E96.26647
G1 F2400 E95.66647
G1 Z3.300
G0 F9000 X151.173 Y147.637
G1 Z2.800
G1 F2400 E96.26647
G1 F900 X153.736 Y150.200 E96.41717
G1 F2400 E95.81717
G1 Z3.300
G0 F9000 X154.838 Y151.302
G1 Z2.800
G1 F2400 E96.41717
G1 F900 X157.374 Y153.838 E96.56627
G1 F2400 E95.96627
G1 Z3.300
G0 F9000 X155.127 Y152.463
G1 Z2.800
G1 F2400 E96.56627
G1 F900 X157.374 Y150.217 E96.69836
G1 F2400 E96.09836
G1 Z3.300
G0 F9000 X152.467 Y155.123
G1 Z2.800
G1 F2400 E96.69836
G1 F900 X150.574 Y157.016 E96.80966
G1 F2400 E96.20966
G1 Z3.300
G0 F9000 X151.374 Y154.910
G1 Z2.800
G1 F2400 E96.80966
G1 F900 X153.826 Y157.361 E96.95380
;LAYER:14
M106 S147
G1 F2400 E96.35380
G1 Z3.300
G0 F9000 X153.144 Y154.868 Z3.000
;TYPE:WALL-INNER
G1 Z3.000
G1 F2400 E96.95380
G1 F900 X153.615 Y154.685 E96.97481
G1 X154.134 Y154.333 E97.00088
G1 X154.546 Y153.856 E97.02708
G1 X154.773 Y153.420 E97.04752
G1 X154.903 Y152.989 E97.06624
G1 X154.944 Y152.672 E97.07952
G1 X154.952 Y152.444 E97.08901
G1 X154.868 Y151.856 E97.11370
G1 X154.685 Y151.385 E97.13471
G1 X154.333 Y150.866 E97.16078
G1 X153.856 Y150.454 E97.18699
G1 X153.420 Y150.227 E97.20743
G1 X152.989 Y150.097 E97.22614
G1 X152.672 Y150.056 E97.23943
G1 X152.444 Y150.048 E97.24892
G1 X151.858 Y150.131 E97.27352
G1 X151.412 Y150.305 E97.29343
G1 X150.130 Y150.305 E97.34672
G1 X149.525 Y150.306 E97.37188
G1 X147.683 Y150.305 E97.44846
G1 X147.546 Y150.186 E97.45600
G1 X147.450 Y150.126 E97.46071
G1 X147.450 Y149.584 E97.48324
G1 X152.500 Y146.669 E97.72567
G1 X157.550 Y149.584 E97.96809
G1 X157.550 Y155.416 E98.21055
G1 X152.500 Y158.331 E98.45298
G1 X147.450 Y155.416 E98.69540
G1 X147.450 Y154.873 E98.71797
G1 X147.687 Y154.694 E98.73032
G1 X149.526 Y154.695 E98.80678
G1 X150.130 Y154.694 E98.83189
G1 X151.418 Y154.695 E98.88544
G1 X151.866 Y154.868 E98.90540
G1 X152.183 Y154.930 E98.91883
G1 X152.544 Y154.953 E98.93387
G1 X153.144 Y154.868 E98.95907
G0 F9000 X153.017 Y154.381
;TYPE:WALL-OUTER
G1 F900 X153.381 Y154.240 E98.97530
G1 X153.799 Y153.956 E98.99631
G1 X154.129 Y153.573 E99.01732
G1 X154.308 Y153.231 E99.03337
G1 X154.412 Y152.884 E99.04843
G1 X154.445 Y152.631 E99.05904
G1 X154.451 Y152.471 E99.06570
G1 X154.381 Y151.983 E99.08619
G1 X154.240 Y151.619 E99.10242
G1 X153.956 Y151.201 E99.12343
G1 X153.573 Y150.871 E99.14445
G1 X153.231 Y150.692 E99.16050
G1 X152.884 Y150.588 E99.17556
G1 X152.631 Y150.555 E99.18617
G1 X152.471 Y150.549 E99.19283
G1 X151.984 Y150.618 E99.21327
G1 X151.643 Y150.749 E99.22846
G1 X151.541 Y150.805 E99.23330
G1 X147.465 Y150.805 E99.40276
G1 X147.373 Y150.698 E99.40863
G1 X147.248 Y150.589 E99.41552
G1 X146.981 Y150.424 E99.42857
G1 X146.950 Y150.412 E99.42995
G1 X146.950 Y149.296 E99.47635
G1 X152.500 Y146.091 E99.74280
G1 X158.050 Y149.296 E100.00926
G1 X158.050 Y155.704 E100.27567
G1 X152.500 Y158.909 E100.54212
G1 X146.950 Y155.704 E100.80858
G1 X146.950 Y154.581 E100.85527
G1 X147.073 Y154.528 E100.86083
G1 X147.334 Y154.340 E100.87421
G1 X147.473 Y154.194 E100.88259
G1 X151.540 Y154.195 E101.05167
G1 X151.596 Y154.227 E101.05436
G1 X152.005 Y154.386 E101.07260
G1 X152.247 Y154.433 E101.08285
G1 X152.525 Y154.451 E101.09443
G1 X153.017 Y154.381 E101.11509
G0 F9000 X152.469 Y155.122
;TYPE:FILL
G1 F900 X150.574 Y157.016 E101.22648
G1 F2400 E100.62648
G1 Z3.500
G0 F9000 X151.333 Y154.869
G1 Z3.000
G1 F2400 E101.22648
G1 F900 X153.826 Y157.361 E101.37303
G1 F2400 E100.77303
G1 Z3.500
G0 F9000 X157.374 Y153.838
G1 Z3.000
G1 F2400 E101.37303
G1 F900 X154.841 Y151.306 E101.52193
G0 F9000 X155.126 Y152.464
G1 F900 X157.373 Y150.217 E101.65405
G1 F2400 E101.05405
G1 Z3.500
G0 F9000 X153.722 Y150.186
G1 Z3.000
G1 F2400 E101.65405
G1 F900 X151.173 Y147.637 E101.80392
G1 F2400 E101.20392
G1 Z3.500
G0 F9000 X153.228 Y147.291
G1 Z3.000
G1 F2400 E101.80392
G1 F900 X150.390 Y150.130 E101.97081
;LAYER:15
M106 S158
G0 F9000 X150.037 Y150.375 Z3.200
;TYPE:WALL-INNER
G1 F900 X149.525 Y150.376 E101.99210
G1 X147.681 Y150.375 E102.06876
G1 X147.450 Y150.188 E102.08112
G1 X147.450 Y149.585 E102.10619
G1 X152.500 Y146.670 E102.34861
G1 X157.550 Y149.585 E102.59103
G1 X157.550 Y155.415 E102.83342
G1 X152.500 Y158.330 E103.07584
G1 X147.450 Y155.415 E103.31826
G1 X147.450 Y154.822 E103.34291
G1 X147.698 Y154.624 E103.35611
G1 X149.527 Y154.625 E103.43215
G1 X150.037 Y154.624 E103.45335
G1 X151.285 Y154.624 E103.50524
G1 X151.363 Y154.672 E103.50904
G1 X151.719 Y154.824 E103.52514
G1 X152.170 Y154.930 E103.54440
G1 X152.545 Y154.953 E103.56002
G1 X153.011 Y154.899 E103.57952
G1 X153.432 Y154.768 E103.59785
G1 X153.766 Y154.600 E103.61340
G1 X154.153 Y154.313 E103.63343
G1 X154.559 Y153.837 E103.65944
G1 X154.820 Y153.298 E103.68434
G1 X154.930 Y152.830 E103.70432
G1 X154.953 Y152.455 E103.71994
G1 X154.899 Y151.989 E103.73945
G1 X154.768 Y151.568 E103.75778
G1 X154.600 Y151.234 E103.77332
G1 X154.313 Y150.847 E103.79335
G1 X153.837 Y150.441 E103.81936
G1 X153.298 Y150.180 E103.84426
G1 X152.830 Y150.070 E103.86425
G1 X152.455 Y150.047 E103.87987
G1 X151.989 Y150.101 E103.89937
G1 X151.560 Y150.235 E103.91806
G1 X151.294 Y150.376 E103.93058
G1 X150.037 Y150.375 E103.98284
G1 F2400 E103.38284
G1 Z3.700
G0 F9000 X151.753 Y150.698
;TYPE:WALL-OUTER
G1 Z3.200
G1 F2400 E103.98284
G1 F900 X151.420 Y150.876 E103.99853
G1 X147.471 Y150.875 E104.16271
G1 X147.413 Y150.801 E104.16662
G1 X147.084 Y150.535 E104.18421
G1 X146.950 Y150.470 E104.19041
G1 X146.950 Y149.297 E104.23917
G1 X152.500 Y146.092 E104.50563
G1 X158.050 Y149.297 E104.77208
G1 X158.050 Y155.703 E105.03841
G1 X152.500 Y158.908 E105.30486
G1 X146.950 Y155.703 E105.57131
G1 X146.950 Y154.523 E105.62037
G1 X147.107 Y154.449 E105.62759
G1 X147.350 Y154.262 E105.64034
G1 X147.466 Y154.124 E105.64783
G1 X151.426 Y154.124 E105.81247
G1 X151.594 Y154.227 E105.82066
G1 X151.876 Y154.347 E105.83340
G1 X152.243 Y154.433 E105.84908
G1 X152.532 Y154.451 E105.86111
G1 X152.907 Y154.408 E105.87681
G1 X153.244 Y154.303 E105.89148
G1 X153.503 Y154.173 E105.90353
G1 X153.810 Y153.945 E105.91943
G1 X154.137 Y153.561 E105.94040
G1 X154.346 Y153.130 E105.96031
G1 X154.433 Y152.757 E105.97624
G1 X154.451 Y152.468 E105.98828
G1 X154.408 Y152.093 E106.00397
G1 X154.303 Y151.756 E106.01864
G1 X154.173 Y151.497 E106.03069
G1 X153.945 Y151.190 E106.04659
G1 X153.561 Y150.863 E106.06756
G1 X153.130 Y150.654 E106.08747
G1 X152.757 Y150.567 E106.10340
G1 X152.468 Y150.549 E106.11544
G1 X152.093 Y150.592 E106.13113
G1 X151.753 Y150.698 E106.14594
G1 F2400 E105.54594
G1 Z3.700
G0 F9000 X150.319 Y150.200
;TYPE:FILL
G1 Z3.200
G1 F2400 E106.14594
G1 F900 X153.227 Y147.292 E106.31691
G1 F2400 E105.71691
G1 Z3.700
G0 F9000 X151.173 Y147.637
G1 Z3.200
G1 F2400 E106.31691
G1 F900 X153.732 Y150.197 E106.46740
G1 F2400 E105.86740
G1 Z3.700
G0 F9000 X154.821 Y151.286
G1 Z3.200
G1 F2400 E106.46740
G1 F900 X157.374 Y153.838 E106.61748
G1 F2400 E106.01748
G1 Z3.700
G0 F9000 X155.126 Y152.464
G1 Z3.200
G1 F2400 E106.61748
G1 F900 X157.374 Y150.217 E106.74962
G1 F2400 E106.14962
G1 Z3.700
G0 F9000 X152.469 Y155.122
G1 Z3.200
G1 F2400 E106.74962
G1 F900 X150.574 Y157.016 E106.86101
G1 F2400 E106.26101
G1 Z3.700
G0 F9000 X151.300 Y154.835
G1 Z3.200
G1 F2400 E106.86101
G1 F900 X153.826 Y157.361 E107.00953
;LAYER:16
M106 S168
G1 F2400 E106.40953
G1 Z3.700
G0 F9000 X153.024 Y154.897 Z3.400
;TYPE:WALL-INNER
G1 Z3.400
G1 F2400 E107.00953
G1 F900 X153.498 Y154.742 E107.03027
G1 X154.023 Y154.423 E107.05581
G1 X154.364 Y154.091 E107.07559
G1 X154.543 Y153.855 E107.08791
G1 X154.724 Y153.528 E107.10345
G1 X154.879 Y153.091 E107.12272
G1 X154.944 Y152.684 E107.13986
G1 X154.951 Y152.473 E107.14864
G1 X154.897 Y151.976 E107.16942
G1 X154.742 Y151.502 E107.19016
G1 X154.423 Y150.977 E107.21570
G1 X154.091 Y150.636 E107.23548
G1 X153.855 Y150.457 E107.24780
G1 X153.528 Y150.276 E107.26334
G1 X153.091 Y150.121 E107.28261
G1 X152.684 Y150.056 E107.29975
G1 X152.473 Y150.049 E107.30853
G1 X151.976 Y150.103 E107.32931
G1 X151.540 Y150.246 E107.34839
G1 X151.352 Y150.334 E107.35702
G1 X151.112 Y150.482 E107.36874
G1 X147.705 Y150.483 E107.51039
G1 X147.665 Y150.434 E107.51302
G1 X147.450 Y150.268 E107.52431
G1 X147.450 Y149.584 E107.55275
G1 X152.500 Y146.669 E107.79517
G1 X157.550 Y149.584 E108.03759
G1 X157.550 Y155.416 E108.28006
G1 X152.500 Y158.331 E108.52248
G1 X147.450 Y155.416 E108.76490
G1 X147.450 Y154.731 E108.79338
G1 X147.711 Y154.518 E108.80739
G1 X149.372 Y154.517 E108.87644
G1 X149.964 Y154.519 E108.90105
G1 X151.124 Y154.517 E108.94928
G1 X151.282 Y154.633 E108.95743
G1 X151.895 Y154.876 E108.98485
G1 X152.316 Y154.944 E109.00258
G1 X152.527 Y154.951 E109.01135
G1 X153.024 Y154.897 E109.03214
G0 F9000 X152.918 Y154.406
;TYPE:WALL-OUTER
G1 F900 X153.287 Y154.285 E109.04828
G1 X153.715 Y154.025 E109.06910
G1 X153.988 Y153.759 E109.08495
G1 X154.123 Y153.581 E109.09424
G1 X154.267 Y153.322 E109.10656
G1 X154.392 Y152.967 E109.12221
G1 X154.445 Y152.635 E109.13618
G1 X154.450 Y152.491 E109.14217
G1 X154.406 Y152.082 E109.15928
G1 X154.285 Y151.713 E109.17542
G1 X154.025 Y151.285 E109.19624
G1 X153.759 Y151.012 E109.21209
G1 X153.581 Y150.877 E109.22138
G1 X153.322 Y150.733 E109.23370
G1 X152.967 Y150.608 E109.24934
G1 X152.635 Y150.555 E109.26332
G1 X152.491 Y150.550 E109.26931
G1 X152.082 Y150.594 E109.28641
G1 X151.725 Y150.711 E109.30203
G1 X151.383 Y150.902 E109.31832
G1 X151.277 Y150.982 E109.32384
G1 X147.503 Y150.983 E109.48075
G1 X147.469 Y150.983 E109.48216
G1 X147.315 Y150.795 E109.49226
G1 X147.079 Y150.614 E109.50463
G1 X146.950 Y150.555 E109.51053
G1 X146.950 Y149.296 E109.56287
G1 X152.500 Y146.091 E109.82932
G1 X158.050 Y149.296 E110.09577
G1 X158.050 Y155.704 E110.36219
G1 X152.500 Y158.909 E110.62864
G1 X146.950 Y155.704 E110.89509
G1 X146.950 Y154.446 E110.94739
G1 X147.081 Y154.386 E110.95339
G1 X147.344 Y154.178 E110.96733
G1 X147.479 Y154.018 E110.97603
G1 X151.287 Y154.017 E111.13435
G1 X151.526 Y154.192 E111.14666
G1 X152.028 Y154.391 E111.16911
G1 X152.365 Y154.445 E111.18330
G1 X152.509 Y154.450 E111.18929
G1 X152.918 Y154.406 E111.20640
G0 F9000 X152.468 Y155.122
;TYPE:FILL
G1 F900 X150.574 Y157.016 E111.31776
G1 F2400 E110.71776
G1 Z3.900
G0 F9000 X151.286 Y154.822
G1 Z3.400
G1 F2400 E111.31776
G1 F900 X153.826 Y157.361 E111.46707
G1 F2400 E110.86707
G1 Z3.900
G0 F9000 X157.374 Y153.838
G1 Z3.400
G1 F2400 E111.46707
G1 F900 X154.803 Y151.267 E111.61823
G0 F9000 X155.125 Y152.466
G1 F900 X157.373 Y150.217 E111.75044
G1 F2400 E111.15044
G1 Z3.900
G0 F9000 X153.715 Y150.179
G1 Z3.400
G1 F2400 E111.75044
G1 F900 X151.173 Y147.637 E111.89990
G1 F2400 E111.29990
G1 Z3.900
G0 F9000 X153.228 Y147.291
G1 Z3.400
G1 F2400 E111.89990
G1 F900 X150.212 Y150.307 E112.07723
;LAYER:17
M106 S178
G0 F9000 X151.010 Y150.554 Z3.600
;TYPE:WALL-INNER
G1 F900 X150.925 Y150.633 E112.08205
G1 X148.369 Y150.634 E112.18832
G1 X147.736 Y150.633 E112.21463
G1 X147.726 Y150.619 E112.21535
G1 X147.450 Y150.383 E112.23045
G1 X147.450 Y149.585 E112.26362
G1 X152.500 Y146.670 E112.50605
G1 X157.550 Y149.585 E112.74847
G1 X157.550 Y155.415 E112.99085
G1 X152.500 Y158.330 E113.23327
G1 X147.450 Y155.415 E113.47569
G1 X147.450 Y154.619 E113.50879
G1 X147.609 Y154.495 E113.51717
G1 X147.727 Y154.367 E113.52441
G1 X148.508 Y154.366 E113.55688
G1 X149.526 Y154.367 E113.59920
G1 X150.773 Y154.366 E113.65105
G1 X150.925 Y154.366 E113.65737
G1 X151.012 Y154.447 E113.66231
G1 X151.405 Y154.690 E113.68152
G1 X151.772 Y154.840 E113.69800
G1 X152.171 Y154.929 E113.71500
G1 X152.512 Y154.953 E113.72921
G1 X152.984 Y154.905 E113.74894
G1 X153.506 Y154.739 E113.77171
G1 X154.035 Y154.414 E113.79752
G1 X154.381 Y154.071 E113.81778
G1 X154.630 Y153.719 E113.83570
G1 X154.839 Y153.236 E113.85758
G1 X154.929 Y152.829 E113.87491
G1 X154.953 Y152.488 E113.88912
G1 X154.905 Y152.016 E113.90885
G1 X154.739 Y151.494 E113.93162
G1 X154.414 Y150.965 E113.95743
G1 X154.071 Y150.619 E113.97769
G1 X153.719 Y150.370 E113.99562
G1 X153.236 Y150.161 E114.01750
G1 X152.829 Y150.071 E114.03483
G1 X152.488 Y150.047 E114.04904
G1 X152.016 Y150.095 E114.06876
G1 X151.529 Y150.250 E114.09001
G1 X151.298 Y150.363 E114.10070
G1 X151.010 Y150.554 E114.11507
G0 F9000 X151.321 Y150.948
;TYPE:WALL-OUTER
G1 F900 X151.122 Y151.133 E114.12637
G1 X147.479 Y151.133 E114.27782
G1 X147.355 Y150.959 E114.28671
G1 X147.092 Y150.734 E114.30110
G1 X146.950 Y150.656 E114.30783
G1 X146.950 Y149.297 E114.36433
G1 X152.500 Y146.092 E114.63079
G1 X158.050 Y149.297 E114.89724
G1 X158.050 Y155.703 E115.16357
G1 X152.500 Y158.908 E115.43002
G1 X146.950 Y155.703 E115.69647
G1 X146.950 Y154.338 E115.75323
G1 X147.083 Y154.272 E115.75940
G1 X147.269 Y154.126 E115.76923
G1 X147.432 Y153.949 E115.77923
G1 X147.485 Y153.867 E115.78329
G1 X151.122 Y153.867 E115.93450
G1 X151.321 Y154.052 E115.94580
G1 X151.614 Y154.235 E115.96016
G1 X151.922 Y154.361 E115.97399
G1 X152.243 Y154.433 E115.98767
G1 X152.504 Y154.451 E115.99855
G1 X152.882 Y154.413 E116.01434
G1 X153.296 Y154.281 E116.03241
G1 X153.724 Y154.018 E116.05329
G1 X153.998 Y153.747 E116.06932
G1 X154.191 Y153.473 E116.08325
G1 X154.361 Y153.081 E116.10101
G1 X154.433 Y152.757 E116.11481
G1 X154.451 Y152.496 E116.12569
G1 X154.413 Y152.118 E116.14148
G1 X154.281 Y151.704 E116.15955
G1 X154.018 Y151.276 E116.18044
G1 X153.747 Y151.002 E116.19646
G1 X153.473 Y150.809 E116.21039
G1 X153.081 Y150.639 E116.22816
G1 X152.757 Y150.567 E116.24195
G1 X152.496 Y150.549 E116.25283
G1 X152.118 Y150.587 E116.26863
G1 X151.716 Y150.715 E116.28617
G1 X151.547 Y150.798 E116.29399
G1 X151.321 Y150.948 E116.30527
G0 F9000 X150.062 Y150.458
;TYPE:FILL
G1 F900 X153.227 Y147.292 E116.49139
G1 F2400 E115.89139
G1 Z4.100
G0 F9000 X151.173 Y147.637
G1 Z3.600
G1 F2400 E116.49139
G1 F900 X153.712 Y150.176 E116.64067
G1 F2400 E116.04067
G1 Z4.100
G0 F9000 X154.806 Y151.271
G1 Z3.600
G1 F2400 E116.64067
G1 F900 X157.374 Y153.838 E116.79163
G1 F2400 E116.19163
G1 Z4.100
G0 F9000 X155.125 Y152.465
G1 Z3.600
G1 F2400 E116.79163
G1 F900 X157.374 Y150.217 E116.92384
G1 F2400 E116.32384
G1 Z4.100
G0 F9000 X152.467 Y155.124
G1 Z3.600
G1 F2400 E116.92384
G1 F900 X150.574 Y157.016 E117.03511
G1 F2400 E116.43511
G1 Z4.100
G0 F9000 X151.286 Y154.822
G1 Z3.600
G1 F2400 E117.03511
G1 F900 X153.826 Y157.361 E117.18442
;LAYER:18
M106 S191
G1 F2400 E116.58442
G1 Z4.100
G0 F9000 X153.111 Y154.876 Z3.800
;TYPE:WALL-INNER
G1 Z3.800
G1 F2400 E117.18442
G1 F960 X153.450 Y154.760 E117.19932
G1 X153.874 Y154.534 E117.21929
G1 X154.343 Y154.122 E117.24525
G1 X154.664 Y153.657 E117.26874
G1 X154.864 Y153.152 E117.29132
G1 X154.930 Y152.819 E117.30543
G1 X154.953 Y152.476 E117.31973
G1 X154.876 Y151.889 E117.34434
G1 X154.760 Y151.550 E117.35924
G1 X154.534 Y151.126 E117.37921
G1 X154.122 Y150.657 E117.40517
G1 X153.657 Y150.336 E117.42866
G1 X153.152 Y150.136 E117.45124
G1 X152.819 Y150.070 E117.46535
G1 X152.476 Y150.047 E117.47965
G1 X151.889 Y150.124 E117.50426
G1 X151.532 Y150.246 E117.51994
G1 X150.961 Y150.589 E117.54764
G1 X150.688 Y150.852 E117.56340
G1 X147.994 Y150.853 E117.67540
G1 X147.773 Y150.853 E117.68459
G1 X147.521 Y150.581 E117.70001
G1 X147.450 Y150.530 E117.70364
G1 X147.450 Y149.585 E117.74293
G1 X152.500 Y146.670 E117.98535
G1 X157.550 Y149.585 E118.22777
G1 X157.550 Y155.415 E118.47016
G1 X152.500 Y158.330 E118.71258
G1 X147.450 Y155.415 E118.95500
G1 X147.450 Y154.470 E118.99429
G1 X147.509 Y154.431 E118.99723
G1 X147.757 Y154.173 E119.01211
G1 X147.774 Y154.148 E119.01336
G1 X148.882 Y154.147 E119.05943
G1 X150.243 Y154.149 E119.11601
G1 X150.687 Y154.148 E119.13447
G1 X150.982 Y154.426 E119.15132
G1 X151.381 Y154.683 E119.17106
G1 X151.851 Y154.865 E119.19201
G1 X152.181 Y154.930 E119.20599
G1 X152.524 Y154.953 E119.22029
G1 X153.111 Y154.876 E119.24490
G0 F9000 X152.996 Y154.387
;TYPE:WALL-OUTER
G1 F960 X153.250 Y154.300 E119.25606
G1 X153.587 Y154.120 E119.27195
G1 X153.966 Y153.787 E119.29292
G1 X154.220 Y153.420 E119.31148
G1 X154.383 Y153.010 E119.32982
G1 X154.433 Y152.754 E119.34067
G1 X154.451 Y152.492 E119.35158
G1 X154.387 Y152.004 E119.37205
G1 X154.300 Y151.750 E119.38321
G1 X154.120 Y151.413 E119.39909
G1 X153.787 Y151.034 E119.42007
G1 X153.420 Y150.780 E119.43862
G1 X153.010 Y150.617 E119.45697
G1 X152.754 Y150.567 E119.46781
G1 X152.492 Y150.549 E119.47873
G1 X152.004 Y150.613 E119.49919
G1 X151.744 Y150.702 E119.51062
G1 X151.267 Y150.988 E119.53374
G1 X151.041 Y151.206 E119.54680
G1 X150.932 Y151.352 E119.55437
G1 X147.499 Y151.352 E119.69710
G1 X147.447 Y151.257 E119.70160
G1 X147.364 Y151.140 E119.70756
G1 X147.191 Y150.960 E119.71794
G1 X146.950 Y150.797 E119.73004
G1 X146.950 Y149.297 E119.79240
G1 X152.500 Y146.092 E120.05886
G1 X158.050 Y149.297 E120.32531
G1 X158.050 Y155.703 E120.59164
G1 X152.500 Y158.908 E120.85809
G1 X146.950 Y155.703 E121.12454
G1 X146.950 Y154.201 E121.18699
G1 X147.187 Y154.044 E121.19881
G1 X147.365 Y153.859 E121.20948
G1 X147.505 Y153.648 E121.22001
G1 X150.931 Y153.647 E121.36245
G1 X151.041 Y153.795 E121.37011
G1 X151.291 Y154.031 E121.38441
G1 X151.609 Y154.235 E121.40011
G1 X151.991 Y154.383 E121.41715
G1 X152.246 Y154.433 E121.42795
G1 X152.508 Y154.451 E121.43887
G1 X152.996 Y154.387 E121.45933
G0 F9000 X152.467 Y155.123
;TYPE:FILL
G1 F960 X150.574 Y157.016 E121.57063
G1 F2400 E120.97063
G1 Z4.300
G0 F9000 X151.305 Y154.840
G1 Z3.800
G1 F2400 E121.57063
G1 F960 X153.826 Y157.361 E121.71886
G1 F2400 E121.11886
G1 Z4.300
G0 F9000 X157.374 Y153.838
G1 Z3.800
G1 F2400 E121.71886
G1 F960 X154.812 Y151.277 E121.86946
G0 F9000 X155.127 Y152.463
G1 F960 X157.374 Y150.217 E122.00155
G1 F2400 E121.40155
G1 Z4.300
G0 F9000 X153.700 Y150.165
G1 Z3.800
G1 F2400 E122.00155
G1 F960 X151.173 Y147.637 E122.15016
G1 F2400 E121.55016
G1 Z4.300
G0 F9000 X153.227 Y147.292
G1 Z3.800
G1 F2400 E122.15016
G1 F960 X149.842 Y150.677 E122.34918
G0 F9000 X149.616 Y150.676
;TYPE:SKIN
G1 F960 X149.038 Y150.452 E122.37547
G1 X148.331 Y150.452 E122.40169
G1 X147.754 Y150.229 E122.42741
G1 F2400 E121.82741
G1 Z4.300
G0 F9000 X149.876 Y150.229
G1 Z3.800
G1 F2400 E122.42741
G1 F960 X150.453 Y150.452 E122.45369
G1 X150.827 Y150.473 E122.46926
G1 F2400 E121.86926
G1 Z4.300
G0 F9000 X150.432 Y154.321
G1 Z3.800
G1 F2400 E122.46926
G1 F960 X150.525 Y154.768 E122.49554
G1 X149.595 Y154.544 E122.52178
G1 X148.887 Y154.544 E122.54804
G1 X148.180 Y154.544 E122.57420
G1 X147.732 Y154.449 E122.59324
;LAYER:19
M106 S201
G0 F9000 X147.557 Y154.179 Z4.000
;TYPE:WALL-INNER
G1 F1020 X147.786 Y153.890 E122.60857
G1 X147.847 Y153.784 E122.61365
G1 X148.920 Y153.783 E122.65826
G1 X150.419 Y153.785 E122.72059
G1 X150.563 Y154.005 E122.73152
G1 X150.937 Y154.393 E122.75392
G1 X151.491 Y154.737 E122.78103
G1 X152.004 Y154.902 E122.80344
G1 X152.326 Y154.944 E122.81694
G1 X152.544 Y154.952 E122.82601
G1 X153.219 Y154.848 E122.85440
G1 X153.790 Y154.587 E122.88051
G1 X154.122 Y154.339 E122.89773
G1 X154.451 Y153.987 E122.91777
G1 X154.739 Y153.502 E122.94122
G1 X154.902 Y152.996 E122.96332
G1 X154.944 Y152.674 E122.97682
G1 X154.952 Y152.456 E122.98589
G1 X154.848 Y151.781 E123.01428
G1 X154.587 Y151.210 E123.04038
G1 X154.339 Y150.878 E123.05761
G1 X153.987 Y150.549 E123.07764
G1 X153.502 Y150.261 E123.10110
G1 X152.996 Y150.098 E123.12320
G1 X152.674 Y150.056 E123.13670
G1 X152.456 Y150.048 E123.14577
G1 X151.773 Y150.153 E123.17450
G1 X151.150 Y150.455 E123.20328
G1 X151.019 Y150.549 E123.20998
G1 X150.673 Y150.866 E123.22949
G1 X150.416 Y151.215 E123.24751
G1 X149.524 Y151.217 E123.28460
G1 X147.845 Y151.217 E123.35440
G1 X147.692 Y150.979 E123.36617
G1 X147.450 Y150.724 E123.38078
G1 X147.450 Y149.584 E123.42818
G1 X152.500 Y146.669 E123.67060
G1 X157.550 Y149.584 E123.91302
G1 X157.550 Y155.416 E124.15549
G1 X152.500 Y158.331 E124.39791
G1 X147.450 Y155.416 E124.64033
G1 X147.450 Y154.262 E124.68831
G1 X147.557 Y154.179 E124.69394
G0 F9000 X147.203 Y153.820
;TYPE:WALL-OUTER
G1 F1020 X147.371 Y153.608 E124.70519
G1 X147.533 Y153.284 E124.72025
G1 X150.723 Y153.285 E124.85287
G1 X150.787 Y153.434 E124.85961
G1 X150.956 Y153.692 E124.87244
G1 X151.254 Y154.001 E124.89028
G1 X151.702 Y154.280 E124.91222
G1 X152.114 Y154.412 E124.93021
G1 X152.368 Y154.445 E124.94086
G1 X152.515 Y154.451 E124.94698
G1 X153.074 Y154.365 E124.97049
G1 X153.533 Y154.154 E124.99149
G1 X153.787 Y153.965 E125.00466
G1 X154.049 Y153.685 E125.02060
G1 X154.280 Y153.295 E125.03944
G1 X154.412 Y152.886 E125.05731
G1 X154.445 Y152.632 E125.06796
G1 X154.451 Y152.485 E125.07408
G1 X154.365 Y151.926 E125.09759
G1 X154.154 Y151.467 E125.11859
G1 X153.965 Y151.213 E125.13176
G1 X153.685 Y150.951 E125.14770
G1 X153.295 Y150.720 E125.16654
G1 X152.886 Y150.588 E125.18441
G1 X152.632 Y150.555 E125.19506
G1 X152.485 Y150.549 E125.20118
G1 X151.923 Y150.636 E125.22482
G1 X151.407 Y150.886 E125.24866
G1 X151.043 Y151.205 E125.26878
G1 X150.819 Y151.512 E125.28458
G1 X150.727 Y151.714 E125.29381
G1 X147.531 Y151.716 E125.42668
G1 X147.518 Y151.675 E125.42847
G1 X147.454 Y151.534 E125.43491
G1 X147.297 Y151.289 E125.44701
G1 X147.112 Y151.095 E125.45815
G1 X146.950 Y150.984 E125.46632
G1 X146.950 Y149.296 E125.53650
G1 X152.500 Y146.091 E125.80295
G1 X158.050 Y149.296 E126.06940
G1 X158.050 Y155.704 E126.33582
G1 X152.500 Y158.909 E126.60227
G1 X146.950 Y155.704 E126.86872
G1 X146.950 Y154.015 E126.93894
G1 X147.203 Y153.820 E126.95222
G1 F2400 E126.35222
G1 Z4.500
G0 F9000 X149.479 Y151.040
;TYPE:FILL
G1 Z4.000
G1 F2400 E126.95222
G1 F1020 X153.228 Y147.291 E127.17265
G1 F2400 E126.57265
G1 Z4.500
G0 F9000 X151.173 Y147.637
G1 Z4.000
G1 F2400 E127.17265
G1 F1020 X153.729 Y150.193 E127.32293
G1 F2400 E126.72293
G1 Z4.500
G0 F9000 X154.806 Y151.271
G1 Z4.000
G1 F2400 E127.32293
G1 F1020 X157.374 Y153.838 E127.47389
G1 F2400 E126.87389
G1 Z4.500
G0 F9000 X155.126 Y152.464
G1 Z4.000
G1 F2400 E127.47389
G1 F1020 X157.373 Y150.217 E127.60601
G1 F2400 E127.00601
G1 Z4.500
G0 F9000 X152.467 Y155.123
G1 Z4.000
G1 F2400 E127.60601
G1 F1020 X150.574 Y157.016 E127.71731
G1 F2400 E127.11731
G1 Z4.500
G0 F9000 X151.270 Y154.806
G1 Z4.000
G1 F2400 E127.71731
G1 F1020 X153.826 Y157.361 E127.86756
G1 F2400 E127.26756
G1 Z4.500
G0 F9000 X150.708 Y154.408
;TYPE:SKIN
G1 Z4.000
G1 F2400 E127.86756
G1 F1020 X150.395 Y154.366 E127.88463
G1 X149.710 Y154.698 E127.91628
G0 F9000 X149.003 Y154.698
G1 F1020 X149.744 Y153.958 E127.95982
G0 F9000 X149.036 Y153.958
G1 F1020 X148.296 Y154.698 E128.00333
G0 F9000 X147.624 Y154.663
G1 F1020 X148.329 Y153.958 E128.04478
G1 F2400 E127.44478
G1 Z4.500
G0 F9000 X148.418 Y151.041
G1 Z4.000
G1 F2400 E128.04478
G1 F1020 X149.159 Y150.299 E128.08837
G0 F9000 X148.453 Y150.299
G1 F1020 X147.738 Y150.659 E128.12372
G1 X147.746 Y150.299 E128.13869
G1 F2400 E127.53869
G1 Z4.500
G0 F9000 X149.125 Y151.040
G1 Z4.000
G1 F2400 E128.13869
G1 F1020 X149.866 Y150.300 E128.18223
G0 F9000 X150.573 Y150.300
G1 F1020 X149.833 Y151.040 E128.22574
;LAYER:20
M106 S211
G0 F9000 X150.347 Y151.326 Z4.200
;TYPE:WALL-INNER
G1 F1080 X150.142 Y151.827 E128.24824
G1 X150.063 Y152.244 E128.26589
G1 X150.048 Y152.525 E128.27759
G1 X150.113 Y153.065 E128.30020
G1 X150.267 Y153.515 E128.31997
G1 X150.557 Y154.002 E128.34354
G1 X151.020 Y154.457 E128.37053
G1 X151.387 Y154.683 E128.38845
G1 X151.721 Y154.825 E128.40354
G1 X152.167 Y154.929 E128.42258
G1 X152.524 Y154.953 E128.43745
G1 X153.135 Y154.873 E128.46307
G1 X153.717 Y154.632 E128.48926
G1 X154.118 Y154.344 E128.50979
G1 X154.454 Y153.984 E128.53026
G1 X154.769 Y153.440 E128.55639
G1 X154.928 Y152.845 E128.58200
G1 X154.953 Y152.476 E128.59738
G1 X154.873 Y151.865 E128.62299
G1 X154.632 Y151.283 E128.64918
G1 X154.344 Y150.882 E128.66971
G1 X153.984 Y150.546 E128.69018
G1 X153.440 Y150.231 E128.71632
G1 X152.845 Y150.072 E128.74192
G1 X152.476 Y150.047 E128.75730
G1 X151.862 Y150.128 E128.78305
G1 X151.257 Y150.385 E128.81038
G1 X150.890 Y150.650 E128.82920
G1 X150.561 Y150.999 E128.84914
G1 X150.347 Y151.326 E128.86538
G1 F2400 E128.26538
G1 Z4.700
G0 F9000 X147.973 Y152.017
G1 Z4.200
G1 F2400 E128.86538
G1 F1080 X147.856 Y151.622 E128.88251
G1 X147.758 Y151.420 E128.89185
G1 X147.640 Y151.227 E128.90125
G1 X147.487 Y151.039 E128.91133
G1 X147.450 Y151.008 E128.91334
G1 X147.450 Y149.585 E128.97250
G1 X152.500 Y146.670 E129.21492
G1 X157.550 Y149.585 E129.45734
G1 X157.550 Y155.415 E129.69972
G1 X152.500 Y158.330 E129.94215
G1 X147.450 Y155.415 E130.18457
G1 X147.450 Y153.992 E130.24373
G1 X147.502 Y153.942 E130.24673
G1 X147.640 Y153.773 E130.25580
G1 X147.762 Y153.573 E130.26554
G1 X147.881 Y153.314 E130.27739
G1 X147.997 Y152.836 E130.29784
G1 X148.019 Y152.487 E130.31238
G1 X147.973 Y152.017 E130.33201
G0 F9000 X147.480 Y152.114
;TYPE:WALL-OUTER
G1 F1080 X147.388 Y151.803 E130.34549
G1 X147.231 Y151.516 E130.35910
G1 X147.128 Y151.390 E130.36586
G1 X146.950 Y151.239 E130.37557
G1 X146.950 Y149.297 E130.45631
G1 X152.500 Y146.092 E130.72276
G1 X158.050 Y149.297 E130.98921
G1 X158.050 Y155.703 E131.25554
G1 X152.500 Y158.908 E131.52199
G1 X146.950 Y155.703 E131.78845
G1 X146.950 Y153.759 E131.86927
G1 X147.027 Y153.706 E131.87316
G1 X147.231 Y153.484 E131.88569
G1 X147.406 Y153.149 E131.90140
G1 X147.501 Y152.761 E131.91801
G1 X147.518 Y152.496 E131.92905
G1 X147.480 Y152.114 E131.94501
G1 F2400 E131.34501
G1 Z4.700
G0 F9000 X150.560 Y152.305
G1 Z4.200
G1 F2400 E131.94501
G1 F1080 X150.549 Y152.508 E131.95346
G1 X150.603 Y152.953 E131.97210
G1 X150.723 Y153.304 E131.98752
G1 X150.954 Y153.691 E132.00626
G1 X151.331 Y154.061 E132.02822
G1 X151.617 Y154.238 E132.04221
G1 X151.876 Y154.348 E132.05390
G1 X152.242 Y154.433 E132.06953
G1 X152.508 Y154.451 E132.08061
G1 X153.004 Y154.386 E132.10141
G1 X153.472 Y154.192 E132.12247
G1 X153.786 Y153.967 E132.13853
G1 X154.050 Y153.684 E132.15462
G1 X154.303 Y153.247 E132.17561
G1 X154.433 Y152.762 E132.19649
G1 X154.451 Y152.492 E132.20774
G1 X154.386 Y151.996 E132.22854
G1 X154.192 Y151.528 E132.24960
G1 X153.967 Y151.214 E132.26566
G1 X153.684 Y150.950 E132.28175
G1 X153.247 Y150.697 E132.30274
G1 X152.762 Y150.567 E132.32362
G1 X152.492 Y150.549 E132.33487
G1 X151.995 Y150.615 E132.35571
G1 X151.504 Y150.823 E132.37788
G1 X151.221 Y151.027 E132.39239
G1 X150.955 Y151.310 E132.40854
G1 X150.792 Y151.559 E132.42091
G1 X150.624 Y151.970 E132.43937
G1 X150.560 Y152.305 E132.45355
G1 F2400 E131.85355
G1 Z4.700
G0 F9000 X149.463 Y151.057
;TYPE:FILL
G1 Z4.200
G1 F2400 E132.45355
G1 F1080 X153.227 Y147.292 E132.67489
G1 F2400 E132.07489
G1 Z4.700
G0 F9000 X151.173 Y147.637
G1 Z4.200
G1 F2400 E132.67489
G1 F1080 X153.737 Y150.201 E132.82564
G1 F2400 E132.22564
G1 Z4.700
G0 F9000 X154.823 Y151.287
G1 Z4.200
G1 F2400 E132.82564
G1 F1080 X157.374 Y153.838 E132.97563
G1 F2400 E132.37563
G1 Z4.700
G0 F9000 X155.127 Y152.463
G1 Z4.200
G1 F2400 E132.97563
G1 F1080 X157.374 Y150.217 E133.10771
G1 F2400 E132.50771
G1 Z4.700
G0 F9000 X152.467 Y155.123
G1 Z4.200
G1 F2400 E133.10771
G1 F1080 X150.574 Y157.016 E133.21902
G1 F2400 E132.61902
G1 Z4.700
G0 F9000 X151.299 Y154.835
G1 Z4.200
G1 F2400 E133.21902
G1 F1080 X153.826 Y157.361 E133.36756
G1 F2400 E132.76756
G1 Z4.700
G0 F9000 X150.749 Y154.592
;TYPE:SKIN
G1 Z4.200
G1 F2400 E133.36756
G1 F1080 X150.499 Y154.514 E133.37401
G1 X150.249 Y153.830 E133.40429
G0 F9000 X149.749 Y154.592
G1 F1080 X149.749 Y150.406 E133.57832
G0 F9000 X150.249 Y150.406
G1 F1080 X150.499 Y150.848 E133.60948
G1 X150.749 Y150.406 E133.63059
G0 F9000 X149.249 Y150.406
G1 F1080 X149.249 Y154.592 E133.80463
G0 F9000 X148.749 Y154.592
G1 F1080 X148.749 Y150.406 E133.97866
G0 F9000 X148.249 Y150.406
G1 F1080 X148.249 Y154.592 E134.15269
G0 F9000 X147.749 Y154.592
G1 F1080 X147.749 Y153.914 E134.18088
G1 F2400 E133.58088
G1 Z4.700
G0 F9000 X147.749 Y151.084
G1 Z4.200
G1 F2400 E134.18088
G1 F1080 X147.749 Y150.406 E134.20907
;LAYER:21
M106 S221
G0 F9000 X147.495 Y151.497 Z4.400
;TYPE:WALL-INNER
G1 F1680 X147.450 Y151.440 E134.21209
G1 X147.450 Y149.584 E134.28925
G1 X152.500 Y146.669 E134.53168
G1 X157.550 Y149.584 E134.77410
G1 X157.550 Y155.416 E135.01656
G1 X152.500 Y158.331 E135.25899
G1 X147.450 Y155.416 E135.50141
G1 X147.450 Y153.563 E135.57845
G1 X147.483 Y153.528 E135.58045
G1 X147.652 Y153.215 E135.59523
G1 X147.769 Y152.766 E135.61453
G1 X147.789 Y152.504 E135.62545
G1 X147.747 Y152.101 E135.64230
G1 X147.633 Y151.745 E135.65784
G1 X147.495 Y151.497 E135.66964
G1 F2400 E135.06964
G1 Z4.900
G0 F9000 X150.119 Y151.913
G1 Z4.400
G1 F2400 E135.66964
G1 F1680 X150.055 Y152.341 E135.68763
G1 X150.049 Y152.529 E135.69545
G1 X150.105 Y153.046 E135.71707
G1 X150.376 Y153.735 E135.74785
G1 X150.767 Y154.234 E135.77421
G1 X150.929 Y154.380 E135.78327
G1 X151.267 Y154.618 E135.80046
G1 X151.427 Y154.703 E135.80799
G1 X151.864 Y154.870 E135.82744
G1 X152.314 Y154.944 E135.84640
G1 X152.524 Y154.951 E135.85514
G1 X152.979 Y154.906 E135.87415
G1 X153.438 Y154.766 E135.89410
G1 X153.862 Y154.540 E135.91407
G1 X154.244 Y154.227 E135.93460
G1 X154.627 Y153.728 E135.96076
G1 X154.868 Y153.146 E135.98695
G1 X154.944 Y152.686 E136.00633
G1 X154.951 Y152.476 E136.01507
G1 X154.906 Y152.021 E136.03407
G1 X154.766 Y151.562 E136.05403
G1 X154.540 Y151.138 E136.07400
G1 X154.227 Y150.756 E136.09453
G1 X153.728 Y150.373 E136.12069
G1 X153.146 Y150.132 E136.14687
G1 X152.686 Y150.056 E136.16626
G1 X152.476 Y150.049 E136.17499
G1 X152.021 Y150.094 E136.19400
G1 X151.560 Y150.234 E136.21403
G1 X151.143 Y150.459 E136.23373
G1 X150.977 Y150.581 E136.24230
G1 X150.642 Y150.896 E136.26142
G1 X150.255 Y151.510 E136.29159
G1 X150.119 Y151.913 E136.30927
G0 F9000 X150.554 Y152.386
;TYPE:WALL-OUTER
G1 F1680 X150.550 Y152.510 E136.31443
G1 X150.595 Y152.925 E136.33179
G1 X150.815 Y153.484 E136.35676
G1 X151.134 Y153.891 E136.37826
G1 X151.242 Y153.989 E136.38432
G1 X151.528 Y154.191 E136.39888
G1 X151.634 Y154.246 E136.40385
G1 X151.995 Y154.385 E136.41993
G1 X152.364 Y154.445 E136.43547
G1 X152.508 Y154.450 E136.44146
G1 X152.880 Y154.413 E136.45701
G1 X153.246 Y154.302 E136.47291
G1 X153.583 Y154.122 E136.48879
G1 X153.883 Y153.877 E136.50489
G1 X154.190 Y153.476 E136.52589
G1 X154.384 Y153.008 E136.54695
G1 X154.445 Y152.636 E136.56263
G1 X154.450 Y152.492 E136.56862
G1 X154.413 Y152.120 E136.58416
G1 X154.302 Y151.754 E136.60006
G1 X154.122 Y151.417 E136.61594
G1 X153.877 Y151.117 E136.63205
G1 X153.476 Y150.810 E136.65304
G1 X153.008 Y150.616 E136.67411
G1 X152.636 Y150.555 E136.68978
G1 X152.492 Y150.550 E136.69577
G1 X152.120 Y150.587 E136.71131
G1 X151.753 Y150.698 E136.72725
G1 X151.411 Y150.882 E136.74340
G1 X151.031 Y151.217 E136.76446
G1 X150.710 Y151.726 E136.78948
G1 X150.607 Y152.031 E136.80286
G1 X150.554 Y152.386 E136.81778
G1 F2400 E136.21778
G1 Z4.900
G0 F9000 X147.287 Y152.511
G1 Z4.400
G1 F2400 E136.81778
G1 F1680 X147.255 Y152.204 E136.83062
G1 X147.172 Y151.944 E136.84196
G1 X147.078 Y151.775 E136.85000
G1 X146.968 Y151.636 E136.85737
G1 X146.950 Y151.620 E136.85837
G1 X146.950 Y149.296 E136.95499
G1 X152.500 Y146.091 E137.22145
G1 X158.050 Y149.296 E137.48790
G1 X158.050 Y155.704 E137.75431
G1 X152.500 Y158.909 E138.02077
G1 X146.950 Y155.704 E138.28722
G1 X146.950 Y153.367 E138.38438
G1 X147.074 Y153.234 E138.39194
G1 X147.183 Y153.031 E138.40152
G1 X147.274 Y152.683 E138.41648
G1 X147.287 Y152.511 E138.42365
G0 F9000 X147.936 Y152.230
;TYPE:SKIN
G1 F1680 X153.004 Y147.162 E138.72163
G0 F9000 X153.452 Y147.421
G1 F1680 X147.894 Y152.979 E139.04841
G0 F9000 X147.625 Y153.955
G1 F1680 X150.069 Y151.511 E139.19211
G0 F9000 X149.877 Y152.410
G1 F1680 X147.625 Y154.662 E139.32452
G0 F9000 X147.660 Y155.334
G1 F1680 X149.931 Y153.063 E139.45805
G0 F9000 X150.125 Y153.576
G1 F1680 X148.109 Y155.593 E139.57661
G0 F9000 X148.557 Y155.851
G1 F1680 X150.382 Y154.026 E139.68391
G0 F9000 X150.704 Y154.411
G1 F1680 X149.005 Y156.110 E139.78381
G0 F9000 X149.454 Y156.369
G1 F1680 X151.106 Y154.717 E139.88094
G0 F9000 X151.582 Y154.948
G1 F1680 X149.902 Y156.628 E139.97972
G0 F9000 X150.350 Y156.887
G1 F1680 X152.145 Y155.092 E140.08526
G0 F9000 X152.851 Y155.093
G1 F1680 X150.798 Y157.146 E140.20596
G0 F9000 X151.246 Y157.405
G1 F1680 X154.003 Y154.648 E140.36807
G0 F9000 X154.588 Y154.063
G1 F1680 X157.373 Y151.278 E140.53181
G0 F9000 X157.373 Y151.985
G1 F1680 X151.694 Y157.664 E140.86572
G0 F9000 X152.143 Y157.923
G1 F1680 X157.373 Y152.692 E141.17325
G0 F9000 X157.373 Y153.399
G1 F1680 X152.843 Y157.929 E141.43960
G1 F2400 E140.83960
G1 Z4.900
G0 F9000 X154.516 Y156.963
G1 Z4.400
G1 F2400 E141.43960
G1 F1680 X157.373 Y154.106 E141.60758
G0 F9000 X157.373 Y154.813
G1 F1680 X156.189 Y155.998 E141.67722
G1 F2400 E141.07722
G1 Z4.900
G0 F9000 X155.093 Y152.851
G1 Z4.400
G1 F2400 E141.67722
G1 F1680 X157.373 Y150.571 E141.81128
G0 F9000 X157.373 Y149.864
G1 F1680 X155.093 Y152.144 E141.94533
G0 F9000 X154.952 Y151.578
G1 F1680 X157.038 Y149.492 E142.06798
G0 F9000 X156.590 Y149.233
G1 F1680 X154.719 Y151.103 E142.17796
G0 F9000 X154.410 Y150.705
G1 F1680 X156.142 Y148.973 E142.27979
G0 F9000 X155.694 Y148.715
G1 F1680 X154.026 Y150.383 E142.37787
G0 F9000 X153.580 Y150.122
G1 F1680 X155.246 Y148.456 E142.47582
G0 F9000 X154.797 Y148.197
G1 F1680 X153.054 Y149.940 E142.57830
G0 F9000 X152.407 Y149.880
G1 F1680 X154.349 Y147.938 E142.69248
G0 F9000 X153.901 Y147.679
G1 F1680 X151.517 Y150.063 E142.83265
G1 F2400 E142.23265
G1 Z4.900
G0 F9000 X151.038 Y147.714
G1 Z4.400
G1 F2400 E142.83265
G1 F1680 X147.624 Y151.127 E143.03335
G0 F9000 X147.791 Y151.668
G1 F1680 X152.556 Y146.903 E143.31352
G1 F2400 E142.71352
G1 Z4.900
G0 F9000 X149.364 Y148.680
G1 Z4.400
G1 F2400 E143.31352
G1 F1680 X147.624 Y150.420 E143.41582
;LAYER:22
M106 S232
G0 F9000 X147.450 Y149.585 Z4.600
;TYPE:WALL-INNER
G1 F1680 X152.500 Y146.670 E143.65825
G1 X157.550 Y149.585 E143.90067
G1 X157.550 Y155.415 E144.14305
G1 X152.500 Y158.330 E144.38547
G1 X147.450 Y155.415 E144.62789
G1 X147.450 Y149.585 E144.87028
G1 F2400 E144.27028
G1 Z5.100
G0 F9000 X150.355 Y151.309
G1 Z4.600
G1 F2400 E144.87028
G1 F1680 X150.132 Y151.863 E144.89511
G1 X150.069 Y152.180 E144.90854
G1 X150.047 Y152.560 E144.92437
G1 X150.128 Y153.124 E144.94806
G1 X150.244 Y153.463 E144.96295
G1 X150.477 Y153.888 E144.98310
G1 X150.887 Y154.350 E145.00878
G1 X151.260 Y154.613 E145.02776
G1 X151.429 Y154.704 E145.03574
G1 X151.865 Y154.870 E145.05514
G1 X152.314 Y154.944 E145.07405
G1 X152.524 Y154.951 E145.08279
G1 X152.979 Y154.906 E145.10180
G1 X153.438 Y154.766 E145.12175
G1 X153.862 Y154.540 E145.14173
G1 X154.235 Y154.235 E145.16176
G1 X154.548 Y153.852 E145.18232
G1 X154.814 Y153.312 E145.20735
G1 X154.904 Y152.978 E145.22173
G1 X154.944 Y152.674 E145.23448
G1 X154.951 Y152.476 E145.24271
G1 X154.906 Y152.021 E145.26172
G1 X154.766 Y151.562 E145.28167
G1 X154.540 Y151.138 E145.30165
G1 X154.235 Y150.765 E145.32168
G1 X153.852 Y150.452 E145.34225
G1 X153.312 Y150.186 E145.36727
G1 X152.978 Y150.096 E145.38165
G1 X152.674 Y150.056 E145.39440
G1 X152.476 Y150.049 E145.40264
G1 X152.021 Y150.094 E145.42165
G1 X151.585 Y150.227 E145.44060
G1 X151.386 Y150.317 E145.44968
G1 X150.990 Y150.565 E145.46911
G1 X150.568 Y150.989 E145.49398
G1 X150.355 Y151.309 E145.50996
G0 F9000 X150.800 Y151.544
;TYPE:WALL-OUTER
G1 F1680 X150.613 Y152.006 E145.53068
G1 X150.566 Y152.243 E145.54072
G1 X150.549 Y152.539 E145.55305
G1 X150.616 Y153.006 E145.57267
G1 X150.703 Y153.260 E145.58383
G1 X150.888 Y153.599 E145.59988
G1 X151.222 Y153.975 E145.62079
G1 X151.523 Y154.187 E145.63610
G1 X151.637 Y154.248 E145.64148
G1 X151.996 Y154.385 E145.65745
G1 X152.364 Y154.445 E145.67295
G1 X152.508 Y154.450 E145.67894
G1 X152.880 Y154.413 E145.69449
G1 X153.246 Y154.302 E145.71039
G1 X153.583 Y154.122 E145.72627
G1 X153.880 Y153.880 E145.74220
G1 X154.125 Y153.580 E145.75830
G1 X154.344 Y153.135 E145.77892
G1 X154.413 Y152.880 E145.78990
G1 X154.445 Y152.632 E145.80030
G1 X154.450 Y152.492 E145.80612
G1 X154.413 Y152.120 E145.82167
G1 X154.302 Y151.754 E145.83757
G1 X154.122 Y151.417 E145.85345
G1 X153.880 Y151.120 E145.86938
G1 X153.580 Y150.875 E145.88548
G1 X153.135 Y150.656 E145.90610
G1 X152.880 Y150.587 E145.91709
G1 X152.632 Y150.555 E145.92748
G1 X152.492 Y150.550 E145.93331
G1 X152.120 Y150.587 E145.94885
G1 X151.762 Y150.696 E145.96441
G1 X151.623 Y150.758 E145.97074
G1 X151.304 Y150.958 E145.98639
G1 X150.957 Y151.307 E146.00685
G1 X150.800 Y151.544 E146.01867
G1 F2400 E145.41867
G1 Z5.100
G0 F9000 X146.950 Y149.297
G1 Z4.600
G1 F2400 E146.01867
G1 F1680 X152.500 Y146.092 E146.28512
G1 X158.050 Y149.297 E146.55157
G1 X158.050 Y155.703 E146.81791
G1 X152.500 Y158.908 E147.08436
G1 X146.950 Y155.703 E147.35081
G1 X146.950 Y149.297 E147.61714
G0 F9000 X147.811 Y149.579
;TYPE:SKIN
G1 F1680 X149.987 Y151.755 E147.74508
G0 F9000 X150.190 Y151.250
G1 F1680 X148.259 Y149.320 E147.85859
G0 F9000 X148.708 Y149.061
G1 F1680 X150.477 Y150.830 E147.96260
G0 F9000 X150.830 Y150.477
G1 F1680 X149.156 Y148.802 E148.06105
G0 F9000 X149.604 Y148.544
G1 F1680 X151.253 Y150.193 E148.15801
G0 F9000 X151.758 Y149.990
G1 F1680 X150.053 Y148.285 E148.25825
G0 F9000 X150.501 Y148.026
G1 F1680 X152.358 Y149.884 E148.36747
G0 F9000 X153.139 Y149.957
G1 F1680 X150.948 Y147.766 E148.49629
G0 F9000 X151.397 Y147.508
G1 F1680 X157.374 Y153.485 E148.84772
G0 F9000 X157.374 Y152.778
G1 F1680 X151.845 Y147.249 E149.17280
G0 F9000 X152.293 Y146.990
G1 F1680 X157.374 Y152.071 E149.47154
G0 F9000 X157.374 Y151.363
G1 F1680 X153.406 Y147.395 E149.70485
G1 F2400 E149.10485
G1 Z5.100
G0 F9000 X155.079 Y148.361
G1 Z4.600
G1 F2400 E149.70485
G1 F1680 X157.374 Y150.656 E149.83978
G0 F9000 X157.374 Y149.949
G1 F1680 X156.752 Y149.327 E149.87635
G1 F2400 E149.27635
G1 Z5.100
G0 F9000 X155.035 Y151.854
G1 Z4.600
G1 F2400 E149.87635
G1 F1680 X157.374 Y154.192 E150.01385
G0 F9000 X157.374 Y154.899
G1 F1680 X155.118 Y152.643 E150.14649
G0 F9000 X155.013 Y153.245
G1 F1680 X157.187 Y155.419 E150.27432
G0 F9000 X156.739 Y155.678
G1 F1680 X154.799 Y153.738 E150.38838
G0 F9000 X154.518 Y154.164
G1 F1680 X156.291 Y155.937 E150.49263
G0 F9000 X155.842 Y156.196
G1 F1680 X154.165 Y154.519 E150.59123
G0 F9000 X153.741 Y154.801
G1 F1680 X155.394 Y156.455 E150.68845
G0 F9000 X154.946 Y156.713
G1 F1680 X153.240 Y155.008 E150.78872
G0 F9000 X152.639 Y155.114
G1 F1680 X154.497 Y156.972 E150.89797
G0 F9000 X154.050 Y157.232
G1 F1680 X151.864 Y155.046 E151.02650
G1 F2400 E150.42650
G1 Z5.100
G0 F9000 X149.920 Y156.637
G1 Z4.600
G1 F2400 E151.02650
G1 F1680 X147.624 Y154.342 E151.16146
G0 F9000 X147.624 Y153.635
G1 F1680 X151.593 Y157.603 E151.39479
G0 F9000 X152.705 Y158.008
G1 F1680 X147.624 Y152.928 E151.69351
G0 F9000 X147.624 Y152.220
G1 F1680 X153.153 Y157.749 E152.01859
G0 F9000 X153.601 Y157.491
G1 F1680 X147.624 Y151.513 E152.37005
G0 F9000 X147.624 Y150.806
G1 F1680 X149.952 Y153.134 E152.50692
G0 F9000 X149.883 Y152.358
G1 F1680 X147.624 Y150.099 E152.63975
G1 F2400 E152.03975
G1 Z5.100
G0 F9000 X147.624 Y155.049
G1 Z4.600
G1 F2400 E152.63975
G1 F1680 X148.247 Y155.671 E152.67635
;LAYER:23
M106 S242
G0 F9000 X147.450 Y155.415 Z4.800
;TYPE:WALL-INNER
G1 F1680 X147.450 Y149.585 E152.91873
G1 X152.500 Y146.670 E153.16115
G1 X157.550 Y149.585 E153.40357
G1 X157.550 Y155.415 E153.64596
G1 X152.500 Y158.330 E153.88838
G1 X147.450 Y155.415 E154.13080
G1 F2400 E153.53080
G1 Z5.300
G0 F9000 X150.465 Y153.867
G1 Z4.800
G1 F2400 E154.13080
G1 F1680 X150.669 Y154.130 E154.14464
G1 X150.999 Y154.439 E154.16343
G1 X151.266 Y154.618 E154.17680
G1 X151.440 Y154.708 E154.18494
G1 X151.865 Y154.870 E154.20385
G1 X152.314 Y154.944 E154.22277
G1 X152.524 Y154.951 E154.23151
G1 X152.979 Y154.906 E154.25052
G1 X153.426 Y154.770 E154.26994
G1 X153.737 Y154.618 E154.28433
G1 X154.107 Y154.351 E154.30330
G1 X154.351 Y154.107 E154.31765
G1 X154.625 Y153.727 E154.33713
G1 X154.823 Y153.288 E154.35715
G1 X154.929 Y152.833 E154.37657
G1 X154.953 Y152.488 E154.39095
G1 X154.906 Y152.021 E154.41046
G1 X154.770 Y151.574 E154.42989
G1 X154.618 Y151.263 E154.44428
G1 X154.351 Y150.893 E154.46325
G1 X154.107 Y150.649 E154.47760
G1 X153.727 Y150.375 E154.49707
G1 X153.288 Y150.177 E154.51709
G1 X152.833 Y150.071 E154.53652
G1 X152.488 Y150.047 E154.55090
G1 X152.021 Y150.094 E154.57041
G1 X151.584 Y150.227 E154.58940
G1 X151.256 Y150.388 E154.60459
G1 X150.909 Y150.635 E154.62230
G1 X150.763 Y150.771 E154.63060
G1 X150.444 Y151.166 E154.65170
G1 X150.232 Y151.568 E154.67060
G1 X150.101 Y151.999 E154.68933
G1 X150.047 Y152.523 E154.71123
G1 X150.097 Y153.000 E154.73117
G1 X150.293 Y153.569 E154.75619
G1 X150.465 Y153.867 E154.77049
G0 F9000 X150.881 Y153.587
;TYPE:WALL-OUTER
G1 F1680 X151.040 Y153.792 E154.78128
G1 X151.312 Y154.046 E154.79675
G1 X151.521 Y154.187 E154.80723
