;-- START GCODE --
;Sliced for Type A Machines Series 1
;Sliced at: Sun 08-11-2020 11:34:03
;Basic settings: Layer height: 0.2 Walls: 1 Fill: 20
;Print Speed: 45 Support: 0
;Retraction Speed: 40 Retraction Distance: 0.6
;Print time: 6 minutes
;Filament used: 0.254m 0.0g
;Settings based on: Type A Machines ProMatte
G21        ;metric values
G90        ;absolute positioning
G28     ;move to endstops
G29		;allows for auto-levelling
G1 Z15.0 F12000 ;move the platform down 15mm
G1 X150 Y5 F9000 ;center
M140 S50 ;Prep Heat Bed
M109 S210 ;Heat To temp
M190 S50 ;Heat Bed to temp
G1 X150 Y5 Z0.3 ;move the platform to purge extrusion
G92 E0 ;zero the extruded length
G1 F200 X250 E30 ;extrude 30mm of feed stock
G92 E0 ;zero the extruded length again
G1 X150 Y150  Z25 F12000 ;recenter and begin
G1 F9000

;Layer count: 40
;LAYER:0
M107
G0 F9000 X142.450 Y146.698 Z0.200
;TYPE:SKIRT
G1 F1800 X150.305 Y142.163 E0.37709
G1 X152.504 Y140.898 E0.48256
G1 X160.346 Y145.426 E0.85904
G1 X162.550 Y146.694 E0.96476
G1 X162.550 Y158.302 E1.44736
G1 X154.695 Y162.837 E1.82445
G1 X152.496 Y164.102 E1.92993
G1 X144.654 Y159.574 E2.30640
G1 X142.450 Y158.306 E2.41212
G1 X142.450 Y146.698 E2.89472
G0 F9000 X142.950 Y146.987
G1 F1800 X150.554 Y142.596 E3.25978
G1 X152.503 Y141.475 E3.35326
G1 X160.097 Y145.860 E3.71784
G1 X162.050 Y146.983 E3.81150
G1 X162.050 Y158.013 E4.27007
G1 X154.446 Y162.404 E4.63514
G1 X152.497 Y163.525 E4.72861
G1 X144.898 Y159.137 E5.09343
G1 X142.950 Y158.017 E5.18685
G1 X142.950 Y146.987 E5.64543
G0 F9000 X143.450 Y147.276
G1 F1800 X150.804 Y143.029 E5.99849
G1 X152.503 Y142.052 E6.07998
G1 X159.848 Y146.294 E6.43261
G1 X159.848 Y146.293 E6.43266
G1 X161.550 Y147.272 E6.51429
G1 X161.550 Y157.724 E6.94883
G1 X154.196 Y161.971 E7.30190
G1 X152.497 Y162.948 E7.38338
G1 X145.152 Y158.706 E7.73602
G1 X145.152 Y158.707 E7.73606
G1 X143.450 Y157.728 E7.81769
G1 X143.450 Y147.276 E8.25224
G1 F2400 E7.65224
G1 Z0.700
G0 F9000 X147.450 Y149.584
;TYPE:WALL-INNER
G1 Z0.200
G1 F2400 E8.25224
G1 F1800 X152.500 Y146.668 E8.49468
G1 X157.550 Y149.586 E8.73716
G1 X157.550 Y155.416 E8.97955
G1 X152.500 Y158.332 E9.22199
G1 X147.450 Y155.414 E9.46447
G1 X147.450 Y149.584 E9.70686
G1 F2400 E9.10686
G1 Z0.700
G0 F9000 X150.429 Y151.190
G1 Z0.200
G1 F2400 E9.70686
G1 F1800 X150.228 Y151.585 E9.72528
G1 X150.118 Y151.929 E9.74030
G1 X150.061 Y152.262 E9.75434
G1 X150.048 Y152.578 E9.76749
G1 X150.084 Y152.912 E9.78146
G1 X150.162 Y153.237 E9.79535
G1 X150.359 Y153.689 E9.81585
G1 X150.657 Y154.116 E9.83750
G1 X150.995 Y154.436 E9.85685
G1 X151.291 Y154.633 E9.87164
G1 X151.715 Y154.823 E9.89095
G1 X152.034 Y154.905 E9.90465
G1 X152.224 Y154.935 E9.91264
G1 X152.560 Y154.951 E9.92663
G1 X153.041 Y154.893 E9.94677
G1 X153.500 Y154.739 E9.96690
G1 X153.809 Y154.573 E9.98148
G1 X154.176 Y154.289 E10.00078
G1 X154.313 Y154.148 E10.00895
G1 X154.524 Y153.886 E10.02294
G1 X154.752 Y153.470 E10.04266
G1 X154.900 Y152.994 E10.06338
G1 X154.953 Y152.481 E10.08482
G1 X154.902 Y151.999 E10.10498
G1 X154.756 Y151.537 E10.12512
G1 X154.607 Y151.251 E10.13853
G1 X154.499 Y151.081 E10.14690
G1 X154.189 Y150.720 E10.16668
G1 X153.792 Y150.416 E10.18747
G1 X153.352 Y150.199 E10.20787
G1 X152.882 Y150.078 E10.22805
G1 X152.535 Y150.050 E10.24252
G1 X152.180 Y150.067 E10.25730
G1 X151.601 Y150.220 E10.28219
G1 X151.398 Y150.311 E10.29144
G1 X151.008 Y150.554 E10.31055
G1 X150.760 Y150.775 E10.32436
G1 X150.429 Y151.190 E10.34643
G0 F9000 X150.858 Y151.448
;TYPE:WALL-OUTER
G1 F1800 X150.687 Y151.784 E10.36210
G1 X150.578 Y152.173 E10.37890
G1 X150.560 Y152.307 E10.38452
G1 X150.549 Y152.561 E10.39509
G1 X150.578 Y152.827 E10.40621
G1 X150.640 Y153.087 E10.41733
G1 X150.734 Y153.326 E10.42800
G1 X150.939 Y153.667 E10.44454
G1 X151.026 Y153.777 E10.45038
G1 X151.308 Y154.043 E10.46649
G1 X151.534 Y154.194 E10.47779
G1 X151.881 Y154.350 E10.49361
G1 X152.275 Y154.437 E10.51039
G1 X152.542 Y154.450 E10.52150
G1 X152.930 Y154.403 E10.53775
G1 X153.301 Y154.278 E10.55402
G1 X153.536 Y154.152 E10.56511
G1 X153.842 Y153.915 E10.58120
G1 X154.107 Y153.607 E10.59809
G1 X154.293 Y153.267 E10.61421
G1 X154.433 Y152.758 E10.63615
G1 X154.451 Y152.490 E10.64732
G1 X154.410 Y152.102 E10.66354
G1 X154.292 Y151.729 E10.67981
G1 X154.096 Y151.380 E10.69645
G1 X153.844 Y151.085 E10.71258
G1 X153.527 Y150.843 E10.72916
G1 X153.177 Y150.670 E10.74539
G1 X152.799 Y150.573 E10.76162
G1 X152.527 Y150.551 E10.77296
G1 X152.257 Y150.564 E10.78420
G1 X151.768 Y150.693 E10.80523
G1 X151.634 Y150.753 E10.81133
G1 X151.309 Y150.956 E10.82726
G1 X151.111 Y151.132 E10.83827
G1 X150.858 Y151.448 E10.85510
G1 F2400 E10.25510
G1 Z0.700
G0 F9000 X146.950 Y149.296
G1 Z0.200
G1 F2400 E10.85510
G1 F1800 X152.500 Y146.091 E11.12156
G1 X158.050 Y149.296 E11.38801
G1 X158.050 Y155.704 E11.65442
G1 X152.500 Y158.909 E11.92088
G1 X146.950 Y155.704 E12.18733
G1 X146.950 Y149.296 E12.45374
G0 F9000 X147.810 Y149.577
;TYPE:SKIN
G1 F1800 X149.989 Y151.757 E12.58189
G0 F9000 X150.197 Y151.258
G1 F1800 X148.258 Y149.319 E12.69590
G0 F9000 X148.705 Y149.059
G1 F1800 X150.485 Y150.839 E12.80055
G0 F9000 X150.830 Y150.476
G1 F1800 X149.154 Y148.800 E12.89909
G0 F9000 X149.602 Y148.541
G1 F1800 X151.254 Y150.193 E12.99623
G0 F9000 X151.764 Y149.996
G1 F1800 X150.050 Y148.283 E13.09697
G0 F9000 X150.499 Y148.024
G1 F1800 X152.358 Y149.883 E13.20628
G0 F9000 X153.148 Y149.966
G1 F1800 X150.947 Y147.765 E13.33569
G0 F9000 X151.395 Y147.506
G1 F1800 X157.374 Y153.485 E13.68723
G0 F9000 X157.374 Y154.192
G1 F1800 X155.040 Y151.858 E13.82446
G0 F9000 X155.110 Y152.636
G1 F1800 X157.374 Y154.899 E13.95754
G0 F9000 X157.189 Y155.421
G1 F1800 X155.005 Y153.237 E14.08595
G0 F9000 X154.801 Y153.741
G1 F1800 X156.740 Y155.680 E14.19996
G0 F9000 X156.293 Y155.939
G1 F1800 X154.521 Y154.167 E14.30415
G0 F9000 X154.165 Y154.519
G1 F1800 X155.844 Y156.198 E14.40287
G0 F9000 X155.396 Y156.457
G1 F1800 X153.744 Y154.805 E14.50000
G0 F9000 X153.242 Y155.009
G1 F1800 X154.948 Y156.716 E14.60033
G0 F9000 X154.500 Y156.974
G1 F1800 X152.643 Y155.118 E14.70949
G0 F9000 X151.857 Y155.039
G1 F1800 X154.051 Y157.233 E14.83849
G0 F9000 X153.603 Y157.492
G1 F1800 X147.624 Y151.513 E15.19003
G0 F9000 X147.624 Y152.220
G1 F1800 X153.155 Y157.751 E15.51523
G0 F9000 X152.706 Y158.010
G1 F1800 X147.624 Y152.928 E15.81403
G0 F9000 X147.624 Y153.635
G1 F1800 X151.598 Y157.609 E16.04769
G1 F2400 E15.44769
G1 Z0.700
G0 F9000 X149.922 Y156.640
G1 Z0.200
G1 F2400 E16.04769
G1 F1800 X147.624 Y154.342 E16.18280
G0 F9000 X147.624 Y155.049
G1 F1800 X148.247 Y155.672 E16.21943
G1 F2400 E15.61943
G1 Z0.700
G0 F9000 X149.959 Y153.141
G1 Z0.200
G1 F2400 E16.21943
G1 F1800 X147.624 Y150.806 E16.35672
G0 F9000 X147.624 Y150.099
G1 F1800 X149.881 Y152.356 E16.48942
G1 F2400 E15.88942
G1 Z0.700
G0 F9000 X151.844 Y147.247
G1 Z0.200
G1 F2400 E16.48942
G1 F1800 X157.374 Y152.778 E16.81460
G0 F9000 X157.374 Y152.071
G1 F1800 X152.292 Y146.989 E17.11340
G0 F9000 X153.400 Y147.390
G1 F1800 X157.374 Y151.363 E17.34702
G0 F9000 X157.374 Y150.656
G1 F1800 X155.076 Y148.358 E17.48214
G1 F2400 E16.88214
G1 Z0.700
G0 F9000 X156.751 Y149.326
G1 Z0.200
G1 F2400 E17.48214
G1 F1800 X157.374 Y149.949 E17.51877
;LAYER:1
M106 S10
G0 F9000 X157.550 Y149.585 Z0.400
;TYPE:WALL-INNER
G1 F1680 X157.550 Y155.415 E17.76115
G1 X152.500 Y158.330 E18.00357
G1 X147.450 Y155.415 E18.24600
G1 X147.450 Y149.585 E18.48838
G1 X152.500 Y146.670 E18.73080
G1 X157.550 Y149.585 E18.97322
G1 F2400 E18.37322
G1 Z0.900
G0 F9000 X154.683 Y151.382
G1 Z0.400
G1 F2400 E18.97322
G1 F1680 X154.413 Y150.963 E18.99395
G1 X154.059 Y150.609 E19.01476
G1 X153.783 Y150.411 E19.02888
G1 X153.333 Y150.193 E19.04967
G1 X152.880 Y150.077 E19.06911
G1 X152.519 Y150.049 E19.08417
G1 X152.188 Y150.068 E19.09795
G1 X151.851 Y150.136 E19.11224
G1 X151.427 Y150.295 E19.13107
G1 X151.106 Y150.484 E19.14656
G1 X150.756 Y150.777 E19.16553
G1 X150.517 Y151.056 E19.18081
G1 X150.224 Y151.590 E19.20613
G1 X150.118 Y151.922 E19.22062
G1 X150.062 Y152.249 E19.23441
G1 X150.048 Y152.584 E19.24835
G1 X150.121 Y153.101 E19.27006
G1 X150.351 Y153.688 E19.29627
G1 X150.649 Y154.110 E19.31775
G1 X151.017 Y154.454 E19.33869
G1 X151.451 Y154.719 E19.35983
G1 X152.024 Y154.906 E19.38489
G1 X152.364 Y154.946 E19.39913
G1 X152.587 Y154.950 E19.40840
G1 X153.068 Y154.888 E19.42856
G1 X153.647 Y154.671 E19.45427
G1 X154.083 Y154.374 E19.47620
G1 X154.419 Y154.027 E19.49628
G1 X154.611 Y153.746 E19.51043
G1 X154.820 Y153.294 E19.53114
G1 X154.928 Y152.841 E19.55050
G1 X154.954 Y152.452 E19.56671
G1 X154.862 Y151.836 E19.59260
G1 X154.683 Y151.382 E19.61289
G0 F9000 X154.236 Y151.611
;TYPE:WALL-OUTER
G1 F1680 X154.022 Y151.279 E19.62931
G1 X153.734 Y150.991 E19.64625
G1 X153.527 Y150.842 E19.65685
G1 X153.160 Y150.665 E19.67379
G1 X152.798 Y150.572 E19.68933
G1 X152.514 Y150.550 E19.70117
G1 X152.251 Y150.565 E19.71212
G1 X151.989 Y150.618 E19.72324
G1 X151.644 Y150.748 E19.73856
G1 X151.395 Y150.894 E19.75056
G1 X151.109 Y151.134 E19.76609
G1 X150.930 Y151.342 E19.77750
G1 X150.685 Y151.788 E19.79865
G1 X150.605 Y152.041 E19.80968
G1 X150.560 Y152.302 E19.82070
G1 X150.549 Y152.559 E19.83139
G1 X150.608 Y152.973 E19.84878
G1 X150.794 Y153.449 E19.87002
G1 X151.028 Y153.780 E19.88688
G1 X151.321 Y154.054 E19.90355
G1 X151.662 Y154.262 E19.92016
G1 X152.132 Y154.415 E19.94071
G1 X152.397 Y154.447 E19.95181
G1 X152.559 Y154.449 E19.95854
G1 X152.947 Y154.399 E19.97481
G1 X153.415 Y154.224 E19.99558
G1 X153.759 Y153.989 E20.01290
G1 X154.030 Y153.709 E20.02910
G1 X154.175 Y153.498 E20.03975
G1 X154.345 Y153.129 E20.05664
G1 X154.432 Y152.766 E20.07216
G1 X154.451 Y152.473 E20.08436
G1 X154.376 Y151.966 E20.10567
G1 X154.236 Y151.611 E20.12154
G1 F2400 E19.52154
G1 Z0.900
G0 F9000 X158.050 Y149.297
G1 Z0.400
G1 F2400 E20.12154
G1 F1680 X158.050 Y155.703 E20.38787
G1 X152.500 Y158.908 E20.65432
G1 X146.950 Y155.703 E20.92077
G1 X146.950 Y149.297 E21.18710
G1 X152.500 Y146.092 E21.45356
G1 X158.050 Y149.297 E21.72001
G0 F9000 X157.374 Y149.863
;TYPE:SKIN
G1 F1680 X155.085 Y152.152 E21.85459
G0 F9000 X154.949 Y151.581
G1 F1680 X157.038 Y149.492 E21.97742
G0 F9000 X156.590 Y149.233
G1 F1680 X154.714 Y151.108 E22.08769
G0 F9000 X154.406 Y150.709
G1 F1680 X156.141 Y148.974 E22.18970
G0 F9000 X155.693 Y148.715
G1 F1680 X154.033 Y150.376 E22.28733
G0 F9000 X153.581 Y150.120
G1 F1680 X155.245 Y148.457 E22.38514
G0 F9000 X154.796 Y148.198
G1 F1680 X153.053 Y149.941 E22.48762
G0 F9000 X152.408 Y149.879
G1 F1680 X154.348 Y147.939 E22.60169
G0 F9000 X153.900 Y147.680
G1 F1680 X151.500 Y150.080 E22.74280
G1 F2400 E22.14280
G1 Z0.900
G0 F9000 X150.064 Y151.516
G1 Z0.400
G1 F2400 E22.74280
G1 F1680 X147.624 Y153.956 E22.88626
G0 F9000 X147.624 Y154.663
G1 F1680 X149.879 Y152.408 E23.01885
G0 F9000 X149.938 Y153.056
G1 F1680 X147.660 Y155.334 E23.15278
G0 F9000 X148.109 Y155.593
G1 F1680 X150.120 Y153.581 E23.27105
G0 F9000 X150.378 Y154.031
G1 F1680 X148.557 Y155.851 E23.37809
G0 F9000 X149.005 Y156.110
G1 F1680 X150.710 Y154.405 E23.47834
G0 F9000 X151.109 Y154.714
G1 F1680 X149.454 Y156.369 E23.57565
G0 F9000 X149.902 Y156.628
G1 F1680 X151.585 Y154.945 E23.67460
G0 F9000 X152.142 Y155.095
G1 F1680 X150.350 Y156.887 E23.77996
G0 F9000 X150.799 Y157.145
G1 F1680 X152.853 Y155.091 E23.90073
G0 F9000 X154.031 Y154.620
G1 F1680 X151.247 Y157.404 E24.06442
G0 F9000 X151.695 Y157.663
G1 F1680 X157.374 Y151.984 E24.39832
G0 F9000 X157.374 Y152.691
G1 F1680 X152.143 Y157.922 E24.70588
G0 F9000 X152.844 Y157.928
G1 F1680 X157.374 Y153.399 E24.97220
G0 F9000 X157.374 Y154.106
G1 F1680 X154.518 Y156.962 E25.14012
G1 F2400 E24.54012
G1 Z0.900
G0 F9000 X156.192 Y155.995
G1 Z0.400
G1 F2400 E25.14012
G1 F1680 X157.374 Y154.813 E25.20962
G1 F2400 E24.60962
G1 Z0.900
G0 F9000 X154.640 Y154.011
G1 Z0.400
G1 F2400 E25.20962
G1 F1680 X157.374 Y151.277 E25.37037
G0 F9000 X157.374 Y150.570
G1 F1680 X155.102 Y152.842 E25.50395
G1 F2400 E24.90395
G1 Z0.900
G0 F9000 X153.452 Y147.421
G1 Z0.400
G1 F2400 E25.50395
G1 F1680 X147.624 Y153.249 E25.84662
G0 F9000 X147.624 Y152.542
G1 F1680 X153.003 Y147.163 E26.16288
G0 F9000 X152.555 Y146.904
G1 F1680 X147.624 Y151.834 E26.45278
G0 F9000 X147.624 Y151.127
G1 F1680 X151.036 Y147.716 E26.65336
G1 F2400 E26.05336
G1 Z0.900
G0 F9000 X149.362 Y148.682
G1 Z0.400
G1 F2400 E26.65336
G1 F1680 X147.624 Y150.420 E26.75555
;LAYER:2
M106 S20
G0 F9000 X147.450 Y149.585 Z0.600
;TYPE:WALL-INNER
G1 F1680 X152.500 Y146.670 E26.99797
G1 X157.550 Y149.585 E27.24039
G1 X157.550 Y155.415 E27.48277
G1 X152.500 Y158.330 E27.72520
G1 X147.450 Y155.415 E27.96762
G1 X147.450 Y149.585 E28.21000
G1 F2400 E27.61000
G1 Z1.100
G0 F9000 X150.421 Y151.202
G1 Z0.600
G1 F2400 E28.21000
G1 F1680 X150.211 Y151.620 E28.22945
G1 X150.086 Y152.073 E28.24899
G1 X150.051 Y152.400 E28.26266
G1 X150.049 Y152.601 E28.27102
G1 X150.161 Y153.247 E28.29828
G1 X150.361 Y153.699 E28.31882
G1 X150.624 Y154.080 E28.33807
G1 X151.000 Y154.441 E28.35974
G1 X151.298 Y154.637 E28.37457
G1 X151.720 Y154.825 E28.39378
G1 X152.221 Y154.935 E28.41510
G1 X152.571 Y154.952 E28.42967
G1 X153.228 Y154.845 E28.45735
G1 X153.793 Y154.587 E28.48317
G1 X154.235 Y154.238 E28.50658
G1 X154.683 Y153.628 E28.53805
G1 X154.898 Y153.019 E28.56490
G1 X154.944 Y152.678 E28.57921
G1 X154.951 Y152.472 E28.58778
G1 X154.896 Y151.969 E28.60881
G1 X154.738 Y151.495 E28.62959
G1 X154.490 Y151.065 E28.65022
G1 X154.171 Y150.706 E28.67019
G1 X153.918 Y150.500 E28.68375
G1 X153.462 Y150.243 E28.70552
G1 X152.890 Y150.078 E28.73027
G1 X152.503 Y150.049 E28.74640
G1 X152.158 Y150.072 E28.76078
G1 X151.705 Y150.182 E28.78016
G1 X151.419 Y150.300 E28.79302
G1 X151.109 Y150.479 E28.80790
G1 X150.639 Y150.903 E28.83422
G1 X150.421 Y151.202 E28.84960
G0 F9000 X150.849 Y151.463
;TYPE:WALL-OUTER
G1 F1680 X150.680 Y151.801 E28.86531
G1 X150.579 Y152.166 E28.88106
G1 X150.551 Y152.429 E28.89206
G1 X150.550 Y152.561 E28.89754
G1 X150.643 Y153.101 E28.92033
G1 X150.799 Y153.454 E28.93637
G1 X151.007 Y153.754 E28.95155
G1 X151.313 Y154.048 E28.96919
G1 X151.539 Y154.197 E28.98044
G1 X151.883 Y154.350 E28.99610
G1 X152.274 Y154.437 E29.01275
G1 X152.542 Y154.450 E29.02391
G1 X153.081 Y154.362 E29.04661
G1 X153.530 Y154.157 E29.06713
G1 X153.872 Y153.887 E29.08525
G1 X154.236 Y153.392 E29.11079
G1 X154.409 Y152.901 E29.13244
G1 X154.445 Y152.635 E29.14360
G1 X154.450 Y152.491 E29.14959
G1 X154.405 Y152.077 E29.16690
G1 X154.279 Y151.701 E29.18339
G1 X154.082 Y151.359 E29.19980
G1 X153.824 Y151.068 E29.21596
G1 X153.635 Y150.915 E29.22607
G1 X153.267 Y150.707 E29.24365
G1 X152.801 Y150.573 E29.26381
G1 X152.501 Y150.550 E29.27632
G1 X152.234 Y150.568 E29.28744
G1 X151.860 Y150.659 E29.30345
G1 X151.641 Y150.749 E29.31329
G1 X151.405 Y150.886 E29.32463
G1 X151.012 Y151.240 E29.34662
G1 X150.849 Y151.463 E29.35811
G1 F2400 E28.75811
G1 Z1.100
G0 F9000 X146.950 Y149.297
G1 Z0.600
G1 F2400 E29.35811
G1 F1680 X152.500 Y146.092 E29.62456
G1 X158.050 Y149.297 E29.89101
G1 X158.050 Y155.703 E30.15734
G1 X152.500 Y158.908 E30.42380
G1 X146.950 Y155.703 E30.69025
G1 X146.950 Y149.297 E30.95658
G0 F9000 X147.811 Y149.579
;TYPE:SKIN
G1 F1680 X149.991 Y151.759 E31.08476
G0 F9000 X150.197 Y151.258
G1 F1680 X148.259 Y149.320 E31.19870
G0 F9000 X148.708 Y149.061
G1 F1680 X150.476 Y150.830 E31.30268
G0 F9000 X150.839 Y150.485
G1 F1680 X149.156 Y148.802 E31.40164
G0 F9000 X149.604 Y148.544
G1 F1680 X151.252 Y150.192 E31.49853
G0 F9000 X151.757 Y149.989
G1 F1680 X150.053 Y148.285 E31.59872
G0 F9000 X150.501 Y148.026
G1 F1680 X152.358 Y149.883 E31.70791
G0 F9000 X153.155 Y149.973
G1 F1680 X150.948 Y147.766 E31.83767
G0 F9000 X151.397 Y147.508
G1 F1680 X157.374 Y153.485 E32.18910
G0 F9000 X157.374 Y154.192
G1 F1680 X155.044 Y151.862 E32.32609
G0 F9000 X155.118 Y152.643
G1 F1680 X157.374 Y154.899 E32.45873
G0 F9000 X157.187 Y155.419
G1 F1680 X155.004 Y153.236 E32.58709
G0 F9000 X154.809 Y153.749
G1 F1680 X156.739 Y155.678 E32.70053
G0 F9000 X156.291 Y155.937
G1 F1680 X154.510 Y154.157 E32.80522
G0 F9000 X154.163 Y154.516
G1 F1680 X155.842 Y156.196 E32.90397
G0 F9000 X155.394 Y156.455
G1 F1680 X153.741 Y154.802 E33.00116
G0 F9000 X153.250 Y155.018
G1 F1680 X154.946 Y156.713 E33.10085
G0 F9000 X154.497 Y156.972
G1 F1680 X152.643 Y155.118 E33.20986
G0 F9000 X151.851 Y155.033
G1 F1680 X154.050 Y157.232 E33.33915
G0 F9000 X153.601 Y157.491
G1 F1680 X147.624 Y151.513 E33.69060
G0 F9000 X147.624 Y152.220
G1 F1680 X153.153 Y157.749 E34.01569
G0 F9000 X152.705 Y158.008
G1 F1680 X147.624 Y152.928 E34.31440
G0 F9000 X147.624 Y153.635
G1 F1680 X151.593 Y157.603 E34.54773
G1 F2400 E33.94773
G1 Z1.100
G0 F9000 X149.920 Y156.637
G1 Z0.600
G1 F2400 E34.54773
G1 F1680 X147.624 Y154.342 E34.68270
G0 F9000 X147.624 Y155.049
G1 F1680 X148.247 Y155.671 E34.71930
G1 F2400 E34.11930
G1 Z1.100
G0 F9000 X149.966 Y153.148
G1 Z0.600
G1 F2400 E34.71930
G1 F1680 X147.624 Y150.806 E34.85700
G0 F9000 X147.624 Y150.099
G1 F1680 X149.880 Y152.355 E34.98965
G1 F2400 E34.38965
G1 Z1.100
G0 F9000 X151.845 Y147.249
G1 Z0.600
G1 F2400 E34.98965
G1 F1680 X157.374 Y152.778 E35.31473
G0 F9000 X157.374 Y152.071
G1 F1680 X152.293 Y146.990 E35.61347
G0 F9000 X153.406 Y147.395
G1 F1680 X157.374 Y151.363 E35.84678
G0 F9000 X157.374 Y150.656
G1 F1680 X155.079 Y148.361 E35.98171
G1 F2400 E35.38171
G1 Z1.100
G0 F9000 X156.752 Y149.327
G1 Z0.600
G1 F2400 E35.98171
G1 F1680 X157.374 Y149.949 E36.01828
;LAYER:3
M106 S30
G0 F9000 X157.550 Y149.585 Z0.800
;TYPE:WALL-INNER
G1 F1680 X157.550 Y155.415 E36.26067
G1 X152.500 Y158.330 E36.50309
G1 X147.450 Y155.415 E36.74551
G1 X147.450 Y149.585 E36.98789
G1 X152.500 Y146.670 E37.23032
G1 X157.550 Y149.585 E37.47274
G1 F2400 E36.87274
G1 Z1.300
G0 F9000 X154.734 Y151.489
G1 Z0.800
G1 F2400 E37.47274
G1 F1680 X154.509 Y151.091 E37.49175
G1 X154.154 Y150.690 E37.51401
G1 X153.785 Y150.409 E37.53329
G1 X153.207 Y150.149 E37.55964
G1 X152.727 Y150.060 E37.57994
G1 X152.450 Y150.049 E37.59147
G1 X151.847 Y150.135 E37.61679
G1 X151.428 Y150.295 E37.63544
G1 X151.110 Y150.480 E37.65073
G1 X150.776 Y150.756 E37.66875
G1 X150.517 Y151.061 E37.68538
G1 X150.328 Y151.363 E37.70019
G1 X150.137 Y151.854 E37.72210
G1 X150.061 Y152.259 E37.73923
G1 X150.047 Y152.581 E37.75263
G1 X150.153 Y153.218 E37.77948
G1 X150.288 Y153.555 E37.79457
G1 X150.444 Y153.833 E37.80782
G1 X150.555 Y153.991 E37.81585
G1 X150.893 Y154.354 E37.83647
G1 X151.322 Y154.651 E37.85816
G1 X151.775 Y154.842 E37.87860
G1 X152.203 Y154.934 E37.89680
G1 X152.554 Y154.951 E37.91141
G1 X153.046 Y154.893 E37.93201
G1 X153.648 Y154.671 E37.95869
G1 X154.097 Y154.361 E37.98137
G1 X154.411 Y154.033 E38.00025
G1 X154.522 Y153.885 E38.00794
G1 X154.710 Y153.561 E38.02351
G1 X154.865 Y153.151 E38.04174
G1 X154.944 Y152.691 E38.06114
G1 X154.951 Y152.475 E38.07013
G1 X154.903 Y152.001 E38.08993
G1 X154.734 Y151.489 E38.11235
G0 F9000 X154.275 Y151.692
;TYPE:WALL-OUTER
G1 F1680 X154.100 Y151.383 E38.12711
G1 X153.812 Y151.058 E38.14517
G1 X153.528 Y150.842 E38.16000
G1 X153.056 Y150.630 E38.18151
G1 X152.671 Y150.558 E38.19780
G1 X152.476 Y150.550 E38.20591
G1 X151.973 Y150.622 E38.22704
G1 X151.644 Y150.748 E38.24168
G1 X151.397 Y150.891 E38.25355
G1 X151.129 Y151.113 E38.26802
G1 X150.922 Y151.357 E38.28132
G1 X150.777 Y151.588 E38.29266
G1 X150.616 Y152.001 E38.31109
G1 X150.579 Y152.166 E38.31812
G1 X150.560 Y152.304 E38.32391
G1 X150.549 Y152.550 E38.33415
G1 X150.638 Y153.083 E38.35662
G1 X150.740 Y153.339 E38.36807
G1 X150.867 Y153.566 E38.37889
G1 X150.944 Y153.675 E38.38444
G1 X151.222 Y153.974 E38.40141
G1 X151.564 Y154.210 E38.41869
G1 X151.926 Y154.363 E38.43502
G1 X152.268 Y154.437 E38.44957
G1 X152.537 Y154.450 E38.46077
G1 X152.929 Y154.404 E38.47718
G1 X153.415 Y154.224 E38.49873
G1 X153.776 Y153.975 E38.51696
G1 X154.021 Y153.720 E38.53166
G1 X154.104 Y153.609 E38.53742
G1 X154.257 Y153.346 E38.55007
G1 X154.380 Y153.019 E38.56460
G1 X154.445 Y152.640 E38.58058
G1 X154.450 Y152.492 E38.58674
G1 X154.411 Y152.106 E38.60287
G1 X154.275 Y151.692 E38.62099
G1 F2400 E38.02099
G1 Z1.300
G0 F9000 X158.050 Y149.297
G1 Z0.800
G1 F2400 E38.62099
G1 F1680 X158.050 Y155.703 E38.88732
G1 X152.500 Y158.908 E39.15377
G1 X146.950 Y155.703 E39.42022
G1 X146.950 Y149.297 E39.68655
G1 X152.500 Y146.092 E39.95301
G1 X158.050 Y149.297 E40.21946
G0 F9000 X157.374 Y149.863
;TYPE:SKIN
G1 F1680 X155.092 Y152.145 E40.35363
G0 F9000 X154.949 Y151.581
G1 F1680 X157.038 Y149.492 E40.47646
G0 F9000 X156.590 Y149.233
G1 F1680 X154.718 Y151.105 E40.58652
G0 F9000 X154.405 Y150.710
G1 F1680 X156.141 Y148.974 E40.68859
G0 F9000 X155.693 Y148.715
G1 F1680 X154.031 Y150.378 E40.78634
G0 F9000 X153.577 Y150.124
G1 F1680 X155.245 Y148.457 E40.88439
G0 F9000 X154.796 Y148.198
G1 F1680 X153.051 Y149.943 E40.98699
G0 F9000 X152.411 Y149.876
G1 F1680 X154.348 Y147.939 E41.10087
G0 F9000 X153.900 Y147.680
G1 F1680 X151.501 Y150.079 E41.24193
G1 F2400 E40.64193
G1 Z1.300
G0 F9000 X150.089 Y151.491
G1 Z0.800
G1 F2400 E41.24193
G1 F1680 X147.624 Y153.956 E41.38686
G0 F9000 X147.624 Y154.663
G1 F1680 X149.879 Y152.409 E41.51941
G0 F9000 X149.946 Y153.048
G1 F1680 X147.660 Y155.334 E41.65382
G0 F9000 X148.109 Y155.593
G1 F1680 X150.113 Y153.589 E41.77165
G0 F9000 X150.371 Y154.037
G1 F1680 X148.557 Y155.851 E41.87831
G0 F9000 X149.005 Y156.110
G1 F1680 X150.706 Y154.410 E41.97829
G0 F9000 X151.109 Y154.714
G1 F1680 X149.454 Y156.369 E42.07560
G0 F9000 X149.902 Y156.628
G1 F1680 X151.581 Y154.949 E42.17431
G0 F9000 X152.139 Y155.098
G1 F1680 X150.350 Y156.887 E42.27950
G0 F9000 X150.799 Y157.145
G1 F1680 X152.853 Y155.091 E42.40027
G0 F9000 X154.041 Y154.611
G1 F1680 X151.247 Y157.404 E42.56452
G0 F9000 X151.695 Y157.663
G1 F1680 X157.374 Y151.984 E42.89842
G0 F9000 X157.374 Y152.691
G1 F1680 X152.143 Y157.922 E43.20598
G0 F9000 X152.844 Y157.928
G1 F1680 X157.374 Y153.399 E43.47230
G0 F9000 X157.374 Y154.106
G1 F1680 X154.518 Y156.962 E43.64022
G1 F2400 E43.04022
G1 Z1.300
G0 F9000 X156.192 Y155.995
G1 Z0.800
G1 F2400 E43.64022
G1 F1680 X157.374 Y154.813 E43.70972
G1 F2400 E43.10972
G1 Z1.300
G0 F9000 X154.662 Y153.989
G1 Z0.800
G1 F2400 E43.70972
G1 F1680 X157.374 Y151.277 E43.86917
G0 F9000 X157.374 Y150.570
G1 F1680 X155.092 Y152.852 E44.00335
G1 F2400 E43.40335
G1 Z1.300
G0 F9000 X153.452 Y147.421
G1 Z0.800
G1 F2400 E44.00335
G1 F1680 X147.624 Y153.249 E44.34601
G0 F9000 X147.624 Y152.542
G1 F1680 X153.003 Y147.163 E44.66227
G0 F9000 X152.555 Y146.904
G1 F1680 X147.624 Y151.834 E44.95217
G0 F9000 X147.624 Y151.127
G1 F1680 X151.036 Y147.716 E45.15275
G1 F2400 E44.55275
G1 Z1.300
G0 F9000 X149.362 Y148.682
G1 Z0.800
G1 F2400 E45.15275
G1 F1680 X147.624 Y150.420 E45.25494
;LAYER:4
M106 S40
G0 F9000 X147.450 Y149.584 Z1.000
;TYPE:WALL-INNER
G1 F960 X152.500 Y146.669 E45.49736
G1 X157.550 Y149.584 E45.73978
G1 X157.550 Y155.416 E45.98225
G1 X152.500 Y158.331 E46.22467
G1 X147.450 Y155.416 E46.46709
G1 X147.450 Y149.584 E46.70956
G1 F2400 E46.10956
G1 Z1.500
G0 F9000 X150.535 Y151.030
G1 Z1.000
G1 F2400 E46.70956
G1 F960 X150.217 Y151.603 E46.73681
G1 X150.113 Y151.949 E46.75183
G1 X150.062 Y152.246 E46.76435
G1 X150.048 Y152.561 E46.77746
G1 X150.116 Y153.082 E46.79931
G1 X150.286 Y153.558 E46.82032
G1 X150.528 Y153.958 E46.83976
G1 X150.858 Y154.325 E46.86028
G1 X151.337 Y154.661 E46.88460
G1 X151.865 Y154.869 E46.90820
G1 X152.211 Y154.935 E46.92284
G1 X152.547 Y154.951 E46.93683
G1 X152.950 Y154.910 E46.95367
G1 X153.420 Y154.774 E46.97401
G1 X153.865 Y154.538 E46.99495
G1 X154.307 Y154.162 E47.01908
G1 X154.634 Y153.707 E47.04237
G1 X154.815 Y153.309 E47.06055
G1 X154.928 Y152.844 E47.08045
G1 X154.954 Y152.475 E47.09582
G1 X154.868 Y151.851 E47.12201
G1 X154.654 Y151.328 E47.14551
G1 X154.407 Y150.957 E47.16404
G1 X154.003 Y150.560 E47.18759
G1 X153.461 Y150.245 E47.21365
G1 X153.118 Y150.128 E47.22872
G1 X152.721 Y150.059 E47.24547
G1 X152.453 Y150.050 E47.25662
G1 X152.029 Y150.092 E47.27433
G1 X151.472 Y150.277 E47.29873
G1 X151.358 Y150.331 E47.30398
G1 X150.865 Y150.669 E47.32883
G1 X150.535 Y151.030 E47.34916
G0 F9000 X150.944 Y151.324
;TYPE:WALL-OUTER
G1 F960 X150.680 Y151.799 E47.37176
G1 X150.600 Y152.064 E47.38326
G1 X150.560 Y152.299 E47.39317
G1 X150.549 Y152.540 E47.40320
G1 X150.605 Y152.964 E47.42099
G1 X150.740 Y153.342 E47.43767
G1 X150.931 Y153.659 E47.45306
G1 X151.192 Y153.948 E47.46925
G1 X151.576 Y154.218 E47.48877
G1 X152.004 Y154.386 E47.50788
G1 X152.270 Y154.437 E47.51914
G1 X152.534 Y154.450 E47.53013
G1 X152.855 Y154.417 E47.54355
G1 X153.231 Y154.308 E47.55982
G1 X153.582 Y154.122 E47.57634
G1 X153.936 Y153.821 E47.59566
G1 X154.199 Y153.455 E47.61440
G1 X154.340 Y153.145 E47.62855
G1 X154.432 Y152.767 E47.64473
G1 X154.451 Y152.492 E47.65619
G1 X154.381 Y151.982 E47.67759
G1 X154.210 Y151.563 E47.69641
G1 X154.020 Y151.277 E47.71068
G1 X153.698 Y150.961 E47.72944
G1 X153.253 Y150.702 E47.75084
G1 X152.994 Y150.614 E47.76222
G1 X152.669 Y150.558 E47.77593
G1 X152.469 Y150.551 E47.78425
G1 X152.134 Y150.584 E47.79824
G1 X151.659 Y150.742 E47.81905
G1 X151.608 Y150.766 E47.82140
G1 X151.195 Y151.049 E47.84221
G1 X150.944 Y151.324 E47.85769
G1 F2400 E47.25769
G1 Z1.500
G0 F9000 X146.950 Y149.296
G1 Z1.000
G1 F2400 E47.85769
G1 F960 X152.500 Y146.091 E48.12415
G1 X158.050 Y149.296 E48.39060
G1 X158.050 Y155.704 E48.65701
G1 X152.500 Y158.909 E48.92346
G1 X146.950 Y155.704 E49.18992
G1 X146.950 Y149.296 E49.45633
G1 F2400 E48.85633
G1 Z1.500
G0 F9000 X147.624 Y151.160
;TYPE:FILL
G1 Z1.000
G1 F2400 E49.45633
G1 F960 X150.173 Y153.708 E49.60617
G1 F2400 E49.00617
G1 Z1.500
G0 F9000 X151.298 Y154.833
G1 Z1.000
G1 F2400 E49.60617
G1 F960 X153.826 Y157.361 E49.75481
G1 F2400 E49.15481
G1 Z1.500
G0 F9000 X152.469 Y155.122
G1 Z1.000
G1 F2400 E49.75481
G1 F960 X150.574 Y157.016 E49.86620
G1 F2400 E49.26620
G1 Z1.500
G0 F9000 X147.625 Y152.894
G1 Z1.000
G1 F2400 E49.86620
G1 F960 X153.228 Y147.291 E50.19563
G1 F2400 E49.59563
G1 Z1.500
G0 F9000 X151.173 Y147.637
G1 Z1.000
G1 F2400 E50.19563
G1 F960 X153.741 Y150.205 E50.34662
G1 F2400 E49.74662
G1 Z1.500
G0 F9000 X154.829 Y151.293
G1 Z1.000
G1 F2400 E50.34662
G1 F960 X157.374 Y153.838 E50.49626
G1 F2400 E49.89626
G1 Z1.500
G0 F9000 X155.129 Y152.462
G1 Z1.000
G1 F2400 E50.49626
G1 F960 X157.373 Y150.217 E50.62823
;LAYER:5
M106 S51
G0 F9000 X157.550 Y149.585 Z1.200
;TYPE:WALL-INNER
G1 F1020 X157.550 Y155.415 E50.87061
G1 X152.500 Y158.330 E51.11303
G1 X147.450 Y155.415 E51.35545
G1 X147.450 Y149.585 E51.59784
G1 X152.500 Y146.670 E51.84026
G1 X157.550 Y149.585 E52.08268
G1 F2400 E51.48268
G1 Z1.700
G0 F9000 X154.561 Y151.167
G1 Z1.200
G1 F2400 E52.08268
G1 F1020 X154.196 Y150.726 E52.10648
G1 X153.801 Y150.421 E52.12723
G1 X153.410 Y150.223 E52.14545
G1 X152.890 Y150.078 E52.16789
G1 X152.527 Y150.048 E52.18304
G1 X152.060 Y150.088 E52.20252
G1 X151.727 Y150.173 E52.21681
G1 X151.414 Y150.302 E52.23089
G1 X151.049 Y150.523 E52.24863
G1 X150.623 Y150.917 E52.27275
G1 X150.286 Y151.438 E52.29855
G1 X150.093 Y152.038 E52.32475
G1 X150.061 Y152.253 E52.33379
G1 X150.048 Y152.555 E52.34636
G1 X150.118 Y153.090 E52.36879
G1 X150.321 Y153.630 E52.39277
G1 X150.642 Y154.105 E52.41661
G1 X151.121 Y154.531 E52.44326
G1 X151.583 Y154.777 E52.46502
G1 X152.187 Y154.933 E52.49096
G1 X152.574 Y154.952 E52.50707
G1 X153.254 Y154.835 E52.53575
G1 X153.654 Y154.664 E52.55384
G1 X154.016 Y154.427 E52.57183
G1 X154.420 Y154.031 E52.59535
G1 X154.758 Y153.468 E52.62265
G1 X154.927 Y152.856 E52.64904
G1 X154.954 Y152.467 E52.66526
G1 X154.843 Y151.764 E52.69484
G1 X154.561 Y151.167 E52.72229
G0 F9000 X154.136 Y151.438
;TYPE:WALL-OUTER
G1 F1020 X153.846 Y151.087 E52.74122
G1 X153.533 Y150.846 E52.75765
G1 X153.229 Y150.692 E52.77182
G1 X152.801 Y150.573 E52.79028
G1 X152.528 Y150.550 E52.80167
G1 X152.144 Y150.583 E52.81770
G1 X151.885 Y150.649 E52.82881
G1 X151.639 Y150.750 E52.83987
G1 X151.351 Y150.924 E52.85386
G1 X151.009 Y151.241 E52.87324
G1 X150.742 Y151.654 E52.89369
G1 X150.582 Y152.152 E52.91544
G1 X150.549 Y152.534 E52.93138
G1 X150.606 Y152.968 E52.94958
G1 X150.768 Y153.399 E52.96872
G1 X151.021 Y153.773 E52.98749
G1 X151.409 Y154.118 E53.00908
G1 X151.766 Y154.308 E53.02589
G1 X152.262 Y154.436 E53.04719
G1 X152.543 Y154.450 E53.05888
G1 X153.111 Y154.352 E53.08285
G1 X153.417 Y154.221 E53.09669
G1 X153.701 Y154.036 E53.11078
G1 X154.024 Y153.719 E53.12959
G1 X154.294 Y153.269 E53.15141
G1 X154.432 Y152.771 E53.17290
G1 X154.451 Y152.489 E53.18465
G1 X154.360 Y151.913 E53.20889
G1 X154.136 Y151.438 E53.23073
G1 F2400 E52.63073
G1 Z1.700
G0 F9000 X158.050 Y149.297
G1 Z1.200
G1 F2400 E53.23073
G1 F1020 X158.050 Y155.703 E53.49706
G1 X152.500 Y158.908 E53.76351
G1 X146.950 Y155.703 E54.02996
G1 X146.950 Y149.297 E54.29629
G1 X152.500 Y146.092 E54.56275
G1 X158.050 Y149.297 E54.82920
G0 F9000 X157.374 Y150.217
;TYPE:FILL
G1 F1020 X155.127 Y152.463 E54.96128
G0 F9000 X154.798 Y151.262
G1 F1020 X157.374 Y153.838 E55.11274
G1 F2400 E54.51274
G1 Z1.700
G0 F9000 X153.826 Y157.361
G1 Z1.200
G1 F2400 E55.11274
G1 F1020 X151.277 Y154.812 E55.26261
G0 F9000 X152.470 Y155.120
G1 F1020 X150.574 Y157.016 E55.37409
G1 F2400 E54.77409
G1 Z1.700
G0 F9000 X150.157 Y153.693
G1 Z1.200
G1 F2400 E55.37409
G1 F1020 X149.599 Y153.134 E55.40693
G1 F2400 E54.80693
G1 Z1.700
G0 F9000 X148.658 Y151.861
G1 Z1.200
G1 F2400 E55.40693
G1 F1020 X153.227 Y147.292 E55.67557
G1 F2400 E55.07557
G1 Z1.700
G0 F9000 X151.173 Y147.637
G1 Z1.200
G1 F2400 E55.67557
G1 F1020 X153.719 Y150.183 E55.82526
G1 F2400 E55.22526
G1 Z1.700
G0 F9000 X148.325 Y151.861
G1 Z1.200
G1 F2400 E55.82526
G1 F1020 X147.935 Y151.185 E55.86647
G1 X147.624 Y151.834 E55.89639
G0 F9000 X147.624 Y152.542
;TYPE:SKIN
G1 F1020 X148.955 Y151.211 E55.97465
G0 F9000 X149.662 Y151.211
G1 F1020 X147.624 Y153.249 E56.09448
G0 F9000 X147.796 Y153.784
G1 F1020 X150.079 Y151.501 E56.22871
G0 F9000 X149.878 Y152.409
G1 F1020 X148.503 Y153.784 E56.30955
G0 F9000 X149.210 Y153.785
G1 F1020 X149.937 Y153.058 E56.35230
G0 F9000 X150.116 Y153.585
G1 F1020 X149.917 Y153.785 E56.36403
;LAYER:6
M106 S63
G0 F9000 X150.369 Y153.714 Z1.400
;TYPE:WALL-INNER
G1 F1080 X150.639 Y154.097 E56.38351
G1 X150.966 Y154.413 E56.40241
G1 X151.324 Y154.653 E56.42033
G1 X151.863 Y154.868 E56.44446
G1 X152.211 Y154.935 E56.45919
G1 X152.554 Y154.951 E56.47347
G1 X153.034 Y154.895 E56.49356
G1 X153.502 Y154.738 E56.51408
G1 X153.881 Y154.524 E56.53218
G1 X154.205 Y154.265 E56.54942
G1 X154.598 Y153.773 E56.57560
G1 X154.814 Y153.313 E56.59673
G1 X154.928 Y152.844 E56.61680
G1 X154.953 Y152.479 E56.63201
G1 X154.882 Y151.909 E56.65589
G1 X154.709 Y151.432 E56.67699
G1 X154.418 Y150.969 E56.69972
G1 X154.066 Y150.612 E56.72056
G1 X153.654 Y150.335 E56.74121
G1 X153.194 Y150.147 E56.76187
G1 X152.732 Y150.061 E56.78140
G1 X152.507 Y150.049 E56.79077
G1 X151.959 Y150.108 E56.81369
G1 X151.590 Y150.225 E56.82978
G1 X151.391 Y150.314 E56.83884
G1 X150.938 Y150.612 E56.86139
G1 X150.718 Y150.816 E56.87386
G1 X150.401 Y151.232 E56.89560
G1 X150.166 Y151.740 E56.91887
G1 X150.063 Y152.230 E56.93969
G1 X150.047 Y152.559 E56.95339
G1 X150.157 Y153.238 E56.98198
G1 X150.369 Y153.714 E57.00365
G1 F2400 E56.40365
G1 Z1.900
G0 F9000 X147.450 Y155.415
G1 Z1.400
G1 F2400 E57.00365
G1 F1080 X147.450 Y149.585 E57.24603
G1 X152.500 Y146.670 E57.48845
G1 X157.550 Y149.585 E57.73087
G1 X157.550 Y155.415 E57.97326
G1 X152.500 Y158.330 E58.21568
G1 X147.450 Y155.415 E58.45810
G0 F9000 X146.950 Y155.703
;TYPE:WALL-OUTER
G1 F1080 X146.950 Y149.297 E58.72443
G1 X152.500 Y146.092 E58.99088
G1 X158.050 Y149.297 E59.25734
G1 X158.050 Y155.703 E59.52367
G1 X152.500 Y158.908 E59.79012
G1 X146.950 Y155.703 E60.05657
G1 F2400 E59.45657
G1 Z1.900
G0 F9000 X150.806 Y153.466
G1 Z1.400
G1 F2400 E60.05657
G1 F1080 X151.020 Y153.770 E60.07203
G1 X151.281 Y154.022 E60.08711
G1 X151.559 Y154.208 E60.10102
G1 X152.004 Y154.386 E60.12095
G1 X152.270 Y154.437 E60.13221
G1 X152.537 Y154.450 E60.14332
G1 X152.925 Y154.404 E60.15956
G1 X153.298 Y154.279 E60.17592
G1 X153.600 Y154.109 E60.19033
G1 X153.849 Y153.910 E60.20358
G1 X154.171 Y153.507 E60.22503
G1 X154.340 Y153.146 E60.24160
G1 X154.432 Y152.767 E60.25781
G1 X154.451 Y152.493 E60.26923
G1 X154.393 Y152.027 E60.28875
G1 X154.257 Y151.653 E60.30530
G1 X154.023 Y151.281 E60.32357
G1 X153.745 Y150.999 E60.34003
G1 X153.417 Y150.778 E60.35648
G1 X153.052 Y150.629 E60.37287
G1 X152.673 Y150.558 E60.38890
G1 X152.521 Y150.550 E60.39523
G1 X152.062 Y150.600 E60.41442
G1 X151.768 Y150.693 E60.42724
G1 X151.632 Y150.754 E60.43344
G1 X151.247 Y151.007 E60.45259
G1 X151.089 Y151.153 E60.46154
G1 X150.832 Y151.491 E60.47919
G1 X150.643 Y151.899 E60.49789
G1 X150.560 Y152.293 E60.51463
G1 X150.549 Y152.530 E60.52449
G1 X150.640 Y153.094 E60.54824
G1 X150.806 Y153.466 E60.56518
G0 F9000 X151.291 Y154.827
;TYPE:FILL
G1 F1080 X153.826 Y157.361 E60.71420
G1 F2400 E60.11420
G1 Z1.900
G0 F9000 X152.469 Y155.121
G1 Z1.400
G1 F2400 E60.71420
G1 F1080 X150.574 Y157.016 E60.82561
G1 F2400 E60.22561
G1 Z1.900
G0 F9000 X149.200 Y151.319
G1 Z1.400
G1 F2400 E60.82561
G1 F1080 X153.227 Y147.292 E61.06239
G1 F2400 E60.46239
G1 Z1.900
G0 F9000 X151.173 Y147.637
G1 Z1.400
G1 F2400 E61.06239
G1 F1080 X153.698 Y150.162 E61.21085
G1 F2400 E60.61085
G1 Z1.900
G0 F9000 X154.825 Y151.289
G1 Z1.400
G1 F2400 E61.21085
G1 F1080 X157.374 Y153.838 E61.36072
G1 F2400 E60.76072
G1 Z1.900
G0 F9000 X155.127 Y152.463
G1 Z1.400
G1 F2400 E61.36072
G1 F1080 X157.374 Y150.217 E61.49280
G1 F2400 E60.89280
G1 Z1.900
G0 F9000 X147.783 Y151.319
G1 Z1.400
G1 F2400 E61.49280
G1 F1080 X147.624 Y151.160 E61.50215
G0 F9000 X147.624 Y151.513
;TYPE:SKIN
G1 F1080 X150.441 Y154.330 E61.66778
G0 F9000 X149.734 Y154.330
G1 F1080 X147.624 Y152.220 E61.79184
G0 F9000 X147.624 Y152.928
G1 F1080 X149.026 Y154.330 E61.87427
G0 F9000 X148.319 Y154.330
G1 F1080 X147.624 Y153.635 E61.91514
G1 F2400 E61.31514
G1 Z1.900
G0 F9000 X149.965 Y153.147
G1 Z1.400
G1 F2400 E61.91514
G1 F1080 X147.624 Y150.806 E62.05278
G0 F9000 X148.196 Y150.671
G1 F1080 X149.881 Y152.356 E62.15185
G0 F9000 X149.984 Y151.752
G1 F1080 X148.902 Y150.670 E62.21547
G0 F9000 X149.608 Y150.669
G1 F1080 X150.339 Y151.046 E62.25001
G1 X150.315 Y150.668 E62.26575
;LAYER:7
M106 S73
G0 F9000 X150.438 Y151.167 Z1.600
;TYPE:WALL-INNER
G1 F1080 X150.168 Y151.733 E62.29182
G1 X150.063 Y152.227 E62.31282
G1 X150.048 Y152.526 E62.32527
G1 X150.084 Y152.911 E62.34134
G1 X150.145 Y153.182 E62.35289
G1 X150.332 Y153.641 E62.37350
G1 X150.445 Y153.833 E62.38276
G1 X150.740 Y154.207 E62.40256
G1 X151.009 Y154.447 E62.41755
G1 X151.431 Y154.710 E62.43823
G1 X152.022 Y154.906 E62.46411
G1 X152.363 Y154.946 E62.47839
G1 X152.565 Y154.950 E62.48679
G1 X153.034 Y154.895 E62.50642
G1 X153.505 Y154.737 E62.52707
G1 X153.932 Y154.491 E62.54756
G1 X154.291 Y154.178 E62.56736
G1 X154.671 Y153.643 E62.59465
G1 X154.812 Y153.312 E62.60960
G1 X154.901 Y152.995 E62.62329
G1 X154.944 Y152.678 E62.63659
G1 X154.951 Y152.487 E62.64454
G1 X154.929 Y152.169 E62.65779
G1 X154.861 Y151.837 E62.67188
G1 X154.700 Y151.414 E62.69070
G1 X154.416 Y150.968 E62.71268
G1 X154.066 Y150.612 E62.73344
G1 X153.654 Y150.335 E62.75408
G1 X153.194 Y150.147 E62.77474
G1 X152.732 Y150.061 E62.79427
G1 X152.503 Y150.049 E62.80381
G1 X151.897 Y150.121 E62.82918
G1 X151.405 Y150.302 E62.85098
G1 X150.845 Y150.685 E62.87918
G1 X150.438 Y151.167 E62.90541
G1 F2400 E62.30541
G1 Z2.100
G0 F9000 X147.450 Y149.584
G1 Z1.600
G1 F2400 E62.90541
G1 F1080 X152.500 Y146.669 E63.14783
G1 X157.550 Y149.584 E63.39025
G1 X157.550 Y155.416 E63.63272
G1 X152.500 Y158.331 E63.87514
G1 X147.450 Y155.416 E64.11756
G1 X147.450 Y149.584 E64.36003
G0 F9000 X146.950 Y149.296
;TYPE:WALL-OUTER
G1 F1080 X152.500 Y146.091 E64.62648
G1 X158.050 Y149.296 E64.89294
G1 X158.050 Y155.704 E65.15935
G1 X152.500 Y158.909 E65.42580
G1 X146.950 Y155.704 E65.69225
G1 X146.950 Y149.296 E65.95867
G1 F2400 E65.35867
G1 Z2.100
G0 F9000 X150.861 Y151.440
G1 Z1.600
G1 F2400 E65.95867
G1 F1080 X150.645 Y151.895 E65.97961
G1 X150.560 Y152.292 E65.99649
G1 X150.549 Y152.515 E66.00577
G1 X150.579 Y152.832 E66.01901
G1 X150.624 Y153.031 E66.02749
G1 X150.781 Y153.419 E66.04489
G1 X150.858 Y153.550 E66.05121
G1 X151.105 Y153.863 E66.06779
G1 X151.310 Y154.045 E66.07918
G1 X151.645 Y154.254 E66.09560
G1 X152.131 Y154.415 E66.11689
G1 X152.397 Y154.447 E66.12802
G1 X152.540 Y154.449 E66.13397
G1 X152.925 Y154.404 E66.15009
G1 X153.299 Y154.279 E66.16648
G1 X153.640 Y154.082 E66.18285
G1 X153.918 Y153.840 E66.19818
G1 X154.232 Y153.397 E66.22075
G1 X154.339 Y153.146 E66.23210
G1 X154.410 Y152.893 E66.24302
G1 X154.445 Y152.635 E66.25385
G1 X154.450 Y152.496 E66.25963
G1 X154.432 Y152.237 E66.27042
G1 X154.379 Y151.977 E66.28145
G1 X154.251 Y151.639 E66.29648
G1 X154.023 Y151.281 E66.31413
G1 X153.745 Y150.999 E66.33059
G1 X153.417 Y150.778 E66.34703
G1 X153.052 Y150.629 E66.36342
G1 X152.673 Y150.558 E66.37945
G1 X152.520 Y150.550 E66.38582
G1 X152.015 Y150.610 E66.40697
G1 X151.636 Y150.750 E66.42376
G1 X151.183 Y151.060 E66.44659
G1 X150.861 Y151.440 E66.46729
G0 F9000 X149.512 Y151.008
;TYPE:FILL
G1 F1080 X153.228 Y147.291 E66.68581
G1 F2400 E66.08581
G1 Z2.100
G0 F9000 X151.173 Y147.637
G1 Z1.600
G1 F2400 E66.68581
G1 F1080 X153.698 Y150.162 E66.83427
G1 F2400 E66.23427
G1 Z2.100
G0 F9000 X154.833 Y151.298
G1 Z1.600
G1 F2400 E66.83427
G1 F1080 X157.374 Y153.838 E66.98364
G1 F2400 E66.38364
G1 Z2.100
G0 F9000 X155.124 Y152.467
G1 Z1.600
G1 F2400 E66.98364
G1 F1080 X157.373 Y150.217 E67.11590
G1 F2400 E66.51590
G1 Z2.100
G0 F9000 X152.469 Y155.122
G1 Z1.600
G1 F2400 E67.11590
G1 F1080 X150.574 Y157.016 E67.22729
G1 F2400 E66.62729
G1 Z2.100
G0 F9000 X151.293 Y154.829
G1 Z1.600
G1 F2400 E67.22729
G1 F1080 X153.826 Y157.361 E67.37619
G1 F2400 E66.77619
G1 Z2.100
G0 F9000 X150.707 Y154.409
;TYPE:SKIN
G1 Z1.600
G1 F2400 E67.37619
G1 F1080 X150.427 Y154.335 E67.38978
G1 X149.769 Y154.640 E67.41993
G0 F9000 X149.062 Y154.640
G1 F1080 X150.118 Y153.583 E67.48205
G0 F9000 X149.937 Y153.057
G1 F1080 X148.355 Y154.640 E67.57509
G0 F9000 X147.648 Y154.640
G1 F1080 X149.877 Y152.410 E67.70618
G0 F9000 X150.089 Y151.491
G1 F1080 X147.625 Y153.955 E67.85105
G0 F9000 X147.625 Y153.248
G1 F1080 X150.515 Y150.358 E68.02097
G0 F9000 X149.808 Y150.358
G1 F1080 X147.625 Y152.541 E68.14932
G0 F9000 X147.625 Y151.834
G1 F1080 X149.101 Y150.358 E68.23611
G0 F9000 X148.394 Y150.358
G1 F1080 X147.625 Y151.127 E68.28132
;LAYER:8
M106 S84
G1 F2400 E67.68132
G1 Z2.100
G0 F9000 X147.450 Y149.585 Z1.800
;TYPE:WALL-INNER
G1 Z1.800
G1 F2400 E68.28132
G1 F1080 X152.500 Y146.670 E68.52374
G1 X157.550 Y149.585 E68.76617
G1 X157.550 Y155.415 E69.00855
G1 X152.500 Y158.330 E69.25097
G1 X147.450 Y155.415 E69.49339
G1 X147.450 Y149.585 E69.73578
G1 F2400 E69.13578
G1 Z2.300
G0 F9000 X150.470 Y151.120
G1 Z1.800
G1 F2400 E69.73578
G1 F1080 X150.223 Y151.584 E69.75763
G1 X150.077 Y152.131 E69.78117
G1 X150.047 Y152.509 E69.79693
G1 X150.087 Y152.953 E69.81547
G1 X150.322 Y153.629 E69.84522
G1 X150.493 Y153.907 E69.85879
G1 X150.832 Y154.299 E69.88034
G1 X151.173 Y154.560 E69.89819
G1 X151.435 Y154.708 E69.91070
G1 X151.873 Y154.870 E69.93012
G1 X152.211 Y154.935 E69.94443
G1 X152.554 Y154.951 E69.95870
G1 X153.021 Y154.896 E69.97825
G1 X153.351 Y154.799 E69.99255
G1 X153.653 Y154.663 E70.00632
G1 X153.945 Y154.481 E70.02063
G1 X154.296 Y154.169 E70.04015
G1 X154.512 Y153.901 E70.05446
G1 X154.689 Y153.605 E70.06880
G1 X154.864 Y153.154 E70.08891
G1 X154.944 Y152.691 E70.10845
G1 X154.951 Y152.475 E70.11743
G1 X154.903 Y152.006 E70.13703
G1 X154.758 Y151.544 E70.15716
G1 X154.590 Y151.216 E70.17249
G1 X154.201 Y150.729 E70.19840
G1 X153.798 Y150.418 E70.21956
G1 X153.352 Y150.199 E70.24022
G1 X152.883 Y150.078 E70.26036
G1 X152.541 Y150.050 E70.27462
G1 X152.199 Y150.066 E70.28886
G1 X151.738 Y150.169 E70.30850
G1 X151.402 Y150.307 E70.32360
G1 X150.919 Y150.621 E70.34755
G1 X150.470 Y151.120 E70.37546
G0 F9000 X150.883 Y151.409
;TYPE:WALL-OUTER
G1 F1080 X150.691 Y151.769 E70.39242
G1 X150.572 Y152.216 E70.41165
G1 X150.549 Y152.506 E70.42375
G1 X150.580 Y152.847 E70.43798
G1 X150.777 Y153.414 E70.46294
G1 X150.898 Y153.610 E70.47251
G1 X151.177 Y153.933 E70.49026
G1 X151.450 Y154.142 E70.50455
G1 X151.646 Y154.253 E70.51392
G1 X152.007 Y154.387 E70.52993
G1 X152.270 Y154.437 E70.54106
G1 X152.537 Y154.450 E70.55217
G1 X152.920 Y154.405 E70.56820
G1 X153.177 Y154.329 E70.57935
G1 X153.417 Y154.221 E70.59029
G1 X153.644 Y154.079 E70.60142
G1 X153.933 Y153.823 E70.61747
G1 X154.101 Y153.614 E70.62862
G1 X154.238 Y153.384 E70.63975
G1 X154.380 Y153.020 E70.65599
G1 X154.445 Y152.640 E70.67202
G1 X154.450 Y152.492 E70.67818
G1 X154.411 Y152.107 E70.69427
G1 X154.294 Y151.735 E70.71048
G1 X154.168 Y151.489 E70.72197
G1 X153.848 Y151.088 E70.74330
G1 X153.532 Y150.845 E70.75987
G1 X153.177 Y150.670 E70.77633
G1 X152.799 Y150.573 E70.79255
G1 X152.532 Y150.551 E70.80369
G1 X152.266 Y150.563 E70.81476
G1 X151.889 Y150.648 E70.83083
G1 X151.635 Y150.752 E70.84224
G1 X151.247 Y151.004 E70.86147
G1 X150.883 Y151.409 E70.88411
G1 F2400 E70.28411
G1 Z2.300
G0 F9000 X146.950 Y149.297
G1 Z1.800
G1 F2400 E70.88411
G1 F1080 X152.500 Y146.092 E71.15057
G1 X158.050 Y149.297 E71.41702
G1 X158.050 Y155.703 E71.68335
G1 X152.500 Y158.908 E71.94980
G1 X146.950 Y155.703 E72.21626
G1 X146.950 Y149.297 E72.48259
G1 F2400 E71.88259
G1 Z2.300
G0 F9000 X149.734 Y150.785
;TYPE:FILL
G1 Z1.800
G1 F2400 E72.48259
G1 F1080 X153.227 Y147.292 E72.68796
G1 F2400 E72.08796
G1 Z2.300
G0 F9000 X151.173 Y147.637
G1 Z1.800
G1 F2400 E72.68796
G1 F1080 X153.720 Y150.184 E72.83771
G1 F2400 E72.23771
G1 Z2.300
G0 F9000 X154.820 Y151.284
G1 Z1.800
G1 F2400 E72.83771
G1 F1080 X157.374 Y153.838 E72.98788
G1 F2400 E72.38788
G1 Z2.300
G0 F9000 X155.125 Y152.466
G1 Z1.800
G1 F2400 E72.98788
G1 F1080 X157.374 Y150.217 E73.12011
G1 F2400 E72.52011
G1 Z2.300
G0 F9000 X152.469 Y155.121
G1 Z1.800
G1 F2400 E73.12011
G1 F1080 X150.574 Y157.016 E73.23153
G1 F2400 E72.63153
G1 Z2.300
G0 F9000 X151.292 Y154.828
G1 Z1.800
G1 F2400 E73.23153
G1 F1080 X153.826 Y157.361 E73.38049
G1 F2400 E72.78049
G1 Z2.300
G0 F9000 X150.975 Y154.864
;TYPE:SKIN
G1 Z1.800
G1 F2400 E73.38049
G1 F1080 X147.624 Y151.513 E73.57752
G0 F9000 X147.624 Y152.220
G1 F1080 X150.267 Y154.864 E73.73295
G0 F9000 X149.560 Y154.864
G1 F1080 X147.624 Y152.928 E73.84677
G0 F9000 X147.624 Y153.635
G1 F1080 X148.853 Y154.864 E73.91904
G0 F9000 X148.146 Y154.864
G1 F1080 X147.624 Y154.342 E73.94973
G1 F2400 E73.34973
G1 Z2.300
G0 F9000 X149.973 Y153.155
G1 Z1.800
G1 F2400 E73.94973
G1 F1080 X147.624 Y150.806 E74.08784
G0 F9000 X147.660 Y150.135
G1 F1080 X149.884 Y152.358 E74.21857
G0 F9000 X149.993 Y151.761
G1 F1080 X148.367 Y150.135 E74.31417
G0 F9000 X149.075 Y150.135
G1 F1080 X150.197 Y151.258 E74.38017
G0 F9000 X150.486 Y150.840
G1 F1080 X150.136 Y150.136 E74.42149
G1 X150.825 Y150.471 E74.45334
;LAYER:9
M106 S94
G0 F9000 X151.059 Y150.515 Z2.000
;TYPE:WALL-INNER
G1 F1080 X150.570 Y150.982 E74.48145
G1 X150.380 Y151.287 E74.49639
G1 X147.450 Y151.288 E74.61821
G1 X147.450 Y149.585 E74.68901
G1 X152.500 Y146.670 E74.93143
G1 X157.550 Y149.585 E75.17385
G1 X157.550 Y155.415 E75.41624
G1 X152.500 Y158.330 E75.65866
G1 X147.450 Y155.415 E75.90108
G1 X147.450 Y153.709 E75.97201
G1 X149.199 Y153.708 E76.04472
G1 X150.368 Y153.712 E76.09332
G1 X150.645 Y154.106 E76.11335
G1 X151.048 Y154.477 E76.13612
G1 X151.413 Y154.698 E76.15386
G1 X151.727 Y154.827 E76.16798
G1 X152.048 Y154.909 E76.18175
G1 X152.363 Y154.946 E76.19494
G1 X152.565 Y154.950 E76.20334
G1 X153.021 Y154.896 E76.22243
G1 X153.364 Y154.795 E76.23729
G1 X153.786 Y154.587 E76.25685
G1 X154.075 Y154.379 E76.27166
G1 X154.414 Y154.035 E76.29174
G1 X154.678 Y153.627 E76.31194
G1 X154.817 Y153.300 E76.32671
G1 X154.928 Y152.844 E76.34622
G1 X154.954 Y152.475 E76.36160
G1 X154.869 Y151.857 E76.38754
G1 X154.684 Y151.383 E76.40869
G1 X154.421 Y150.977 E76.42880
G1 X154.188 Y150.723 E76.44313
G1 X153.923 Y150.504 E76.45743
G1 X153.505 Y150.263 E76.47749
G1 X153.046 Y150.109 E76.49762
G1 X152.718 Y150.060 E76.51140
G1 X152.529 Y150.050 E76.51927
G1 X152.211 Y150.065 E76.53251
G1 X151.868 Y150.131 E76.54703
G1 X151.378 Y150.319 E76.56885
G1 X151.059 Y150.515 E76.58442
G0 F9000 X151.366 Y150.913
;TYPE:WALL-OUTER
G1 F1080 X150.961 Y151.300 E76.60770
G1 X150.752 Y151.636 E76.62416
G1 X150.690 Y151.787 E76.63094
G1 X146.950 Y151.788 E76.78643
G1 X146.950 Y149.297 E76.89000
G1 X152.500 Y146.092 E77.15645
G1 X158.050 Y149.297 E77.42290
G1 X158.050 Y155.703 E77.68923
G1 X152.500 Y158.908 E77.95569
G1 X146.950 Y155.703 E78.22214
G1 X146.950 Y153.209 E78.32583
G1 X149.200 Y153.208 E78.41937
G1 X150.700 Y153.213 E78.48173
G1 X150.813 Y153.480 E78.49379
G1 X151.022 Y153.773 E78.50875
G1 X151.350 Y154.075 E78.52729
G1 X151.639 Y154.250 E78.54133
G1 X151.885 Y154.351 E78.55239
G1 X152.140 Y154.416 E78.56333
G1 X152.397 Y154.447 E78.57409
G1 X152.540 Y154.449 E78.58004
G1 X152.920 Y154.405 E78.59594
G1 X153.181 Y154.328 E78.60726
G1 X153.528 Y154.157 E78.62334
G1 X153.748 Y153.998 E78.63463
G1 X154.022 Y153.720 E78.65085
G1 X154.235 Y153.392 E78.66711
G1 X154.341 Y153.142 E78.67840
G1 X154.432 Y152.767 E78.69445
G1 X154.451 Y152.492 E78.70591
G1 X154.382 Y151.984 E78.72722
G1 X154.237 Y151.612 E78.74382
G1 X154.024 Y151.284 E78.76008
G1 X153.843 Y151.086 E78.77123
G1 X153.637 Y150.916 E78.78234
G1 X153.299 Y150.721 E78.79856
G1 X152.929 Y150.597 E78.81478
G1 X152.668 Y150.558 E78.82576
G1 X152.528 Y150.551 E78.83158
G1 X152.270 Y150.563 E78.84232
G1 X152.005 Y150.614 E78.85354
G1 X151.601 Y150.769 E78.87153
G1 X151.366 Y150.913 E78.88299
G1 F2400 E78.28299
G1 Z2.500
G0 F9000 X149.408 Y151.112
;TYPE:FILL
G1 Z2.000
G1 F2400 E78.88299
G1 F1080 X153.227 Y147.292 E79.10756
G1 F2400 E78.50756
G1 Z2.500
G0 F9000 X151.173 Y147.637
G1 Z2.000
G1 F2400 E79.10756
G1 F1080 X153.720 Y150.184 E79.25731
G1 F2400 E78.65731
G1 Z2.500
G0 F9000 X154.840 Y151.305
G1 Z2.000
G1 F2400 E79.25731
G1 F1080 X157.374 Y153.838 E79.40628
G1 F2400 E78.80628
G1 Z2.500
G0 F9000 X155.129 Y152.462
G1 Z2.000
G1 F2400 E79.40628
G1 F1080 X157.374 Y150.217 E79.53827
G1 F2400 E78.93827
G1 Z2.500
G0 F9000 X152.469 Y155.122
G1 Z2.000
G1 F2400 E79.53827
G1 F1080 X150.574 Y157.016 E79.64966
G1 F2400 E79.04966
G1 Z2.500
G0 F9000 X151.295 Y154.830
G1 Z2.000
G1 F2400 E79.64966
G1 F1080 X153.826 Y157.361 E79.79847
G1 F2400 E79.19847
G1 Z2.500
G0 F9000 X151.107 Y154.716
;TYPE:SKIN
G1 Z2.000
G1 F2400 E79.79847
G1 F1080 X150.749 Y154.720 E79.81729
G1 X150.079 Y155.036 E79.84809
G0 F9000 X149.372 Y155.036
G1 F1080 X150.378 Y154.031 E79.90721
G0 F9000 X149.816 Y153.885
G1 F1080 X148.665 Y155.036 E79.97488
G0 F9000 X147.958 Y155.036
G1 F1080 X149.110 Y153.884 E80.04261
G0 F9000 X148.404 Y153.884
G1 F1080 X147.625 Y154.662 E80.08839
G0 F9000 X147.625 Y153.955
G1 F1080 X147.697 Y153.883 E80.09262
G1 F2400 E79.49262
G1 Z2.500
G0 F9000 X147.640 Y151.112
G1 Z2.000
G1 F2400 E80.09262
G1 F1080 X148.786 Y149.966 E80.16000
G0 F9000 X149.492 Y149.967
G1 F1080 X148.347 Y151.112 E80.22732
G0 F9000 X149.054 Y151.112
G1 F1080 X150.197 Y149.968 E80.29456
G0 F9000 X150.903 Y149.970
G1 F1080 X149.761 Y151.112 E80.36170
G1 F2400 E79.76170
G1 Z2.500
G0 F9000 X148.080 Y149.964
G1 Z2.000
G1 F2400 E80.36170
G1 F1080 X147.624 Y150.420 E80.38851
;LAYER:10
M106 S104
G1 F2400 E79.78851
G1 Z2.500
G0 F9000 X149.200 Y150.746 Z2.200
;TYPE:WALL-INNER
G1 Z2.200
G1 F2400 E80.38851
G1 F1020 X147.450 Y150.747 E80.46127
G1 X147.450 Y149.585 E80.50958
G1 X152.500 Y146.670 E80.75200
G1 X157.550 Y149.585 E80.99442
G1 X157.550 Y155.415 E81.23681
G1 X152.500 Y158.330 E81.47923
G1 X147.450 Y155.415 E81.72165
G1 X147.450 Y154.256 E81.76984
G1 X148.934 Y154.255 E81.83153
G1 X149.533 Y154.257 E81.85644
G1 X150.796 Y154.256 E81.90895
G1 X150.854 Y154.319 E81.91251
G1 X151.207 Y154.584 E81.93086
G1 X151.708 Y154.822 E81.95392
G1 X152.034 Y154.905 E81.96790
G1 X152.224 Y154.935 E81.97590
G1 X152.560 Y154.951 E81.98989
G1 X153.041 Y154.893 E82.01003
G1 X153.500 Y154.739 E82.03016
G1 X153.809 Y154.573 E82.04474
G1 X154.176 Y154.289 E82.06403
G1 X154.313 Y154.148 E82.07221
G1 X154.524 Y153.886 E82.08619
G1 X154.752 Y153.470 E82.10591
G1 X154.900 Y152.994 E82.12664
G1 X154.953 Y152.481 E82.14808
G1 X154.902 Y151.999 E82.16823
G1 X154.756 Y151.537 E82.18838
G1 X154.607 Y151.251 E82.20178
G1 X154.499 Y151.081 E82.21016
G1 X154.189 Y150.720 E82.22994
G1 X153.792 Y150.416 E82.25073
G1 X153.352 Y150.199 E82.27113
G1 X152.882 Y150.078 E82.29130
G1 X152.535 Y150.050 E82.30578
G1 X152.180 Y150.067 E82.32055
G1 X151.591 Y150.222 E82.34587
G1 X151.262 Y150.381 E82.36107
G1 X150.801 Y150.744 E82.38546
G1 X149.200 Y150.746 E82.45202
G1 F2400 E81.85202
G1 Z2.700
G0 F9000 X151.093 Y151.150
;TYPE:WALL-OUTER
G1 Z2.200
G1 F2400 E82.45202
G1 F1020 X151.013 Y151.243 E82.45712
G1 X146.950 Y151.247 E82.62604
G1 X146.950 Y149.297 E82.70711
G1 X152.500 Y146.092 E82.97357
G1 X158.050 Y149.297 E83.24002
G1 X158.050 Y155.703 E83.50635
G1 X152.500 Y158.908 E83.77280
G1 X146.950 Y155.703 E84.03926
G1 X146.950 Y153.756 E84.12020
G1 X151.015 Y153.756 E84.28921
G1 X151.191 Y153.946 E84.29997
G1 X151.467 Y154.154 E84.31434
G1 X151.879 Y154.349 E84.33329
G1 X152.275 Y154.437 E84.35016
G1 X152.542 Y154.450 E84.36127
G1 X152.930 Y154.403 E84.37752
G1 X153.301 Y154.278 E84.39380
G1 X153.536 Y154.152 E84.40488
G1 X153.842 Y153.915 E84.42097
G1 X154.107 Y153.607 E84.43787
G1 X154.293 Y153.267 E84.45398
G1 X154.433 Y152.758 E84.47593
G1 X154.451 Y152.490 E84.48709
G1 X154.410 Y152.102 E84.50332
G1 X154.292 Y151.729 E84.51958
G1 X154.096 Y151.380 E84.53622
G1 X153.844 Y151.085 E84.55235
G1 X153.527 Y150.843 E84.56893
G1 X153.177 Y150.670 E84.58516
G1 X152.799 Y150.573 E84.60139
G1 X152.527 Y150.551 E84.61273
G1 X152.257 Y150.564 E84.62397
G1 X151.765 Y150.693 E84.64512
G1 X151.528 Y150.808 E84.65607
G1 X151.093 Y151.150 E84.67908
G0 F9000 X149.950 Y150.569
;TYPE:FILL
G1 F1020 X153.227 Y147.292 E84.87175
G1 F2400 E84.27175
G1 Z2.700
G0 F9000 X151.173 Y147.637
G1 Z2.200
G1 F2400 E84.87175
G1 F1020 X153.722 Y150.187 E85.02165
G1 F2400 E84.42165
G1 Z2.700
G0 F9000 X154.821 Y151.285
G1 Z2.200
G1 F2400 E85.02165
G1 F1020 X157.374 Y153.838 E85.17176
G1 F2400 E84.57176
G1 Z2.700
G0 F9000 X155.125 Y152.465
G1 Z2.200
G1 F2400 E85.17176
G1 F1020 X157.374 Y150.217 E85.30396
G1 F2400 E84.70396
G1 Z2.700
G0 F9000 X152.469 Y155.121
G1 Z2.200
G1 F2400 E85.30396
G1 F1020 X150.574 Y157.016 E85.41538
G1 F2400 E84.81538
G1 Z2.700
G0 F9000 X151.273 Y154.809
G1 Z2.200
G1 F2400 E85.41538
G1 F1020 X153.826 Y157.361 E85.56546
G1 F2400 E84.96546
G1 Z2.700
G0 F9000 X151.281 Y155.171
;TYPE:SKIN
G1 Z2.200
G1 F2400 E85.56546
G1 F1020 X150.540 Y154.429 E85.60906
G0 F9000 X149.833 Y154.429
G1 F1020 X150.574 Y155.171 E85.65265
G0 F9000 X149.867 Y155.171
G1 F1020 X149.126 Y154.429 E85.69625
G0 F9000 X148.419 Y154.429
G1 F1020 X149.160 Y155.171 E85.73985
G0 F9000 X148.453 Y155.171
G1 F1020 X147.712 Y154.429 E85.78345
G0 F9000 X147.624 Y155.049
G1 F1020 X147.746 Y155.171 E85.79062
G1 F2400 E85.19062
G1 Z2.700
G0 F9000 X148.095 Y150.570
G1 Z2.200
G1 F2400 E85.79062
G1 F1020 X147.624 Y150.099 E85.81831
G0 F9000 X148.061 Y149.829
G1 F1020 X148.802 Y150.569 E85.86185
G0 F9000 X149.509 Y150.569
G1 F1020 X148.768 Y149.829 E85.90539
G0 F9000 X149.476 Y149.829
G1 F1020 X150.215 Y150.569 E85.94887
G0 F9000 X150.841 Y150.487
G1 F1020 X150.536 Y149.829 E85.98752
G1 X151.423 Y150.009 E86.00867
G1 X151.763 Y149.995 E86.02282
;LAYER:11
M106 S114
G0 F9000 X151.843 Y150.137 Z2.400
;TYPE:WALL-INNER
G1 F960 X151.329 Y150.343 E86.04584
G1 X151.196 Y150.433 E86.05252
G1 X147.450 Y150.435 E86.20826
G1 X147.450 Y149.584 E86.24364
G1 X152.500 Y146.669 E86.48606
G1 X157.550 Y149.584 E86.72848
G1 X157.550 Y155.416 E86.97095
G1 X152.500 Y158.331 E87.21337
G1 X147.450 Y155.416 E87.45579
G1 X147.450 Y154.565 E87.49117
G1 X149.200 Y154.564 E87.56393
G1 X151.188 Y154.567 E87.64658
G1 X151.229 Y154.596 E87.64867
G1 X151.598 Y154.780 E87.66581
G1 X152.036 Y154.908 E87.68478
G1 X152.364 Y154.946 E87.69851
G1 X152.587 Y154.950 E87.70778
G1 X153.068 Y154.888 E87.72795
G1 X153.647 Y154.671 E87.75365
G1 X154.083 Y154.374 E87.77559
G1 X154.419 Y154.027 E87.79567
G1 X154.611 Y153.746 E87.80982
G1 X154.820 Y153.294 E87.83052
G1 X154.928 Y152.841 E87.84988
G1 X154.954 Y152.452 E87.86609
G1 X154.862 Y151.836 E87.89199
G1 X154.683 Y151.382 E87.91227
G1 X154.413 Y150.963 E87.93300
G1 X154.059 Y150.609 E87.95381
G1 X153.783 Y150.411 E87.96793
G1 X153.333 Y150.193 E87.98872
G1 X152.880 Y150.077 E88.00816
G1 X152.519 Y150.049 E88.02322
G1 X152.188 Y150.068 E88.03700
G1 X151.843 Y150.137 E88.05163
G0 F9000 X151.986 Y150.618
;TYPE:WALL-OUTER
G1 F960 X151.565 Y150.787 E88.07049
G1 X151.349 Y150.933 E88.08133
G1 X146.950 Y150.935 E88.26422
G1 X146.950 Y149.296 E88.33236
G1 X152.500 Y146.091 E88.59881
G1 X158.050 Y149.296 E88.86527
G1 X158.050 Y155.704 E89.13168
G1 X152.500 Y158.909 E89.39813
G1 X146.950 Y155.704 E89.66458
G1 X146.950 Y154.065 E89.73273
G1 X151.313 Y154.067 E89.91412
G1 X151.347 Y154.067 E89.91553
G1 X151.486 Y154.165 E89.92260
G1 X151.781 Y154.313 E89.93632
G1 X152.136 Y154.416 E89.95169
G1 X152.397 Y154.447 E89.96262
G1 X152.559 Y154.449 E89.96936
G1 X152.947 Y154.399 E89.98562
G1 X153.415 Y154.224 E90.00639
G1 X153.759 Y153.989 E90.02371
G1 X154.030 Y153.709 E90.03991
G1 X154.175 Y153.498 E90.05056
G1 X154.345 Y153.129 E90.06745
G1 X154.432 Y152.766 E90.08297
G1 X154.451 Y152.473 E90.09518
G1 X154.376 Y151.966 E90.11648
G1 X154.236 Y151.611 E90.13235
G1 X154.022 Y151.279 E90.14877
G1 X153.734 Y150.991 E90.16570
G1 X153.527 Y150.842 E90.17631
G1 X153.160 Y150.665 E90.19325
G1 X152.798 Y150.572 E90.20879
G1 X152.514 Y150.550 E90.22063
G1 X152.251 Y150.565 E90.23158
G1 X151.986 Y150.618 E90.24282
G1 F2400 E89.64282
G1 Z2.900
G0 F9000 X150.262 Y150.258
;TYPE:FILL
G1 Z2.400
G1 F2400 E90.24282
G1 F960 X153.228 Y147.291 E90.41724
G1 F2400 E89.81724
G1 Z2.900
G0 F9000 X151.173 Y147.637
G1 Z2.400
G1 F2400 E90.41724
G1 F960 X153.725 Y150.189 E90.56728
G1 F2400 E89.96728
G1 Z2.900
G0 F9000 X154.840 Y151.304
G1 Z2.400
G1 F2400 E90.56728
G1 F960 X157.374 Y153.838 E90.71627
G1 F2400 E90.11627
G1 Z2.900
G0 F9000 X155.127 Y152.463
G1 Z2.400
G1 F2400 E90.71627
G1 F960 X157.373 Y150.217 E90.84833
G1 F2400 E90.24833
G1 Z2.900
G0 F9000 X152.469 Y155.121
G1 Z2.400
G1 F2400 E90.84833
G1 F960 X150.574 Y157.016 E90.95975
G1 F2400 E90.35975
G1 Z2.900
G0 F9000 X151.282 Y154.818
G1 Z2.400
G1 F2400 E90.95975
G1 F960 X153.826 Y157.361 E91.10930
G1 F2400 E90.50930
G1 Z2.900
G0 F9000 X151.962 Y155.274
;TYPE:SKIN
G1 Z2.400
G1 F2400 E91.10930
G1 F960 X151.858 Y155.025 E91.11984
G1 X151.168 Y155.007 E91.13855
G1 X150.461 Y155.008 E91.16989
G1 X149.754 Y155.007 E91.20122
G1 X149.047 Y155.008 E91.23273
G1 X148.340 Y155.007 E91.26424
G1 X147.718 Y155.276 E91.29241
G1 F2400 E90.69241
G1 Z2.900
G0 F9000 X147.786 Y150.259
G1 Z2.400
G1 F2400 E91.29241
G1 F960 X148.408 Y149.990 E91.32397
G1 X149.115 Y149.990 E91.35548
G1 X149.822 Y149.990 E91.38699
G1 X150.529 Y149.990 E91.41850
G1 X151.320 Y149.906 E91.44992
G1 X152.132 Y149.801 E91.47143
G1 X152.524 Y149.763 E91.48780
;LAYER:12
M106 S127
G0 F9000 X152.890 Y150.078 Z2.600
;TYPE:WALL-INNER
G1 F960 X152.503 Y150.049 E91.50394
G1 X152.158 Y150.072 E91.51831
G1 X151.699 Y150.183 E91.53795
G1 X151.635 Y150.211 E91.54085
G1 X147.450 Y150.211 E91.71484
G1 X147.450 Y149.585 E91.74087
G1 X152.500 Y146.670 E91.98329
G1 X157.550 Y149.585 E92.22571
G1 X157.550 Y155.415 E92.46810
G1 X152.500 Y158.330 E92.71052
G1 X147.450 Y155.415 E92.95294
G1 X147.450 Y154.790 E92.97892
G1 X148.962 Y154.790 E93.04179
G1 X149.576 Y154.789 E93.06731
G1 X151.639 Y154.790 E93.15308
G1 X151.726 Y154.827 E93.15701
G1 X152.221 Y154.935 E93.17808
G1 X152.571 Y154.952 E93.19265
G1 X153.228 Y154.845 E93.22032
G1 X153.793 Y154.587 E93.24614
G1 X154.235 Y154.238 E93.26956
G1 X154.683 Y153.628 E93.30102
G1 X154.898 Y153.019 E93.32787
G1 X154.944 Y152.678 E93.34218
G1 X154.951 Y152.472 E93.35075
G1 X154.896 Y151.969 E93.37179
G1 X154.738 Y151.495 E93.39256
G1 X154.490 Y151.065 E93.41320
G1 X154.171 Y150.706 E93.43316
G1 X153.918 Y150.500 E93.44673
G1 X153.462 Y150.243 E93.46849
G1 X152.890 Y150.078 E93.49324
G0 F9000 X152.801 Y150.573
;TYPE:WALL-OUTER
G1 F960 X152.501 Y150.550 E93.50575
G1 X152.234 Y150.568 E93.51687
G1 X151.858 Y150.659 E93.53296
G1 X151.739 Y150.711 E93.53836
G1 X146.950 Y150.711 E93.73746
G1 X146.950 Y149.297 E93.79625
G1 X152.500 Y146.092 E94.06270
G1 X158.050 Y149.297 E94.32915
G1 X158.050 Y155.703 E94.59548
G1 X152.500 Y158.908 E94.86194
G1 X146.950 Y155.703 E95.12839
G1 X146.950 Y154.290 E95.18714
G1 X151.742 Y154.290 E95.38636
G1 X151.885 Y154.351 E95.39283
G1 X152.274 Y154.437 E95.40939
G1 X152.542 Y154.450 E95.42055
G1 X153.081 Y154.362 E95.44325
G1 X153.530 Y154.157 E95.46377
G1 X153.872 Y153.887 E95.48189
G1 X154.236 Y153.392 E95.50743
G1 X154.409 Y152.901 E95.52908
G1 X154.445 Y152.635 E95.54024
G1 X154.450 Y152.491 E95.54623
G1 X154.405 Y152.077 E95.56354
G1 X154.279 Y151.701 E95.58003
G1 X154.082 Y151.359 E95.59644
G1 X153.824 Y151.068 E95.61260
G1 X153.635 Y150.915 E95.62271
G1 X153.267 Y150.707 E95.64029
G1 X152.801 Y150.573 E95.66045
G0 F9000 X153.727 Y150.192
;TYPE:FILL
G1 F960 X151.173 Y147.637 E95.81064
G1 F2400 E95.21064
G1 Z3.100
G0 F9000 X153.227 Y147.292
G1 Z2.600
G1 F2400 E95.81064
G1 F960 X150.484 Y150.036 E95.97195
G1 F2400 E95.37195
G1 Z3.100
G0 F9000 X154.813 Y151.278
G1 Z2.600
G1 F2400 E95.97195
G1 F960 X157.374 Y153.838 E96.12250
G1 F2400 E95.52250
G1 Z3.100
G0 F9000 X155.125 Y152.466
G1 Z2.600
G1 F2400 E96.12250
G1 F960 X157.374 Y150.217 E96.25473
G1 F2400 E95.65473
G1 Z3.100
G0 F9000 X152.469 Y155.121
G1 Z2.600
G1 F2400 E96.25473
G1 F960 X150.574 Y157.016 E96.36615
G1 F2400 E95.76615
G1 Z3.100
G0 F9000 X151.429 Y154.964
G1 Z2.600
G1 F2400 E96.36615
G1 F960 X153.826 Y157.361 E96.50708
G1 F2400 E95.90708
G1 Z3.100
G0 F9000 X152.176 Y155.358
;TYPE:SKIN
G1 Z2.600
G1 F2400 E96.50708
G1 F960 X151.660 Y155.195 E96.52616
G1 X150.918 Y155.160 E96.54932
G1 X150.210 Y155.160 E96.57234
G1 X149.503 Y155.160 E96.59539
G1 X148.796 Y155.160 E96.61843
G1 X148.089 Y155.160 E96.64142
G1 X147.624 Y155.049 E96.66129
G1 F2400 E96.06129
G1 Z3.100
G0 F9000 X148.267 Y150.035
G1 Z2.600
G1 F2400 E96.66129
G1 F960 X148.228 Y149.642 E96.68441
G1 X149.131 Y149.838 E96.70746
G1 X149.838 Y149.838 E96.73051
G1 X150.546 Y149.839 E96.75352
G1 X151.253 Y149.839 E96.77651
G1 X151.937 Y149.815 E96.79671
G1 X152.358 Y149.883 E96.81444
;LAYER:13
M106 S137
G0 F9000 X152.727 Y150.060 Z2.800
;TYPE:WALL-INNER
G1 F900 X152.450 Y150.049 E96.82597
G1 X147.450 Y150.039 E97.03384
G1 X147.450 Y149.585 E97.05272
G1 X152.500 Y146.670 E97.29514
G1 X157.550 Y149.585 E97.53756
G1 X157.550 Y155.415 E97.77995
G1 X152.500 Y158.330 E98.02237
G1 X147.450 Y155.415 E98.26479
G1 X147.450 Y154.962 E98.28362
G1 X148.817 Y154.962 E98.34046
G1 X149.202 Y154.961 E98.35646
G1 X149.824 Y154.962 E98.38232
G1 X152.450 Y154.962 E98.49150
G1 X152.450 Y154.946 E98.49216
G1 X152.554 Y154.951 E98.49649
G1 X153.046 Y154.893 E98.51709
G1 X153.648 Y154.671 E98.54377
G1 X154.097 Y154.361 E98.56645
G1 X154.411 Y154.033 E98.58533
G1 X154.522 Y153.885 E98.59302
G1 X154.710 Y153.561 E98.60859
G1 X154.865 Y153.151 E98.62682
G1 X154.944 Y152.691 E98.64622
G1 X154.951 Y152.475 E98.65521
G1 X154.903 Y152.001 E98.67501
G1 X154.734 Y151.489 E98.69743
G1 X154.509 Y151.091 E98.71644
G1 X154.154 Y150.690 E98.73870
G1 X153.785 Y150.409 E98.75799
G1 X153.207 Y150.149 E98.78434
G1 X152.727 Y150.060 E98.80463
G0 F9000 X153.056 Y150.630
;TYPE:WALL-OUTER
G1 F900 X152.671 Y150.558 E98.82092
G1 X152.476 Y150.550 E98.82903
G1 X151.971 Y150.623 E98.85024
G1 X151.950 Y150.631 E98.85118
G1 X151.950 Y150.539 E98.85500
G1 X146.950 Y150.539 E99.06288
G1 X146.950 Y149.297 E99.11452
G1 X152.500 Y146.092 E99.38097
G1 X158.050 Y149.297 E99.64742
G1 X158.050 Y155.703 E99.91375
G1 X152.500 Y158.908 E100.18021
G1 X146.950 Y155.703 E100.44666
G1 X146.950 Y154.462 E100.49825
G1 X151.950 Y154.462 E100.70613
G1 X151.950 Y154.369 E100.71000
G1 X152.268 Y154.437 E100.72351
G1 X152.537 Y154.450 E100.73471
G1 X152.929 Y154.404 E100.75112
G1 X153.415 Y154.224 E100.77267
G1 X153.776 Y153.975 E100.79090
G1 X154.021 Y153.720 E100.80560
G1 X154.104 Y153.609 E100.81136
G1 X154.257 Y153.346 E100.82401
G1 X154.380 Y153.019 E100.83854
G1 X154.445 Y152.640 E100.85453
G1 X154.450 Y152.492 E100.86068
G1 X154.411 Y152.106 E100.87681
G1 X154.275 Y151.692 E100.89493
G1 X154.100 Y151.383 E100.90969
G1 X153.812 Y151.058 E100.92775
G1 X153.528 Y150.842 E100.94258
G1 X153.056 Y150.630 E100.96409
G0 F9000 X153.726 Y150.190
;TYPE:FILL
G1 F900 X151.173 Y147.637 E101.11420
G1 F2400 E100.51420
G1 Z3.300
G0 F9000 X153.227 Y147.292
G1 Z2.800
G1 F2400 E101.11420
G1 F900 X150.649 Y149.870 E101.26578
G1 F2400 E100.66578
G1 Z3.300
G0 F9000 X154.818 Y151.283
G1 Z2.800
G1 F2400 E101.26578
G1 F900 X157.374 Y153.838 E101.41603
G1 F2400 E100.81603
G1 Z3.300
G0 F9000 X155.125 Y152.466
G1 Z2.800
G1 F2400 E101.41603
G1 F900 X157.374 Y150.217 E101.54826
G1 F2400 E100.94826
G1 Z3.300
G0 F9000 X152.455 Y155.136
G1 Z2.800
G1 F2400 E101.54826
G1 F900 X150.574 Y157.016 E101.65883
G1 F2400 E101.05883
G1 Z3.300
G0 F9000 X151.600 Y155.136
G1 Z2.800
G1 F2400 E101.65883
G1 F900 X153.826 Y157.361 E101.78968
G1 F2400 E101.18968
G1 Z3.300
G0 F9000 X151.822 Y155.414
;TYPE:SKIN
G1 Z2.800
G1 F2400 E101.78968
G1 F900 X151.748 Y155.135 E101.80612
G1 X150.901 Y155.274 E101.82254
G1 X150.194 Y155.274 E101.83888
G1 X149.486 Y155.275 E101.85525
G1 X148.779 Y155.275 E101.87165
G1 X148.072 Y155.275 E101.88805
G1 X147.660 Y155.334 E101.90535
G1 F2400 E101.30535
G1 Z3.300
G0 F9000 X148.180 Y149.864
G1 Z2.800
G1 F2400 E101.90535
G1 F900 X148.673 Y149.725 E101.92179
G1 X149.379 Y149.726 E101.93829
G1 X150.085 Y149.726 E101.95490
G1 X150.791 Y149.728 E101.97157
G1 X151.498 Y149.728 E101.98833
G1 X152.204 Y149.730 E102.00512
G1 X152.524 Y149.763 E102.01849
;LAYER:14
M106 S147
G0 F9000 X152.721 Y150.059 Z3.000
;TYPE:WALL-INNER
G1 F840 X152.450 Y150.050 E102.02977
G1 X152.450 Y149.904 E102.03584
G1 X147.450 Y149.905 E102.24371
G1 X147.450 Y149.585 E102.25702
G1 X152.500 Y146.670 E102.49944
G1 X157.550 Y149.585 E102.74186
G1 X157.550 Y155.415 E102.98424
G1 X152.500 Y158.330 E103.22666
G1 X147.450 Y155.415 E103.46909
G1 X147.450 Y155.097 E103.48231
G1 X149.136 Y155.097 E103.55240
G1 X149.318 Y155.096 E103.55997
G1 X152.450 Y155.097 E103.69018
G1 X152.450 Y154.946 E103.69646
G1 X152.547 Y154.951 E103.70050
G1 X152.950 Y154.910 E103.71734
G1 X153.420 Y154.774 E103.73768
G1 X153.865 Y154.538 E103.75862
G1 X154.307 Y154.162 E103.78275
G1 X154.634 Y153.707 E103.80604
G1 X154.815 Y153.309 E103.82422
G1 X154.928 Y152.844 E103.84412
G1 X154.954 Y152.475 E103.85950
G1 X154.868 Y151.851 E103.88568
G1 X154.654 Y151.328 E103.90918
G1 X154.407 Y150.957 E103.92771
G1 X154.003 Y150.560 E103.95126
G1 X153.461 Y150.245 E103.97732
G1 X153.118 Y150.128 E103.99239
G1 X152.721 Y150.059 E104.00914
G0 F9000 X152.669 Y150.558
;TYPE:WALL-OUTER
G1 F840 X152.469 Y150.551 E104.01746
G1 X152.134 Y150.584 E104.03146
G1 X151.950 Y150.645 E104.03951
G1 X151.950 Y150.404 E104.04953
G1 X146.950 Y150.405 E104.25741
G1 X146.950 Y149.297 E104.30348
G1 X152.500 Y146.092 E104.56993
G1 X158.050 Y149.297 E104.83638
G1 X158.050 Y155.703 E105.10271
G1 X152.500 Y158.908 E105.36916
G1 X146.950 Y155.703 E105.63562
G1 X146.950 Y154.597 E105.68160
G1 X149.135 Y154.597 E105.77244
G1 X149.315 Y154.596 E105.77992
G1 X151.950 Y154.597 E105.88948
G1 X151.950 Y154.365 E105.89912
G1 X152.270 Y154.437 E105.91276
G1 X152.534 Y154.450 E105.92375
G1 X152.855 Y154.417 E105.93716
G1 X153.231 Y154.308 E105.95344
G1 X153.582 Y154.122 E105.96995
G1 X153.936 Y153.821 E105.98927
G1 X154.199 Y153.455 E106.00801
G1 X154.340 Y153.145 E106.02217
G1 X154.432 Y152.767 E106.03834
G1 X154.451 Y152.492 E106.04980
G1 X154.381 Y151.982 E106.07121
G1 X154.210 Y151.563 E106.09002
G1 X154.020 Y151.277 E106.10430
G1 X153.698 Y150.961 E106.12305
G1 X153.253 Y150.702 E106.14446
G1 X152.994 Y150.614 E106.15583
G1 X152.669 Y150.558 E106.16954
G0 F9000 X153.741 Y150.205
;TYPE:FILL
G1 F840 X151.173 Y147.637 E106.32053
G1 F2400 E105.72053
G1 Z3.500
G0 F9000 X153.227 Y147.292
G1 Z3.000
G1 F2400 E106.32053
G1 F840 X150.791 Y149.729 E106.46379
G1 F2400 E105.86379
G1 Z3.500
G0 F9000 X154.829 Y151.293
G1 Z3.000
G1 F2400 E106.46379
G1 F840 X157.374 Y153.838 E106.61342
G1 F2400 E106.01342
G1 Z3.500
G0 F9000 X155.129 Y152.462
G1 Z3.000
G1 F2400 E106.61342
G1 F840 X157.374 Y150.217 E106.74542
G1 F2400 E106.14542
G1 Z3.500
G0 F9000 X152.319 Y155.271
G1 Z3.000
G1 F2400 E106.74542
G1 F840 X150.574 Y157.016 E106.84802
G1 F2400 E106.24802
G1 Z3.500
G0 F9000 X151.735 Y155.271
G1 Z3.000
G1 F2400 E106.84802
G1 F840 X153.826 Y157.361 E106.97093
;LAYER:15
M106 S158
G1 F2400 E106.37093
G1 Z3.500
G0 F9000 X153.254 Y154.835 Z3.200
;TYPE:WALL-INNER
G1 Z3.200
G1 F2400 E106.97093
G1 F840 X153.654 Y154.664 E106.98902
G1 X154.016 Y154.427 E107.00701
G1 X154.420 Y154.031 E107.03053
G1 X154.758 Y153.468 E107.05783
G1 X154.927 Y152.856 E107.08423
G1 X154.954 Y152.467 E107.10044
G1 X154.843 Y151.764 E107.13003
G1 X154.561 Y151.167 E107.15748
G1 X154.196 Y150.726 E107.18128
G1 X153.801 Y150.421 E107.20203
G1 X153.410 Y150.223 E107.22025
G1 X152.890 Y150.078 E107.24269
G1 X152.527 Y150.048 E107.25783
G1 X152.450 Y150.055 E107.26105
G1 X152.450 Y149.799 E107.27169
G1 X147.450 Y149.798 E107.47957
G1 X147.450 Y149.584 E107.48846
G1 X152.500 Y146.669 E107.73089
G1 X157.550 Y149.584 E107.97331
G1 X157.550 Y155.416 E108.21577
G1 X152.500 Y158.331 E108.45820
G1 X147.450 Y155.416 E108.70062
G1 X147.450 Y155.202 E108.70951
G1 X149.200 Y155.201 E108.78227
G1 X150.502 Y155.203 E108.83640
G1 X152.450 Y155.200 E108.91739
G1 X152.450 Y154.946 E108.92795
G1 X152.574 Y154.952 E108.93311
G1 X153.254 Y154.835 E108.96180
G0 F9000 X153.111 Y154.352
;TYPE:WALL-OUTER
G1 F840 X153.417 Y154.221 E108.97564
G1 X153.701 Y154.036 E108.98973
G1 X154.024 Y153.719 E109.00854
G1 X154.294 Y153.269 E109.03036
G1 X154.432 Y152.771 E109.05185
G1 X154.451 Y152.489 E109.06360
G1 X154.360 Y151.913 E109.08784
G1 X154.136 Y151.438 E109.10968
G1 X153.846 Y151.087 E109.12861
G1 X153.533 Y150.846 E109.14503
G1 X153.229 Y150.692 E109.15920
G1 X152.801 Y150.573 E109.17767
G1 X152.528 Y150.550 E109.18906
G1 X152.144 Y150.583 E109.20508
G1 X151.950 Y150.633 E109.21341
G1 X151.950 Y150.299 E109.22730
G1 X146.950 Y150.299 E109.43517
G1 X146.950 Y149.296 E109.47687
G1 X152.500 Y146.091 E109.74332
G1 X158.050 Y149.296 E110.00978
G1 X158.050 Y155.704 E110.27619
G1 X152.500 Y158.909 E110.54264
G1 X146.950 Y155.704 E110.80910
G1 X146.950 Y154.702 E110.85075
G1 X151.950 Y154.701 E111.05863
G1 X151.950 Y154.355 E111.07302
G1 X152.262 Y154.436 E111.08642
G1 X152.543 Y154.450 E111.09811
G1 X153.111 Y154.352 E111.12208
G0 F9000 X152.217 Y155.373
;TYPE:FILL
G1 F840 X150.574 Y157.017 E111.21871
G1 F2400 E110.61871
G1 Z3.700
G0 F9000 X151.839 Y155.374
G1 Z3.200
G1 F2400 E111.21871
G1 F840 X153.826 Y157.361 E111.33554
G1 F2400 E110.73554
G1 Z3.700
G0 F9000 X157.374 Y153.838
G1 Z3.200
G1 F2400 E111.33554
G1 F840 X154.798 Y151.262 E111.48700
G0 F9000 X155.127 Y152.463
G1 F840 X157.373 Y150.217 E111.61905
G1 F2400 E111.01905
G1 Z3.700
G0 F9000 X153.719 Y150.183
G1 Z3.200
G1 F2400 E111.61905
G1 F840 X151.173 Y147.637 E111.76875
G1 F2400 E111.16875
G1 Z3.700
G0 F9000 X150.896 Y149.623
G1 Z3.200
G1 F2400 E111.76875
G1 F840 X153.228 Y147.291 E111.90586
;LAYER:16
M106 S168
G0 F9000 X152.500 Y146.670 Z3.400
;TYPE:WALL-INNER
G1 F840 X157.550 Y149.585 E112.14828
G1 X157.550 Y155.415 E112.39067
G1 X152.500 Y158.330 E112.63309
G1 X147.450 Y155.415 E112.87551
G1 X147.450 Y155.282 E112.88104
G1 X151.257 Y155.282 E113.03932
G1 X152.450 Y155.285 E113.08891
G1 X152.450 Y154.946 E113.10301
G1 X152.554 Y154.951 E113.10734
G1 X153.034 Y154.895 E113.12743
G1 X153.502 Y154.738 E113.14795
G1 X153.881 Y154.524 E113.16605
G1 X154.205 Y154.265 E113.18329
G1 X154.598 Y153.773 E113.20947
G1 X154.814 Y153.313 E113.23060
G1 X154.928 Y152.844 E113.25067
G1 X154.953 Y152.479 E113.26588
G1 X154.882 Y151.909 E113.28976
G1 X154.709 Y151.432 E113.31085
G1 X154.418 Y150.969 E113.33359
G1 X154.066 Y150.612 E113.35443
G1 X153.654 Y150.335 E113.37507
G1 X153.194 Y150.147 E113.39573
G1 X152.732 Y150.061 E113.41527
G1 X152.507 Y150.049 E113.42464
G1 X152.450 Y150.055 E113.42702
G1 X152.450 Y149.718 E113.44103
G1 X149.316 Y149.718 E113.57133
G1 X149.100 Y149.717 E113.58031
G1 X147.450 Y149.718 E113.64891
G1 X147.450 Y149.585 E113.65444
G1 X152.500 Y146.670 E113.89686
G0 F9000 X152.500 Y146.092
;TYPE:WALL-OUTER
G1 F840 X158.050 Y149.297 E114.16331
G1 X158.050 Y155.703 E114.42964
G1 X152.500 Y158.908 E114.69610
G1 X146.950 Y155.703 E114.96255
G1 X146.950 Y154.782 E115.00084
G1 X151.950 Y154.783 E115.20871
G1 X151.950 Y154.365 E115.22609
G1 X152.270 Y154.437 E115.23973
G1 X152.537 Y154.450 E115.25084
G1 X152.925 Y154.404 E115.26709
G1 X153.298 Y154.279 E115.28344
G1 X153.600 Y154.109 E115.29785
G1 X153.849 Y153.910 E115.31110
G1 X154.171 Y153.507 E115.33255
G1 X154.340 Y153.146 E115.34912
G1 X154.432 Y152.767 E115.36534
G1 X154.451 Y152.493 E115.37675
G1 X154.393 Y152.027 E115.39628
G1 X154.257 Y151.653 E115.41282
G1 X154.023 Y151.281 E115.43110
G1 X153.745 Y150.999 E115.44756
G1 X153.417 Y150.778 E115.46400
G1 X153.052 Y150.629 E115.48039
G1 X152.673 Y150.558 E115.49642
G1 X152.521 Y150.550 E115.50275
G1 X152.062 Y150.600 E115.52195
G1 X151.950 Y150.635 E115.52683
G1 X151.950 Y150.218 E115.54416
G1 X149.314 Y150.218 E115.65375
G1 X149.099 Y150.217 E115.66269
G1 X146.950 Y150.218 E115.75204
G1 X146.950 Y149.297 E115.79033
G1 X152.500 Y146.092 E116.05678
G0 F9000 X153.227 Y147.292
;TYPE:FILL
G1 F840 X150.977 Y149.543 E116.18910
G1 F2400 E115.58910
G1 Z3.900
G0 F9000 X151.173 Y147.637
G1 Z3.400
G1 F2400 E116.18910
G1 F840 X153.698 Y150.162 E116.33756
G1 F2400 E115.73756
G1 Z3.900
G0 F9000 X154.825 Y151.289
G1 Z3.400
G1 F2400 E116.33756
G1 F840 X157.374 Y153.838 E116.48743
G1 F2400 E115.88743
G1 Z3.900
G0 F9000 X155.127 Y152.463
G1 Z3.400
G1 F2400 E116.48743
G1 F840 X157.374 Y150.217 E116.61952
G1 F2400 E116.01952
G1 Z3.900
G0 F9000 X152.133 Y155.458
G1 Z3.400
G1 F2400 E116.61952
G1 F840 X150.574 Y157.016 E116.71115
G1 F2400 E116.11115
G1 Z3.900
G0 F9000 X151.923 Y155.458
G1 Z3.400
G1 F2400 E116.71115
G1 F840 X153.826 Y157.361 E116.82304
;LAYER:17
M106 S178
G1 F2400 E116.22304
G1 Z3.900
G0 F9000 X153.034 Y154.895 Z3.600
;TYPE:WALL-INNER
G1 Z3.600
G1 F2400 E116.82304
G1 F840 X153.505 Y154.737 E116.84370
G1 X153.932 Y154.491 E116.86419
G1 X154.291 Y154.178 E116.88399
G1 X154.671 Y153.643 E116.91127
G1 X154.812 Y153.312 E116.92623
G1 X154.901 Y152.995 E116.93992
G1 X154.944 Y152.678 E116.95322
G1 X154.951 Y152.487 E116.96116
G1 X154.929 Y152.169 E116.97442
G1 X154.861 Y151.837 E116.98850
G1 X154.700 Y151.414 E117.00732
G1 X154.416 Y150.968 E117.02930
G1 X154.066 Y150.612 E117.05006
G1 X153.654 Y150.335 E117.07070
G1 X153.194 Y150.147 E117.09136
G1 X152.732 Y150.061 E117.11090
G1 X152.503 Y150.049 E117.12043
G1 X152.450 Y150.055 E117.12265
G1 X152.450 Y149.662 E117.13899
G1 X147.450 Y149.660 E117.34686
G1 X147.450 Y149.585 E117.34998
G1 X152.500 Y146.670 E117.59240
G1 X157.550 Y149.585 E117.83483
G1 X157.550 Y155.415 E118.07721
G1 X152.500 Y158.330 E118.31963
G1 X147.450 Y155.415 E118.56205
G1 X147.450 Y155.341 E118.56513
G1 X149.003 Y155.341 E118.62970
G1 X149.569 Y155.340 E118.65323
G1 X152.450 Y155.340 E118.77301
G1 X152.450 Y154.946 E118.78939
G1 X152.554 Y154.951 E118.79372
G1 X153.034 Y154.895 E118.81381
G0 F9000 X152.925 Y154.404
;TYPE:WALL-OUTER
G1 F840 X153.299 Y154.279 E118.83020
G1 X153.640 Y154.082 E118.84657
G1 X153.918 Y153.840 E118.86190
G1 X154.232 Y153.397 E118.88447
G1 X154.339 Y153.146 E118.89582
G1 X154.410 Y152.893 E118.90674
G1 X154.445 Y152.635 E118.91757
G1 X154.450 Y152.496 E118.92335
G1 X154.432 Y152.237 E118.93414
G1 X154.379 Y151.977 E118.94518
G1 X154.251 Y151.639 E118.96020
G1 X154.023 Y151.281 E118.97785
G1 X153.745 Y150.999 E118.99431
G1 X153.417 Y150.778 E119.01075
G1 X153.052 Y150.629 E119.02714
G1 X152.673 Y150.558 E119.04318
G1 X152.520 Y150.550 E119.04955
G1 X152.013 Y150.610 E119.07077
G1 X151.950 Y150.635 E119.07359
G1 X151.950 Y150.161 E119.09330
G1 X146.950 Y150.160 E119.30117
G1 X146.950 Y149.297 E119.33705
G1 X152.500 Y146.092 E119.60350
G1 X158.050 Y149.297 E119.86996
G1 X158.050 Y155.703 E120.13629
G1 X152.500 Y158.908 E120.40274
G1 X146.950 Y155.703 E120.66919
G1 X146.950 Y154.841 E120.70503
G1 X151.950 Y154.840 E120.91291
G1 X151.950 Y154.366 E120.93261
G1 X152.266 Y154.437 E120.94608
G1 X152.537 Y154.450 E120.95736
G1 X152.925 Y154.404 E120.97360
G0 F9000 X152.077 Y155.513
;TYPE:FILL
G1 F840 X150.574 Y157.016 E121.06197
G1 F2400 E120.46197
G1 Z4.100
G0 F9000 X151.979 Y155.514
G1 Z3.600
G1 F2400 E121.06197
G1 F840 X153.826 Y157.361 E121.17057
G1 F2400 E120.57057
G1 Z4.100
G0 F9000 X157.374 Y153.838
G1 Z3.600
G1 F2400 E121.17057
G1 F840 X154.833 Y151.298 E121.31994
G0 F9000 X155.124 Y152.467
G1 F840 X157.374 Y150.217 E121.45223
G1 F2400 E120.85223
G1 Z4.100
G0 F9000 X153.698 Y150.162
G1 Z3.600
G1 F2400 E121.45223
G1 F840 X151.173 Y147.637 E121.60069
G1 F2400 E121.00069
G1 Z4.100
G0 F9000 X151.033 Y149.486
G1 Z3.600
G1 F2400 E121.60069
G1 F840 X153.227 Y147.292 E121.72969
;LAYER:18
M106 S191
G1 F2400 E121.12969
G1 Z4.100
G0 F9000 X152.450 Y149.622 Z3.800
;TYPE:WALL-INNER
G1 Z3.800
G1 F2400 E121.72969
G1 F840 X147.450 Y149.622 E121.93757
G1 X147.450 Y149.584 E121.93915
G1 X152.500 Y146.669 E122.18157
G1 X157.550 Y149.584 E122.42399
G1 X157.550 Y155.416 E122.66646
G1 X152.500 Y158.331 E122.90888
G1 X147.450 Y155.416 E123.15130
G1 X147.450 Y155.378 E123.15288
G1 X150.992 Y155.379 E123.30014
G1 X152.450 Y155.377 E123.36076
G1 X152.450 Y154.948 E123.37859
G1 X152.565 Y154.950 E123.38337
G1 X153.021 Y154.896 E123.40247
G1 X153.351 Y154.799 E123.41677
G1 X153.653 Y154.663 E123.43054
G1 X153.945 Y154.481 E123.44484
G1 X154.296 Y154.169 E123.46437
G1 X154.512 Y153.901 E123.47868
G1 X154.689 Y153.605 E123.49301
G1 X154.864 Y153.154 E123.51313
G1 X154.944 Y152.691 E123.53266
G1 X154.951 Y152.475 E123.54165
G1 X154.903 Y152.006 E123.56125
G1 X154.758 Y151.544 E123.58138
G1 X154.590 Y151.216 E123.59670
G1 X154.201 Y150.729 E123.62261
G1 X153.798 Y150.418 E123.64378
G1 X153.352 Y150.199 E123.66443
G1 X152.883 Y150.078 E123.68457
G1 X152.541 Y150.050 E123.69884
G1 X152.450 Y150.054 E123.70262
G1 X152.450 Y149.622 E123.72059
G0 F9000 X152.266 Y150.563
;TYPE:WALL-OUTER
G1 F840 X151.950 Y150.634 E123.73405
G1 X151.950 Y150.122 E123.75534
G1 X146.950 Y150.123 E123.96321
G1 X146.950 Y149.296 E123.99760
G1 X152.500 Y146.091 E124.26405
G1 X158.050 Y149.296 E124.53050
G1 X158.050 Y155.704 E124.79691
G1 X152.500 Y158.909 E125.06337
G1 X146.950 Y155.704 E125.32982
G1 X146.950 Y154.878 E125.36416
G1 X151.950 Y154.878 E125.57204
G1 X151.950 Y154.366 E125.59332
G1 X152.139 Y154.416 E125.60145
G1 X152.397 Y154.447 E125.61226
G1 X152.540 Y154.449 E125.61820
G1 X152.920 Y154.405 E125.63411
G1 X153.177 Y154.329 E125.64525
G1 X153.417 Y154.221 E125.65619
G1 X153.644 Y154.079 E125.66732
G1 X153.933 Y153.823 E125.68337
G1 X154.101 Y153.614 E125.69452
G1 X154.238 Y153.384 E125.70565
G1 X154.380 Y153.020 E125.72190
G1 X154.445 Y152.640 E125.73792
G1 X154.450 Y152.492 E125.74408
G1 X154.411 Y152.107 E125.76017
G1 X154.294 Y151.735 E125.77638
G1 X154.168 Y151.489 E125.78787
G1 X153.848 Y151.088 E125.80920
G1 X153.532 Y150.845 E125.82577
G1 X153.177 Y150.670 E125.84223
G1 X152.799 Y150.573 E125.85845
G1 X152.532 Y150.551 E125.86959
G1 X152.266 Y150.563 E125.88066
G1 F2400 E125.28066
G1 Z4.300
G0 F9000 X153.720 Y150.184
;TYPE:FILL
G1 Z3.800
G1 F2400 E125.88066
G1 F840 X151.173 Y147.637 E126.03042
G1 F2400 E125.43042
G1 Z4.300
G0 F9000 X151.073 Y149.447
G1 Z3.800
G1 F2400 E126.03042
G1 F840 X153.228 Y147.291 E126.15715
G1 F2400 E125.55715
G1 Z4.300
G0 F9000 X154.820 Y151.284
G1 Z3.800
G1 F2400 E126.15715
G1 F840 X157.374 Y153.838 E126.30732
G1 F2400 E125.70732
G1 Z4.300
G0 F9000 X155.125 Y152.466
G1 Z3.800
G1 F2400 E126.30732
G1 F840 X157.373 Y150.217 E126.43952
G1 F2400 E125.83952
G1 Z4.300
G0 F9000 X152.039 Y155.551
G1 Z3.800
G1 F2400 E126.43952
G1 F840 X150.574 Y157.016 E126.52566
G1 F2400 E125.92566
G1 Z4.300
G0 F9000 X152.016 Y155.552
G1 Z3.800
G1 F2400 E126.52566
G1 F840 X153.826 Y157.361 E126.63205
;LAYER:19
M106 S201
G1 F2400 E126.03205
G1 Z4.300
G0 F9000 X152.450 Y155.398 Z4.000
;TYPE:WALL-INNER
G1 Z4.000
G1 F2400 E126.63205
G1 F840 X152.450 Y154.948 E126.65076
G1 X152.565 Y154.950 E126.65554
G1 X153.021 Y154.896 E126.67463
G1 X153.364 Y154.795 E126.68950
G1 X153.786 Y154.587 E126.70906
G1 X154.075 Y154.379 E126.72386
G1 X154.414 Y154.035 E126.74394
G1 X154.678 Y153.627 E126.76414
G1 X154.817 Y153.300 E126.77891
G1 X154.928 Y152.844 E126.79843
G1 X154.954 Y152.475 E126.81381
G1 X154.869 Y151.857 E126.83974
G1 X154.684 Y151.383 E126.86090
G1 X154.421 Y150.977 E126.88101
G1 X154.188 Y150.723 E126.89534
G1 X153.923 Y150.504 E126.90963
G1 X153.505 Y150.263 E126.92969
G1 X153.046 Y150.109 E126.94982
G1 X152.718 Y150.060 E126.96361
G1 X152.529 Y150.050 E126.97148
G1 X152.450 Y150.054 E126.97476
G1 X152.450 Y149.604 E126.99347
G1 X149.911 Y149.604 E127.09903
G1 X149.201 Y149.603 E127.12855
G1 X147.450 Y149.604 E127.20135
G1 X147.450 Y149.585 E127.20214
G1 X152.500 Y146.670 E127.44456
G1 X157.550 Y149.585 E127.68698
G1 X157.550 Y155.415 E127.92937
G1 X152.500 Y158.330 E128.17179
G1 X147.450 Y155.415 E128.41421
G1 X147.450 Y155.397 E128.41496
G1 X148.639 Y155.397 E128.46439
G1 X149.201 Y155.396 E128.48776
G1 X152.450 Y155.398 E128.62283
G0 F9000 X152.540 Y154.449
;TYPE:WALL-OUTER
G1 F840 X152.920 Y154.405 E128.63874
G1 X153.181 Y154.328 E128.65005
G1 X153.528 Y154.157 E128.66613
G1 X153.748 Y153.998 E128.67742
G1 X154.022 Y153.720 E128.69365
G1 X154.235 Y153.392 E128.70991
G1 X154.341 Y153.142 E128.72120
G1 X154.432 Y152.767 E128.73724
G1 X154.451 Y152.492 E128.74870
G1 X154.382 Y151.984 E128.77001
G1 X154.237 Y151.612 E128.78661
G1 X154.024 Y151.284 E128.80287
G1 X153.843 Y151.086 E128.81403
G1 X153.637 Y150.916 E128.82513
G1 X153.299 Y150.721 E128.84135
G1 X152.929 Y150.597 E128.85758
G1 X152.668 Y150.558 E128.86855
G1 X152.528 Y150.551 E128.87438
G1 X152.270 Y150.563 E128.88512
G1 X151.950 Y150.634 E128.89874
G1 X151.950 Y150.104 E128.92078
G1 X146.950 Y150.103 E129.12865
G1 X146.950 Y149.297 E129.16216
G1 X152.500 Y146.092 E129.42862
G1 X158.050 Y149.297 E129.69507
G1 X158.050 Y155.703 E129.96140
G1 X152.500 Y158.908 E130.22785
G1 X146.950 Y155.703 E130.49431
G1 X146.950 Y154.897 E130.52781
G1 X151.950 Y154.897 E130.73569
G1 X151.950 Y154.367 E130.75773
G1 X152.140 Y154.416 E130.76588
G1 X152.397 Y154.447 E130.77665
G1 X152.540 Y154.449 E130.78259
G0 F9000 X152.036 Y155.571
;TYPE:FILL
G1 F840 X153.826 Y157.361 E130.88784
G1 F2400 E130.28784
G1 Z4.500
G0 F9000 X152.020 Y155.571
G1 Z4.000
G1 F2400 E130.88784
G1 F840 X150.574 Y157.016 E130.97283
G1 F2400 E130.37283
G1 Z4.500
G0 F9000 X155.129 Y152.462
G1 Z4.000
G1 F2400 E130.97283
G1 F840 X157.374 Y150.217 E131.10482
G1 F2400 E130.50482
G1 Z4.500
G0 F9000 X154.840 Y151.305
G1 Z4.000
G1 F2400 E131.10482
G1 F840 X157.374 Y153.838 E131.25378
G1 F2400 E130.65378
G1 Z4.500
G0 F9000 X153.720 Y150.184
G1 Z4.000
G1 F2400 E131.25378
G1 F840 X151.173 Y147.637 E131.40354
G1 F2400 E130.80354
G1 Z4.500
G0 F9000 X151.091 Y149.429
G1 Z4.000
G1 F2400 E131.40354
G1 F840 X153.227 Y147.292 E131.52916
;LAYER:20
M106 S211
G1 F2400 E130.92916
G1 Z4.500
G0 F9000 X152.450 Y149.604 Z4.200
;TYPE:WALL-INNER
G1 Z4.200
G1 F2400 E131.52916
G1 F840 X149.931 Y149.604 E131.63388
G1 X149.201 Y149.603 E131.66423
G1 X147.450 Y149.604 E131.73703
G1 X147.450 Y149.585 E131.73782
G1 X152.500 Y146.670 E131.98024
G1 X157.550 Y149.585 E132.22266
G1 X157.550 Y155.415 E132.46505
G1 X152.500 Y158.330 E132.70747
G1 X147.450 Y155.415 E132.94989
G1 X147.450 Y155.396 E132.95068
G1 X152.450 Y155.397 E133.15856
G1 X152.450 Y154.946 E133.17731
G1 X152.560 Y154.951 E133.18189
G1 X153.041 Y154.893 E133.20203
G1 X153.500 Y154.739 E133.22216
G1 X153.809 Y154.573 E133.23674
G1 X154.176 Y154.289 E133.25603
G1 X154.313 Y154.148 E133.26421
G1 X154.524 Y153.886 E133.27819
G1 X154.752 Y153.470 E133.29792
G1 X154.900 Y152.994 E133.31864
G1 X154.953 Y152.481 E133.34008
G1 X154.902 Y151.999 E133.36023
G1 X154.756 Y151.537 E133.38038
G1 X154.607 Y151.251 E133.39378
G1 X154.499 Y151.081 E133.40216
G1 X154.189 Y150.720 E133.42194
G1 X153.792 Y150.416 E133.44273
G1 X153.352 Y150.199 E133.46313
G1 X152.882 Y150.078 E133.48330
G1 X152.535 Y150.050 E133.49778
G1 X152.450 Y150.054 E133.50131
G1 X152.450 Y149.604 E133.52002
G0 F9000 X152.257 Y150.564
;TYPE:WALL-OUTER
G1 F840 X151.950 Y150.645 E133.53322
G1 X151.950 Y150.104 E133.55572
G1 X146.950 Y150.103 E133.76359
G1 X146.950 Y149.297 E133.79710
G1 X152.500 Y146.092 E134.06355
G1 X158.050 Y149.297 E134.33001
G1 X158.050 Y155.703 E134.59634
G1 X152.500 Y158.908 E134.86279
G1 X146.950 Y155.703 E135.12924
G1 X146.950 Y154.897 E135.16275
G1 X151.950 Y154.897 E135.37063
G1 X151.950 Y154.367 E135.39266
G1 X152.275 Y154.437 E135.40648
G1 X152.542 Y154.450 E135.41760
G1 X152.930 Y154.403 E135.43385
G1 X153.301 Y154.278 E135.45012
G1 X153.536 Y154.152 E135.46121
G1 X153.842 Y153.915 E135.47730
G1 X154.107 Y153.607 E135.49419
G1 X154.293 Y153.267 E135.51031
G1 X154.433 Y152.758 E135.53225
G1 X154.451 Y152.490 E135.54342
G1 X154.410 Y152.102 E135.55964
G1 X154.292 Y151.729 E135.57591
G1 X154.096 Y151.380 E135.59255
G1 X153.844 Y151.085 E135.60868
G1 X153.527 Y150.843 E135.62526
G1 X153.177 Y150.670 E135.64149
G1 X152.799 Y150.573 E135.65772
G1 X152.527 Y150.551 E135.66906
G1 X152.257 Y150.564 E135.68030
G1 F2400 E135.08030
G1 Z4.700
G0 F9000 X153.722 Y150.187
;TYPE:FILL
G1 Z4.200
G1 F2400 E135.68030
G1 F840 X151.173 Y147.637 E135.83020
G1 F2400 E135.23020
G1 Z4.700
G0 F9000 X151.091 Y149.429
G1 Z4.200
G1 F2400 E135.83020
G1 F840 X153.227 Y147.292 E135.95582
G1 F2400 E135.35582
G1 Z4.700
G0 F9000 X154.821 Y151.285
G1 Z4.200
G1 F2400 E135.95582
G1 F840 X157.374 Y153.838 E136.10593
G1 F2400 E135.50593
G1 Z4.700
G0 F9000 X155.125 Y152.465
G1 Z4.200
G1 F2400 E136.10593
G1 F840 X157.374 Y150.217 E136.23813
G1 F2400 E135.63813
G1 Z4.700
G0 F9000 X152.035 Y155.571
G1 Z4.200
G1 F2400 E136.23813
G1 F840 X153.826 Y157.361 E136.34340
G1 F2400 E135.74340
G1 Z4.700
G0 F9000 X152.020 Y155.570
G1 Z4.200
G1 F2400 E136.34340
G1 F840 X150.574 Y157.016 E136.42842
;LAYER:21
M106 S221
G1 F2400 E135.82842
G1 Z4.700
G0 F9000 X151.034 Y155.379 Z4.400
;TYPE:WALL-INNER
G1 Z4.400
G1 F2400 E136.42842
G1 F840 X152.450 Y155.375 E136.48729
G1 X152.450 Y154.948 E136.50505
G1 X152.587 Y154.950 E136.51074
G1 X153.068 Y154.888 E136.53091
G1 X153.647 Y154.671 E136.55661
G1 X154.083 Y154.374 E136.57855
G1 X154.419 Y154.027 E136.59863
G1 X154.611 Y153.746 E136.61278
G1 X154.820 Y153.294 E136.63348
G1 X154.928 Y152.841 E136.65284
G1 X154.954 Y152.452 E136.66905
G1 X154.862 Y151.836 E136.69494
G1 X154.683 Y151.382 E136.71523
G1 X154.413 Y150.963 E136.73596
G1 X154.059 Y150.609 E136.75677
G1 X153.783 Y150.411 E136.77089
G1 X153.333 Y150.193 E136.79168
G1 X152.880 Y150.077 E136.81112
G1 X152.519 Y150.049 E136.82618
G1 X152.450 Y150.053 E136.82905
G1 X152.450 Y149.625 E136.84684
G1 X149.200 Y149.622 E136.98196
G1 X148.809 Y149.623 E136.99822
G1 X147.450 Y149.622 E137.05472
G1 X147.450 Y149.585 E137.05626
G1 X152.500 Y146.670 E137.29868
G1 X157.550 Y149.585 E137.54110
G1 X157.550 Y155.415 E137.78349
G1 X152.500 Y158.330 E138.02591
G1 X147.450 Y155.415 E138.26833
G1 X147.450 Y155.378 E138.26987
G1 X148.333 Y155.377 E138.30658
G1 X151.034 Y155.379 E138.41887
G0 F9000 X151.950 Y154.877
;TYPE:WALL-OUTER
G1 F840 X151.950 Y154.362 E138.44028
G1 X152.136 Y154.416 E138.44834
G1 X152.397 Y154.447 E138.45926
G1 X152.559 Y154.449 E138.46600
G1 X152.947 Y154.399 E138.48226
G1 X153.415 Y154.224 E138.50304
G1 X153.759 Y153.989 E138.52036
G1 X154.030 Y153.709 E138.53656
G1 X154.175 Y153.498 E138.54720
G1 X154.345 Y153.129 E138.56409
G1 X154.432 Y152.766 E138.57961
G1 X154.451 Y152.473 E138.59182
G1 X154.376 Y151.966 E138.61313
G1 X154.236 Y151.611 E138.62899
G1 X154.022 Y151.279 E138.64541
G1 X153.734 Y150.991 E138.66235
G1 X153.527 Y150.842 E138.67295
G1 X153.160 Y150.665 E138.68989
G1 X152.798 Y150.572 E138.70543
G1 X152.514 Y150.550 E138.71727
G1 X152.251 Y150.565 E138.72823
G1 X151.950 Y150.633 E138.74105
G1 X151.950 Y150.124 E138.76222
G1 X146.950 Y150.122 E138.97009
G1 X146.950 Y149.297 E139.00439
G1 X152.500 Y146.092 E139.27084
G1 X158.050 Y149.297 E139.53730
G1 X158.050 Y155.703 E139.80363
G1 X152.500 Y158.908 E140.07008
G1 X146.950 Y155.703 E140.33653
G1 X146.950 Y154.878 E140.37083
G1 X151.950 Y154.877 E140.57871
G0 F9000 X152.014 Y155.550
;TYPE:FILL
G1 F840 X153.826 Y157.361 E140.68522
G1 F2400 E140.08522
G1 Z4.900
G0 F9000 X152.042 Y155.549
G1 Z4.400
G1 F2400 E140.68522
G1 F840 X150.574 Y157.016 E140.77150
G1 F2400 E140.17150
G1 Z4.900
G0 F9000 X155.127 Y152.463
G1 Z4.400
G1 F2400 E140.77150
G1 F840 X157.374 Y150.217 E140.90359
G1 F2400 E140.30359
G1 Z4.900
G0 F9000 X154.840 Y151.304
G1 Z4.400
G1 F2400 E140.90359
G1 F840 X157.374 Y153.838 E141.05258
G1 F2400 E140.45258
G1 Z4.900
G0 F9000 X153.725 Y150.189
G1 Z4.400
G1 F2400 E141.05258
G1 F840 X151.173 Y147.637 E141.20262
G1 F2400 E140.60262
G1 Z4.900
G0 F9000 X151.071 Y149.449
G1 Z4.400
G1 F2400 E141.20262
G1 F840 X153.227 Y147.292 E141.32942
;LAYER:22
M106 S232
G1 F2400 E140.72942
G1 Z4.900
G0 F9000 X152.450 Y149.661 Z4.600
;TYPE:WALL-INNER
G1 Z4.600
G1 F2400 E141.32942
G1 F840 X147.450 Y149.660 E141.53729
G1 X147.450 Y149.584 E141.54045
G1 X152.500 Y146.669 E141.78288
G1 X157.550 Y149.584 E142.02530
G1 X157.550 Y155.416 E142.26776
G1 X152.500 Y158.331 E142.51019
G1 X147.450 Y155.416 E142.75261
G1 X147.450 Y155.339 E142.75581
G1 X152.450 Y155.340 E142.96368
G1 X152.450 Y154.946 E142.98007
G1 X152.571 Y154.952 E142.98510
G1 X153.228 Y154.845 E143.01278
G1 X153.793 Y154.587 E143.03860
G1 X154.235 Y154.238 E143.06201
G1 X154.683 Y153.628 E143.09348
G1 X154.898 Y153.019 E143.12033
G1 X154.944 Y152.678 E143.13464
G1 X154.951 Y152.472 E143.14321
G1 X154.896 Y151.969 E143.16424
G1 X154.738 Y151.495 E143.18502
G1 X154.490 Y151.065 E143.20565
G1 X154.171 Y150.706 E143.22562
G1 X153.918 Y150.500 E143.23918
G1 X153.462 Y150.243 E143.26095
G1 X152.890 Y150.078 E143.28570
G1 X152.503 Y150.049 E143.30183
G1 X152.450 Y150.053 E143.30404
G1 X152.450 Y149.661 E143.32034
G0 F9000 X152.801 Y150.573
;TYPE:WALL-OUTER
G1 F840 X152.501 Y150.550 E143.33285
G1 X152.234 Y150.568 E143.34397
G1 X151.950 Y150.637 E143.35612
G1 X151.950 Y150.161 E143.37591
G1 X146.950 Y150.160 E143.58379
G1 X146.950 Y149.296 E143.61971
G1 X152.500 Y146.091 E143.88616
G1 X158.050 Y149.296 E144.15262
G1 X158.050 Y155.704 E144.41903
G1 X152.500 Y158.909 E144.68548
G1 X146.950 Y155.704 E144.95194
G1 X146.950 Y154.839 E144.98790
G1 X151.950 Y154.840 E145.19577
G1 X151.950 Y154.367 E145.21544
G1 X152.274 Y154.437 E145.22922
G1 X152.542 Y154.450 E145.24037
G1 X153.081 Y154.362 E145.26308
G1 X153.530 Y154.157 E145.28360
G1 X153.872 Y153.887 E145.30172
G1 X154.236 Y153.392 E145.32726
G1 X154.409 Y152.901 E145.34891
G1 X154.445 Y152.635 E145.36007
G1 X154.450 Y152.491 E145.36606
G1 X154.405 Y152.077 E145.38337
G1 X154.279 Y151.701 E145.39986
G1 X154.082 Y151.359 E145.41626
G1 X153.824 Y151.068 E145.43243
G1 X153.635 Y150.915 E145.44254
G1 X153.267 Y150.707 E145.46012
G1 X152.801 Y150.573 E145.48028
G0 F9000 X153.727 Y150.192
;TYPE:FILL
G1 F840 X151.173 Y147.637 E145.63047
G1 F2400 E145.03047
G1 Z5.100
G0 F9000 X151.035 Y149.485
G1 Z4.600
G1 F2400 E145.63047
G1 F840 X153.228 Y147.291 E145.75944
G1 F2400 E145.15944
G1 Z5.100
G0 F9000 X154.813 Y151.278
G1 Z4.600
G1 F2400 E145.75944
G1 F840 X157.374 Y153.838 E145.90999
G1 F2400 E145.30999
G1 Z5.100
G0 F9000 X155.125 Y152.466
G1 Z4.600
G1 F2400 E145.90999
G1 F840 X157.373 Y150.217 E146.04219
G1 F2400 E145.44219
G1 Z5.100
G0 F9000 X152.078 Y155.513
G1 Z4.600
G1 F2400 E146.04219
G1 F840 X150.574 Y157.016 E146.13059
G1 F2400 E145.53059
G1 Z5.100
G0 F9000 X151.978 Y155.513
G1 Z4.600
G1 F2400 E146.13059
G1 F840 X153.826 Y157.361 E146.23925
;LAYER:23
M106 S242
G1 F2400 E145.63925
G1 Z5.100
G0 F9000 X153.046 Y154.893 Z4.800
;TYPE:WALL-INNER
G1 Z4.800
G1 F2400 E146.23925
G1 F840 X153.648 Y154.671 E146.26592
G1 X154.097 Y154.361 E146.28861
G1 X154.411 Y154.033 E146.30749
G1 X154.522 Y153.885 E146.31518
G1 X154.710 Y153.561 E146.33075
G1 X154.865 Y153.151 E146.34897
G1 X154.944 Y152.691 E146.36838
G1 X154.951 Y152.475 E146.37736
G1 X154.903 Y152.001 E146.39717
G1 X154.734 Y151.489 E146.41959
G1 X154.509 Y151.091 E146.43859
G1 X154.154 Y150.690 E146.46086
G1 X153.785 Y150.409 E146.48014
G1 X153.207 Y150.149 E146.50649
G1 X152.727 Y150.060 E146.52679
G1 X152.450 Y150.049 E146.53832
G1 X152.450 Y149.718 E146.55208
G1 X149.341 Y149.719 E146.68133
G1 X149.204 Y149.718 E146.68703
G1 X147.450 Y149.719 E146.75995
G1 X147.450 Y149.585 E146.76552
G1 X152.500 Y146.670 E147.00795
G1 X157.550 Y149.585 E147.25037
G1 X157.550 Y155.415 E147.49275
G1 X152.500 Y158.330 E147.73517
G1 X147.450 Y155.415 E147.97759
G1 X147.450 Y155.280 E147.98321
G1 X151.220 Y155.282 E148.13995
G1 X152.450 Y155.285 E148.19108
G1 X152.450 Y154.946 E148.20518
G1 X152.554 Y154.951 E148.20951
G1 X153.046 Y154.893 E148.23010
G0 F9000 X152.929 Y154.404
;TYPE:WALL-OUTER
G1 F840 X153.415 Y154.224 E148.25165
G1 X153.776 Y153.975 E148.26988
G1 X154.021 Y153.720 E148.28458
G1 X154.104 Y153.609 E148.29035
G1 X154.257 Y153.346 E148.30300
G1 X154.380 Y153.019 E148.31752
G1 X154.445 Y152.640 E148.33351
G1 X154.450 Y152.492 E148.33966
G1 X154.411 Y152.106 E148.35579
G1 X154.275 Y151.692 E148.37391
G1 X154.100 Y151.383 E148.38868
G1 X153.812 Y151.058 E148.40673
G1 X153.528 Y150.842 E148.42156
G1 X153.056 Y150.630 E148.44308
G1 X152.671 Y150.558 E148.45936
G1 X152.476 Y150.550 E148.46747
G1 X151.971 Y150.623 E148.48869
G1 X151.950 Y150.631 E148.48962
G1 X151.950 Y150.218 E148.50679
G1 X149.337 Y150.219 E148.61543
G1 X149.202 Y150.218 E148.62104
G1 X146.950 Y150.219 E148.71467
G1 X146.950 Y149.297 E148.75300
G1 X152.500 Y146.092 E149.01945
G1 X158.050 Y149.297 E149.28591
G1 X158.050 Y155.703 E149.55224
G1 X152.500 Y158.908 E149.81869
G1 X146.950 Y155.703 E150.08514
G1 X146.950 Y154.781 E150.12347
G1 X151.950 Y154.783 E150.33135
G1 X151.950 Y154.369 E150.34856
G1 X152.268 Y154.437 E150.36208
G1 X152.537 Y154.450 E150.37328
G1 X152.929 Y154.404 E150.38969
G0 F9000 X152.133 Y155.458
;TYPE:FILL
G1 F840 X150.574 Y157.016 E150.48132
G1 F2400 E149.88132
G1 Z5.300
G0 F9000 X151.923 Y155.458
G1 Z4.800
G1 F2400 E150.48132
G1 F840 X153.826 Y157.361 E150.59321
G1 F2400 E149.99321
G1 Z5.300
G0 F9000 X157.374 Y153.838
G1 Z4.800
G1 F2400 E150.59321
G1 F840 X154.818 Y151.283 E150.74346
G0 F9000 X155.125 Y152.466
G1 F840 X157.374 Y150.217 E150.87570
G1 F2400 E150.27570
G1 Z5.300
G0 F9000 X153.726 Y150.190
G1 Z4.800
G1 F2400 E150.87570
G1 F840 X151.173 Y147.638 E151.02577
G1 F2400 E150.42577
G1 Z5.300
G0 F9000 X150.977 Y149.543
G1 Z4.800
G1 F2400 E151.02577
G1 F840 X153.227 Y147.292 E151.15810
;LAYER:24
M106 S255
G0 F9000 X152.500 Y146.670 Z5.000
;TYPE:WALL-INNER
G1 F840 X157.550 Y149.585 E151.40052
G1 X157.550 Y155.415 E151.64290
G1 X152.500 Y158.330 E151.88532
G1 X147.450 Y155.415 E152.12774
G1 X147.450 Y155.202 E152.13660
G1 X148.639 Y155.201 E152.18603
G1 X149.200 Y155.202 E152.20936
G1 X150.555 Y155.202 E152.26569
G1 X152.450 Y155.199 E152.34448
G1 X152.450 Y154.946 E152.35499
G1 X152.547 Y154.951 E152.35903
G1 X152.950 Y154.910 E152.37587
G1 X153.420 Y154.774 E152.39622
G1 X153.865 Y154.538 E152.41716
G1 X154.307 Y154.162 E152.44128
G1 X154.634 Y153.707 E152.46458
G1 X154.815 Y153.309 E152.48276
G1 X154.928 Y152.844 E152.50265
G1 X154.954 Y152.475 E152.51803
G1 X154.868 Y151.851 E152.54422
G1 X154.654 Y151.328 E152.56771
G1 X154.407 Y150.957 E152.58624
G1 X154.003 Y150.560 E152.60979
G1 X153.461 Y150.245 E152.63585
G1 X153.118 Y150.128 E152.65092
G1 X152.721 Y150.059 E152.66767
G1 X152.450 Y150.050 E152.67895
G1 X152.450 Y149.822 E152.68843
G1 X151.194 Y149.800 E152.74065
G1 X149.201 Y149.798 E152.82351
G1 X148.516 Y149.799 E152.85199
G1 X147.450 Y149.798 E152.89631
G1 X147.450 Y149.585 E152.90517
G1 X152.500 Y146.670 E153.14759
G0 F9000 X152.500 Y146.092
;TYPE:WALL-OUTER
G1 F840 X158.050 Y149.297 E153.41404
G1 X158.050 Y155.703 E153.68037
G1 X152.500 Y158.908 E153.94682
G1 X146.950 Y155.703 E154.21328
G1 X146.950 Y154.702 E154.25489
G1 X151.950 Y154.700 E154.46277
G1 X151.950 Y154.365 E154.47670
G1 X152.270 Y154.437 E154.49033
G1 X152.534 Y154.450 E154.50132
G1 X152.855 Y154.417 E154.51474
G1 X153.231 Y154.308 E154.53101
G1 X153.582 Y154.122 E154.54753
G1 X153.936 Y153.821 E154.56685
G1 X154.199 Y153.455 E154.58559
G1 X154.340 Y153.145 E154.59974
G1 X154.432 Y152.767 E154.61592
G1 X154.451 Y152.492 E154.62738
G1 X154.381 Y151.982 E154.64878
G1 X154.210 Y151.563 E154.66760
G1 X154.020 Y151.277 E154.68187
G1 X153.698 Y150.961 E154.70063
G1 X153.253 Y150.702 E154.72203
G1 X152.994 Y150.614 E154.73341
G1 X152.669 Y150.558 E154.74712
G1 X152.469 Y150.551 E154.75544
G1 X152.134 Y150.584 E154.76943
G1 X151.950 Y150.645 E154.77749
G1 X151.950 Y150.313 E154.79130
G1 X151.189 Y150.300 E154.82294
G1 X146.950 Y150.298 E154.99918
G1 X146.950 Y149.297 E155.04079
G1 X152.500 Y146.092 E155.30725
G0 F9000 X153.227 Y147.292
;TYPE:FILL
G1 F840 X150.895 Y149.624 E155.44436
G1 F2400 E154.84436
G1 Z5.500
G0 F9000 X151.173 Y147.637
G1 Z5.000
G1 F2400 E155.44436
G1 F840 X153.741 Y150.205 E155.59535
G1 F2400 E154.99535
G1 Z5.500
G0 F9000 X154.829 Y151.293
G1 Z5.000
G1 F2400 E155.59535
G1 F840 X157.374 Y153.838 E155.74498
G1 F2400 E155.14498
G1 Z5.500
G0 F9000 X155.129 Y152.462
G1 Z5.000
G1 F2400 E155.74498
G1 F840 X157.374 Y150.217 E155.87698
G1 F2400 E155.27698
G1 Z5.500
G0 F9000 X152.218 Y155.373
G1 Z5.000
G1 F2400 E155.87698
G1 F840 X150.574 Y157.016 E155.97361
G1 F2400 E155.37361
G1 Z5.500
G0 F9000 X151.838 Y155.373
G1 Z5.000
G1 F2400 E155.97361
G1 F840 X153.826 Y157.361 E156.09050
;LAYER:25
G1 F2400 E155.49050
G1 Z5.500
G0 F9000 X153.254 Y154.835 Z5.200
;TYPE:WALL-INNER
G1 Z5.200
G1 F2400 E156.09050
G1 F840 X153.654 Y154.664 E156.10858
G1 X154.016 Y154.427 E156.12657
G1 X154.420 Y154.031 E156.15009
G1 X154.758 Y153.468 E156.17739
G1 X154.927 Y152.856 E156.20379
G1 X154.954 Y152.467 E156.22000
G1 X154.843 Y151.764 E156.24959
G1 X154.561 Y151.167 E156.27704
G1 X154.196 Y150.726 E156.30084
G1 X153.801 Y150.421 E156.32159
G1 X153.410 Y150.223 E156.33981
G1 X152.890 Y150.078 E156.36226
G1 X152.527 Y150.048 E156.37740
G1 X152.450 Y150.055 E156.38061
G1 X152.450 Y149.905 E156.38685
G1 X147.450 Y149.904 E156.59472
G1 X147.450 Y149.584 E156.60803
G1 X152.500 Y146.669 E156.85045
G1 X157.550 Y149.584 E157.09287
G1 X157.550 Y155.416 E157.33534
G1 X152.500 Y158.331 E157.57776
G1 X147.450 Y155.416 E157.82018
G1 X147.450 Y155.096 E157.83349
G1 X152.450 Y155.096 E158.04136
G1 X152.450 Y154.946 E158.04760
G1 X152.574 Y154.952 E158.05276
G1 X153.254 Y154.835 E158.08145
G0 F9000 X153.111 Y154.352
;TYPE:WALL-OUTER
G1 F840 X153.417 Y154.221 E158.09529
G1 X153.701 Y154.036 E158.10938
G1 X154.024 Y153.719 E158.12819
G1 X154.294 Y153.269 E158.15001
G1 X154.432 Y152.771 E158.17150
G1 X154.451 Y152.489 E158.18325
G1 X154.360 Y151.913 E158.20749
G1 X154.136 Y151.438 E158.22932
G1 X153.846 Y151.087 E158.24825
G1 X153.533 Y150.846 E158.26468
G1 X153.229 Y150.692 E158.27885
G1 X152.801 Y150.573 E158.29731
G1 X152.528 Y150.550 E158.30870
G1 X152.144 Y150.583 E158.32473
G1 X151.950 Y150.632 E158.33305
G1 X151.950 Y150.405 E158.34248
G1 X146.950 Y150.404 E158.55036
G1 X146.950 Y149.296 E158.59643
G1 X152.500 Y146.091 E158.86288
G1 X158.050 Y149.296 E159.12933
G1 X158.050 Y155.704 E159.39575
G1 X152.500 Y158.909 E159.66220
G1 X146.950 Y155.704 E159.92865
G1 X146.950 Y154.596 E159.97472
G1 X151.950 Y154.596 E160.18259
G1 X151.950 Y154.355 E160.19261
G1 X152.262 Y154.436 E160.20601
G1 X152.543 Y154.450 E160.21771
G1 X153.111 Y154.352 E160.24167
G0 F9000 X152.321 Y155.270
;TYPE:FILL
G1 F840 X150.574 Y157.016 E160.34436
G1 F2400 E159.74436
G1 Z5.700
G0 F9000 X151.735 Y155.270
G1 Z5.200
G1 F2400 E160.34436
G1 F840 X153.826 Y157.361 E160.46730
G1 F2400 E159.86730
G1 Z5.700
G0 F9000 X157.374 Y153.838
G1 Z5.200
G1 F2400 E160.46730
G1 F840 X154.798 Y151.262 E160.61876
G0 F9000 X155.127 Y152.463
G1 F840 X157.373 Y150.217 E160.75082
G1 F2400 E160.15082
G1 Z5.700
G0 F9000 X153.719 Y150.183
G1 Z5.200
G1 F2400 E160.75082
G1 F840 X151.173 Y147.637 E160.90051
G1 F2400 E160.30051
G1 Z5.700
G0 F9000 X153.228 Y147.291
G1 Z5.200
G1 F2400 E160.90051
G1 F840 X150.791 Y149.729 E161.04383
;LAYER:26
G1 F2400 E160.44383
G1 Z5.700
G0 F9000 X152.507 Y150.049 Z5.400
;TYPE:WALL-INNER
G1 Z5.400
G1 F2400 E161.04383
G1 F900 X152.450 Y150.055 E161.04621
G1 X152.450 Y150.040 E161.04684
G1 X147.450 Y150.039 E161.25471
G1 X147.450 Y149.585 E161.27359
G1 X152.500 Y146.670 E161.51601
G1 X157.550 Y149.585 E161.75843
G1 X157.550 Y155.415 E162.00081
G1 X152.500 Y158.330 E162.24324
G1 X147.450 Y155.415 E162.48566
G1 X147.450 Y154.960 E162.50457
G1 X152.450 Y154.961 E162.71245
G1 X152.450 Y154.946 E162.71307
G1 X152.554 Y154.951 E162.71740
G1 X153.034 Y154.895 E162.73749
G1 X153.502 Y154.738 E162.75802
G1 X153.881 Y154.524 E162.77611
G1 X154.205 Y154.265 E162.79336
G1 X154.598 Y153.773 E162.81954
G1 X154.814 Y153.313 E162.84067
G1 X154.928 Y152.844 E162.86073
G1 X154.953 Y152.479 E162.87594
G1 X154.882 Y151.909 E162.89982
G1 X154.709 Y151.432 E162.92092
G1 X154.418 Y150.969 E162.94365
G1 X154.066 Y150.612 E162.96450
G1 X153.654 Y150.335 E162.98514
G1 X153.194 Y150.147 E163.00580
G1 X152.732 Y150.061 E163.02534
G1 X152.507 Y150.049 E163.03470
G0 F9000 X152.521 Y150.550
;TYPE:WALL-OUTER
G1 F900 X152.062 Y150.600 E163.05390
G1 X151.950 Y150.635 E163.05878
G1 X151.950 Y150.540 E163.06273
G1 X146.950 Y150.539 E163.27060
G1 X146.950 Y149.297 E163.32224
G1 X152.500 Y146.092 E163.58869
G1 X158.050 Y149.297 E163.85515
G1 X158.050 Y155.703 E164.12148
G1 X152.500 Y158.908 E164.38793
G1 X146.950 Y155.703 E164.65438
G1 X146.950 Y154.461 E164.70602
G1 X151.950 Y154.460 E164.91389
G1 X151.950 Y154.365 E164.91784
G1 X152.270 Y154.437 E164.93148
G1 X152.537 Y154.450 E164.94259
G1 X152.925 Y154.404 E164.95884
G1 X153.298 Y154.279 E164.97519
G1 X153.600 Y154.109 E164.98960
G1 X153.849 Y153.910 E165.00285
G1 X154.171 Y153.507 E165.02430
G1 X154.340 Y153.146 E165.04087
G1 X154.432 Y152.767 E165.05709
G1 X154.451 Y152.493 E165.06851
G1 X154.393 Y152.027 E165.08803
G1 X154.257 Y151.653 E165.10457
G1 X154.023 Y151.281 E165.12285
G1 X153.745 Y150.999 E165.13931
G1 X153.417 Y150.778 E165.15575
G1 X153.052 Y150.629 E165.17214
G1 X152.673 Y150.558 E165.18817
G1 X152.521 Y150.550 E165.19450
G0 F9000 X153.698 Y150.162
;TYPE:FILL
G1 F900 X151.173 Y147.637 E165.34296
G1 F2400 E164.74296
G1 Z5.900
G0 F9000 X153.227 Y147.292
G1 Z5.400
G1 F2400 E165.34296
G1 F900 X150.655 Y149.864 E165.49419
G1 F2400 E164.89419
G1 Z5.900
G0 F9000 X154.825 Y151.289
G1 Z5.400
G1 F2400 E165.49419
G1 F900 X157.374 Y153.838 E165.64406
G1 F2400 E165.04406
G1 Z5.900
G0 F9000 X155.127 Y152.463
G1 Z5.400
G1 F2400 E165.64406
G1 F900 X157.374 Y150.217 E165.77614
G1 F2400 E165.17614
G1 Z5.900
G0 F9000 X152.457 Y155.134
G1 Z5.400
G1 F2400 E165.77614
G1 F900 X150.574 Y157.016 E165.88683
G1 F2400 E165.28683
G1 Z5.900
G0 F9000 X151.599 Y155.134
G1 Z5.400
G1 F2400 E165.88683
G1 F900 X153.826 Y157.361 E166.01777
G1 F2400 E165.41777
G1 Z5.900
G0 F9000 X152.231 Y155.413
;TYPE:SKIN
G1 Z5.400
G1 F2400 E166.01777
G1 F900 X151.738 Y155.274 E166.03408
G1 X151.031 Y155.274 E166.05036
G1 X150.324 Y155.273 E166.06665
G1 X149.616 Y155.273 E166.08295
G1 X148.909 Y155.273 E166.09924
G1 X148.202 Y155.273 E166.11552
G1 X147.710 Y155.134 E166.13678
G1 F2400 E165.53678
G1 Z5.900
G0 F9000 X148.095 Y149.863
G1 Z5.400
G1 F2400 E166.13678
G1 F900 X148.170 Y149.584 E166.15316
G1 X149.016 Y149.723 E166.16949
G1 X149.724 Y149.724 E166.18585
G1 X150.431 Y149.724 E166.20225
G1 X151.139 Y149.724 E166.21862
G1 X151.846 Y149.724 E166.23496
G1 X152.339 Y149.864 E166.25627
;LAYER:27
G0 F9000 X151.891 Y150.121 Z5.600
;TYPE:WALL-INNER
G1 F960 X151.658 Y150.212 E166.26667
G1 X147.450 Y150.211 E166.44162
G1 X147.450 Y149.585 E166.46764
G1 X152.500 Y146.670 E166.71007
G1 X157.550 Y149.585 E166.95249
