;-- START GCODE --
;Sliced for Type A Machines Series 1
;Sliced at: Sun 08-11-2020 11:13:58
;Basic settings: Layer height: 0.2 Walls: 1 Fill: 20
;Print Speed: 45 Support: 0
;Retraction Speed: 40 Retraction Distance: 0.6
;Print time: 7 minutes
;Filament used: 0.282m 0.0g
;Settings based on: Type A Machines ProMatte
G21        ;metric values
G90        ;absolute positioning
G28     ;move to endstops
G29		;allows for auto-levelling
G1 Z15.0 F12000 ;move the platform down 15mm
G1 X150 Y5 F9000 ;center
M140 S50 ;Prep Heat Bed
M109 S210 ;Heat To temp
M190 S50 ;Heat Bed to temp
G1 X150 Y5 Z0.3 ;move the platform to purge extrusion
G92 E0 ;zero the extruded length
G1 F200 X250 E30 ;extrude 30mm of feed stock
G92 E0 ;zero the extruded length again
G1 X150 Y150  Z25 F12000 ;recenter and begin
G1 F9000

;Layer count: 45
;LAYER:0
M107
G0 F9000 X142.450 Y146.698 Z0.200
;TYPE:SKIRT
G1 F1800 X150.310 Y142.160 E0.37733
G1 X152.487 Y140.888 E0.48216
G1 X160.370 Y145.439 E0.86059
G1 X162.550 Y146.714 E0.96559
G1 X162.550 Y158.302 E1.44736
G1 X154.690 Y162.840 E1.82470
G1 X152.513 Y164.112 E1.92953
G1 X144.630 Y159.561 E2.30796
G1 X142.450 Y158.286 E2.41295
G1 X142.450 Y146.698 E2.89473
G0 F9000 X142.950 Y146.987
G1 F1800 X150.560 Y142.593 E3.26007
G1 X152.488 Y141.466 E3.35291
G1 X160.119 Y145.871 E3.71924
G1 X162.050 Y147.000 E3.81224
G1 X162.050 Y158.013 E4.27010
G1 X154.440 Y162.407 E4.63544
G1 X152.512 Y163.534 E4.72829
G1 X144.881 Y159.129 E5.09461
G1 X142.950 Y158.000 E5.18761
G1 X142.950 Y146.987 E5.64548
G0 F9000 X143.450 Y147.276
G1 F1800 X150.810 Y143.026 E5.99882
G1 X152.490 Y142.044 E6.07973
G1 X159.868 Y146.304 E6.43393
G1 X161.550 Y147.287 E6.51492
G1 X161.550 Y157.724 E6.94884
G1 X154.190 Y161.974 E7.30219
G1 X152.510 Y162.956 E7.38309
G1 X145.132 Y158.696 E7.73729
G1 X143.450 Y157.713 E7.81829
G1 X143.450 Y147.276 E8.25221
G1 F2400 E7.65221
G1 Z0.700
G0 F9000 X147.450 Y149.586
;TYPE:WALL-INNER
G1 Z0.200
G1 F2400 E8.25221
G1 F1800 X152.501 Y146.670 E8.49469
G1 X157.550 Y149.585 E8.73707
G1 X157.550 Y155.414 E8.97942
G1 X152.499 Y158.330 E9.22189
G1 X147.450 Y155.415 E9.46428
G1 X147.450 Y149.586 E9.70662
G1 F2400 E9.10662
G1 Z0.700
G0 F9000 X150.318 Y151.377
G1 Z0.200
G1 F2400 E9.70662
G1 F1800 X150.147 Y151.820 E9.72636
G1 X150.070 Y152.179 E9.74163
G1 X150.047 Y152.520 E9.75584
G1 X150.101 Y153.019 E9.77671
G1 X150.313 Y153.612 E9.80289
G1 X150.505 Y153.926 E9.81819
G1 X150.813 Y154.279 E9.83767
G1 X150.976 Y154.418 E9.84657
G1 X151.377 Y154.682 E9.86653
G1 X151.820 Y154.853 E9.88628
G1 X152.179 Y154.930 E9.90154
G1 X152.520 Y154.953 E9.91575
G1 X153.019 Y154.899 E9.93662
G1 X153.612 Y154.687 E9.96280
G1 X153.926 Y154.495 E9.97810
G1 X154.279 Y154.187 E9.99758
G1 X154.418 Y154.024 E10.00648
G1 X154.682 Y153.623 E10.02644
G1 X154.853 Y153.180 E10.04619
G1 X154.930 Y152.821 E10.06145
G1 X154.953 Y152.480 E10.07566
G1 X154.899 Y151.981 E10.09653
G1 X154.687 Y151.388 E10.12271
G1 X154.495 Y151.074 E10.13801
G1 X154.187 Y150.721 E10.15749
G1 X154.024 Y150.582 E10.16640
G1 X153.623 Y150.318 E10.18636
G1 X153.180 Y150.147 E10.20610
G1 X152.821 Y150.070 E10.22136
G1 X152.480 Y150.047 E10.23557
G1 X151.994 Y150.099 E10.25589
G1 X151.516 Y150.252 E10.27676
G1 X151.084 Y150.497 E10.29741
G1 X150.721 Y150.813 E10.31742
G1 X150.582 Y150.976 E10.32632
G1 X150.318 Y151.377 E10.34628
G0 F9000 X150.591 Y152.103
;TYPE:WALL-OUTER
G1 F1800 X150.567 Y152.239 E10.35202
G1 X150.549 Y152.510 E10.36332
G1 X150.592 Y152.906 E10.37988
G1 X150.766 Y153.395 E10.40146
G1 X150.910 Y153.629 E10.41288
G1 X151.166 Y153.923 E10.42909
G1 X151.277 Y154.018 E10.43516
G1 X151.607 Y154.235 E10.45158
G1 X151.971 Y154.376 E10.46781
G1 X152.103 Y154.409 E10.47347
G1 X152.239 Y154.433 E10.47921
G1 X152.510 Y154.451 E10.49050
G1 X152.906 Y154.408 E10.50706
G1 X153.395 Y154.234 E10.52864
G1 X153.629 Y154.090 E10.54006
G1 X153.923 Y153.834 E10.55627
G1 X154.018 Y153.723 E10.56234
G1 X154.235 Y153.393 E10.57876
G1 X154.376 Y153.029 E10.59499
G1 X154.409 Y152.897 E10.60065
G1 X154.433 Y152.761 E10.60639
G1 X154.451 Y152.490 E10.61768
G1 X154.408 Y152.094 E10.63424
G1 X154.234 Y151.605 E10.65582
G1 X154.090 Y151.371 E10.66725
G1 X153.834 Y151.077 E10.68345
G1 X153.723 Y150.982 E10.68953
G1 X153.393 Y150.765 E10.70595
G1 X153.029 Y150.624 E10.72218
G1 X152.897 Y150.591 E10.72783
G1 X152.761 Y150.567 E10.73358
G1 X152.490 Y150.549 E10.74487
G1 X152.098 Y150.591 E10.76126
G1 X151.717 Y150.713 E10.77789
G1 X151.375 Y150.907 E10.79424
G1 X151.077 Y151.166 E10.81065
G1 X150.982 Y151.277 E10.81673
G1 X150.765 Y151.607 E10.83315
G1 X150.624 Y151.971 E10.84938
G1 X150.591 Y152.103 E10.85503
G1 F2400 E10.25503
G1 Z0.700
G0 F9000 X146.950 Y149.297
G1 Z0.200
G1 F2400 E10.85503
G1 F1800 X152.500 Y146.092 E11.12149
G1 X158.050 Y149.296 E11.38792
G1 X158.050 Y155.703 E11.65429
G1 X152.500 Y158.908 E11.92074
G1 X146.950 Y155.704 E12.18717
G1 X146.950 Y149.297 E12.45355
G0 F9000 X147.812 Y149.579
;TYPE:SKIN
G1 F1800 X149.985 Y151.752 E12.58131
G0 F9000 X150.190 Y151.251
G1 F1800 X148.260 Y149.321 E12.69479
G0 F9000 X148.708 Y149.062
G1 F1800 X150.476 Y150.830 E12.79874
G0 F9000 X150.834 Y150.480
G1 F1800 X149.157 Y148.803 E12.89734
G0 F9000 X149.605 Y148.544
G1 F1800 X151.257 Y150.196 E12.99447
G0 F9000 X151.757 Y149.990
G1 F1800 X150.053 Y148.285 E13.09469
G0 F9000 X150.501 Y148.026
G1 F1800 X152.358 Y149.884 E13.20390
G0 F9000 X153.140 Y149.958
G1 F1800 X150.949 Y147.767 E13.33273
G0 F9000 X151.397 Y147.508
G1 F1800 X157.374 Y153.485 E13.68415
G0 F9000 X157.374 Y154.192
G1 F1800 X155.038 Y151.856 E13.82150
G0 F9000 X155.115 Y152.641
G1 F1800 X157.374 Y154.899 E13.95429
G0 F9000 X157.187 Y155.419
G1 F1800 X155.014 Y153.246 E14.08205
G0 F9000 X154.808 Y153.747
G1 F1800 X156.739 Y155.678 E14.19559
G0 F9000 X156.291 Y155.937
G1 F1800 X154.522 Y154.169 E14.29957
G0 F9000 X154.164 Y154.518
G1 F1800 X155.842 Y156.196 E14.39823
G0 F9000 X155.394 Y156.455
G1 F1800 X153.748 Y154.809 E14.49501
G0 F9000 X153.237 Y155.005
G1 F1800 X154.946 Y156.713 E14.59546
G0 F9000 X154.497 Y156.972
G1 F1800 X152.640 Y155.115 E14.70465
G0 F9000 X151.858 Y155.040
G1 F1800 X154.049 Y157.231 E14.83347
G0 F9000 X153.601 Y157.490
G1 F1800 X147.624 Y151.513 E15.18489
G0 F9000 X147.624 Y152.220
G1 F1800 X153.152 Y157.749 E15.50995
G0 F9000 X152.704 Y158.007
G1 F1800 X147.624 Y152.928 E15.80860
G0 F9000 X147.624 Y153.635
G1 F1800 X151.594 Y157.604 E16.04199
G1 F2400 E15.44199
G1 Z0.700
G0 F9000 X149.920 Y156.638
G1 Z0.200
G1 F2400 E16.04199
G1 F1800 X147.624 Y154.342 E16.17699
G0 F9000 X147.624 Y155.049
G1 F1800 X148.247 Y155.671 E16.21359
G1 F2400 E15.61359
G1 Z0.700
G0 F9000 X149.960 Y153.142
G1 Z0.200
G1 F2400 E16.21359
G1 F1800 X147.624 Y150.806 E16.35094
G0 F9000 X147.624 Y150.099
G1 F1800 X149.883 Y152.358 E16.48376
G1 F2400 E15.88376
G1 Z0.700
G0 F9000 X151.846 Y147.250
G1 Z0.200
G1 F2400 E16.48376
G1 F1800 X157.374 Y152.778 E16.80878
G0 F9000 X157.374 Y152.071
G1 F1800 X152.294 Y146.991 E17.10747
G0 F9000 X153.404 Y147.394
G1 F1800 X157.374 Y151.363 E17.34086
G0 F9000 X157.374 Y150.656
G1 F1800 X155.078 Y148.360 E17.47586
G1 F2400 E16.87586
G1 Z0.700
G0 F9000 X156.752 Y149.327
G1 Z0.200
G1 F2400 E17.47586
G1 F1800 X157.374 Y149.949 E17.51243
;LAYER:1
M106 S10
G0 F9000 X157.550 Y149.585 Z0.400
;TYPE:WALL-INNER
G1 F1680 X157.550 Y155.415 E17.75481
G1 X152.500 Y158.330 E17.99723
G1 X147.450 Y155.415 E18.23965
G1 X147.450 Y149.585 E18.48204
G1 X152.500 Y146.670 E18.72446
G1 X157.550 Y149.585 E18.96688
G1 F2400 E18.36688
G1 Z0.900
G0 F9000 X154.579 Y151.196
G1 Z0.400
G1 F2400 E18.96688
G1 F1680 X154.169 Y150.700 E18.99364
G1 X153.766 Y150.401 E19.01450
G1 X153.447 Y150.239 E19.02937
G1 X153.011 Y150.102 E19.04837
G1 X152.680 Y150.056 E19.06227
G1 X152.454 Y150.049 E19.07167
G1 X151.992 Y150.101 E19.09100
G1 X151.646 Y150.202 E19.10598
G1 X151.196 Y150.421 E19.12679
G1 X150.700 Y150.831 E19.15354
G1 X150.401 Y151.234 E19.17441
G1 X150.239 Y151.553 E19.18928
G1 X150.102 Y151.989 E19.20828
G1 X150.056 Y152.320 E19.22217
G1 X150.049 Y152.546 E19.23158
G1 X150.101 Y153.008 E19.25090
G1 X150.202 Y153.354 E19.26589
G1 X150.421 Y153.804 E19.28670
G1 X150.831 Y154.300 E19.31345
G1 X151.234 Y154.599 E19.33431
G1 X151.553 Y154.761 E19.34919
G1 X151.989 Y154.898 E19.36819
G1 X152.320 Y154.944 E19.38208
G1 X152.546 Y154.951 E19.39148
G1 X153.008 Y154.899 E19.41081
G1 X153.354 Y154.798 E19.42580
G1 X153.804 Y154.579 E19.44660
G1 X154.300 Y154.169 E19.47336
G1 X154.599 Y153.766 E19.49422
G1 X154.761 Y153.447 E19.50910
G1 X154.898 Y153.011 E19.52810
G1 X154.944 Y152.680 E19.54199
G1 X154.951 Y152.454 E19.55139
G1 X154.899 Y151.992 E19.57072
G1 X154.798 Y151.646 E19.58570
G1 X154.579 Y151.196 E19.60651
G0 F9000 X154.330 Y151.827
;TYPE:WALL-OUTER
G1 F1680 X154.156 Y151.469 E19.62306
G1 X153.822 Y151.065 E19.64485
G1 X153.502 Y150.828 E19.66141
G1 X153.258 Y150.704 E19.67279
G1 X152.900 Y150.591 E19.68840
G1 X152.637 Y150.555 E19.69943
G1 X152.475 Y150.550 E19.70617
G1 X152.091 Y150.593 E19.72224
G1 X151.827 Y150.670 E19.73367
G1 X151.469 Y150.844 E19.75022
G1 X151.065 Y151.178 E19.77201
G1 X150.828 Y151.498 E19.78857
G1 X150.704 Y151.742 E19.79995
G1 X150.591 Y152.100 E19.81555
G1 X150.555 Y152.363 E19.82659
G1 X150.550 Y152.525 E19.83333
G1 X150.593 Y152.909 E19.84939
G1 X150.670 Y153.173 E19.86083
G1 X150.844 Y153.531 E19.87737
G1 X151.178 Y153.935 E19.89917
G1 X151.498 Y154.172 E19.91572
G1 X151.742 Y154.296 E19.92710
G1 X152.100 Y154.409 E19.94271
G1 X152.363 Y154.445 E19.95375
G1 X152.525 Y154.450 E19.96048
G1 X152.909 Y154.407 E19.97655
G1 X153.173 Y154.330 E19.98798
G1 X153.531 Y154.156 E20.00453
G1 X153.935 Y153.822 E20.02632
G1 X154.172 Y153.502 E20.04288
G1 X154.296 Y153.258 E20.05426
G1 X154.409 Y152.900 E20.06987
G1 X154.445 Y152.637 E20.08090
G1 X154.450 Y152.475 E20.08764
G1 X154.407 Y152.091 E20.10371
G1 X154.330 Y151.827 E20.11514
G1 F2400 E19.51514
G1 Z0.900
G0 F9000 X158.050 Y149.297
G1 Z0.400
G1 F2400 E20.11514
G1 F1680 X158.050 Y155.703 E20.38147
G1 X152.500 Y158.908 E20.64792
G1 X146.950 Y155.703 E20.91438
G1 X146.950 Y149.297 E21.18071
G1 X152.500 Y146.092 E21.44716
G1 X158.050 Y149.297 E21.71361
G0 F9000 X157.374 Y149.863
;TYPE:SKIN
G1 F1680 X155.091 Y152.146 E21.84784
G0 F9000 X154.957 Y151.573
G1 F1680 X157.038 Y149.492 E21.97020
G0 F9000 X156.590 Y149.233
G1 F1680 X154.724 Y151.098 E22.07988
G0 F9000 X154.405 Y150.711
G1 F1680 X156.141 Y148.974 E22.18198
G0 F9000 X155.693 Y148.715
G1 F1680 X154.029 Y150.379 E22.27982
G0 F9000 X153.587 Y150.114
G1 F1680 X155.245 Y148.457 E22.37727
G0 F9000 X154.796 Y148.198
G1 F1680 X153.060 Y149.934 E22.47934
G0 F9000 X152.409 Y149.879
G1 F1680 X154.348 Y147.939 E22.59338
G0 F9000 X153.900 Y147.680
G1 F1680 X151.506 Y150.074 E22.73414
G1 F2400 E22.13414
G1 Z0.900
G0 F9000 X150.068 Y151.512
G1 Z0.400
G1 F2400 E22.73414
G1 F1680 X147.624 Y153.956 E22.87783
G0 F9000 X147.624 Y154.663
G1 F1680 X149.878 Y152.409 E23.01036
G0 F9000 X149.934 Y153.061
G1 F1680 X147.660 Y155.334 E23.14403
G0 F9000 X148.109 Y155.593
G1 F1680 X150.118 Y153.583 E23.26218
G0 F9000 X150.380 Y154.029
G1 F1680 X148.557 Y155.851 E23.36934
G0 F9000 X149.005 Y156.110
G1 F1680 X150.700 Y154.416 E23.46897
G0 F9000 X151.104 Y154.719
G1 F1680 X149.454 Y156.369 E23.56598
G0 F9000 X149.902 Y156.628
G1 F1680 X151.579 Y154.951 E23.66459
G0 F9000 X152.142 Y155.095
G1 F1680 X150.350 Y156.887 E23.76995
G0 F9000 X150.799 Y157.145
G1 F1680 X152.854 Y155.090 E23.89077
G0 F9000 X154.052 Y154.599
G1 F1680 X151.247 Y157.404 E24.05570
G0 F9000 X151.695 Y157.663
G1 F1680 X157.374 Y151.984 E24.38960
G0 F9000 X157.374 Y152.691
G1 F1680 X152.143 Y157.922 E24.69716
G0 F9000 X152.844 Y157.928
G1 F1680 X157.374 Y153.399 E24.96348
G0 F9000 X157.374 Y154.106
G1 F1680 X154.518 Y156.962 E25.13140
G1 F2400 E24.53140
G1 Z0.900
G0 F9000 X156.192 Y155.995
G1 Z0.400
G1 F2400 E25.13140
G1 F1680 X157.374 Y154.813 E25.20090
G1 F2400 E24.60090
G1 Z0.900
G0 F9000 X154.616 Y154.035
G1 Z0.400
G1 F2400 E25.20090
G1 F1680 X157.374 Y151.277 E25.36306
G0 F9000 X157.374 Y150.570
G1 F1680 X155.097 Y152.847 E25.49694
G1 F2400 E24.89694
G1 Z0.900
G0 F9000 X153.452 Y147.421
G1 Z0.400
G1 F2400 E25.49694
G1 F1680 X147.624 Y153.249 E25.83960
G0 F9000 X147.624 Y152.542
G1 F1680 X153.003 Y147.163 E26.15587
G0 F9000 X152.555 Y146.904
G1 F1680 X147.624 Y151.834 E26.44576
G0 F9000 X147.624 Y151.127
G1 F1680 X151.036 Y147.716 E26.64635
G1 F2400 E26.04635
G1 Z0.900
G0 F9000 X149.362 Y148.682
G1 Z0.400
G1 F2400 E26.64635
G1 F1680 X147.624 Y150.420 E26.74853
;LAYER:2
M106 S20
G0 F9000 X147.450 Y149.585 Z0.600
;TYPE:WALL-INNER
G1 F1680 X152.500 Y146.670 E26.99095
G1 X157.550 Y149.585 E27.23338
G1 X157.550 Y155.415 E27.47576
G1 X152.500 Y158.330 E27.71818
G1 X147.450 Y155.415 E27.96060
G1 X147.450 Y149.585 E28.20299
G1 F2400 E27.60299
G1 Z1.100
G0 F9000 X150.403 Y151.227
G1 Z0.600
G1 F2400 E28.20299
G1 F1680 X150.189 Y151.678 E28.22374
G1 X150.072 Y152.155 E28.24416
G1 X150.047 Y152.557 E28.26091
G1 X150.135 Y153.152 E28.28591
G1 X150.317 Y153.617 E28.30667
G1 X150.507 Y153.928 E28.32182
G1 X150.848 Y154.312 E28.34318
G1 X151.227 Y154.597 E28.36289
G1 X151.678 Y154.811 E28.38364
G1 X152.155 Y154.928 E28.40406
G1 X152.557 Y154.953 E28.42081
G1 X153.152 Y154.865 E28.44582
G1 X153.617 Y154.683 E28.46658
G1 X153.928 Y154.493 E28.48173
G1 X154.312 Y154.152 E28.50308
G1 X154.597 Y153.773 E28.52279
G1 X154.811 Y153.322 E28.54355
G1 X154.928 Y152.845 E28.56397
G1 X154.953 Y152.443 E28.58071
G1 X154.865 Y151.848 E28.60572
G1 X154.683 Y151.383 E28.62648
G1 X154.493 Y151.072 E28.64163
G1 X154.152 Y150.688 E28.66298
G1 X153.773 Y150.403 E28.68270
G1 X153.322 Y150.189 E28.70345
G1 X152.845 Y150.072 E28.72387
G1 X152.443 Y150.047 E28.74062
G1 X151.857 Y150.133 E28.76524
G1 X151.481 Y150.270 E28.78188
G1 X151.080 Y150.500 E28.80110
G1 X150.688 Y150.848 E28.82289
G1 X150.403 Y151.227 E28.84261
G0 F9000 X150.833 Y151.487
;TYPE:WALL-OUTER
G1 F1680 X150.662 Y151.847 E28.85918
G1 X150.568 Y152.231 E28.87561
G1 X150.549 Y152.536 E28.88832
G1 X150.621 Y153.023 E28.90878
G1 X150.766 Y153.394 E28.92534
G1 X150.910 Y153.629 E28.93680
G1 X151.189 Y153.943 E28.95427
G1 X151.487 Y154.167 E28.96977
G1 X151.847 Y154.338 E28.98634
G1 X152.231 Y154.432 E29.00277
G1 X152.536 Y154.451 E29.01548
G1 X153.023 Y154.379 E29.03594
G1 X153.394 Y154.234 E29.05250
G1 X153.629 Y154.090 E29.06396
G1 X153.943 Y153.811 E29.08143
G1 X154.167 Y153.513 E29.09693
G1 X154.338 Y153.153 E29.11349
G1 X154.432 Y152.769 E29.12993
G1 X154.451 Y152.464 E29.14264
G1 X154.379 Y151.977 E29.16310
G1 X154.234 Y151.606 E29.17966
G1 X154.090 Y151.371 E29.19112
G1 X153.811 Y151.057 E29.20859
G1 X153.513 Y150.833 E29.22409
G1 X153.153 Y150.662 E29.24065
G1 X152.769 Y150.568 E29.25709
G1 X152.464 Y150.549 E29.26980
G1 X151.980 Y150.620 E29.29013
G1 X151.692 Y150.725 E29.30288
G1 X151.373 Y150.908 E29.31817
G1 X151.057 Y151.189 E29.33575
G1 X150.833 Y151.487 E29.35125
G1 F2400 E28.75125
G1 Z1.100
G0 F9000 X146.950 Y149.297
G1 Z0.600
G1 F2400 E29.35125
G1 F1680 X152.500 Y146.092 E29.61770
G1 X158.050 Y149.297 E29.88415
G1 X158.050 Y155.703 E30.15048
G1 X152.500 Y158.908 E30.41694
G1 X146.950 Y155.703 E30.68339
G1 X146.950 Y149.297 E30.94972
G0 F9000 X147.811 Y149.579
;TYPE:SKIN
G1 F1680 X149.990 Y151.757 E31.07781
G0 F9000 X150.195 Y151.256
G1 F1680 X148.259 Y149.320 E31.19164
G0 F9000 X148.708 Y149.061
G1 F1680 X150.480 Y150.833 E31.29582
G0 F9000 X150.835 Y150.481
G1 F1680 X149.156 Y148.802 E31.39454
G0 F9000 X149.604 Y148.544
G1 F1680 X151.255 Y150.195 E31.49162
G0 F9000 X151.751 Y149.983
G1 F1680 X150.053 Y148.285 E31.59145
G0 F9000 X150.501 Y148.026
G1 F1680 X152.356 Y149.881 E31.70052
G0 F9000 X153.148 Y149.966
G1 F1680 X150.948 Y147.766 E31.82987
G0 F9000 X151.397 Y147.508
G1 F1680 X157.374 Y153.485 E32.18129
G0 F9000 X157.374 Y154.192
G1 F1680 X155.043 Y151.861 E32.31835
G0 F9000 X155.114 Y152.639
G1 F1680 X157.374 Y154.899 E32.45123
G0 F9000 X157.187 Y155.419
G1 F1680 X155.009 Y153.242 E32.57926
G0 F9000 X154.803 Y153.742
G1 F1680 X156.739 Y155.678 E32.69309
G0 F9000 X156.291 Y155.937
G1 F1680 X154.519 Y154.166 E32.79724
G0 F9000 X154.164 Y154.517
G1 F1680 X155.842 Y156.196 E32.89593
G0 F9000 X155.394 Y156.455
G1 F1680 X153.747 Y154.808 E32.99277
G0 F9000 X153.247 Y155.014
G1 F1680 X154.946 Y156.713 E33.09266
G0 F9000 X154.497 Y156.972
G1 F1680 X152.642 Y155.117 E33.20173
G0 F9000 X151.851 Y155.033
G1 F1680 X154.050 Y157.232 E33.33102
G0 F9000 X153.601 Y157.491
G1 F1680 X147.624 Y151.513 E33.68248
G0 F9000 X147.624 Y152.220
G1 F1680 X153.153 Y157.749 E34.00756
G0 F9000 X152.705 Y158.008
G1 F1680 X147.624 Y152.928 E34.30628
G0 F9000 X147.624 Y153.635
G1 F1680 X151.593 Y157.603 E34.53961
G1 F2400 E33.93961
G1 Z1.100
G0 F9000 X149.920 Y156.637
G1 Z0.600
G1 F2400 E34.53961
G1 F1680 X147.624 Y154.342 E34.67458
G0 F9000 X147.624 Y155.049
G1 F1680 X148.247 Y155.671 E34.71118
G1 F2400 E34.11118
G1 Z1.100
G0 F9000 X149.956 Y153.138
G1 Z0.600
G1 F2400 E34.71118
G1 F1680 X147.624 Y150.806 E34.84829
G0 F9000 X147.624 Y150.099
G1 F1680 X149.884 Y152.359 E34.98117
G1 F2400 E34.38117
G1 Z1.100
G0 F9000 X151.845 Y147.249
G1 Z0.600
G1 F2400 E34.98117
G1 F1680 X157.374 Y152.778 E35.30625
G0 F9000 X157.374 Y152.071
G1 F1680 X152.293 Y146.990 E35.60500
G0 F9000 X153.406 Y147.395
G1 F1680 X157.374 Y151.363 E35.83830
G0 F9000 X157.374 Y150.656
G1 F1680 X155.079 Y148.361 E35.97324
G1 F2400 E35.37324
G1 Z1.100
G0 F9000 X156.752 Y149.327
G1 Z0.600
G1 F2400 E35.97324
G1 F1680 X157.374 Y149.949 E36.00981
;LAYER:3
M106 S30
G0 F9000 X157.550 Y149.585 Z0.800
;TYPE:WALL-INNER
G1 F1680 X157.550 Y155.415 E36.25219
G1 X152.500 Y158.330 E36.49461
G1 X147.450 Y155.415 E36.73703
G1 X147.450 Y149.585 E36.97942
G1 X152.500 Y146.670 E37.22184
G1 X157.550 Y149.585 E37.46426
G1 F2400 E36.86426
G1 Z1.300
G0 F9000 X154.506 Y151.083
G1 Z0.800
G1 F2400 E37.46426
G1 F1680 X154.059 Y150.605 E37.49147
G1 X153.615 Y150.312 E37.51359
G1 X152.983 Y150.096 E37.54135
G1 X152.679 Y150.056 E37.55410
G1 X152.470 Y150.049 E37.56280
G1 X151.945 Y150.109 E37.58476
G1 X151.387 Y150.315 E37.60949
G1 X151.064 Y150.512 E37.62522
G1 X150.605 Y150.941 E37.65134
G1 X150.312 Y151.385 E37.67346
G1 X150.096 Y152.017 E37.70123
G1 X150.056 Y152.321 E37.71398
G1 X150.049 Y152.530 E37.72267
G1 X150.109 Y153.054 E37.74460
G1 X150.312 Y153.610 E37.76921
G1 X150.512 Y153.936 E37.78511
G1 X150.941 Y154.395 E37.81123
G1 X151.385 Y154.688 E37.83334
G1 X152.017 Y154.904 E37.86111
G1 X152.321 Y154.944 E37.87386
G1 X152.530 Y154.951 E37.88255
G1 X153.054 Y154.891 E37.90448
G1 X153.610 Y154.688 E37.92909
G1 X153.936 Y154.488 E37.94499
G1 X154.395 Y154.059 E37.97111
G1 X154.688 Y153.615 E37.99323
G1 X154.904 Y152.983 E38.02099
G1 X154.944 Y152.679 E38.03374
G1 X154.950 Y152.503 E38.04106
G1 X154.947 Y152.385 E38.04597
G1 X154.818 Y151.685 E38.07556
G1 X154.506 Y151.083 E38.10375
G0 F9000 X154.094 Y151.374
;TYPE:WALL-OUTER
G1 F1680 X153.734 Y150.990 E38.12564
G1 X153.393 Y150.765 E38.14262
G1 X152.868 Y150.585 E38.16570
G1 X152.490 Y150.550 E38.18148
G1 X152.062 Y150.599 E38.19939
G1 X151.606 Y150.767 E38.21959
G1 X151.368 Y150.912 E38.23118
G1 X150.990 Y151.266 E38.25271
G1 X150.765 Y151.607 E38.26970
G1 X150.585 Y152.132 E38.29277
G1 X150.550 Y152.510 E38.30855
G1 X150.599 Y152.938 E38.32646
G1 X150.765 Y153.391 E38.34652
G1 X150.912 Y153.632 E38.35826
G1 X151.266 Y154.010 E38.37979
G1 X151.607 Y154.235 E38.39677
G1 X152.132 Y154.415 E38.41985
G1 X152.510 Y154.450 E38.43563
G1 X152.938 Y154.401 E38.45354
G1 X153.391 Y154.235 E38.47360
G1 X153.632 Y154.088 E38.48534
G1 X154.010 Y153.734 E38.50687
G1 X154.235 Y153.393 E38.52385
G1 X154.415 Y152.868 E38.54693
G1 X154.450 Y152.501 E38.56225
G1 X154.448 Y152.438 E38.56487
G1 X154.340 Y151.849 E38.58977
G1 X154.094 Y151.374 E38.61201
G1 F2400 E38.01201
G1 Z1.300
G0 F9000 X158.050 Y149.297
G1 Z0.800
G1 F2400 E38.61201
G1 F1680 X158.050 Y155.703 E38.87834
G1 X152.500 Y158.908 E39.14479
G1 X146.950 Y155.703 E39.41125
G1 X146.950 Y149.297 E39.67758
G1 X152.500 Y146.092 E39.94403
G1 X158.050 Y149.297 E40.21048
G0 F9000 X157.374 Y149.863
;TYPE:SKIN
G1 F1680 X155.081 Y152.156 E40.34530
G0 F9000 X154.957 Y151.573
G1 F1680 X157.038 Y149.492 E40.46766
G0 F9000 X156.590 Y149.233
G1 F1680 X154.716 Y151.107 E40.57784
G0 F9000 X154.401 Y150.714
G1 F1680 X156.141 Y148.974 E40.68015
G0 F9000 X155.693 Y148.715
G1 F1680 X154.031 Y150.378 E40.77789
G0 F9000 X153.584 Y150.118
G1 F1680 X155.245 Y148.457 E40.87556
G0 F9000 X154.796 Y148.198
G1 F1680 X153.058 Y149.937 E40.97777
G0 F9000 X152.406 Y149.881
G1 F1680 X154.348 Y147.939 E41.09195
G0 F9000 X153.900 Y147.680
G1 F1680 X151.491 Y150.089 E41.23359
G1 F2400 E40.63359
G1 Z1.300
G0 F9000 X150.090 Y151.490
G1 Z0.800
G1 F2400 E41.23359
G1 F1680 X147.624 Y153.956 E41.37859
G0 F9000 X147.624 Y154.663
G1 F1680 X149.877 Y152.410 E41.51105
G0 F9000 X149.933 Y153.061
G1 F1680 X147.660 Y155.334 E41.64470
G0 F9000 X148.109 Y155.593
G1 F1680 X150.116 Y153.585 E41.76273
G0 F9000 X150.369 Y154.039
G1 F1680 X148.557 Y155.851 E41.86927
G0 F9000 X149.005 Y156.110
G1 F1680 X150.711 Y154.405 E41.96955
G0 F9000 X151.110 Y154.713
G1 F1680 X149.454 Y156.369 E42.06691
G0 F9000 X149.902 Y156.628
G1 F1680 X151.589 Y154.941 E42.16610
G0 F9000 X152.141 Y155.096
G1 F1680 X150.350 Y156.887 E42.27141
G0 F9000 X150.799 Y157.145
G1 F1680 X152.856 Y155.088 E42.39235
G0 F9000 X153.997 Y154.654
G1 F1680 X151.247 Y157.404 E42.55404
G0 F9000 X151.695 Y157.663
G1 F1680 X157.374 Y151.984 E42.88794
G0 F9000 X157.374 Y152.691
G1 F1680 X152.143 Y157.922 E43.19551
G0 F9000 X152.844 Y157.928
G1 F1680 X157.374 Y153.399 E43.46182
G0 F9000 X157.374 Y154.106
G1 F1680 X154.518 Y156.962 E43.62974
G1 F2400 E43.02974
G1 Z1.300
G0 F9000 X156.192 Y155.995
G1 Z0.800
G1 F2400 E43.62974
G1 F1680 X157.374 Y154.813 E43.69924
G1 F2400 E43.09924
G1 Z1.300
G0 F9000 X154.624 Y154.027
G1 Z0.800
G1 F2400 E43.69924
G1 F1680 X157.374 Y151.277 E43.86093
G0 F9000 X157.374 Y150.570
G1 F1680 X155.098 Y152.846 E43.99475
G1 F2400 E43.39475
G1 Z1.300
G0 F9000 X153.452 Y147.421
G1 Z0.800
G1 F2400 E43.99475
G1 F1680 X147.624 Y153.249 E44.33741
G0 F9000 X147.624 Y152.542
G1 F1680 X153.003 Y147.163 E44.65368
G0 F9000 X152.555 Y146.904
G1 F1680 X147.624 Y151.834 E44.94357
G0 F9000 X147.624 Y151.127
G1 F1680 X151.036 Y147.716 E45.14416
G1 F2400 E44.54416
G1 Z1.300
G0 F9000 X149.362 Y148.682
G1 Z0.800
G1 F2400 E45.14416
G1 F1680 X147.624 Y150.420 E45.24634
;LAYER:4
M106 S40
G0 F9000 X147.450 Y149.585 Z1.000
;TYPE:WALL-INNER
G1 F960 X152.500 Y146.670 E45.48877
G1 X157.550 Y149.585 E45.73119
G1 X157.550 Y155.415 E45.97357
G1 X152.500 Y158.330 E46.21599
G1 X147.450 Y155.415 E46.45842
G1 X147.450 Y149.585 E46.70080
G1 F2400 E46.10080
G1 Z1.500
G0 F9000 X150.336 Y151.345
G1 Z1.000
G1 F2400 E46.70080
G1 F960 X150.219 Y151.607 E46.71273
G1 X150.092 Y152.046 E46.73173
G1 X150.056 Y152.322 E46.74330
G1 X150.049 Y152.520 E46.75154
G1 X150.083 Y152.908 E46.76773
G1 X150.213 Y153.391 E46.78853
G1 X150.491 Y153.909 E46.81297
G1 X150.834 Y154.302 E46.83465
G1 X151.345 Y154.664 E46.86069
G1 X151.607 Y154.781 E46.87262
G1 X152.046 Y154.908 E46.89162
G1 X152.322 Y154.944 E46.90319
G1 X152.520 Y154.951 E46.91143
G1 X152.908 Y154.917 E46.92762
G1 X153.391 Y154.787 E46.94842
G1 X153.909 Y154.509 E46.97286
G1 X154.302 Y154.166 E46.99454
G1 X154.664 Y153.655 E47.02058
G1 X154.781 Y153.393 E47.03251
G1 X154.908 Y152.954 E47.05151
G1 X154.944 Y152.678 E47.06308
G1 X154.950 Y152.505 E47.07028
G1 X154.948 Y152.408 E47.07431
G1 X154.916 Y152.088 E47.08768
G1 X154.787 Y151.609 E47.10831
G1 X154.509 Y151.091 E47.13275
G1 X154.166 Y150.698 E47.15443
G1 X153.655 Y150.336 E47.18047
G1 X153.393 Y150.219 E47.19240
G1 X152.954 Y150.092 E47.21140
G1 X152.678 Y150.056 E47.22297
G1 X152.480 Y150.049 E47.23121
G1 X152.092 Y150.083 E47.24740
G1 X151.650 Y150.202 E47.26643
G1 X151.492 Y150.266 E47.27352
G1 X151.068 Y150.515 E47.29396
G1 X150.946 Y150.606 E47.30029
G1 X150.690 Y150.844 E47.31482
G1 X150.336 Y151.345 E47.34033
G0 F9000 X150.690 Y151.780
;TYPE:WALL-OUTER
G1 F960 X150.583 Y152.149 E47.35630
G1 X150.555 Y152.363 E47.36527
G1 X150.550 Y152.507 E47.37126
G1 X150.577 Y152.820 E47.38432
G1 X150.681 Y153.205 E47.40090
G1 X150.905 Y153.623 E47.42062
G1 X151.171 Y153.929 E47.43748
G1 X151.594 Y154.227 E47.45899
G1 X151.780 Y154.310 E47.46746
G1 X152.149 Y154.417 E47.48343
G1 X152.363 Y154.445 E47.49240
G1 X152.507 Y154.450 E47.49839
G1 X152.820 Y154.423 E47.51146
G1 X153.205 Y154.319 E47.52804
G1 X153.623 Y154.095 E47.54775
G1 X153.929 Y153.829 E47.56461
G1 X154.227 Y153.406 E47.58612
G1 X154.310 Y153.220 E47.59459
G1 X154.417 Y152.851 E47.61056
G1 X154.450 Y152.502 E47.62514
G1 X154.449 Y152.439 E47.62776
G1 X154.423 Y152.179 E47.63862
G1 X154.319 Y151.795 E47.65516
G1 X154.095 Y151.377 E47.67488
G1 X153.829 Y151.071 E47.69173
G1 X153.406 Y150.773 E47.71325
G1 X153.220 Y150.690 E47.72171
G1 X152.851 Y150.583 E47.73769
G1 X152.637 Y150.555 E47.74666
G1 X152.493 Y150.550 E47.75265
G1 X152.180 Y150.577 E47.76571
G1 X151.809 Y150.677 E47.78169
G1 X151.713 Y150.716 E47.78599
G1 X151.345 Y150.932 E47.80373
G1 X151.267 Y150.990 E47.80778
G1 X151.069 Y151.175 E47.81904
G1 X150.773 Y151.594 E47.84037
G1 X150.690 Y151.780 E47.84884
G1 F2400 E47.24884
G1 Z1.500
G0 F9000 X146.950 Y149.297
G1 Z1.000
G1 F2400 E47.84884
G1 F960 X152.500 Y146.092 E48.11529
G1 X158.050 Y149.297 E48.38174
G1 X158.050 Y155.703 E48.64807
G1 X152.500 Y158.908 E48.91453
G1 X146.950 Y155.703 E49.18098
G1 X146.950 Y149.297 E49.44731
G1 F2400 E48.84731
G1 Z1.500
G0 F9000 X147.624 Y151.160
;TYPE:FILL
G1 Z1.000
G1 F2400 E49.44731
G1 F960 X150.198 Y153.734 E49.59865
G1 F2400 E48.99865
G1 Z1.500
G0 F9000 X151.298 Y154.834
G1 Z1.000
G1 F2400 E49.59865
G1 F960 X153.826 Y157.361 E49.74726
G1 F2400 E49.14726
G1 Z1.500
G0 F9000 X152.468 Y155.122
G1 Z1.000
G1 F2400 E49.74726
G1 F960 X150.574 Y157.016 E49.85862
G1 F2400 E49.25862
G1 Z1.500
G0 F9000 X147.624 Y152.895
G1 Z1.000
G1 F2400 E49.85862
G1 F960 X153.227 Y147.292 E50.18805
G1 F2400 E49.58805
G1 Z1.500
G0 F9000 X151.173 Y147.637
G1 Z1.000
G1 F2400 E50.18805
G1 F960 X153.700 Y150.164 E50.33663
G1 F2400 E49.73663
G1 Z1.500
G0 F9000 X154.800 Y151.264
G1 Z1.000
G1 F2400 E50.33663
G1 F960 X157.374 Y153.838 E50.48797
G1 F2400 E49.88797
G1 Z1.500
G0 F9000 X155.123 Y152.467
G1 Z1.000
G1 F2400 E50.48797
G1 F960 X157.374 Y150.217 E50.62029
;LAYER:5
M106 S51
G0 F9000 X157.550 Y149.585 Z1.200
;TYPE:WALL-INNER
G1 F960 X157.550 Y155.415 E50.86268
G1 X152.500 Y158.330 E51.10510
G1 X147.450 Y155.415 E51.34752
G1 X147.450 Y149.585 E51.58990
G1 X152.500 Y146.670 E51.83233
G1 X157.550 Y149.585 E52.07475
G1 F2400 E51.47475
G1 Z1.700
G0 F9000 X154.625 Y151.278
G1 Z1.200
G1 F2400 E52.07475
G1 F960 X154.301 Y150.834 E52.09760
G1 X153.968 Y150.535 E52.11621
G1 X153.414 Y150.223 E52.14264
G1 X152.960 Y150.096 E52.16224
G1 X152.826 Y150.071 E52.16791
G1 X152.493 Y150.048 E52.18178
G1 X152.066 Y150.085 E52.19960
G1 X151.454 Y150.280 E52.22631
G1 X151.009 Y150.552 E52.24799
G1 X150.546 Y151.013 E52.27516
G1 X150.223 Y151.586 E52.30250
G1 X150.096 Y152.040 E52.32210
G1 X150.071 Y152.174 E52.32777
G1 X150.048 Y152.507 E52.34165
G1 X150.084 Y152.927 E52.35917
G1 X150.241 Y153.453 E52.38199
G1 X150.375 Y153.722 E52.39449
G1 X150.699 Y154.166 E52.41734
G1 X151.032 Y154.465 E52.43595
G1 X151.586 Y154.777 E52.46238
G1 X152.040 Y154.904 E52.48198
G1 X152.174 Y154.929 E52.48765
G1 X152.507 Y154.952 E52.50153
G1 X152.927 Y154.916 E52.51905
G1 X153.453 Y154.759 E52.54187
G1 X153.722 Y154.625 E52.55437
G1 X154.166 Y154.301 E52.57722
G1 X154.465 Y153.968 E52.59583
G1 X154.777 Y153.414 E52.62226
G1 X154.904 Y152.960 E52.64186
G1 X154.929 Y152.826 E52.64753
G1 X154.950 Y152.519 E52.66032
G1 X154.948 Y152.398 E52.66535
G1 X154.914 Y152.067 E52.67918
G1 X154.759 Y151.547 E52.70174
G1 X154.625 Y151.278 E52.71424
G0 F9000 X154.196 Y151.539
;TYPE:WALL-OUTER
G1 F960 X153.928 Y151.171 E52.73317
G1 X153.675 Y150.944 E52.74730
G1 X153.221 Y150.688 E52.76897
G1 X152.763 Y150.568 E52.78865
G1 X152.498 Y150.549 E52.79970
G1 X152.165 Y150.578 E52.81359
G1 X151.663 Y150.738 E52.83550
G1 X151.320 Y150.948 E52.85222
G1 X150.947 Y151.319 E52.87409
G1 X150.688 Y151.779 E52.89604
G1 X150.568 Y152.237 E52.91572
G1 X150.549 Y152.502 E52.92677
G1 X150.578 Y152.833 E52.94058
G1 X150.708 Y153.269 E52.95950
G1 X150.804 Y153.461 E52.96842
G1 X151.072 Y153.829 E52.98735
G1 X151.325 Y154.056 E53.00148
G1 X151.779 Y154.312 E53.02315
G1 X152.237 Y154.432 E53.04283
G1 X152.502 Y154.451 E53.05388
G1 X152.833 Y154.422 E53.06769
G1 X153.269 Y154.292 E53.08661
G1 X153.461 Y154.196 E53.09553
G1 X153.829 Y153.928 E53.11446
G1 X154.056 Y153.675 E53.12859
G1 X154.312 Y153.221 E53.15026
G1 X154.432 Y152.763 E53.16995
G1 X154.450 Y152.506 E53.18066
G1 X154.449 Y152.429 E53.18386
G1 X154.421 Y152.165 E53.19490
G1 X154.292 Y151.731 E53.21372
G1 X154.196 Y151.539 E53.22264
G1 F2400 E52.62264
G1 Z1.700
G0 F9000 X158.050 Y149.297
G1 Z1.200
G1 F2400 E53.22264
G1 F960 X158.050 Y155.703 E53.48898
G1 X152.500 Y158.908 E53.75543
G1 X146.950 Y155.703 E54.02188
G1 X146.950 Y149.297 E54.28821
G1 X152.500 Y146.092 E54.55466
G1 X158.050 Y149.297 E54.82112
G0 F9000 X157.374 Y150.217
;TYPE:FILL
G1 F960 X155.123 Y152.467 E54.95344
G0 F9000 X154.823 Y151.288
G1 F960 X157.374 Y153.838 E55.10340
G1 F2400 E54.50340
G1 Z1.700
G0 F9000 X153.826 Y157.361
G1 Z1.200
G1 F2400 E55.10340
G1 F960 X151.255 Y154.791 E55.25453
G0 F9000 X152.467 Y155.123
G1 F960 X150.574 Y157.016 E55.36583
G1 F2400 E54.76583
G1 Z1.700
G0 F9000 X150.174 Y153.710
G1 Z1.200
G1 F2400 E55.36583
G1 F960 X147.624 Y151.160 E55.51576
G1 F2400 E54.91576
G1 Z1.700
G0 F9000 X147.624 Y152.895
G1 Z1.200
G1 F2400 E55.51576
G1 F960 X153.227 Y147.292 E55.84520
G1 F2400 E55.24520
G1 Z1.700
G0 F9000 X151.173 Y147.637
G1 Z1.200
G1 F2400 E55.84520
G1 F960 X153.743 Y150.207 E55.99631
;LAYER:6
M106 S63
G0 F9000 X153.640 Y150.329 Z1.400
;TYPE:WALL-INNER
G1 F960 X153.309 Y150.186 E56.01130
G1 X152.847 Y150.072 E56.03108
G1 X152.474 Y150.046 E56.04662
G1 X151.864 Y150.132 E56.07224
G1 X151.536 Y150.247 E56.08669
G1 X151.331 Y150.345 E56.09613
G1 X150.833 Y150.698 E56.12151
G1 X150.505 Y151.075 E56.14229
G1 X150.323 Y151.372 E56.15677
G1 X150.186 Y151.691 E56.17120
G1 X150.072 Y152.153 E56.19099
G1 X150.046 Y152.526 E56.20653
G1 X150.132 Y153.136 E56.23214
G1 X150.255 Y153.488 E56.24765
G1 X150.503 Y153.927 E56.26861
G1 X150.941 Y154.395 E56.29526
G1 X151.360 Y154.671 E56.31612
G1 X151.691 Y154.814 E56.33111
G1 X152.153 Y154.928 E56.35089
G1 X152.526 Y154.954 E56.36644
G1 X153.136 Y154.868 E56.39205
G1 X153.488 Y154.745 E56.40755
G1 X153.927 Y154.497 E56.42851
G1 X154.395 Y154.059 E56.45516
G1 X154.671 Y153.640 E56.47602
G1 X154.814 Y153.309 E56.49101
G1 X154.928 Y152.847 E56.51080
G1 X154.951 Y152.515 E56.52463
G1 X154.946 Y152.363 E56.53096
G1 X154.866 Y151.857 E56.55225
G1 X154.745 Y151.512 E56.56745
G1 X154.497 Y151.073 E56.58842
G1 X154.059 Y150.605 E56.61507
G1 X153.640 Y150.329 E56.63593
G1 F2400 E56.03593
G1 Z1.900
G0 F9000 X152.500 Y146.670
G1 Z1.400
G1 F2400 E56.63593
G1 F960 X157.550 Y149.585 E56.87835
G1 X157.550 Y155.415 E57.12073
G1 X152.500 Y158.330 E57.36315
G1 X147.450 Y155.415 E57.60557
G1 X147.450 Y149.585 E57.84796
G1 X152.500 Y146.670 E58.09038
G0 F9000 X152.500 Y146.092
;TYPE:WALL-OUTER
G1 F960 X158.050 Y149.297 E58.35683
G1 X158.050 Y155.703 E58.62316
G1 X152.500 Y158.908 E58.88962
G1 X146.950 Y155.703 E59.15607
G1 X146.950 Y149.297 E59.42240
G1 X152.500 Y146.092 E59.68885
G1 F2400 E59.08885
G1 Z1.900
G0 F9000 X152.491 Y150.549
G1 Z1.400
G1 F2400 E59.68885
G1 F960 X151.983 Y150.620 E59.71018
G1 X151.727 Y150.710 E59.72146
G1 X151.585 Y150.778 E59.72801
G1 X151.171 Y151.071 E59.74909
G1 X150.910 Y151.372 E59.76566
G1 X150.768 Y151.603 E59.77693
G1 X150.661 Y151.851 E59.78816
G1 X150.568 Y152.230 E59.80438
G1 X150.549 Y152.509 E59.81601
G1 X150.620 Y153.017 E59.83733
G1 X150.712 Y153.281 E59.84896
G1 X150.909 Y153.629 E59.86558
G1 X151.266 Y154.010 E59.88729
G1 X151.599 Y154.230 E59.90388
G1 X151.851 Y154.339 E59.91530
G1 X152.230 Y154.432 E59.93152
G1 X152.509 Y154.451 E59.94315
G1 X153.017 Y154.380 E59.96447
G1 X153.281 Y154.288 E59.97610
G1 X153.629 Y154.091 E59.99272
G1 X154.010 Y153.734 E60.01443
G1 X154.230 Y153.401 E60.03102
G1 X154.339 Y153.149 E60.04244
G1 X154.432 Y152.770 E60.05866
G1 X154.450 Y152.505 E60.06971
G1 X154.447 Y152.410 E60.07366
G1 X154.379 Y151.980 E60.09176
G1 X154.288 Y151.719 E60.10325
G1 X154.091 Y151.371 E60.11987
G1 X153.734 Y150.990 E60.14158
G1 X153.401 Y150.770 E60.15817
G1 X153.149 Y150.661 E60.16959
G1 X152.770 Y150.568 E60.18581
G1 X152.491 Y150.549 E60.19744
G0 F9000 X153.701 Y150.166
;TYPE:FILL
G1 F960 X151.173 Y147.637 E60.34611
G1 F2400 E59.74611
G1 Z1.900
G0 F9000 X153.227 Y147.292
G1 Z1.400
G1 F2400 E60.34611
G1 F960 X147.624 Y152.895 E60.67554
G1 F2400 E60.07554
G1 Z1.900
G0 F9000 X147.624 Y151.160
G1 Z1.400
G1 F2400 E60.67554
G1 F960 X150.185 Y153.721 E60.82612
G1 F2400 E60.22612
G1 Z1.900
G0 F9000 X151.297 Y154.833
G1 Z1.400
G1 F2400 E60.82612
G1 F960 X153.826 Y157.361 E60.97478
G1 F2400 E60.37478
G1 Z1.900
G0 F9000 X152.467 Y155.124
G1 Z1.400
G1 F2400 E60.97478
G1 F960 X150.574 Y157.016 E61.08606
G1 F2400 E60.48606
G1 Z1.900
G0 F9000 X155.124 Y152.467
G1 Z1.400
G1 F2400 E61.08606
G1 F960 X157.374 Y150.217 E61.21835
G1 F2400 E60.61835
G1 Z1.900
G0 F9000 X154.813 Y151.277
G1 Z1.400
G1 F2400 E61.21835
G1 F960 X157.374 Y153.838 E61.36892
;LAYER:7
M106 S73
G1 F2400 E60.76892
G1 Z1.900
G0 F9000 X157.550 Y155.415 Z1.600
;TYPE:WALL-INNER
G1 Z1.600
G1 F2400 E61.36892
G1 F960 X152.500 Y158.330 E61.61135
G1 X147.450 Y155.415 E61.85377
G1 X147.450 Y149.585 E62.09615
G1 X152.500 Y146.670 E62.33857
G1 X157.550 Y149.585 E62.58100
G1 X157.550 Y155.415 E62.82338
G1 F2400 E62.22338
G1 Z2.100
G0 F9000 X154.594 Y153.775
G1 Z1.600
G1 F2400 E62.82338
G1 F960 X154.749 Y153.476 E62.83738
G1 X154.864 Y153.148 E62.85183
G1 X154.944 Y152.694 E62.87100
G1 X154.950 Y152.503 E62.87894
G1 X154.947 Y152.366 E62.88464
G1 X154.900 Y151.993 E62.90027
G1 X154.751 Y151.522 E62.92081
G1 X154.504 Y151.085 E62.94168
G1 X154.175 Y150.707 E62.96251
G1 X153.785 Y150.412 E62.98284
G1 X153.476 Y150.251 E62.99733
G1 X153.148 Y150.136 E63.01178
G1 X152.694 Y150.056 E63.03094
G1 X152.487 Y150.049 E63.03956
G1 X152.153 Y150.072 E63.05347
G1 X151.678 Y150.189 E63.07381
G1 X151.226 Y150.404 E63.09462
G1 X150.825 Y150.707 E63.11552
G1 X150.513 Y151.065 E63.13526
G1 X150.400 Y151.237 E63.14382
G1 X150.251 Y151.524 E63.15726
G1 X150.136 Y151.852 E63.17171
G1 X150.056 Y152.306 E63.19088
G1 X150.049 Y152.513 E63.19949
G1 X150.072 Y152.847 E63.21341
G1 X150.186 Y153.309 E63.23319
G1 X150.329 Y153.640 E63.24818
G1 X150.598 Y154.048 E63.26850
G1 X150.942 Y154.393 E63.28876
G1 X151.225 Y154.594 E63.30319
G1 X151.524 Y154.749 E63.31719
G1 X151.852 Y154.864 E63.33164
G1 X152.306 Y154.944 E63.35081
G1 X152.513 Y154.951 E63.35942
G1 X152.847 Y154.928 E63.37334
G1 X153.309 Y154.814 E63.39312
G1 X153.640 Y154.671 E63.40811
G1 X154.048 Y154.402 E63.42843
G1 X154.393 Y154.058 E63.44868
G1 X154.594 Y153.775 E63.46311
G0 F9000 X154.166 Y153.514
;TYPE:WALL-OUTER
G1 F960 X154.289 Y153.277 E63.47422
G1 X154.379 Y153.021 E63.48550
G1 X154.445 Y152.642 E63.50149
G1 X154.450 Y152.501 E63.50736
G1 X154.448 Y152.404 E63.51139
G1 X154.409 Y152.101 E63.52409
G1 X154.290 Y151.723 E63.54057
G1 X154.093 Y151.375 E63.55719
G1 X153.832 Y151.074 E63.57376
G1 X153.517 Y150.836 E63.59017
G1 X153.277 Y150.711 E63.60142
G1 X153.021 Y150.621 E63.61270
G1 X152.642 Y150.555 E63.62870
G1 X152.496 Y150.550 E63.63477
G1 X152.230 Y150.568 E63.64585
G1 X151.847 Y150.662 E63.66225
G1 X151.487 Y150.833 E63.67882
G1 X151.168 Y151.074 E63.69544
G1 X150.912 Y151.368 E63.71165
G1 X150.711 Y151.723 E63.72861
G1 X150.621 Y151.979 E63.73989
G1 X150.555 Y152.358 E63.75589
G1 X150.550 Y152.504 E63.76196
G1 X150.568 Y152.770 E63.77304
G1 X150.661 Y153.149 E63.78927
G1 X150.770 Y153.401 E63.80068
G1 X150.987 Y153.731 E63.81710
G1 X151.266 Y154.010 E63.83351
G1 X151.486 Y154.166 E63.84472
G1 X151.723 Y154.289 E63.85582
G1 X151.979 Y154.379 E63.86710
G1 X152.358 Y154.445 E63.88310
G1 X152.504 Y154.450 E63.88917
G1 X152.770 Y154.432 E63.90026
G1 X153.149 Y154.339 E63.91648
G1 X153.401 Y154.230 E63.92790
G1 X153.731 Y154.013 E63.94432
G1 X154.010 Y153.734 E63.96072
G1 X154.166 Y153.514 E63.97193
G1 F2400 E63.37193
G1 Z2.100
G0 F9000 X158.050 Y155.703
G1 Z1.600
G1 F2400 E63.97193
G1 F960 X152.500 Y158.908 E64.23839
G1 X146.950 Y155.703 E64.50484
G1 X146.950 Y149.297 E64.77117
G1 X152.500 Y146.092 E65.03762
G1 X158.050 Y149.297 E65.30407
G1 X158.050 Y155.703 E65.57040
G1 F2400 E64.97040
G1 Z2.100
G0 F9000 X157.374 Y153.838
;TYPE:FILL
G1 Z1.600
G1 F2400 E65.57040
G1 F960 X154.810 Y151.274 E65.72116
G0 F9000 X155.123 Y152.467
G1 F960 X157.374 Y150.217 E65.85348
G1 F2400 E65.25348
G1 Z2.100
G0 F9000 X153.712 Y150.177
G1 Z1.600
G1 F2400 E65.85348
G1 F960 X151.173 Y147.637 E66.00279
G1 F2400 E65.40279
G1 Z2.100
G0 F9000 X153.227 Y147.292
G1 Z1.600
G1 F2400 E66.00279
G1 F960 X147.624 Y152.895 E66.33223
G1 F2400 E65.73223
G1 Z2.100
G0 F9000 X147.624 Y151.160
G1 Z1.600
G1 F2400 E66.33223
G1 F960 X150.166 Y153.702 E66.48169
G1 F2400 E65.88169
G1 Z2.100
G0 F9000 X151.287 Y154.823
G1 Z1.600
G1 F2400 E66.48169
G1 F960 X153.826 Y157.361 E66.63094
G1 F2400 E66.03094
G1 Z2.100
G0 F9000 X152.467 Y155.123
G1 Z1.600
G1 F2400 E66.63094
G1 F960 X150.574 Y157.016 E66.74224
;LAYER:8
M106 S84
G1 F2400 E66.14224
G1 Z2.100
G0 F9000 X152.500 Y158.330 Z1.800
;TYPE:WALL-INNER
G1 Z1.800
G1 F2400 E66.74224
G1 F960 X147.450 Y155.415 E66.98466
G1 X147.450 Y149.585 E67.22705
G1 X152.500 Y146.670 E67.46947
G1 X157.550 Y149.585 E67.71189
G1 X157.550 Y155.415 E67.95427
G1 X152.500 Y158.330 E68.19670
G1 F2400 E67.59670
G1 Z2.300
G0 F9000 X152.526 Y154.951
G1 Z1.800
G1 F2400 E68.19670
G1 F960 X152.999 Y154.902 E68.21647
G1 X153.465 Y154.755 E68.23678
G1 X153.785 Y154.588 E68.25179
G1 X154.165 Y154.300 E68.27161
G1 X154.410 Y154.037 E68.28655
G1 X154.679 Y153.629 E68.30687
G1 X154.862 Y153.162 E68.32773
G1 X154.944 Y152.694 E68.34748
G1 X154.950 Y152.500 E68.35555
G1 X154.944 Y152.326 E68.36279
G1 X154.821 Y151.707 E68.38903
G1 X154.671 Y151.360 E68.40474
G1 X154.410 Y150.963 E68.42449
G1 X154.165 Y150.700 E68.43944
G1 X153.764 Y150.396 E68.46036
G1 X153.175 Y150.141 E68.48704
G1 X152.694 Y150.056 E68.50735
G1 X152.474 Y150.049 E68.51650
G1 X152.001 Y150.098 E68.53627
G1 X151.535 Y150.245 E68.55659
G1 X151.215 Y150.412 E68.57159
G1 X150.835 Y150.700 E68.59142
G1 X150.590 Y150.963 E68.60636
G1 X150.321 Y151.371 E68.62668
G1 X150.138 Y151.838 E68.64753
G1 X150.056 Y152.306 E68.66729
G1 X150.049 Y152.526 E68.67644
G1 X150.098 Y152.999 E68.69621
G1 X150.245 Y153.465 E68.71652
G1 X150.412 Y153.785 E68.73153
G1 X150.700 Y154.165 E68.75135
G1 X150.963 Y154.410 E68.76630
G1 X151.371 Y154.679 E68.78661
G1 X151.838 Y154.862 E68.80747
G1 X152.306 Y154.944 E68.82722
G1 X152.526 Y154.951 E68.83637
G0 F9000 X152.509 Y154.450
;TYPE:WALL-OUTER
G1 F960 X152.896 Y154.410 E68.85255
G1 X153.273 Y154.291 E68.86898
G1 X153.517 Y154.164 E68.88042
G1 X153.828 Y153.928 E68.89665
G1 X154.015 Y153.727 E68.90806
G1 X154.232 Y153.398 E68.92445
G1 X154.378 Y153.026 E68.94106
G1 X154.445 Y152.642 E68.95727
G1 X154.450 Y152.500 E68.96318
G1 X154.446 Y152.384 E68.96800
G1 X154.341 Y151.856 E68.99038
G1 X154.230 Y151.599 E69.00202
G1 X154.015 Y151.273 E69.01826
G1 X153.828 Y151.072 E69.02967
G1 X153.510 Y150.831 E69.04626
G1 X153.030 Y150.623 E69.06801
G1 X152.642 Y150.555 E69.08439
G1 X152.491 Y150.550 E69.09067
G1 X152.104 Y150.590 E69.10684
G1 X151.727 Y150.709 E69.12328
G1 X151.483 Y150.836 E69.13472
G1 X151.172 Y151.072 E69.15095
G1 X150.985 Y151.273 E69.16236
G1 X150.768 Y151.602 E69.17875
G1 X150.622 Y151.974 E69.19536
G1 X150.555 Y152.358 E69.21157
G1 X150.550 Y152.509 E69.21785
G1 X150.590 Y152.896 E69.23402
G1 X150.709 Y153.273 E69.25046
G1 X150.836 Y153.517 E69.26190
G1 X151.072 Y153.828 E69.27813
G1 X151.273 Y154.015 E69.28954
G1 X151.602 Y154.232 E69.30593
G1 X151.974 Y154.378 E69.32254
G1 X152.358 Y154.445 E69.33875
G1 X152.509 Y154.450 E69.34503
G1 F2400 E68.74503
G1 Z2.300
G0 F9000 X152.500 Y158.908
G1 Z1.800
G1 F2400 E69.34503
G1 F960 X146.950 Y155.703 E69.61148
G1 X146.950 Y149.297 E69.87781
G1 X152.500 Y146.092 E70.14427
G1 X158.050 Y149.297 E70.41072
G1 X158.050 Y155.703 E70.67705
G1 X152.500 Y158.908 E70.94350
G1 F2400 E70.34350
G1 Z2.300
G0 F9000 X153.826 Y157.361
;TYPE:FILL
G1 Z1.800
G1 F2400 E70.94350
G1 F960 X151.304 Y154.840 E71.09176
G0 F9000 X152.468 Y155.122
G1 F960 X150.574 Y157.016 E71.20312
G1 F2400 E70.60312
G1 Z2.300
G0 F9000 X150.176 Y153.712
G1 Z1.800
G1 F2400 E71.20312
G1 F960 X147.624 Y151.160 E71.35316
G1 F2400 E70.75316
G1 Z2.300
G0 F9000 X147.624 Y152.895
G1 Z1.800
G1 F2400 E71.35316
G1 F960 X153.227 Y147.292 E71.68260
G1 F2400 E71.08260
G1 Z2.300
G0 F9000 X151.173 Y147.637
G1 Z1.800
G1 F2400 E71.68260
G1 F960 X153.725 Y150.189 E71.83265
G1 F2400 E71.23265
G1 Z2.300
G0 F9000 X154.833 Y151.298
G1 Z1.800
G1 F2400 E71.83265
G1 F960 X157.374 Y153.838 E71.98202
G1 F2400 E71.38202
G1 Z2.300
G0 F9000 X155.123 Y152.467
G1 Z1.800
G1 F2400 E71.98202
G1 F960 X157.374 Y150.217 E72.11434
;LAYER:9
M106 S94
G0 F9000 X157.550 Y149.585 Z2.000
;TYPE:WALL-INNER
G1 F960 X157.550 Y155.415 E72.35672
G1 X152.500 Y158.330 E72.59914
G1 X147.450 Y155.415 E72.84157
G1 X147.450 Y149.585 E73.08395
G1 X152.500 Y146.670 E73.32637
G1 X157.550 Y149.585 E73.56879
G1 F2400 E72.96879
G1 Z2.500
G0 F9000 X154.683 Y151.383
G1 Z2.000
G1 F2400 E73.56879
G1 F960 X154.495 Y151.075 E73.58379
G1 X154.175 Y150.707 E73.60407
G1 X153.785 Y150.412 E73.62440
G1 X153.465 Y150.245 E73.63941
G1 X153.011 Y150.102 E73.65920
G1 X152.681 Y150.056 E73.67305
G1 X152.461 Y150.048 E73.68220
G1 X151.864 Y150.132 E73.70727
G1 X151.524 Y150.251 E73.72224
G1 X151.237 Y150.400 E73.73569
G1 X151.065 Y150.513 E73.74424
G1 X150.707 Y150.825 E73.76399
G1 X150.412 Y151.215 E73.78432
G1 X150.245 Y151.535 E73.79932
G1 X150.102 Y151.989 E73.81911
G1 X150.056 Y152.319 E73.83297
G1 X150.048 Y152.539 E73.84212
G1 X150.133 Y153.149 E73.86772
G1 X150.317 Y153.617 E73.88863
G1 X150.505 Y153.925 E73.90363
G1 X150.825 Y154.293 E73.92391
G1 X151.215 Y154.588 E73.94424
G1 X151.535 Y154.755 E73.95925
G1 X151.989 Y154.898 E73.97903
G1 X152.319 Y154.944 E73.99289
G1 X152.539 Y154.952 E74.00204
G1 X153.149 Y154.867 E74.02765
G1 X153.617 Y154.683 E74.04855
G1 X153.925 Y154.495 E74.06355
G1 X154.293 Y154.175 E74.08383
G1 X154.588 Y153.785 E74.10416
G1 X154.755 Y153.465 E74.11917
G1 X154.898 Y153.011 E74.13896
G1 X154.944 Y152.681 E74.15281
G1 X154.950 Y152.501 E74.16030
G1 X154.945 Y152.329 E74.16745
G1 X154.863 Y151.841 E74.18802
G1 X154.683 Y151.383 E74.20848
G0 F9000 X154.234 Y151.606
;TYPE:WALL-OUTER
G1 F960 X154.090 Y151.372 E74.21991
G1 X153.832 Y151.074 E74.23629
G1 X153.517 Y150.836 E74.25271
G1 X153.273 Y150.709 E74.26414
G1 X152.900 Y150.591 E74.28041
G1 X152.638 Y150.555 E74.29140
G1 X152.487 Y150.549 E74.29769
G1 X151.983 Y150.620 E74.31885
G1 X151.723 Y150.711 E74.33030
G1 X151.368 Y150.912 E74.34726
G1 X151.074 Y151.168 E74.36347
G1 X150.836 Y151.483 E74.37988
G1 X150.709 Y151.727 E74.39132
G1 X150.591 Y152.100 E74.40758
G1 X150.555 Y152.362 E74.41858
G1 X150.549 Y152.513 E74.42486
G1 X150.620 Y153.022 E74.44623
G1 X150.766 Y153.394 E74.46284
G1 X150.910 Y153.628 E74.47426
G1 X151.168 Y153.926 E74.49065
G1 X151.483 Y154.164 E74.50707
G1 X151.727 Y154.291 E74.51850
G1 X152.100 Y154.409 E74.53477
G1 X152.362 Y154.445 E74.54576
G1 X152.513 Y154.451 E74.55205
G1 X153.022 Y154.380 E74.57341
G1 X153.394 Y154.234 E74.59003
G1 X153.628 Y154.090 E74.60145
G1 X153.926 Y153.832 E74.61784
G1 X154.164 Y153.517 E74.63425
G1 X154.291 Y153.273 E74.64569
G1 X154.409 Y152.900 E74.66195
G1 X154.445 Y152.638 E74.67295
G1 X154.450 Y152.500 E74.67869
G1 X154.446 Y152.378 E74.68376
G1 X154.378 Y151.975 E74.70076
G1 X154.234 Y151.606 E74.71722
G1 F2400 E74.11722
G1 Z2.500
G0 F9000 X158.050 Y149.297
G1 Z2.000
G1 F2400 E74.71722
G1 F960 X158.050 Y155.703 E74.98355
G1 X152.500 Y158.908 E75.25001
G1 X146.950 Y155.703 E75.51646
G1 X146.950 Y149.297 E75.78279
G1 X152.500 Y146.092 E76.04924
G1 X158.050 Y149.297 E76.31570
G0 F9000 X157.374 Y150.217
;TYPE:FILL
G1 F960 X155.123 Y152.467 E76.44802
G0 F9000 X154.839 Y151.303
G1 F960 X157.374 Y153.838 E76.59706
G1 F2400 E75.99706
G1 Z2.500
G0 F9000 X153.826 Y157.361
G1 Z2.000
G1 F2400 E76.59706
G1 F960 X151.286 Y154.821 E76.74641
G0 F9000 X152.467 Y155.123
G1 F960 X150.574 Y157.016 E76.85771
G1 F2400 E76.25771
G1 Z2.500
G0 F9000 X150.159 Y153.695
G1 Z2.000
G1 F2400 E76.85771
G1 F960 X147.624 Y151.160 E77.00676
G1 F2400 E76.40676
G1 Z2.500
G0 F9000 X147.624 Y152.895
G1 Z2.000
G1 F2400 E77.00676
G1 F960 X153.227 Y147.292 E77.33619
G1 F2400 E76.73619
G1 Z2.500
G0 F9000 X151.173 Y147.637
G1 Z2.000
G1 F2400 E77.33619
G1 F960 X153.712 Y150.177 E77.48550
;LAYER:10
M106 S104
G0 F9000 X153.640 Y150.326 Z2.200
;TYPE:WALL-INNER
G1 F960 X153.174 Y150.143 E77.50632
G1 X152.835 Y150.071 E77.52073
G1 X152.487 Y150.047 E77.53523
G1 X152.001 Y150.098 E77.55555
G1 X151.522 Y150.249 E77.57643
G1 X151.085 Y150.496 E77.59730
G1 X150.698 Y150.834 E77.61866
G1 X150.326 Y151.360 E77.64544
G1 X150.143 Y151.826 E77.66626
G1 X150.071 Y152.165 E77.68067
G1 X150.047 Y152.513 E77.69517
G1 X150.098 Y152.999 E77.71548
G1 X150.249 Y153.478 E77.73637
G1 X150.496 Y153.915 E77.75724
G1 X150.834 Y154.302 E77.77860
G1 X151.360 Y154.674 E77.80538
G1 X151.826 Y154.857 E77.82620
G1 X152.165 Y154.929 E77.84061
G1 X152.513 Y154.953 E77.85511
G1 X152.999 Y154.902 E77.87542
G1 X153.478 Y154.751 E77.89630
G1 X153.915 Y154.504 E77.91717
G1 X154.302 Y154.166 E77.93854
G1 X154.674 Y153.640 E77.96532
G1 X154.857 Y153.174 E77.98614
G1 X154.929 Y152.835 E78.00054
G1 X154.951 Y152.516 E78.01384
G1 X154.946 Y152.330 E78.02157
G1 X154.898 Y151.989 E78.03589
G1 X154.751 Y151.522 E78.05625
G1 X154.504 Y151.085 E78.07712
G1 X154.166 Y150.698 E78.09848
G1 X153.640 Y150.326 E78.12526
G1 F2400 E77.52526
G1 Z2.700
G0 F9000 X152.500 Y146.670
G1 Z2.200
G1 F2400 E78.12526
G1 F960 X157.550 Y149.585 E78.36768
G1 X157.550 Y155.415 E78.61007
G1 X152.500 Y158.330 E78.85249
G1 X147.450 Y155.415 E79.09491
G1 X147.450 Y149.585 E79.33729
G1 X152.500 Y146.670 E79.57972
G0 F9000 X152.500 Y146.092
;TYPE:WALL-OUTER
G1 F960 X158.050 Y149.297 E79.84617
G1 X158.050 Y155.703 E80.11250
G1 X152.500 Y158.908 E80.37895
G1 X146.950 Y155.703 E80.64541
G1 X146.950 Y149.297 E80.91174
G1 X152.500 Y146.092 E81.17819
G1 F2400 E80.57819
G1 Z2.700
G0 F9000 X152.496 Y150.549
G1 Z2.200
G1 F2400 E81.17819
G1 F960 X152.104 Y150.590 E81.19457
G1 X151.723 Y150.710 E81.21118
G1 X151.375 Y150.907 E81.22781
G1 X151.071 Y151.171 E81.24455
G1 X150.769 Y151.599 E81.26632
G1 X150.624 Y151.970 E81.28289
G1 X150.568 Y152.234 E81.29411
G1 X150.549 Y152.504 E81.30536
G1 X150.590 Y152.896 E81.32174
G1 X150.710 Y153.277 E81.33835
G1 X150.907 Y153.625 E81.35498
G1 X151.171 Y153.929 E81.37172
G1 X151.599 Y154.231 E81.39350
G1 X151.970 Y154.376 E81.41006
G1 X152.234 Y154.432 E81.42128
G1 X152.504 Y154.451 E81.43253
G1 X152.896 Y154.410 E81.44892
G1 X153.277 Y154.290 E81.46552
G1 X153.625 Y154.093 E81.48215
G1 X153.929 Y153.829 E81.49889
G1 X154.231 Y153.401 E81.52067
G1 X154.376 Y153.030 E81.53723
G1 X154.432 Y152.766 E81.54845
G1 X154.450 Y152.505 E81.55932
G1 X154.447 Y152.371 E81.56490
G1 X154.409 Y152.100 E81.57627
G1 X154.290 Y151.723 E81.59271
G1 X154.093 Y151.375 E81.60933
G1 X153.829 Y151.071 E81.62607
G1 X153.401 Y150.769 E81.64785
G1 X153.030 Y150.624 E81.66441
G1 X152.766 Y150.568 E81.67563
G1 X152.496 Y150.549 E81.68689
G0 F9000 X153.694 Y150.159
;TYPE:FILL
G1 F960 X151.173 Y147.637 E81.83514
G1 F2400 E81.23514
G1 Z2.700
G0 F9000 X153.227 Y147.292
G1 Z2.200
G1 F2400 E81.83514
G1 F960 X147.624 Y152.895 E82.16457
G1 F2400 E81.56457
G1 Z2.700
G0 F9000 X147.624 Y151.160
G1 Z2.200
G1 F2400 E82.16457
G1 F960 X150.184 Y153.720 E82.31509
G1 F2400 E81.71509
G1 Z2.700
G0 F9000 X151.304 Y154.840
G1 Z2.200
G1 F2400 E82.31509
G1 F960 X153.826 Y157.361 E82.46335
G1 F2400 E81.86335
G1 Z2.700
G0 F9000 X152.467 Y155.123
G1 Z2.200
G1 F2400 E82.46335
G1 F960 X150.574 Y157.016 E82.57465
G1 F2400 E81.97465
G1 Z2.700
G0 F9000 X155.124 Y152.467
G1 Z2.200
G1 F2400 E82.57465
G1 F960 X157.374 Y150.217 E82.70694
G1 F2400 E82.10694
G1 Z2.700
G0 F9000 X154.814 Y151.279
G1 Z2.200
G1 F2400 E82.70694
G1 F960 X157.374 Y153.838 E82.85743
;LAYER:11
M106 S114
G1 F2400 E82.25743
G1 Z2.700
G0 F9000 X157.550 Y155.416 Z2.400
;TYPE:WALL-INNER
G1 Z2.400
G1 F2400 E82.85743
G1 F1020 X152.500 Y158.331 E83.09985
G1 X147.450 Y155.416 E83.34227
G1 X147.450 Y149.584 E83.58474
G1 X152.500 Y146.669 E83.82716
G1 X157.550 Y149.584 E84.06958
G1 X157.550 Y155.416 E84.31205
G1 F2400 E83.71205
G1 Z2.900
G0 F9000 X154.589 Y153.783
G1 Z2.400
G1 F2400 E84.31205
G1 F1020 X154.743 Y153.487 E84.32592
G1 X154.898 Y153.000 E84.34717
G1 X154.953 Y152.484 E84.36874
G1 X154.904 Y152.025 E84.38793
G1 X154.737 Y151.499 E84.41088
G1 X154.502 Y151.082 E84.43078
G1 X154.173 Y150.705 E84.45158
G1 X153.783 Y150.411 E84.47189
G1 X153.487 Y150.257 E84.48576
G1 X153.000 Y150.102 E84.50701
G1 X152.484 Y150.047 E84.52858
G1 X152.025 Y150.096 E84.54777
G1 X151.521 Y150.254 E84.56973
G1 X151.086 Y150.500 E84.59051
G1 X150.809 Y150.726 E84.60537
G1 X150.495 Y151.088 E84.62530
G1 X150.254 Y151.516 E84.64572
G1 X150.139 Y151.844 E84.66017
G1 X150.071 Y152.166 E84.67385
G1 X150.047 Y152.519 E84.68856
G1 X150.098 Y153.002 E84.70875
G1 X150.243 Y153.456 E84.72857
G1 X150.417 Y153.792 E84.74430
G1 X150.702 Y154.167 E84.76388
G1 X150.946 Y154.394 E84.77774
G1 X151.372 Y154.675 E84.79895
G1 X151.682 Y154.809 E84.81299
G1 X152.178 Y154.930 E84.83422
G1 X152.516 Y154.953 E84.84830
G1 X152.975 Y154.904 E84.86750
G1 X153.501 Y154.737 E84.89044
G1 X153.918 Y154.502 E84.91034
G1 X154.295 Y154.173 E84.93114
G1 X154.589 Y153.783 E84.95145
G0 F9000 X154.165 Y153.515
;TYPE:WALL-OUTER
G1 F1020 X154.337 Y153.152 E84.96815
G1 X154.409 Y152.897 E84.97917
G1 X154.433 Y152.761 E84.98491
G1 X154.451 Y152.493 E84.99607
G1 X154.411 Y152.112 E85.01200
G1 X154.337 Y151.848 E85.02340
G1 X154.284 Y151.714 E85.02939
G1 X154.092 Y151.373 E85.04566
G1 X153.830 Y151.073 E85.06222
G1 X153.515 Y150.835 E85.07863
G1 X153.152 Y150.663 E85.09533
G1 X152.897 Y150.591 E85.10635
G1 X152.761 Y150.567 E85.11209
G1 X152.493 Y150.549 E85.12326
G1 X152.112 Y150.589 E85.13919
G1 X151.848 Y150.663 E85.15059
G1 X151.593 Y150.774 E85.16215
G1 X151.375 Y150.908 E85.17279
G1 X151.163 Y151.081 E85.18416
G1 X150.906 Y151.377 E85.20046
G1 X150.711 Y151.723 E85.21697
G1 X150.622 Y151.979 E85.22824
G1 X150.568 Y152.235 E85.23912
G1 X150.549 Y152.510 E85.25058
G1 X150.590 Y152.899 E85.26684
G1 X150.709 Y153.272 E85.28312
G1 X150.836 Y153.517 E85.29459
G1 X151.074 Y153.830 E85.31094
G1 X151.268 Y154.011 E85.32197
G1 X151.603 Y154.231 E85.33863
G1 X151.848 Y154.337 E85.34973
G1 X152.103 Y154.409 E85.36075
G1 X152.239 Y154.433 E85.36649
G1 X152.507 Y154.451 E85.37766
G1 X152.888 Y154.411 E85.39358
G1 X153.152 Y154.337 E85.40498
G1 X153.286 Y154.284 E85.41097
G1 X153.627 Y154.092 E85.42724
G1 X153.927 Y153.830 E85.44380
G1 X154.165 Y153.515 E85.46022
G1 F2400 E84.86022
G1 Z2.900
G0 F9000 X158.050 Y155.704
G1 Z2.400
G1 F2400 E85.46022
G1 F1020 X152.500 Y158.909 E85.72667
G1 X146.950 Y155.704 E85.99312
G1 X146.950 Y149.296 E86.25954
G1 X152.500 Y146.091 E86.52599
G1 X158.050 Y149.296 E86.79244
G1 X158.050 Y155.704 E87.05886
G1 F2400 E86.45886
G1 Z2.900
G0 F9000 X157.374 Y153.838
;TYPE:FILL
G1 Z2.400
G1 F2400 E87.05886
G1 F1020 X154.809 Y151.274 E87.20964
G0 F9000 X155.125 Y152.465
G1 F1020 X157.373 Y150.217 E87.34181
G1 F2400 E86.74181
G1 Z2.900
G0 F9000 X153.713 Y150.178
G1 Z2.400
G1 F2400 E87.34181
G1 F1020 X151.173 Y147.637 E87.49118
G1 F2400 E86.89118
G1 Z2.900
G0 F9000 X153.228 Y147.291
G1 Z2.400
G1 F2400 E87.49118
G1 F1020 X148.734 Y151.786 E87.75544
G0 F9000 X148.250 Y151.786
G1 F1020 X147.624 Y151.160 E87.79225
G1 F2400 E87.19225
G1 Z2.900
G0 F9000 X149.676 Y153.212
G1 Z2.400
G1 F2400 E87.79225
G1 F1020 X150.183 Y153.718 E87.82203
G1 F2400 E87.22203
G1 Z2.900
G0 F9000 X151.296 Y154.832
G1 Z2.400
G1 F2400 E87.82203
G1 F1020 X153.826 Y157.361 E87.97075
G1 F2400 E87.37075
G1 Z2.900
G0 F9000 X152.467 Y155.123
G1 Z2.400
G1 F2400 E87.97075
G1 F1020 X150.574 Y157.016 E88.08206
G1 F2400 E87.48206
G1 Z2.900
G0 F9000 X149.841 Y153.860
;TYPE:SKIN
G1 Z2.400
G1 F2400 E88.08206
G1 F1020 X150.114 Y153.587 E88.09811
G0 F9000 X149.933 Y153.061
G1 F1020 X149.134 Y153.860 E88.14509
G0 F9000 X148.426 Y153.861
G1 F1020 X149.879 Y152.409 E88.23049
G0 F9000 X150.069 Y151.511
G1 F1020 X147.719 Y153.861 E88.36866
G0 F9000 X147.624 Y153.249
G1 F1020 X149.737 Y151.136 E88.49289
G0 F9000 X149.030 Y151.136
G1 F1020 X147.624 Y152.542 E88.57556
G0 F9000 X147.624 Y151.834
G1 F1020 X148.323 Y151.136 E88.61663
;LAYER:12
M106 S127
G1 F2400 E88.01663
G1 Z2.900
G0 F9000 X147.450 Y149.585 Z2.600
;TYPE:WALL-INNER
G1 Z2.600
G1 F2400 E88.61663
G1 F1080 X152.500 Y146.670 E88.85905
G1 X157.550 Y149.585 E89.10147
G1 X157.550 Y155.415 E89.34386
G1 X152.500 Y158.330 E89.58628
G1 X147.450 Y155.415 E89.82870
G1 X147.450 Y149.585 E90.07108
G1 F2400 E89.47108
G1 Z3.100
G0 F9000 X150.486 Y151.097
G1 Z2.600
G1 F2400 E90.07108
G1 F1080 X150.193 Y151.667 E90.09773
G1 X150.098 Y152.016 E90.11277
G1 X150.056 Y152.334 E90.12610
G1 X150.049 Y152.557 E90.13538
G1 X150.103 Y153.020 E90.15476
G1 X150.256 Y153.489 E90.17527
G1 X150.421 Y153.801 E90.18994
G1 X150.720 Y154.188 E90.21028
G1 X151.076 Y154.495 E90.22982
G1 X151.372 Y154.677 E90.24427
G1 X151.706 Y154.818 E90.25934
G1 X152.154 Y154.928 E90.27852
G1 X152.530 Y154.953 E90.29418
G1 X153.016 Y154.898 E90.31452
G1 X153.482 Y154.747 E90.33488
G1 X153.788 Y154.585 E90.34928
G1 X154.046 Y154.401 E90.36245
G1 X154.292 Y154.173 E90.37640
G1 X154.520 Y153.889 E90.39154
G1 X154.751 Y153.471 E90.41140
G1 X154.863 Y153.147 E90.42565
G1 X154.929 Y152.833 E90.43899
G1 X154.953 Y152.470 E90.45411
G1 X154.898 Y151.984 E90.47445
G1 X154.747 Y151.518 E90.49481
G1 X154.585 Y151.212 E90.50921
G1 X154.401 Y150.954 E90.52238
G1 X154.173 Y150.708 E90.53633
G1 X153.889 Y150.480 E90.55147
G1 X153.471 Y150.249 E90.57132
G1 X153.147 Y150.137 E90.58558
G1 X152.833 Y150.071 E90.59892
G1 X152.470 Y150.047 E90.61404
G1 X151.984 Y150.102 E90.63438
G1 X151.533 Y150.248 E90.65408
G1 X151.208 Y150.417 E90.66931
G1 X150.820 Y150.712 E90.68958
G1 X150.486 Y151.097 E90.71077
G0 F9000 X150.903 Y151.379
;TYPE:WALL-OUTER
G1 F1080 X150.662 Y151.849 E90.73273
G1 X150.589 Y152.115 E90.74420
G1 X150.555 Y152.375 E90.75510
G1 X150.550 Y152.536 E90.76179
G1 X150.594 Y152.912 E90.77753
G1 X150.718 Y153.293 E90.79419
G1 X150.843 Y153.529 E90.80529
G1 X151.085 Y153.843 E90.82178
G1 X151.372 Y154.090 E90.83752
G1 X151.601 Y154.231 E90.84870
G1 X151.864 Y154.342 E90.86057
G1 X152.231 Y154.432 E90.87628
G1 X152.518 Y154.451 E90.88824
G1 X152.910 Y154.407 E90.90464
G1 X153.286 Y154.285 E90.92107
G1 X153.525 Y154.158 E90.93232
G1 X153.730 Y154.012 E90.94279
G1 X153.925 Y153.831 E90.95385
G1 X154.103 Y153.610 E90.96565
G1 X154.292 Y153.267 E90.98193
G1 X154.380 Y153.013 E90.99310
G1 X154.432 Y152.765 E91.00364
G1 X154.451 Y152.482 E91.01543
G1 X154.407 Y152.090 E91.03183
G1 X154.285 Y151.714 E91.04826
G1 X154.158 Y151.475 E91.05952
G1 X154.012 Y151.270 E91.06998
G1 X153.831 Y151.075 E91.08104
G1 X153.610 Y150.897 E91.09284
G1 X153.267 Y150.708 E91.10912
G1 X153.013 Y150.620 E91.12030
G1 X152.765 Y150.568 E91.13083
G1 X152.482 Y150.549 E91.14262
G1 X152.090 Y150.593 E91.15902
G1 X151.719 Y150.713 E91.17524
G1 X151.483 Y150.836 E91.18630
G1 X151.164 Y151.079 E91.20297
G1 X150.903 Y151.379 E91.21950
G1 F2400 E90.61950
G1 Z3.100
G0 F9000 X146.950 Y149.297
G1 Z2.600
G1 F2400 E91.21950
G1 F1080 X152.500 Y146.092 E91.48596
G1 X158.050 Y149.297 E91.75241
G1 X158.050 Y155.703 E92.01874
G1 X152.500 Y158.908 E92.28519
G1 X146.950 Y155.703 E92.55165
G1 X146.950 Y149.297 E92.81798
G1 F2400 E92.21798
G1 Z3.100
G0 F9000 X147.624 Y151.160
;TYPE:FILL
G1 Z2.600
G1 F2400 E92.81798
G1 F1080 X147.889 Y151.425 E92.83356
G0 F9000 X149.094 Y151.426
G1 F1080 X153.227 Y147.292 E93.07659
G1 F2400 E92.47659
G1 Z3.100
G0 F9000 X151.173 Y147.637
G1 Z2.600
G1 F2400 E93.07659
G1 F1080 X153.726 Y150.190 E93.22670
G1 F2400 E92.62670
G1 Z3.100
G0 F9000 X154.821 Y151.285
G1 Z2.600
G1 F2400 E93.22670
G1 F1080 X157.374 Y153.838 E93.37680
G1 F2400 E92.77680
G1 Z3.100
G0 F9000 X155.127 Y152.464
G1 Z2.600
G1 F2400 E93.37680
G1 F1080 X157.374 Y150.217 E93.50892
G1 F2400 E92.90892
G1 Z3.100
G0 F9000 X152.469 Y155.122
G1 Z2.600
G1 F2400 E93.50892
G1 F1080 X150.574 Y157.016 E93.62031
G1 F2400 E93.02031
G1 Z3.100
G0 F9000 X151.301 Y154.837
G1 Z2.600
G1 F2400 E93.62031
G1 F1080 X153.826 Y157.361 E93.76874
G1 F2400 E93.16874
G1 Z3.100
G0 F9000 X150.334 Y154.223
;TYPE:SKIN
G1 Z2.600
G1 F2400 E93.76874
G1 F1080 X147.624 Y151.513 E93.92808
G0 F9000 X147.624 Y152.220
G1 F1080 X149.627 Y154.223 E94.04585
G0 F9000 X148.920 Y154.223
G1 F1080 X147.624 Y152.928 E94.12202
G0 F9000 X147.624 Y153.635
G1 F1080 X148.213 Y154.223 E94.15662
G1 F2400 E93.55662
G1 Z3.100
G0 F9000 X149.958 Y153.140
G1 Z2.600
G1 F2400 E94.15662
G1 F1080 X147.624 Y150.806 E94.29385
G0 F9000 X148.300 Y150.775
G1 F1080 X149.881 Y152.356 E94.38680
G0 F9000 X149.987 Y151.755
G1 F1080 X149.007 Y150.775 E94.44443
G0 F9000 X149.715 Y150.775
G1 F1080 X150.203 Y151.264 E94.47315
;LAYER:13
M106 S137
G0 F9000 X150.475 Y151.116 Z2.800
;TYPE:WALL-INNER
G1 F1080 X150.227 Y151.577 E94.49491
G1 X150.073 Y152.142 E94.51926
G1 X150.046 Y152.531 E94.53547
G1 X150.148 Y153.202 E94.56369
G1 X150.326 Y153.634 E94.58311
G1 X150.487 Y153.899 E94.59600
G1 X150.810 Y154.279 E94.61674
G1 X151.181 Y154.565 E94.63621
G1 X151.400 Y154.692 E94.64674
G1 X152.002 Y154.901 E94.67323
G1 X152.323 Y154.945 E94.68670
G1 X152.567 Y154.952 E94.69685
G1 X153.142 Y154.867 E94.72102
G1 X153.529 Y154.727 E94.73813
G1 X154.075 Y154.383 E94.76496
G1 X154.506 Y153.910 E94.79156
G1 X154.704 Y153.577 E94.80767
G1 X154.901 Y152.996 E94.83317
G1 X154.945 Y152.677 E94.84656
G1 X154.952 Y152.433 E94.85671
G1 X154.867 Y151.858 E94.88088
G1 X154.727 Y151.471 E94.89799
G1 X154.383 Y150.925 E94.92482
G1 X153.910 Y150.494 E94.95142
G1 X153.577 Y150.296 E94.96753
G1 X152.996 Y150.099 E94.99303
G1 X152.677 Y150.055 E95.00642
G1 X152.433 Y150.048 E95.01657
G1 X151.858 Y150.133 E95.04074
G1 X151.512 Y150.259 E95.05604
G1 X151.324 Y150.348 E95.06469
G1 X150.820 Y150.710 E95.09049
G1 X150.475 Y151.116 E95.11264
G1 F2400 E94.51264
G1 Z3.300
G0 F9000 X147.450 Y149.585
G1 Z2.800
G1 F2400 E95.11264
G1 F1080 X152.500 Y146.670 E95.35506
G1 X157.550 Y149.585 E95.59749
G1 X157.550 Y155.415 E95.83987
G1 X152.500 Y158.330 E96.08229
G1 X147.450 Y155.415 E96.32471
G1 X147.450 Y149.585 E96.56710
G0 F9000 X146.950 Y149.297
;TYPE:WALL-OUTER
G1 F1080 X152.500 Y146.092 E96.83355
G1 X158.050 Y149.297 E97.10000
G1 X158.050 Y155.703 E97.36633
G1 X152.500 Y158.908 E97.63278
G1 X146.950 Y155.703 E97.89924
G1 X146.950 Y149.297 E98.16557
G1 F2400 E97.56557
G1 Z3.300
G0 F9000 X150.890 Y151.399
G1 Z2.800
G1 F2400 E98.16557
G1 F1080 X150.694 Y151.764 E98.18279
G1 X150.568 Y152.226 E98.20270
G1 X150.549 Y152.510 E98.21454
G1 X150.633 Y153.067 E98.23795
G1 X150.773 Y153.407 E98.25324
G1 X150.894 Y153.605 E98.26289
G1 X151.157 Y153.915 E98.27979
G1 X151.460 Y154.149 E98.29571
G1 X151.609 Y154.235 E98.30286
G1 X152.119 Y154.412 E98.32530
G1 X152.364 Y154.446 E98.33559
G1 X152.538 Y154.451 E98.34282
G1 X153.019 Y154.380 E98.36304
G1 X153.308 Y154.275 E98.37582
G1 X153.751 Y153.996 E98.39759
G1 X154.102 Y153.611 E98.41925
G1 X154.247 Y153.366 E98.43108
G1 X154.412 Y152.881 E98.45238
G1 X154.446 Y152.636 E98.46267
G1 X154.451 Y152.462 E98.46990
G1 X154.380 Y151.981 E98.49012
G1 X154.275 Y151.692 E98.50290
G1 X153.996 Y151.249 E98.52467
G1 X153.611 Y150.898 E98.54633
G1 X153.366 Y150.753 E98.55816
G1 X152.881 Y150.588 E98.57946
G1 X152.636 Y150.554 E98.58975
G1 X152.462 Y150.549 E98.59698
G1 X151.981 Y150.620 E98.61720
G1 X151.580 Y150.780 E98.63515
G1 X151.161 Y151.081 E98.65660
G1 X150.890 Y151.399 E98.67397
G1 F2400 E98.07397
G1 Z3.300
G0 F9000 X149.312 Y151.207
;TYPE:FILL
G1 Z2.800
G1 F2400 E98.67397
G1 F1080 X153.227 Y147.292 E98.90415
G1 F2400 E98.30415
G1 Z3.300
G0 F9000 X151.173 Y147.637
G1 Z2.800
G1 F2400 E98.90415
G1 F1080 X153.704 Y150.168 E99.05297
G1 F2400 E98.45297
G1 Z3.300
G0 F9000 X154.806 Y151.271
G1 Z2.800
G1 F2400 E99.05297
G1 F1080 X157.374 Y153.838 E99.20393
G1 F2400 E98.60393
G1 Z3.300
G0 F9000 X155.126 Y152.464
G1 Z2.800
G1 F2400 E99.20393
G1 F1080 X157.374 Y150.217 E99.33607
G1 F2400 E98.73607
G1 Z3.300
G0 F9000 X152.467 Y155.123
G1 Z2.800
G1 F2400 E99.33607
G1 F1080 X150.574 Y157.016 E99.44737
G1 F2400 E98.84737
G1 Z3.300
G0 F9000 X151.297 Y154.833
G1 Z2.800
G1 F2400 E99.44737
G1 F1080 X153.826 Y157.361 E99.59604
G1 F2400 E98.99604
G1 Z3.300
G0 F9000 X150.374 Y154.035
;TYPE:SKIN
G1 Z2.800
G1 F2400 E99.59604
G1 F1080 X149.966 Y154.442 E99.62000
G0 F9000 X149.259 Y154.442
G1 F1080 X150.116 Y153.585 E99.67039
G0 F9000 X149.947 Y153.047
G1 F1080 X148.552 Y154.442 E99.75241
G0 F9000 X147.845 Y154.442
G1 F1080 X149.879 Y152.409 E99.87197
G0 F9000 X150.060 Y151.520
G1 F1080 X147.625 Y153.955 E100.01514
G0 F9000 X147.625 Y153.248
G1 F1080 X150.316 Y150.557 E100.17336
G0 F9000 X149.609 Y150.557
G1 F1080 X147.625 Y152.541 E100.29001
G0 F9000 X147.625 Y151.834
G1 F1080 X148.902 Y150.557 E100.36509
G0 F9000 X148.195 Y150.557
G1 F1080 X147.625 Y151.127 E100.39861
;LAYER:14
M106 S147
G1 F2400 E99.79861
G1 Z3.300
G0 F9000 X147.450 Y149.585 Z3.000
;TYPE:WALL-INNER
G1 Z3.000
G1 F2400 E100.39861
G1 F1080 X152.500 Y146.670 E100.64103
G1 X157.550 Y149.585 E100.88345
G1 X157.550 Y155.415 E101.12583
G1 X152.500 Y158.330 E101.36825
G1 X147.450 Y155.415 E101.61068
G1 X147.450 Y149.585 E101.85306
G1 F2400 E101.25306
G1 Z3.500
G0 F9000 X150.252 Y151.515
G1 Z3.000
G1 F2400 E101.85306
G1 F1080 X150.111 Y151.951 E101.87211
G1 X150.054 Y152.370 E101.88969
G1 X150.049 Y152.535 E101.89655
G1 X150.116 Y153.083 E101.91951
G1 X150.334 Y153.659 E101.94511
G1 X150.715 Y154.187 E101.97218
G1 X151.239 Y154.608 E102.00013
G1 X151.852 Y154.864 E102.02775
G1 X152.167 Y154.929 E102.04112
G1 X152.518 Y154.953 E102.05575
G1 X153.037 Y154.892 E102.07747
G1 X153.496 Y154.744 E102.09752
G1 X154.081 Y154.379 E102.12619
G1 X154.490 Y153.933 E102.15135
G1 X154.685 Y153.613 E102.16693
G1 X154.867 Y153.136 E102.18815
G1 X154.929 Y152.833 E102.20101
G1 X154.953 Y152.482 E102.21564
G1 X154.892 Y151.963 E102.23737
G1 X154.744 Y151.504 E102.25742
G1 X154.379 Y150.919 E102.28608
G1 X153.933 Y150.510 E102.31124
G1 X153.613 Y150.315 E102.32682
G1 X153.136 Y150.133 E102.34805
G1 X152.833 Y150.071 E102.36091
G1 X152.482 Y150.047 E102.37553
G1 X151.963 Y150.108 E102.39726
G1 X151.543 Y150.243 E102.41560
G1 X151.338 Y150.342 E102.42506
G1 X150.970 Y150.582 E102.44333
G1 X150.533 Y151.031 E102.46938
G1 X150.252 Y151.515 E102.49265
G0 F9000 X150.711 Y151.720
;TYPE:WALL-OUTER
G1 F1080 X150.600 Y152.063 E102.50764
G1 X150.553 Y152.411 E102.52224
G1 X150.550 Y152.512 E102.52644
G1 X150.605 Y152.962 E102.54528
G1 X150.778 Y153.420 E102.56564
G1 X151.081 Y153.840 E102.58717
G1 X151.497 Y154.174 E102.60935
G1 X152.000 Y154.384 E102.63201
G1 X152.235 Y154.432 E102.64198
G1 X152.506 Y154.451 E102.65328
G1 X152.930 Y154.401 E102.67103
G1 X153.283 Y154.287 E102.68645
G1 X153.758 Y153.991 E102.70972
G1 X154.089 Y153.631 E102.73005
G1 X154.234 Y153.392 E102.74167
G1 X154.385 Y152.996 E102.75929
G1 X154.432 Y152.765 E102.76909
G1 X154.451 Y152.494 E102.78039
G1 X154.401 Y152.070 E102.79814
G1 X154.287 Y151.717 E102.81356
G1 X153.991 Y151.242 E102.83683
G1 X153.631 Y150.911 E102.85716
G1 X153.392 Y150.766 E102.86878
G1 X152.996 Y150.615 E102.88640
G1 X152.765 Y150.568 E102.89620
G1 X152.494 Y150.549 E102.90750
G1 X152.070 Y150.599 E102.92525
G1 X151.730 Y150.708 E102.94009
G1 X151.584 Y150.779 E102.94684
G1 X151.289 Y150.971 E102.96148
G1 X150.934 Y151.336 E102.98265
G1 X150.711 Y151.720 E103.00111
G1 F2400 E102.40111
G1 Z3.500
G0 F9000 X146.950 Y149.297
G1 Z3.000
G1 F2400 E103.00111
G1 F1080 X152.500 Y146.092 E103.26756
G1 X158.050 Y149.297 E103.53401
G1 X158.050 Y155.703 E103.80034
G1 X152.500 Y158.908 E104.06680
G1 X146.950 Y155.703 E104.33325
G1 X146.950 Y149.297 E104.59958
G1 F2400 E103.99958
G1 Z3.500
G0 F9000 X149.463 Y151.056
;TYPE:FILL
G1 Z3.000
G1 F2400 E104.59958
G1 F1080 X153.227 Y147.292 E104.82089
G1 F2400 E104.22089
G1 Z3.500
G0 F9000 X151.173 Y147.637
G1 Z3.000
G1 F2400 E104.82089
G1 F1080 X153.697 Y150.161 E104.96929
G1 F2400 E104.36929
G1 Z3.500
G0 F9000 X154.797 Y151.262
G1 Z3.000
G1 F2400 E104.96929
G1 F1080 X157.374 Y153.838 E105.12078
G1 F2400 E104.52078
G1 Z3.500
G0 F9000 X155.127 Y152.464
G1 Z3.000
G1 F2400 E105.12078
G1 F1080 X157.374 Y150.217 E105.25289
G1 F2400 E104.65289
G1 Z3.500
G0 F9000 X152.467 Y155.124
G1 Z3.000
G1 F2400 E105.25289
G1 F1080 X150.574 Y157.016 E105.36416
G1 F2400 E104.76416
G1 Z3.500
G0 F9000 X151.279 Y154.814
G1 Z3.000
G1 F2400 E105.36416
G1 F1080 X153.826 Y157.361 E105.51392
G1 F2400 E104.91392
G1 Z3.500
G0 F9000 X150.703 Y154.592
;TYPE:SKIN
G1 Z3.000
G1 F2400 E105.51392
G1 F1080 X147.624 Y151.513 E105.69495
G0 F9000 X147.624 Y152.220
G1 F1080 X149.996 Y154.592 E105.83442
G0 F9000 X149.289 Y154.592
G1 F1080 X147.624 Y152.928 E105.93228
G0 F9000 X147.624 Y153.635
G1 F1080 X148.582 Y154.592 E105.98858
G0 F9000 X147.875 Y154.592
G1 F1080 X147.624 Y154.342 E106.00331
G1 F2400 E105.40331
G1 Z3.500
G0 F9000 X149.947 Y153.129
G1 Z3.000
G1 F2400 E106.00331
G1 F1080 X147.624 Y150.806 E106.13989
G0 F9000 X147.930 Y150.405
G1 F1080 X149.879 Y152.354 E106.25449
G0 F9000 X149.989 Y151.757
G1 F1080 X148.638 Y150.405 E106.33395
G0 F9000 X149.345 Y150.406
G1 F1080 X150.198 Y151.259 E106.38410
G0 F9000 X150.480 Y150.834
G1 F1080 X150.053 Y150.407 E106.40921
;LAYER:15
M106 S158
G0 F9000 X150.640 Y150.898 Z3.200
;TYPE:WALL-INNER
G1 F1020 X150.432 Y151.212 E106.42487
G1 X147.450 Y151.212 E106.54884
G1 X147.450 Y149.585 E106.61649
G1 X152.500 Y146.670 E106.85891
G1 X157.550 Y149.585 E107.10133
G1 X157.550 Y155.415 E107.34371
G1 X152.500 Y158.330 E107.58614
G1 X147.450 Y155.415 E107.82856
G1 X147.450 Y153.787 E107.89624
G1 X148.367 Y153.786 E107.93437
G1 X149.492 Y153.787 E107.98114
G1 X150.033 Y153.786 E108.00363
G1 X150.417 Y153.787 E108.01960
G1 X150.502 Y153.918 E108.02609
G1 X150.721 Y154.184 E108.04041
G1 X151.084 Y154.498 E108.06037
G1 X151.280 Y154.623 E108.07003
G1 X151.674 Y154.809 E108.08815
G1 X152.052 Y154.908 E108.10439
G1 X152.321 Y154.944 E108.11568
G1 X152.526 Y154.951 E108.12420
G1 X152.991 Y154.903 E108.14364
G1 X153.382 Y154.787 E108.16059
G1 X153.772 Y154.597 E108.17863
G1 X154.108 Y154.351 E108.19594
G1 X154.504 Y153.918 E108.22034
G1 X154.755 Y153.455 E108.24224
G1 X154.815 Y153.303 E108.24903
G1 X154.908 Y152.948 E108.26429
G1 X154.944 Y152.679 E108.27557
G1 X154.951 Y152.474 E108.28410
G1 X154.903 Y152.009 E108.30353
G1 X154.787 Y151.618 E108.32049
G1 X154.597 Y151.228 E108.33853
G1 X154.351 Y150.892 E108.35584
G1 X153.918 Y150.496 E108.38023
G1 X153.455 Y150.245 E108.40213
G1 X153.303 Y150.185 E108.40892
G1 X152.948 Y150.092 E108.42418
G1 X152.679 Y150.056 E108.43546
G1 X152.474 Y150.049 E108.44399
G1 X152.009 Y150.097 E108.46343
G1 X151.630 Y150.209 E108.47986
G1 X151.297 Y150.368 E108.49520
G1 X151.042 Y150.529 E108.50774
G1 X150.640 Y150.898 E108.53042
G0 F9000 X151.023 Y151.225
;TYPE:WALL-OUTER
G1 F1020 X150.753 Y151.632 E108.55073
G1 X150.720 Y151.712 E108.55433
G1 X146.950 Y151.712 E108.71107
G1 X146.950 Y149.297 E108.81147
G1 X152.500 Y146.092 E109.07792
G1 X158.050 Y149.297 E109.34438
G1 X158.050 Y155.703 E109.61071
G1 X152.500 Y158.908 E109.87716
G1 X146.950 Y155.703 E110.14361
G1 X146.950 Y153.287 E110.24406
G1 X150.716 Y153.288 E110.40063
G1 X150.910 Y153.628 E110.41690
G1 X151.180 Y153.934 E110.43387
G1 X151.374 Y154.091 E110.44425
G1 X151.513 Y154.180 E110.45111
G1 X151.845 Y154.337 E110.46638
G1 X152.149 Y154.417 E110.47945
G1 X152.363 Y154.445 E110.48842
G1 X152.509 Y154.450 E110.49449
G1 X152.894 Y154.410 E110.51059
G1 X153.200 Y154.320 E110.52385
G1 X153.513 Y154.167 E110.53833
G1 X153.773 Y153.977 E110.55172
G1 X154.093 Y153.626 E110.57147
G1 X154.301 Y153.243 E110.58959
G1 X154.339 Y153.147 E110.59388
G1 X154.417 Y152.851 E110.60660
G1 X154.445 Y152.637 E110.61558
G1 X154.450 Y152.491 E110.62165
G1 X154.410 Y152.106 E110.63774
G1 X154.320 Y151.800 E110.65100
G1 X154.167 Y151.487 E110.66549
G1 X153.977 Y151.227 E110.67888
G1 X153.626 Y150.907 E110.69862
G1 X153.243 Y150.699 E110.71674
G1 X153.147 Y150.661 E110.72104
G1 X152.851 Y150.583 E110.73376
G1 X152.637 Y150.555 E110.74274
G1 X152.491 Y150.550 E110.74881
G1 X152.106 Y150.590 E110.76490
G1 X151.804 Y150.679 E110.77799
G1 X151.561 Y150.793 E110.78915
G1 X151.347 Y150.928 E110.79967
G1 X151.023 Y151.225 E110.81794
G1 F2400 E110.21794
G1 Z3.700
G0 F9000 X149.483 Y151.036
;TYPE:FILL
G1 Z3.200
G1 F2400 E110.81794
G1 F1020 X153.227 Y147.292 E111.03808
G1 F2400 E110.43808
G1 Z3.700
G0 F9000 X151.173 Y147.637
G1 Z3.200
G1 F2400 E111.03808
G1 F1020 X153.731 Y150.195 E111.18848
G1 F2400 E110.58848
G1 Z3.700
G0 F9000 X154.817 Y151.281
G1 Z3.200
G1 F2400 E111.18848
G1 F1020 X157.374 Y153.838 E111.33882
G1 F2400 E110.73882
G1 Z3.700
G0 F9000 X155.125 Y152.466
G1 Z3.200
G1 F2400 E111.33882
G1 F1020 X157.374 Y150.217 E111.47105
G1 F2400 E110.87105
G1 Z3.700
G0 F9000 X152.468 Y155.122
G1 Z3.200
G1 F2400 E111.47105
G1 F1020 X150.574 Y157.016 E111.58241
G1 F2400 E110.98241
G1 Z3.700
G0 F9000 X151.279 Y154.815
G1 Z3.200
G1 F2400 E111.58241
G1 F1020 X153.826 Y157.361 E111.73214
G1 F2400 E111.13214
G1 Z3.700
G0 F9000 X150.710 Y154.405
;TYPE:SKIN
G1 Z3.200
G1 F2400 E111.73214
G1 F1020 X150.394 Y154.367 E111.74934
G1 X149.710 Y154.698 E111.78093
G0 F9000 X149.003 Y154.698
G1 F1020 X149.741 Y153.961 E111.82429
G0 F9000 X149.034 Y153.961
G1 F1020 X148.296 Y154.698 E111.86766
G0 F9000 X147.625 Y154.662
G1 F1020 X148.326 Y153.961 E111.90887
G1 F2400 E111.30887
G1 Z3.700
G0 F9000 X148.423 Y151.036
G1 Z3.200
G1 F2400 E111.90887
G1 F1020 X149.160 Y150.299 E111.95220
G0 F9000 X149.867 Y150.299
G1 F1020 X149.130 Y151.036 E111.99554
G0 F9000 X149.837 Y151.036
G1 F1020 X150.574 Y150.299 E112.03887
G1 F2400 E111.43887
G1 Z3.700
G0 F9000 X148.453 Y150.299
G1 Z3.200
G1 F2400 E112.03887
G1 F1020 X147.716 Y151.036 E112.08220
G0 F9000 X147.624 Y150.420
G1 F1020 X147.746 Y150.299 E112.08935
;LAYER:16
M106 S168
G0 F9000 X147.794 Y150.851 Z3.400
;TYPE:WALL-INNER
G1 F960 X147.450 Y150.851 E112.10365
G1 X147.450 Y149.584 E112.15632
G1 X152.500 Y146.669 E112.39875
G1 X157.550 Y149.584 E112.64117
G1 X157.550 Y155.416 E112.88363
G1 X152.500 Y158.331 E113.12606
G1 X147.450 Y155.416 E113.36848
G1 X147.450 Y154.150 E113.42111
G1 X148.094 Y154.150 E113.44789
G1 X148.369 Y154.149 E113.45932
G1 X149.760 Y154.150 E113.51715
G1 X150.372 Y154.149 E113.54259
G1 X150.700 Y154.149 E113.55623
G1 X150.782 Y154.248 E113.56158
G1 X151.011 Y154.446 E113.57416
G1 X151.391 Y154.691 E113.59296
G1 X152.039 Y154.907 E113.62136
G1 X152.322 Y154.944 E113.63322
G1 X152.539 Y154.952 E113.64225
G1 X153.136 Y154.868 E113.66732
G1 X153.506 Y154.738 E113.68362
G1 X154.100 Y154.362 E113.71285
G1 X154.491 Y153.932 E113.73701
G1 X154.693 Y153.601 E113.75313
G1 X154.907 Y152.961 E113.78119
G1 X154.944 Y152.678 E113.79305
G1 X154.952 Y152.461 E113.80208
G1 X154.868 Y151.864 E113.82715
G1 X154.738 Y151.494 E113.84345
G1 X154.362 Y150.900 E113.87268
G1 X153.932 Y150.509 E113.89684
G1 X153.601 Y150.307 E113.91296
G1 X152.961 Y150.093 E113.94102
G1 X152.678 Y150.056 E113.95289
G1 X152.461 Y150.048 E113.96191
G1 X151.864 Y150.132 E113.98698
G1 X151.537 Y150.247 E114.00139
G1 X151.336 Y150.342 E114.01063
G1 X150.969 Y150.584 E114.02891
G1 X150.732 Y150.804 E114.04235
G1 X150.690 Y150.851 E114.04497
G1 X148.368 Y150.852 E114.14151
G1 X147.794 Y150.851 E114.16538
G1 F2400 E113.56538
G1 Z3.900
G0 F9000 X146.950 Y149.296
;TYPE:WALL-OUTER
G1 Z3.400
G1 F2400 E114.16538
G1 F960 X152.500 Y146.091 E114.43183
G1 X158.050 Y149.296 E114.69828
G1 X158.050 Y155.704 E114.96470
G1 X152.500 Y158.909 E115.23115
G1 X146.950 Y155.704 E115.49760
G1 X146.950 Y153.650 E115.58300
G1 X150.936 Y153.649 E115.74872
G1 X151.141 Y153.897 E115.76209
G1 X151.311 Y154.045 E115.77146
G1 X151.609 Y154.236 E115.78618
G1 X152.152 Y154.418 E115.80999
G1 X152.513 Y154.451 E115.82506
G1 X153.017 Y154.380 E115.84622
G1 X153.287 Y154.285 E115.85812
G1 X153.775 Y153.976 E115.88213
G1 X154.089 Y153.631 E115.90153
G1 X154.237 Y153.388 E115.91336
G1 X154.418 Y152.848 E115.93704
G1 X154.451 Y152.487 E115.95211
G1 X154.380 Y151.983 E115.97327
G1 X154.285 Y151.713 E115.98517
G1 X153.976 Y151.225 E116.00918
G1 X153.631 Y150.911 E116.02858
G1 X153.388 Y150.763 E116.04041
G1 X152.848 Y150.582 E116.06408
G1 X152.487 Y150.549 E116.07916
G1 X151.983 Y150.620 E116.10032
G1 X151.728 Y150.710 E116.11156
G1 X151.582 Y150.779 E116.11827
G1 X151.279 Y150.979 E116.13337
G1 X150.994 Y151.262 E116.15007
G1 X150.930 Y151.351 E116.15462
G1 X146.950 Y151.352 E116.32009
G1 X146.950 Y149.296 E116.40557
G1 F2400 E115.80557
G1 Z3.900
G0 F9000 X149.845 Y150.675
;TYPE:FILL
G1 Z3.400
G1 F2400 E116.40557
G1 F960 X153.228 Y147.291 E116.60451
G1 F2400 E116.00451
G1 Z3.900
G0 F9000 X151.173 Y147.637
G1 Z3.400
G1 F2400 E116.60451
G1 F960 X153.695 Y150.159 E116.75279
G1 F2400 E116.15279
G1 Z3.900
G0 F9000 X154.798 Y151.262
G1 Z3.400
G1 F2400 E116.75279
G1 F960 X157.374 Y153.838 E116.90425
G1 F2400 E116.30425
G1 Z3.900
G0 F9000 X155.127 Y152.464
G1 Z3.400
G1 F2400 E116.90425
G1 F960 X157.373 Y150.217 E117.03634
G1 F2400 E116.43634
G1 Z3.900
G0 F9000 X152.467 Y155.123
G1 Z3.400
G1 F2400 E117.03634
G1 F960 X150.574 Y157.016 E117.14764
G1 F2400 E116.54764
G1 Z3.900
G0 F9000 X151.311 Y154.847
G1 Z3.400
G1 F2400 E117.14764
G1 F960 X153.826 Y157.361 E117.29548
G1 F2400 E116.69548
G1 Z3.900
G0 F9000 X150.879 Y154.768
;TYPE:SKIN
G1 Z3.400
G1 F2400 E117.29548
G1 F960 X150.303 Y154.545 E117.32162
G1 X149.596 Y154.545 E117.34772
G1 X148.889 Y154.545 E117.37382
G1 X148.182 Y154.545 E117.39993
G1 X147.624 Y154.342 E117.42461
G1 F2400 E116.82461
G1 Z3.900
G0 F9000 X148.200 Y150.675
G1 Z3.400
G1 F2400 E117.42461
G1 F960 X148.108 Y150.229 E117.45082
G1 X149.038 Y150.452 E117.47698
G1 X149.745 Y150.452 E117.50314
G1 X150.452 Y150.452 E117.52930
G1 X150.828 Y150.475 E117.54496
;LAYER:17
M106 S178
G0 F9000 X150.949 Y150.603 Z3.600
;TYPE:WALL-INNER
G1 F900 X150.918 Y150.633 E117.54675
G1 X150.034 Y150.634 E117.58351
G1 X149.026 Y150.633 E117.62541
G1 X148.367 Y150.634 E117.65281
G1 X147.450 Y150.633 E117.69094
G1 X147.450 Y149.585 E117.73451
G1 X152.500 Y146.670 E117.97693
G1 X157.550 Y149.585 E118.21935
G1 X157.550 Y155.415 E118.46173
G1 X152.500 Y158.330 E118.70416
G1 X147.450 Y155.415 E118.94658
G1 X147.450 Y154.368 E118.99011
G1 X148.363 Y154.367 E119.02807
G1 X148.533 Y154.368 E119.03513
G1 X150.031 Y154.367 E119.09741
G1 X150.243 Y154.368 E119.10623
G1 X150.944 Y154.367 E119.13537
G1 X151.200 Y154.580 E119.14922
G1 X151.545 Y154.760 E119.16540
G1 X152.141 Y154.927 E119.19113
G1 X152.534 Y154.954 E119.20751
G1 X153.223 Y154.844 E119.23651
G1 X153.629 Y154.677 E119.25477
G1 X153.998 Y154.441 E119.27298
G1 X154.390 Y154.062 E119.29565
G1 X154.594 Y153.775 E119.31028
G1 X154.760 Y153.454 E119.32531
G1 X154.927 Y152.859 E119.35100
G1 X154.954 Y152.466 E119.36738
G1 X154.844 Y151.777 E119.39639
G1 X154.677 Y151.371 E119.41464
G1 X154.441 Y151.002 E119.43285
G1 X154.062 Y150.610 E119.45552
G1 X153.775 Y150.406 E119.47016
G1 X153.454 Y150.240 E119.48518
G1 X152.859 Y150.073 E119.51088
G1 X152.466 Y150.046 E119.52725
G1 X151.775 Y150.156 E119.55634
G1 X151.353 Y150.332 E119.57535
G1 X150.949 Y150.603 E119.59558
G0 F9000 X151.274 Y150.984
;TYPE:WALL-OUTER
G1 F900 X151.121 Y151.132 E119.60443
G1 X146.950 Y151.134 E119.77784
G1 X146.950 Y149.297 E119.85421
G1 X152.500 Y146.092 E120.12067
G1 X158.050 Y149.297 E120.38712
G1 X158.050 Y155.703 E120.65345
G1 X152.500 Y158.908 E120.91990
G1 X146.950 Y155.703 E121.18635
G1 X146.950 Y153.868 E121.26264
G1 X148.366 Y153.867 E121.32151
G1 X148.534 Y153.868 E121.32850
G1 X150.033 Y153.867 E121.39082
G1 X150.244 Y153.868 E121.39959
G1 X151.125 Y153.867 E121.43622
G1 X151.479 Y154.161 E121.45535
G1 X151.730 Y154.293 E121.46714
G1 X152.226 Y154.432 E121.48856
G1 X152.511 Y154.451 E121.50043
G1 X153.087 Y154.359 E121.52468
G1 X153.398 Y154.232 E121.53865
G1 X153.687 Y154.047 E121.55292
G1 X154.009 Y153.735 E121.57156
G1 X154.166 Y153.514 E121.58283
G1 X154.293 Y153.269 E121.59430
G1 X154.432 Y152.774 E121.61568
G1 X154.451 Y152.489 E121.62755
G1 X154.359 Y151.913 E121.65180
G1 X154.232 Y151.602 E121.66577
G1 X154.047 Y151.313 E121.68004
G1 X153.735 Y150.991 E121.69868
G1 X153.514 Y150.834 E121.70995
G1 X153.269 Y150.707 E121.72142
G1 X152.774 Y150.568 E121.74280
G1 X152.489 Y150.549 E121.75467
G1 X151.912 Y150.641 E121.77896
G1 X151.587 Y150.776 E121.79359
G1 X151.274 Y150.984 E121.80922
G0 F9000 X150.062 Y150.458
;TYPE:FILL
G1 F900 X153.227 Y147.292 E121.99534
G1 F2400 E121.39534
G1 Z4.100
G0 F9000 X151.173 Y147.637
G1 Z3.600
G1 F2400 E121.99534
G1 F900 X153.714 Y150.178 E122.14474
G1 F2400 E121.54474
G1 Z4.100
G0 F9000 X154.837 Y151.301
G1 Z3.600
G1 F2400 E122.14474
G1 F900 X157.374 Y153.838 E122.29391
G1 F2400 E121.69391
G1 Z4.100
G0 F9000 X155.127 Y152.463
G1 Z3.600
G1 F2400 E122.29391
G1 F900 X157.374 Y150.217 E122.42599
G1 F2400 E121.82599
G1 Z4.100
G0 F9000 X152.468 Y155.122
G1 Z3.600
G1 F2400 E122.42599
G1 F900 X150.574 Y157.016 E122.53735
G1 F2400 E121.93735
G1 Z4.100
G0 F9000 X151.286 Y154.822
G1 Z3.600
G1 F2400 E122.53735
G1 F900 X153.826 Y157.361 E122.68666
;LAYER:18
M106 S191
G1 F2400 E122.08666
G1 Z4.100
G0 F9000 X152.986 Y154.903 Z3.800
;TYPE:WALL-INNER
G1 Z3.800
G1 F2400 E122.68666
G1 F900 X153.320 Y154.809 E122.70109
G1 X153.628 Y154.677 E122.71502
G1 X153.936 Y154.488 E122.73004
G1 X154.395 Y154.059 E122.75616
G1 X154.671 Y153.640 E122.77702
G1 X154.814 Y153.309 E122.79202
G1 X154.928 Y152.847 E122.81180
G1 X154.953 Y152.487 E122.82680
G1 X154.903 Y152.014 E122.84658
G1 X154.809 Y151.680 E122.86100
G1 X154.677 Y151.372 E122.87493
G1 X154.488 Y151.064 E122.88996
G1 X154.059 Y150.605 E122.91608
G1 X153.640 Y150.329 E122.93694
G1 X153.309 Y150.186 E122.95193
G1 X152.847 Y150.072 E122.97171
G1 X152.487 Y150.047 E122.98672
G1 X152.014 Y150.097 E123.00649
G1 X151.678 Y150.191 E123.02100
G1 X151.345 Y150.336 E123.03610
G1 X151.125 Y150.481 E123.04705
G1 X150.782 Y150.482 E123.06131
G1 X150.034 Y150.481 E123.09241
G1 X148.369 Y150.482 E123.16163
G1 X147.450 Y150.481 E123.19984
G1 X147.450 Y149.584 E123.23713
G1 X152.500 Y146.669 E123.47955
G1 X157.550 Y149.584 E123.72198
G1 X157.550 Y155.416 E123.96444
G1 X152.500 Y158.331 E124.20686
G1 X147.450 Y155.416 E124.44929
G1 X147.450 Y154.518 E124.48662
G1 X148.368 Y154.519 E124.52479
G1 X148.726 Y154.518 E124.53967
G1 X150.035 Y154.519 E124.59409
G1 X150.497 Y154.518 E124.61330
G1 X151.113 Y154.519 E124.63891
G1 X151.372 Y154.677 E124.65152
G1 X151.691 Y154.814 E124.66596
G1 X152.153 Y154.928 E124.68574
G1 X152.513 Y154.953 E124.70074
G1 X152.986 Y154.903 E124.72052
G0 F9000 X152.892 Y154.410
;TYPE:WALL-OUTER
G1 F900 X153.153 Y154.337 E124.73179
G1 X153.397 Y154.232 E124.74283
G1 X153.632 Y154.088 E124.75429
G1 X154.010 Y153.734 E124.77582
G1 X154.230 Y153.401 E124.79241
G1 X154.339 Y153.149 E124.80383
G1 X154.432 Y152.770 E124.82005
G1 X154.451 Y152.496 E124.83147
G1 X154.410 Y152.108 E124.84769
G1 X154.337 Y151.847 E124.85896
G1 X154.232 Y151.603 E124.87000
G1 X154.088 Y151.368 E124.88146
G1 X153.734 Y150.990 E124.90299
G1 X153.401 Y150.770 E124.91959
G1 X153.149 Y150.661 E124.93100
G1 X152.770 Y150.568 E124.94723
G1 X152.496 Y150.549 E124.95864
G1 X152.108 Y150.590 E124.97487
G1 X151.847 Y150.663 E124.98613
G1 X151.584 Y150.777 E124.99805
G1 X151.279 Y150.981 E125.01331
G1 X146.950 Y150.982 E125.19328
G1 X146.950 Y149.296 E125.26338
G1 X152.500 Y146.091 E125.52983
G1 X158.050 Y149.296 E125.79629
G1 X158.050 Y155.704 E126.06270
G1 X152.500 Y158.909 E126.32915
G1 X146.950 Y155.704 E126.59561
G1 X146.950 Y154.019 E126.66566
G1 X151.283 Y154.019 E126.84580
G1 X151.374 Y154.092 E126.85066
G1 X151.603 Y154.232 E126.86181
G1 X151.851 Y154.339 E126.87304
G1 X152.230 Y154.432 E126.88927
G1 X152.504 Y154.451 E126.90069
G1 X152.892 Y154.410 E126.91691
G0 F9000 X152.467 Y155.123
;TYPE:FILL
G1 F900 X150.574 Y157.016 E127.02821
G1 F2400 E126.42821
G1 Z4.300
G0 F9000 X151.300 Y154.835
G1 Z3.800
G1 F2400 E127.02821
G1 F900 X153.826 Y157.361 E127.17673
G1 F2400 E126.57673
G1 Z4.300
G0 F9000 X157.374 Y153.838
G1 Z3.800
G1 F2400 E127.17673
G1 F900 X154.836 Y151.301 E127.32592
G0 F9000 X155.125 Y152.465
G1 F900 X157.373 Y150.217 E127.45810
G1 F2400 E126.85810
G1 Z4.300
G0 F9000 X153.701 Y150.166
G1 Z3.800
G1 F2400 E127.45810
G1 F900 X151.173 Y147.637 E127.60676
G1 F2400 E127.00676
G1 Z4.300
G0 F9000 X153.228 Y147.291
G1 Z3.800
G1 F2400 E127.60676
G1 F900 X150.214 Y150.306 E127.78400
;LAYER:19
M106 S201
G0 F9000 X150.035 Y150.375 Z4.000
;TYPE:WALL-INNER
G1 F900 X148.369 Y150.376 E127.85327
G1 X147.450 Y150.375 E127.89148
G1 X147.450 Y149.585 E127.92432
G1 X152.500 Y146.670 E128.16674
G1 X157.550 Y149.585 E128.40916
G1 X157.550 Y155.415 E128.65155
G1 X152.500 Y158.330 E128.89397
G1 X147.450 Y155.415 E129.13639
G1 X147.450 Y154.624 E129.16928
G1 X148.367 Y154.623 E129.20740
G1 X149.533 Y154.624 E129.25588
G1 X150.035 Y154.623 E129.27675
G1 X150.800 Y154.623 E129.30855
G1 X151.286 Y154.624 E129.32876
G1 X151.380 Y154.682 E129.33335
G1 X151.826 Y154.857 E129.35327
G1 X152.165 Y154.929 E129.36768
G1 X152.500 Y154.952 E129.38164
G1 X152.832 Y154.929 E129.39548
G1 X153.123 Y154.869 E129.40783
G1 X153.485 Y154.747 E129.42371
G1 X153.915 Y154.504 E129.44424
G1 X154.293 Y154.175 E129.46508
G1 X154.588 Y153.785 E129.48541
G1 X154.754 Y153.467 E129.50032
G1 X154.877 Y153.085 E129.51701
G1 X154.901 Y152.991 E129.52104
G1 X154.944 Y152.681 E129.53405
G1 X154.951 Y152.487 E129.54212
G1 X154.929 Y152.168 E129.55542
G1 X154.869 Y151.877 E129.56777
G1 X154.747 Y151.515 E129.58365
G1 X154.504 Y151.085 E129.60419
G1 X154.175 Y150.707 E129.62502
G1 X153.785 Y150.412 E129.64535
G1 X153.467 Y150.246 E129.66027
G1 X153.085 Y150.123 E129.67695
G1 X152.991 Y150.099 E129.68098
G1 X152.681 Y150.056 E129.69400
G1 X152.487 Y150.049 E129.70207
G1 X152.168 Y150.071 E129.71536
G1 X151.877 Y150.131 E129.72771
G1 X151.540 Y150.245 E129.74250
G1 X151.283 Y150.376 E129.75450
G1 X150.535 Y150.376 E129.78560
G1 X150.035 Y150.375 E129.80638
G1 F2400 E129.20638
G1 Z4.500
G0 F9000 X151.582 Y150.779
;TYPE:WALL-OUTER
G1 Z4.000
G1 F2400 E129.80638
G1 F900 X151.429 Y150.876 E129.81391
G1 X146.950 Y150.876 E130.00013
G1 X146.950 Y149.297 E130.06578
G1 X152.500 Y146.092 E130.33223
G1 X158.050 Y149.297 E130.59868
G1 X158.050 Y155.703 E130.86501
G1 X152.500 Y158.908 E131.13147
G1 X146.950 Y155.703 E131.39792
G1 X146.950 Y154.124 E131.46357
G1 X151.430 Y154.124 E131.64982
G1 X151.605 Y154.233 E131.65839
G1 X151.970 Y154.376 E131.67469
G1 X152.234 Y154.432 E131.68591
G1 X152.500 Y154.451 E131.69700
G1 X152.765 Y154.432 E131.70804
G1 X152.992 Y154.386 E131.71767
G1 X153.280 Y154.288 E131.73032
G1 X153.625 Y154.093 E131.74680
G1 X153.926 Y153.832 E131.76336
G1 X154.164 Y153.517 E131.77978
G1 X154.291 Y153.274 E131.79118
G1 X154.410 Y152.894 E131.80773
G1 X154.445 Y152.638 E131.81847
G1 X154.450 Y152.496 E131.82438
G1 X154.432 Y152.235 E131.83526
G1 X154.386 Y152.008 E131.84489
G1 X154.288 Y151.720 E131.85753
G1 X154.093 Y151.375 E131.87401
G1 X153.832 Y151.074 E131.89057
G1 X153.517 Y150.836 E131.90699
G1 X153.274 Y150.709 E131.91839
G1 X152.894 Y150.590 E131.93494
G1 X152.638 Y150.555 E131.94568
G1 X152.496 Y150.550 E131.95159
G1 X152.235 Y150.568 E131.96247
G1 X152.008 Y150.614 E131.97210
G1 X151.582 Y150.779 E131.99109
G0 F9000 X150.319 Y150.200
;TYPE:FILL
G1 F900 X153.227 Y147.292 E132.16207
G1 F2400 E131.56207
G1 Z4.500
G0 F9000 X151.173 Y147.637
G1 Z4.000
G1 F2400 E132.16207
G1 F900 X153.715 Y150.179 E132.31153
G1 F2400 E131.71153
G1 Z4.500
G0 F9000 X154.812 Y151.277
G1 Z4.000
G1 F2400 E132.31153
G1 F900 X157.374 Y153.838 E132.46214
G1 F2400 E131.86214
G1 Z4.500
G0 F9000 X155.124 Y152.467
G1 Z4.000
G1 F2400 E132.46214
G1 F900 X157.374 Y150.217 E132.59443
G1 F2400 E131.99443
G1 Z4.500
G0 F9000 X152.467 Y155.124
G1 Z4.000
G1 F2400 E132.59443
G1 F900 X150.574 Y157.016 E132.70570
G1 F2400 E132.10570
G1 Z4.500
G0 F9000 X151.303 Y154.839
G1 Z4.000
G1 F2400 E132.70570
G1 F900 X153.826 Y157.361 E132.85401
;LAYER:20
M106 S211
G1 F2400 E132.25401
G1 Z4.500
G0 F9000 X153.136 Y154.868 Z4.200
;TYPE:WALL-INNER
G1 Z4.200
G1 F2400 E132.85401
G1 F900 X153.488 Y154.745 E132.86952
G1 X153.915 Y154.504 E132.88990
G1 X154.302 Y154.166 E132.91126
G1 X154.667 Y153.651 E132.93751
G1 X154.814 Y153.309 E132.95298
G1 X154.928 Y152.847 E132.97277
G1 X154.954 Y152.474 E132.98831
G1 X154.868 Y151.864 E133.01392
G1 X154.745 Y151.512 E133.02943
G1 X154.504 Y151.085 E133.04981
G1 X154.166 Y150.698 E133.07117
G1 X153.651 Y150.333 E133.09742
G1 X153.309 Y150.186 E133.11289
G1 X152.847 Y150.072 E133.13268
G1 X152.474 Y150.046 E133.14822
G1 X151.864 Y150.132 E133.17383
G1 X151.536 Y150.247 E133.18828
G1 X151.415 Y150.305 E133.19386
G1 X148.369 Y150.306 E133.32050
G1 X147.450 Y150.305 E133.35871
G1 X147.450 Y149.584 E133.38868
G1 X152.500 Y146.669 E133.63111
G1 X157.550 Y149.584 E133.87353
G1 X157.550 Y155.416 E134.11599
G1 X152.500 Y158.331 E134.35842
G1 X147.450 Y155.416 E134.60084
G1 X147.450 Y154.695 E134.63081
G1 X148.368 Y154.694 E134.66898
G1 X149.589 Y154.695 E134.71974
G1 X150.786 Y154.694 E134.76951
G1 X151.421 Y154.695 E134.79591
G1 X151.533 Y154.754 E134.80117
G1 X151.989 Y154.898 E134.82105
G1 X152.319 Y154.944 E134.83490
G1 X152.539 Y154.952 E134.84406
G1 X153.136 Y154.868 E134.86912
G0 F9000 X153.017 Y154.380
;TYPE:WALL-OUTER
G1 F900 X153.281 Y154.288 E134.88075
G1 X153.625 Y154.093 E134.89718
G1 X153.929 Y153.829 E134.91392
G1 X154.228 Y153.405 E134.93549
G1 X154.339 Y153.149 E134.94710
G1 X154.432 Y152.770 E134.96332
G1 X154.451 Y152.491 E134.97495
G1 X154.380 Y151.983 E134.99627
G1 X154.288 Y151.719 E135.00789
G1 X154.093 Y151.375 E135.02433
G1 X153.829 Y151.071 E135.04107
G1 X153.405 Y150.772 E135.06264
G1 X153.149 Y150.661 E135.07424
G1 X152.770 Y150.568 E135.09047
G1 X152.491 Y150.549 E135.10210
G1 X151.983 Y150.620 E135.12342
G1 X151.727 Y150.710 E135.13470
G1 X151.539 Y150.805 E135.14346
G1 X146.950 Y150.806 E135.33425
G1 X146.950 Y149.296 E135.39703
G1 X152.500 Y146.091 E135.66348
G1 X158.050 Y149.296 E135.92993
G1 X158.050 Y155.704 E136.19635
G1 X152.500 Y158.909 E136.46280
G1 X146.950 Y155.704 E136.72925
G1 X146.950 Y154.195 E136.79199
G1 X151.545 Y154.195 E136.98303
G1 X151.726 Y154.291 E136.99155
G1 X152.100 Y154.409 E137.00785
G1 X152.362 Y154.445 E137.01884
G1 X152.513 Y154.451 E137.02513
G1 X153.017 Y154.380 E137.04629
G0 F9000 X152.467 Y155.123
;TYPE:FILL
G1 F900 X150.574 Y157.016 E137.15759
G1 F2400 E136.55759
G1 Z4.700
G0 F9000 X151.334 Y154.869
G1 Z4.200
G1 F2400 E137.15759
G1 F900 X153.826 Y157.361 E137.30411
G1 F2400 E136.70411
G1 Z4.700
G0 F9000 X157.374 Y153.838
G1 Z4.200
G1 F2400 E137.30411
G1 F900 X154.811 Y151.276 E137.45477
G0 F9000 X155.129 Y152.462
G1 F900 X157.373 Y150.217 E137.58674
G1 F2400 E136.98674
G1 Z4.700
G0 F9000 X153.698 Y150.163
G1 Z4.200
G1 F2400 E137.58674
G1 F900 X151.173 Y147.637 E137.73523
G1 F2400 E137.13523
G1 Z4.700
G0 F9000 X153.228 Y147.291
G1 Z4.200
G1 F2400 E137.73523
G1 F900 X150.391 Y150.129 E137.90207
;LAYER:21
M106 S221
G0 F9000 X150.980 Y150.265 Z4.400
;TYPE:WALL-INNER
G1 F900 X149.458 Y150.264 E137.96534
G1 X148.367 Y150.265 E138.01070
G1 X147.791 Y150.264 E138.03465
G1 X147.450 Y150.264 E138.04883
G1 X147.450 Y149.585 E138.07706
G1 X152.500 Y146.670 E138.31948
G1 X157.550 Y149.585 E138.56190
G1 X157.550 Y155.415 E138.80428
G1 X152.500 Y158.330 E139.04671
G1 X147.450 Y155.415 E139.28913
G1 X147.450 Y154.736 E139.31736
G1 X148.118 Y154.736 E139.34513
G1 X148.369 Y154.735 E139.35556
G1 X149.785 Y154.736 E139.41443
G1 X150.037 Y154.735 E139.42491
G1 X151.500 Y154.736 E139.48574
G1 X151.839 Y154.860 E139.50074
G1 X152.165 Y154.929 E139.51460
G1 X152.513 Y154.953 E139.52910
G1 X152.986 Y154.903 E139.54887
G1 X153.320 Y154.809 E139.56330
G1 X153.628 Y154.677 E139.57723
G1 X153.925 Y154.495 E139.59171
G1 X154.293 Y154.175 E139.61199
G1 X154.588 Y153.785 E139.63232
G1 X154.749 Y153.476 E139.64680
G1 X154.860 Y153.161 E139.66069
G1 X154.929 Y152.835 E139.67454
G1 X154.953 Y152.487 E139.68905
G1 X154.903 Y152.014 E139.70882
G1 X154.809 Y151.680 E139.72325
G1 X154.677 Y151.372 E139.73718
G1 X154.495 Y151.075 E139.75166
G1 X154.175 Y150.707 E139.77194
G1 X153.785 Y150.412 E139.79227
G1 X153.476 Y150.251 E139.80675
G1 X153.161 Y150.140 E139.82064
G1 X152.835 Y150.071 E139.83449
G1 X152.487 Y150.047 E139.84899
G1 X152.014 Y150.097 E139.86877
G1 X151.679 Y150.191 E139.88323
G1 X151.511 Y150.264 E139.89085
G1 X150.980 Y150.265 E139.91293
G0 F9000 X151.847 Y150.663
;TYPE:WALL-OUTER
G1 F900 X151.614 Y150.764 E139.92348
G1 X146.950 Y150.765 E140.11739
G1 X146.950 Y149.297 E140.17842
G1 X152.500 Y146.092 E140.44488
G1 X158.050 Y149.297 E140.71133
G1 X158.050 Y155.703 E140.97766
G1 X152.500 Y158.908 E141.24411
G1 X146.950 Y155.703 E141.51056
G1 X146.950 Y154.236 E141.57155
G1 X151.617 Y154.236 E141.76559
G1 X151.974 Y154.377 E141.78154
G1 X152.234 Y154.432 E141.79259
G1 X152.504 Y154.451 E141.80385
G1 X152.892 Y154.410 E141.82007
G1 X153.153 Y154.337 E141.83133
G1 X153.397 Y154.232 E141.84238
G1 X153.628 Y154.090 E141.85365
G1 X153.926 Y153.832 E141.87004
G1 X154.164 Y153.517 E141.88645
G1 X154.289 Y153.277 E141.89770
G1 X154.377 Y153.026 E141.90876
G1 X154.432 Y152.766 E141.91981
G1 X154.451 Y152.496 E141.93106
G1 X154.410 Y152.108 E141.94728
G1 X154.337 Y151.847 E141.95855
G1 X154.232 Y151.603 E141.96960
G1 X154.090 Y151.372 E141.98087
G1 X153.832 Y151.074 E141.99726
G1 X153.517 Y150.836 E142.01367
G1 X153.277 Y150.711 E142.02492
G1 X153.026 Y150.623 E142.03598
G1 X152.766 Y150.568 E142.04703
G1 X152.496 Y150.549 E142.05828
G1 X152.108 Y150.590 E142.07450
G1 X151.847 Y150.663 E142.08577
G1 F2400 E141.48577
G1 Z4.900
G0 F9000 X150.432 Y150.088
;TYPE:FILL
G1 Z4.400
G1 F2400 E142.08577
G1 F900 X153.227 Y147.292 E142.25013
G1 F2400 E141.65013
G1 Z4.900
G0 F9000 X151.173 Y147.637
G1 Z4.400
G1 F2400 E142.25013
G1 F900 X153.712 Y150.177 E142.39945
G1 F2400 E141.79945
G1 Z4.900
G0 F9000 X154.836 Y151.301
G1 Z4.400
G1 F2400 E142.39945
G1 F900 X157.374 Y153.838 E142.54864
G1 F2400 E141.94864
G1 Z4.900
G0 F9000 X155.125 Y152.465
G1 Z4.400
G1 F2400 E142.54864
G1 F900 X157.374 Y150.217 E142.68085
G1 F2400 E142.08085
G1 Z4.900
G0 F9000 X152.467 Y155.123
G1 Z4.400
G1 F2400 E142.68085
G1 F900 X150.574 Y157.016 E142.79215
G1 F2400 E142.19215
G1 Z4.900
G0 F9000 X151.374 Y154.910
G1 Z4.400
G1 F2400 E142.79215
G1 F900 X153.826 Y157.361 E142.93629
;LAYER:22
M106 S232
G1 F2400 E142.33629
G1 Z4.900
G0 F9000 X153.161 Y154.858 Z4.600
;TYPE:WALL-INNER
G1 Z4.600
G1 F2400 E142.93629
G1 F900 X153.475 Y154.748 E142.95012
G1 X153.774 Y154.592 E142.96414
G1 X154.171 Y154.292 E142.98483
G1 X154.401 Y154.045 E142.99886
G1 X154.675 Y153.628 E143.01960
G1 X154.809 Y153.318 E143.03364
G1 X154.898 Y153.000 E143.04737
G1 X154.945 Y152.668 E143.06131
G1 X154.950 Y152.500 E143.06830
G1 X154.927 Y152.165 E143.08226
G1 X154.858 Y151.839 E143.09612
G1 X154.748 Y151.525 E143.10995
G1 X154.592 Y151.226 E143.12397
G1 X154.292 Y150.829 E143.14466
G1 X154.045 Y150.599 E143.15869
G1 X153.628 Y150.325 E143.17943
G1 X153.318 Y150.191 E143.19347
G1 X153.000 Y150.102 E143.20720
G1 X152.487 Y150.047 E143.22865
G1 X152.025 Y150.095 E143.24796
G1 X151.529 Y150.250 E143.26957
G1 X147.450 Y150.251 E143.43915
G1 X147.450 Y149.585 E143.46684
G1 X152.500 Y146.670 E143.70927
G1 X157.550 Y149.585 E143.95169
G1 X157.550 Y155.415 E144.19407
G1 X152.500 Y158.330 E144.43649
G1 X147.450 Y155.415 E144.67891
G1 X147.450 Y154.750 E144.70656
G1 X151.530 Y154.750 E144.87619
G1 X152.000 Y154.898 E144.89667
G1 X152.332 Y154.945 E144.91062
G1 X152.500 Y154.950 E144.91760
G1 X152.835 Y154.927 E144.93156
G1 X153.161 Y154.858 E144.94542
G0 F9000 X153.276 Y154.289
;TYPE:WALL-OUTER
G1 F900 X153.625 Y154.092 E144.96208
G1 X153.830 Y153.925 E144.97307
G1 X154.012 Y153.730 E144.98416
G1 X154.231 Y153.397 E145.00073
G1 X154.337 Y153.152 E145.01183
G1 X154.409 Y152.897 E145.02285
G1 X154.446 Y152.633 E145.03393
G1 X154.450 Y152.500 E145.03946
G1 X154.432 Y152.234 E145.05055
G1 X154.377 Y151.974 E145.06159
G1 X154.289 Y151.724 E145.07261
G1 X154.092 Y151.375 E145.08928
G1 X153.925 Y151.170 E145.10027
G1 X153.730 Y150.988 E145.11136
G1 X153.397 Y150.769 E145.12793
G1 X153.152 Y150.663 E145.13903
G1 X152.761 Y150.568 E145.15576
G1 X152.496 Y150.549 E145.16680
G1 X152.112 Y150.589 E145.18285
G1 X151.723 Y150.711 E145.19980
G1 X151.643 Y150.750 E145.20350
G1 X146.950 Y150.751 E145.39861
G1 X146.950 Y149.297 E145.45906
G1 X152.500 Y146.092 E145.72552
G1 X158.050 Y149.297 E145.99197
G1 X158.050 Y155.703 E146.25830
G1 X152.500 Y158.908 E146.52475
G1 X146.950 Y155.703 E146.79121
G1 X146.950 Y154.250 E146.85161
G1 X151.642 Y154.250 E147.04669
G1 X151.848 Y154.337 E147.05598
G1 X152.103 Y154.409 E147.06700
G1 X152.367 Y154.446 E147.07808
G1 X152.500 Y154.450 E147.08361
G1 X152.766 Y154.432 E147.09470
G1 X153.026 Y154.377 E147.10575
G1 X153.276 Y154.289 E147.11677
G0 F9000 X152.468 Y155.122
;TYPE:FILL
G1 F900 X150.574 Y157.016 E147.22813
G1 F2400 E146.62813
G1 Z5.100
G0 F9000 X151.388 Y154.924
G1 Z4.600
G1 F2400 E147.22813
G1 F900 X153.826 Y157.361 E147.37144
G1 F2400 E146.77144
G1 Z5.100
G0 F9000 X157.374 Y153.838
G1 Z4.600
G1 F2400 E147.37144
G1 F900 X154.818 Y151.282 E147.52172
G0 F9000 X155.122 Y152.468
G1 F900 X157.374 Y150.217 E147.65410
G1 F2400 E147.05410
G1 Z5.100
G0 F9000 X153.703 Y150.167
G1 Z4.600
G1 F2400 E147.65410
G1 F900 X151.173 Y147.637 E147.80286
G1 F2400 E147.20286
G1 Z5.100
G0 F9000 X153.227 Y147.292
G1 Z4.600
G1 F2400 E147.80286
G1 F900 X150.444 Y150.075 E147.96649
;LAYER:23
M106 S242
G0 F9000 X150.034 Y150.264 Z4.800
;TYPE:WALL-INNER
G1 F900 X148.960 Y150.265 E148.01114
G1 X148.367 Y150.264 E148.03579
G1 X147.450 Y150.265 E148.07392
G1 X147.450 Y149.585 E148.10219
G1 X152.500 Y146.670 E148.34461
G1 X157.550 Y149.585 E148.58703
G1 X157.550 Y155.415 E148.82942
G1 X152.500 Y158.330 E149.07184
G1 X147.450 Y155.415 E149.31426
G1 X147.450 Y154.735 E149.34253
G1 X148.368 Y154.736 E149.38070
G1 X148.602 Y154.735 E149.39043
G1 X150.035 Y154.736 E149.45000
G1 X150.428 Y154.735 E149.46634
G1 X151.523 Y154.736 E149.51187
G1 X151.822 Y154.853 E149.52522
G1 X152.011 Y154.901 E149.53332
G1 X152.320 Y154.944 E149.54629
G1 X152.539 Y154.951 E149.55540
G1 X153.001 Y154.901 E149.57472
G1 X153.346 Y154.801 E149.58966
G1 X153.776 Y154.594 E149.60950
G1 X154.057 Y154.392 E149.62389
G1 X154.290 Y154.173 E149.63718
G1 X154.419 Y154.024 E149.64537
G1 X154.685 Y153.616 E149.66562
G1 X154.854 Y153.175 E149.68526
G1 X154.944 Y152.680 E149.70617
G1 X154.951 Y152.461 E149.71528
G1 X154.901 Y151.999 E149.73460
G1 X154.801 Y151.654 E149.74954
G1 X154.594 Y151.224 E149.76938
G1 X154.392 Y150.943 E149.78377
G1 X154.173 Y150.710 E149.79706
G1 X154.024 Y150.581 E149.80526
G1 X153.616 Y150.315 E149.82550
G1 X153.175 Y150.146 E149.84514
G1 X152.680 Y150.056 E149.86606
G1 X152.461 Y150.049 E149.87517
G1 X151.999 Y150.099 E149.89449
G1 X151.666 Y150.195 E149.90889
G1 X151.510 Y150.264 E149.91599
G1 X151.005 Y150.265 E149.93698
G1 X150.034 Y150.264 E149.97735
G1 F2400 E149.37735
G1 Z5.300
G0 F9000 X151.837 Y150.666
;TYPE:WALL-OUTER
G1 Z4.800
G1 F2400 E149.97735
G1 F900 X151.616 Y150.764 E149.98740
G1 X146.950 Y150.764 E150.18139
G1 X146.950 Y149.297 E150.24238
G1 X152.500 Y146.092 E150.50884
G1 X158.050 Y149.297 E150.77529
G1 X158.050 Y155.703 E151.04162
G1 X152.500 Y158.908 E151.30807
G1 X146.950 Y155.703 E151.57452
G1 X146.950 Y154.235 E151.63556
G1 X148.367 Y154.236 E151.69447
G1 X148.601 Y154.235 E151.70420
G1 X151.618 Y154.236 E151.82963
G1 X151.975 Y154.376 E151.84557
G1 X152.107 Y154.410 E151.85124
G1 X152.363 Y154.445 E151.86198
G1 X152.520 Y154.450 E151.86851
G1 X152.904 Y154.408 E151.88457
G1 X153.167 Y154.332 E151.89595
G1 X153.519 Y154.163 E151.91219
G1 X153.738 Y154.005 E151.92342
G1 X153.929 Y153.826 E151.93430
G1 X154.018 Y153.723 E151.93996
G1 X154.237 Y153.387 E151.95663
G1 X154.377 Y153.024 E151.97281
G1 X154.410 Y152.893 E151.97842
G1 X154.445 Y152.637 E151.98917
G1 X154.450 Y152.480 E151.99570
G1 X154.408 Y152.096 E152.01176
G1 X154.332 Y151.833 E152.02314
G1 X154.163 Y151.481 E152.03937
G1 X154.005 Y151.262 E152.05060
G1 X153.826 Y151.071 E152.06148
G1 X153.723 Y150.982 E152.06714
G1 X153.387 Y150.763 E152.08382
G1 X153.024 Y150.623 E152.09999
G1 X152.893 Y150.590 E152.10561
G1 X152.637 Y150.555 E152.11635
G1 X152.480 Y150.550 E152.12288
G1 X152.096 Y150.592 E152.13894
G1 X151.837 Y150.666 E152.15014
G1 F2400 E151.55014
G1 Z5.300
G0 F9000 X150.430 Y150.089
;TYPE:FILL
G1 Z4.800
G1 F2400 E152.15014
G1 F900 X153.227 Y147.292 E152.31459
G1 F2400 E151.71459
G1 Z5.300
G0 F9000 X151.173 Y147.637
G1 Z4.800
G1 F2400 E152.31459
G1 F900 X153.691 Y150.156 E152.46267
G1 F2400 E151.86267
G1 Z5.300
G0 F9000 X154.812 Y151.277
G1 Z4.800
G1 F2400 E152.46267
G1 F900 X157.374 Y153.838 E152.61328
G1 F2400 E152.01328
G1 Z5.300
G0 F9000 X155.125 Y152.466
G1 Z4.800
G1 F2400 E152.61328
G1 F900 X157.374 Y150.217 E152.74551
G1 F2400 E152.14551
G1 Z5.300
G0 F9000 X152.469 Y155.122
G1 Z4.800
G1 F2400 E152.74551
G1 F900 X150.574 Y157.016 E152.85690
G1 F2400 E152.25690
G1 Z5.300
G0 F9000 X151.375 Y154.910
G1 Z4.800
G1 F2400 E152.85690
G1 F900 X153.826 Y157.361 E153.00101
;LAYER:24
M106 S255
G1 F2400 E152.40101
G1 Z5.300
G0 F9000 X153.027 Y154.896 Z5.000
;TYPE:WALL-INNER
G1 Z5.000
G1 F2400 E153.00101
G1 F900 X153.502 Y154.739 E153.02181
G1 X153.908 Y154.507 E153.04125
G1 X154.191 Y154.274 E153.05649
G1 X154.404 Y154.043 E153.06955
G1 X154.615 Y153.740 E153.08490
G1 X154.819 Y153.297 E153.10518
G1 X154.928 Y152.844 E153.12455
G1 X154.953 Y152.461 E153.14051
G1 X154.896 Y151.973 E153.16094
G1 X154.739 Y151.498 E153.18173
G1 X154.507 Y151.092 E153.20118
G1 X154.274 Y150.809 E153.21642
G1 X154.043 Y150.596 E153.22948
G1 X153.740 Y150.385 E153.24483
G1 X153.297 Y150.181 E153.26511
G1 X152.844 Y150.072 E153.28448
G1 X152.461 Y150.047 E153.30043
G1 X151.973 Y150.104 E153.32086
G1 X151.509 Y150.257 E153.34117
G1 X151.418 Y150.305 E153.34545
G1 X150.662 Y150.306 E153.37688
G1 X150.034 Y150.305 E153.40299
G1 X148.773 Y150.306 E153.45542
G1 X148.368 Y150.305 E153.47226
G1 X147.450 Y150.306 E153.51042
G1 X147.450 Y149.585 E153.54040
G1 X152.500 Y146.670 E153.78282
G1 X157.550 Y149.585 E154.02524
G1 X157.550 Y155.415 E154.26762
G1 X152.500 Y158.330 E154.51005
G1 X147.450 Y155.415 E154.75247
G1 X147.450 Y154.693 E154.78249
G1 X148.368 Y154.694 E154.82065
G1 X148.796 Y154.693 E154.83845
G1 X151.437 Y154.695 E154.94825
G1 X151.700 Y154.818 E154.96032
G1 X152.156 Y154.928 E154.97982
G1 X152.539 Y154.953 E154.99578
G1 X153.027 Y154.896 E155.01620
G0 F9000 X152.919 Y154.405
;TYPE:WALL-OUTER
G1 F900 X153.297 Y154.280 E155.03275
G1 X153.623 Y154.094 E155.04836
G1 X153.846 Y153.910 E155.06038
G1 X154.013 Y153.729 E155.07062
G1 X154.180 Y153.491 E155.08271
G1 X154.344 Y153.132 E155.09911
G1 X154.432 Y152.769 E155.11464
G1 X154.451 Y152.474 E155.12693
G1 X154.405 Y152.081 E155.14338
G1 X154.280 Y151.703 E155.15994
G1 X154.094 Y151.377 E155.17554
G1 X153.910 Y151.154 E155.18756
G1 X153.729 Y150.987 E155.19780
G1 X153.491 Y150.820 E155.20989
G1 X153.132 Y150.656 E155.22630
G1 X152.769 Y150.568 E155.24183
G1 X152.474 Y150.549 E155.25412
G1 X152.081 Y150.595 E155.27057
G1 X151.706 Y150.718 E155.28697
G1 X151.543 Y150.805 E155.29466
G1 X146.950 Y150.805 E155.48561
G1 X146.950 Y149.297 E155.54831
G1 X152.500 Y146.092 E155.81476
G1 X158.050 Y149.297 E156.08121
G1 X158.050 Y155.703 E156.34754
G1 X152.500 Y158.908 E156.61399
G1 X146.950 Y155.703 E156.88045
G1 X146.950 Y154.194 E156.94318
G1 X151.550 Y154.195 E157.13443
G1 X151.867 Y154.344 E157.14899
G1 X152.231 Y154.432 E157.16456
G1 X152.526 Y154.451 E157.17685
G1 X152.919 Y154.405 E157.19330
G0 F9000 X152.468 Y155.122
;TYPE:FILL
G1 F900 X150.574 Y157.016 E157.30466
G1 F2400 E156.70466
G1 Z5.500
G0 F9000 X151.333 Y154.869
G1 Z5.000
