;-- START GCODE --
;Sliced for Type A Machines Series 1
;Sliced at: Sun 08-11-2020 13:15:43
;Basic settings: Layer height: 0.2 Walls: 1 Fill: 80
;Print Speed: 45 Support: 0
;Retraction Speed: 40 Retraction Distance: 0.6
;Print time: 10 minutes
;Filament used: 0.565m 1.0g
;Settings based on: Type A Machines ProMatte
G21        ;metric values
G90        ;absolute positioning
G28     ;move to endstops
G29		;allows for auto-levelling
G1 Z15.0 F12000 ;move the platform down 15mm
G1 X150 Y5 F9000 ;center
M140 S50 ;Prep Heat Bed
M109 S210 ;Heat To temp
M190 S50 ;Heat Bed to temp
G1 X150 Y5 Z0.3 ;move the platform to purge extrusion
G92 E0 ;zero the extruded length
G1 F200 X250 E30 ;extrude 30mm of feed stock
G92 E0 ;zero the extruded length again
G1 X150 Y150  Z25 F12000 ;recenter and begin
G1 F9000

;Layer count: 35
;LAYER:0
M107
G0 F9000 X142.950 Y146.987 Z0.200
;TYPE:SKIRT
G1 F1800 X150.542 Y142.603 E0.36448
G1 X150.542 Y142.604 E0.36453
G1 X152.499 Y141.472 E0.45852
G1 X160.093 Y145.857 E0.82310
G1 X160.300 Y145.977 E0.83304
G1 X166.142 Y142.603 E1.11352
G1 X166.142 Y142.604 E1.11356
G1 X168.099 Y141.472 E1.20756
G1 X175.693 Y145.857 E1.57213
G1 X177.650 Y146.989 E1.66613
G1 X177.650 Y158.013 E2.12445
G1 X170.058 Y162.397 E2.48894
G1 X170.058 Y162.396 E2.48898
G1 X168.101 Y163.528 E2.58297
G1 X160.507 Y159.143 E2.94755
G1 X160.300 Y159.023 E2.95750
G1 X154.458 Y162.397 E3.23798
G1 X154.458 Y162.396 E3.23802
G1 X152.501 Y163.528 E3.33201
G1 X144.907 Y159.143 E3.69659
G1 X142.950 Y158.011 E3.79058
G1 X142.950 Y146.987 E4.24891
G0 F9000 X143.450 Y147.276
G1 F1800 X150.792 Y143.036 E4.60140
G1 X150.792 Y143.037 E4.60144
G1 X152.499 Y142.049 E4.68344
G1 X159.843 Y146.290 E5.03602
G1 X160.300 Y146.554 E5.05796
G1 X166.392 Y143.036 E5.35043
G1 X166.392 Y143.037 E5.35048
G1 X168.099 Y142.049 E5.43247
G1 X175.443 Y146.290 E5.78506
G1 X177.150 Y147.277 E5.86703
G1 X177.150 Y157.724 E6.30137
G1 X169.808 Y161.964 E6.65386
G1 X169.808 Y161.963 E6.65390
G1 X168.101 Y162.951 E6.73590
G1 X160.757 Y158.710 E7.08848
G1 X160.300 Y158.446 E7.11042
G1 X154.208 Y161.964 E7.40290
G1 X154.208 Y161.963 E7.40294
G1 X152.501 Y162.951 E7.48494
G1 X145.157 Y158.710 E7.83752
G1 X143.450 Y157.723 E7.91950
G1 X143.450 Y147.276 E8.35384
G1 F2400 E7.75384
G1 Z0.700
G0 F9000 X147.450 Y149.585
;TYPE:WALL-INNER
G1 Z0.200
G1 F2400 E8.35384
G1 F1800 X152.500 Y146.670 E8.59626
G1 X157.550 Y149.585 E8.83868
G1 X157.550 Y155.415 E9.08106
G1 X152.500 Y158.330 E9.32348
G1 X147.450 Y155.415 E9.56591
G1 X147.450 Y149.585 E9.80829
G1 F2400 E9.20829
G1 Z0.700
G0 F9000 X150.329 Y151.162
G1 Z0.200
G1 F2400 E9.80829
G1 F1800 X150.172 Y151.459 E9.82226
G1 X150.051 Y151.781 E9.83656
G1 X149.961 Y152.240 E9.85600
G1 X149.950 Y152.588 E9.87048
G1 X150.019 Y153.088 E9.89146
G1 X150.108 Y153.382 E9.90423
G1 X150.181 Y153.563 E9.91235
G1 X150.418 Y153.980 E9.93229
G1 X150.847 Y154.445 E9.95859
G1 X151.133 Y154.653 E9.97330
G1 X151.420 Y154.811 E9.98692
G1 X151.732 Y154.933 E10.00084
G1 X152.225 Y155.035 E10.02177
G1 X152.559 Y155.051 E10.03568
G1 X153.040 Y154.996 E10.05580
G1 X153.510 Y154.844 E10.07634
G1 X153.945 Y154.606 E10.09696
G1 X154.335 Y154.277 E10.11817
G1 X154.709 Y153.779 E10.14406
G1 X154.862 Y153.461 E10.15873
G1 X155.003 Y152.991 E10.17914
G1 X155.030 Y152.814 E10.18658
G1 X155.051 Y152.483 E10.20037
G1 X155.004 Y152.002 E10.22046
G1 X154.860 Y151.527 E10.24110
G1 X154.629 Y151.090 E10.26165
G1 X154.323 Y150.713 E10.28183
G1 X154.057 Y150.480 E10.29654
G1 X153.650 Y150.221 E10.31659
G1 X153.212 Y150.050 E10.33614
G1 X152.856 Y149.975 E10.35127
G1 X152.537 Y149.950 E10.36457
G1 X152.195 Y149.966 E10.37880
G1 X151.738 Y150.065 E10.39824
G1 X151.408 Y150.194 E10.41298
G1 X150.991 Y150.441 E10.43313
G1 X150.619 Y150.773 E10.45386
G1 X150.329 Y151.162 E10.47403
G0 F9000 X150.629 Y151.664
;TYPE:WALL-OUTER
G1 F1800 X150.534 Y151.918 E10.48530
G1 X150.460 Y152.297 E10.50136
G1 X150.451 Y152.571 E10.51275
G1 X150.504 Y152.965 E10.52928
G1 X150.580 Y153.215 E10.54015
G1 X150.632 Y153.345 E10.54597
G1 X150.825 Y153.683 E10.56215
G1 X151.181 Y154.070 E10.58401
G1 X151.402 Y154.230 E10.59535
G1 X151.632 Y154.357 E10.60628
G1 X151.883 Y154.455 E10.61748
G1 X152.273 Y154.537 E10.63405
G1 X152.542 Y154.550 E10.64525
G1 X152.933 Y154.505 E10.66161
G1 X153.311 Y154.383 E10.67812
G1 X153.661 Y154.191 E10.69472
G1 X153.969 Y153.932 E10.71145
G1 X154.280 Y153.518 E10.73298
G1 X154.398 Y153.272 E10.74432
G1 X154.512 Y152.895 E10.76070
G1 X154.550 Y152.492 E10.77752
G1 X154.511 Y152.100 E10.79390
G1 X154.395 Y151.718 E10.81050
G1 X154.210 Y151.367 E10.82700
G1 X153.961 Y151.061 E10.84340
G1 X153.756 Y150.881 E10.85474
G1 X153.423 Y150.669 E10.87115
G1 X153.061 Y150.528 E10.88730
G1 X152.793 Y150.472 E10.89869
G1 X152.529 Y150.451 E10.90970
G1 X152.260 Y150.463 E10.92089
G1 X151.883 Y150.545 E10.93693
G1 X151.628 Y150.645 E10.94832
G1 X151.288 Y150.846 E10.96474
G1 X150.990 Y151.112 E10.98135
G1 X150.753 Y151.429 E10.99780
G1 X150.629 Y151.664 E11.00885
G1 F2400 E10.40885
G1 Z0.700
G0 F9000 X146.950 Y149.297
G1 Z0.200
G1 F2400 E11.00885
G1 F1800 X152.500 Y146.092 E11.27530
G1 X158.050 Y149.297 E11.54176
G1 X158.050 Y155.703 E11.80809
G1 X152.500 Y158.908 E12.07454
G1 X146.950 Y155.703 E12.34099
G1 X146.950 Y149.297 E12.60732
G0 F9000 X147.811 Y149.579
;TYPE:SKIN
G1 F1800 X149.904 Y151.672 E12.73038
G0 F9000 X150.120 Y151.181
G1 F1800 X148.259 Y149.320 E12.83980
G0 F9000 X148.708 Y149.061
G1 F1800 X150.408 Y150.762 E12.93979
G0 F9000 X150.762 Y150.409
G1 F1800 X149.156 Y148.802 E13.03424
G0 F9000 X149.604 Y148.544
G1 F1800 X151.184 Y150.123 E13.12711
G0 F9000 X151.670 Y149.903
G1 F1800 X150.053 Y148.285 E13.22221
G0 F9000 X150.501 Y148.026
G1 F1800 X152.262 Y149.787 E13.32575
G0 F9000 X153.010 Y149.828
G1 F1800 X150.948 Y147.766 E13.44699
G0 F9000 X151.397 Y147.508
G1 F1800 X157.374 Y153.485 E13.79842
G0 F9000 X157.374 Y154.192
G1 F1800 X155.177 Y151.995 E13.92759
G0 F9000 X155.209 Y152.735
G1 F1800 X157.374 Y154.899 E14.05486
G0 F9000 X157.187 Y155.419
G1 F1800 X155.086 Y153.318 E14.17839
G0 F9000 X154.881 Y153.821
G1 F1800 X156.739 Y155.678 E14.28760
G0 F9000 X156.291 Y155.937
G1 F1800 X154.586 Y154.232 E14.38785
G0 F9000 X154.236 Y154.589
G1 F1800 X155.842 Y156.196 E14.48230
G0 F9000 X155.394 Y156.455
G1 F1800 X153.815 Y154.876 E14.57514
G0 F9000 X153.321 Y155.089
G1 F1800 X154.946 Y156.713 E14.67066
G0 F9000 X154.497 Y156.972
G1 F1800 X152.732 Y155.207 E14.77443
G0 F9000 X151.981 Y155.163
G1 F1800 X154.050 Y157.232 E14.89608
G0 F9000 X153.601 Y157.491
G1 F1800 X147.624 Y151.513 E15.24754
G0 F9000 X147.624 Y152.220
G1 F1800 X153.153 Y157.749 E15.57262
G0 F9000 X152.705 Y158.008
G1 F1800 X147.624 Y152.928 E15.87133
G0 F9000 X147.624 Y153.635
G1 F1800 X151.593 Y157.603 E16.10467
G1 F2400 E15.50467
G1 Z0.700
G0 F9000 X149.920 Y156.637
G1 Z0.200
G1 F2400 E16.10467
G1 F1800 X147.624 Y154.342 E16.23963
G0 F9000 X147.624 Y155.049
G1 F1800 X148.247 Y155.671 E16.27623
G1 F2400 E15.67623
G1 Z0.700
G0 F9000 X149.831 Y153.013
G1 Z0.200
G1 F2400 E16.27623
G1 F1800 X147.624 Y150.806 E16.40600
G0 F9000 X147.624 Y150.099
G1 F1800 X149.786 Y152.261 E16.53311
G1 F2400 E15.93311
G1 Z0.700
G0 F9000 X151.845 Y147.249
G1 Z0.200
G1 F2400 E16.53311
G1 F1800 X157.374 Y152.778 E16.85820
G0 F9000 X157.374 Y152.071
G1 F1800 X152.293 Y146.990 E17.15694
G0 F9000 X153.406 Y147.395
G1 F1800 X157.374 Y151.363 E17.39024
G0 F9000 X157.374 Y150.656
G1 F1800 X155.079 Y148.361 E17.52518
G1 F2400 E16.92518
G1 Z0.700
G0 F9000 X156.752 Y149.327
G1 Z0.200
G1 F2400 E17.52518
G1 F1800 X157.374 Y149.949 E17.56175
G1 F2400 E16.96175
G1 Z0.700
G0 F9000 X163.050 Y149.585
;TYPE:WALL-INNER
G1 Z0.200
G1 F2400 E17.56175
G1 F1800 X168.100 Y146.670 E17.80417
G1 X173.150 Y149.585 E18.04660
G1 X173.150 Y155.415 E18.28898
G1 X168.100 Y158.330 E18.53140
G1 X163.050 Y155.415 E18.77382
G1 X163.050 Y149.585 E19.01621
G1 F2400 E18.41621
G1 Z0.700
G0 F9000 X165.928 Y151.162
G1 Z0.200
G1 F2400 E19.01621
G1 F1800 X165.771 Y151.459 E19.03017
G1 X165.650 Y151.781 E19.04447
G1 X165.560 Y152.240 E19.06392
G1 X165.549 Y152.588 E19.07840
G1 X165.618 Y153.088 E19.09938
G1 X165.707 Y153.382 E19.11215
G1 X165.780 Y153.563 E19.12027
G1 X166.017 Y153.980 E19.14021
G1 X166.446 Y154.445 E19.16651
G1 X166.732 Y154.653 E19.18121
G1 X167.019 Y154.811 E19.19483
G1 X167.331 Y154.933 E19.20876
G1 X167.824 Y155.035 E19.22969
G1 X168.159 Y155.051 E19.24364
G1 X168.640 Y154.996 E19.26376
G1 X169.110 Y154.844 E19.28430
G1 X169.545 Y154.606 E19.30492
G1 X169.935 Y154.277 E19.32613
G1 X170.309 Y153.779 E19.35202
G1 X170.462 Y153.461 E19.36669
G1 X170.603 Y152.991 E19.38709
G1 X170.630 Y152.814 E19.39454
G1 X170.651 Y152.483 E19.40833
G1 X170.604 Y152.002 E19.42842
G1 X170.460 Y151.527 E19.44906
G1 X170.229 Y151.090 E19.46961
G1 X169.923 Y150.713 E19.48979
G1 X169.657 Y150.480 E19.50449
G1 X169.250 Y150.221 E19.52455
G1 X168.812 Y150.050 E19.54410
G1 X168.455 Y149.975 E19.55927
G1 X168.136 Y149.950 E19.57257
G1 X167.794 Y149.966 E19.58680
G1 X167.337 Y150.065 E19.60624
G1 X167.007 Y150.194 E19.62098
G1 X166.590 Y150.441 E19.64113
G1 X166.218 Y150.773 E19.66185
G1 X165.928 Y151.162 E19.68203
G0 F9000 X166.228 Y151.664
;TYPE:WALL-OUTER
G1 F1800 X166.133 Y151.918 E19.69330
G1 X166.059 Y152.297 E19.70936
G1 X166.050 Y152.571 E19.72075
G1 X166.103 Y152.965 E19.73728
G1 X166.179 Y153.215 E19.74815
G1 X166.231 Y153.345 E19.75397
G1 X166.424 Y153.683 E19.77015
G1 X166.780 Y154.070 E19.79201
G1 X167.001 Y154.230 E19.80335
G1 X167.231 Y154.357 E19.81428
G1 X167.482 Y154.455 E19.82548
G1 X167.872 Y154.537 E19.84205
G1 X168.142 Y154.550 E19.85329
G1 X168.533 Y154.505 E19.86965
G1 X168.911 Y154.383 E19.88616
G1 X169.261 Y154.191 E19.90276
G1 X169.569 Y153.932 E19.91949
G1 X169.880 Y153.518 E19.94102
G1 X169.998 Y153.272 E19.95236
G1 X170.112 Y152.895 E19.96874
G1 X170.150 Y152.492 E19.98557
G1 X170.111 Y152.100 E20.00194
G1 X169.995 Y151.718 E20.01854
G1 X169.810 Y151.367 E20.03504
G1 X169.561 Y151.061 E20.05144
G1 X169.356 Y150.881 E20.06278
G1 X169.023 Y150.669 E20.07919
G1 X168.661 Y150.528 E20.09535
G1 X168.392 Y150.472 E20.10677
G1 X168.128 Y150.451 E20.11778
G1 X167.859 Y150.463 E20.12897
G1 X167.482 Y150.545 E20.14501
G1 X167.227 Y150.645 E20.15640
G1 X166.887 Y150.846 E20.17282
G1 X166.589 Y151.112 E20.18943
G1 X166.352 Y151.429 E20.20589
G1 X166.228 Y151.664 E20.21693
G1 F2400 E19.61693
G1 Z0.700
G0 F9000 X162.550 Y149.297
G1 Z0.200
G1 F2400 E20.21693
G1 F1800 X168.100 Y146.092 E20.48339
G1 X173.650 Y149.297 E20.74984
G1 X173.650 Y155.703 E21.01617
G1 X168.100 Y158.908 E21.28262
G1 X162.550 Y155.703 E21.54907
G1 X162.550 Y149.297 E21.81540
G0 F9000 X163.384 Y149.595
;TYPE:SKIN
G1 F1800 X165.491 Y151.703 E21.93932
G0 F9000 X165.704 Y151.209
G1 F1800 X163.832 Y149.336 E22.04941
G0 F9000 X164.280 Y149.077
G1 F1800 X165.989 Y150.786 E22.14990
G0 F9000 X166.339 Y150.429
G1 F1800 X164.729 Y148.819 E22.24456
G0 F9000 X165.177 Y148.560
G1 F1800 X166.756 Y150.139 E22.33740
G0 F9000 X167.239 Y149.915
G1 F1800 X165.625 Y148.301 E22.43229
G0 F9000 X166.073 Y148.041
G1 F1800 X167.820 Y149.789 E22.53504
G0 F9000 X168.555 Y149.816
G1 F1800 X166.521 Y147.783 E22.65460
G0 F9000 X166.969 Y147.524
G1 F1800 X169.945 Y150.499 E22.82955
G0 F9000 X170.103 Y150.658
G1 F1800 X172.974 Y153.529 E22.99835
G0 F9000 X172.974 Y154.236
G1 F1800 X170.782 Y152.044 E23.12724
G0 F9000 X170.807 Y152.776
G1 F1800 X172.974 Y154.943 E23.25465
G0 F9000 X172.760 Y155.436
G1 F1800 X170.675 Y153.351 E23.37724
G0 F9000 X170.467 Y153.850
G1 F1800 X172.312 Y155.695 E23.48572
G0 F9000 X171.863 Y155.953
G1 F1800 X170.167 Y154.257 E23.58543
G0 F9000 X169.812 Y154.609
G1 F1800 X171.415 Y156.212 E23.67968
G0 F9000 X170.967 Y156.471
G1 F1800 X169.387 Y154.891 E23.77258
G0 F9000 X168.888 Y155.100
G1 F1800 X170.518 Y156.730 E23.86842
G0 F9000 X170.070 Y156.989
G1 F1800 X168.293 Y155.212 E23.97290
G0 F9000 X167.528 Y155.154
G1 F1800 X169.622 Y157.247 E24.09599
G0 F9000 X169.174 Y157.507
G1 F1800 X163.224 Y151.557 E24.44583
G0 F9000 X163.224 Y152.264
G1 F1800 X168.726 Y157.766 E24.76932
G0 F9000 X168.277 Y158.024
G1 F1800 X163.224 Y152.971 E25.06642
G0 F9000 X163.224 Y153.678
G1 F1800 X167.092 Y157.546 E25.29384
G1 F2400 E24.69384
G1 Z0.700
G0 F9000 X165.419 Y156.580
G1 Z0.200
G1 F2400 E25.29384
G1 F1800 X163.224 Y154.385 E25.42290
G0 F9000 X163.224 Y155.092
G1 F1800 X163.746 Y155.614 E25.45359
G1 F2400 E24.85359
G1 Z0.700
G0 F9000 X165.436 Y153.062
G1 Z0.200
G1 F2400 E25.45359
G1 F1800 X163.224 Y150.849 E25.58368
G0 F9000 X163.224 Y150.142
G1 F1800 X165.383 Y152.301 E25.71062
G1 F2400 E25.11062
G1 Z0.700
G0 F9000 X167.418 Y147.265
G1 Z0.200
G1 F2400 E25.71062
G1 F1800 X172.974 Y152.822 E26.03732
G0 F9000 X172.974 Y152.114
G1 F1800 X167.866 Y147.006 E26.33765
G0 F9000 X168.902 Y147.335
G1 F1800 X172.974 Y151.407 E26.57707
G0 F9000 X172.974 Y150.700
G1 F1800 X170.575 Y148.301 E26.71812
G1 F2400 E26.11812
G1 Z0.700
G0 F9000 X172.249 Y149.268
G1 Z0.200
G1 F2400 E26.71812
G1 F1800 X172.974 Y149.993 E26.76075
;LAYER:1
M106 S10
G1 F2400 E26.16075
G1 Z0.700
G0 F9000 X157.550 Y149.585 Z0.400
;TYPE:WALL-INNER
G1 Z0.400
G1 F2400 E26.76075
G1 F1980 X157.550 Y155.415 E27.00313
G1 X152.500 Y158.330 E27.24556
G1 X147.450 Y155.415 E27.48798
G1 X147.450 Y149.585 E27.73036
G1 X152.500 Y146.670 E27.97278
G1 X157.550 Y149.585 E28.21520
G1 F2400 E27.61520
G1 Z0.900
G0 F9000 X154.786 Y151.364
G1 Z0.400
G1 F2400 E28.21520
G1 F1980 X154.523 Y150.943 E28.23584
G1 X154.184 Y150.583 E28.25640
G1 X153.781 Y150.292 E28.27707
G1 X153.333 Y150.088 E28.29753
G1 X152.880 Y149.977 E28.31692
G1 X152.523 Y149.949 E28.33181
G1 X152.182 Y149.968 E28.34601
G1 X151.725 Y150.068 E28.36546
G1 X151.290 Y150.255 E28.38515
G1 X151.111 Y150.360 E28.39377
G1 X150.643 Y150.751 E28.41913
G1 X150.501 Y150.915 E28.42815
G1 X150.246 Y151.304 E28.44748
G1 X150.096 Y151.645 E28.46297
G1 X149.962 Y152.224 E28.48768
G1 X149.949 Y152.625 E28.50436
G1 X150.055 Y153.241 E28.53035
G1 X150.243 Y153.691 E28.55062
G1 X150.534 Y154.124 E28.57231
G1 X150.759 Y154.366 E28.58605
G1 X151.151 Y154.669 E28.60665
G1 X151.723 Y154.932 E28.63282
G1 X152.068 Y155.013 E28.64756
G1 X152.366 Y155.046 E28.66002
G1 X152.582 Y155.050 E28.66900
G1 X153.054 Y154.993 E28.68877
G1 X153.523 Y154.838 E28.70931
G1 X153.967 Y154.591 E28.73043
G1 X154.439 Y154.162 E28.75695
G1 X154.728 Y153.745 E28.77804
G1 X154.921 Y153.303 E28.79809
G1 X155.006 Y152.975 E28.81218
G1 X155.045 Y152.673 E28.82484
G1 X155.050 Y152.443 E28.83440
G1 X154.966 Y151.838 E28.85980
G1 X154.786 Y151.364 E28.88088
G0 F9000 X154.336 Y151.587
;TYPE:WALL-OUTER
G1 F1980 X154.125 Y151.250 E28.89741
G1 X153.853 Y150.960 E28.91394
G1 X153.529 Y150.727 E28.93053
G1 X153.168 Y150.563 E28.94702
G1 X152.801 Y150.472 E28.96274
G1 X152.518 Y150.450 E28.97454
G1 X152.249 Y150.465 E28.98574
G1 X151.878 Y150.546 E29.00153
G1 X151.516 Y150.702 E29.01791
G1 X151.399 Y150.771 E29.02356
G1 X150.995 Y151.108 E29.04543
G1 X150.687 Y151.543 E29.06759
G1 X150.573 Y151.803 E29.07940
G1 X150.460 Y152.289 E29.10014
G1 X150.450 Y152.590 E29.11266
G1 X150.538 Y153.100 E29.13418
G1 X150.689 Y153.462 E29.15049
G1 X150.825 Y153.681 E29.16120
G1 X150.917 Y153.801 E29.16749
G1 X151.097 Y153.995 E29.17849
G1 X151.412 Y154.238 E29.19503
G1 X151.887 Y154.457 E29.21678
G1 X152.153 Y154.520 E29.22814
G1 X152.397 Y154.547 E29.23835
G1 X152.556 Y154.549 E29.24496
G1 X152.945 Y154.502 E29.26125
G1 X153.322 Y154.378 E29.27775
G1 X153.674 Y154.182 E29.29450
G1 X154.060 Y153.831 E29.31619
G1 X154.289 Y153.500 E29.33293
G1 X154.447 Y153.140 E29.34927
G1 X154.514 Y152.880 E29.36043
G1 X154.546 Y152.635 E29.37071
G1 X154.549 Y152.472 E29.37748
G1 X154.479 Y151.963 E29.39885
G1 X154.336 Y151.587 E29.41557
G1 F2400 E28.81557
G1 Z0.900
G0 F9000 X158.050 Y149.297
G1 Z0.400
G1 F2400 E29.41557
G1 F1980 X158.050 Y155.703 E29.68190
G1 X152.500 Y158.908 E29.94835
G1 X146.950 Y155.703 E30.21481
G1 X146.950 Y149.297 E30.48114
G1 X152.500 Y146.092 E30.74759
G1 X158.050 Y149.297 E31.01404
G0 F9000 X157.374 Y149.863
;TYPE:SKIN
G1 F1980 X155.173 Y152.064 E31.14345
G0 F9000 X155.026 Y151.504
G1 F1980 X157.038 Y149.492 E31.26175
G0 F9000 X156.590 Y149.233
G1 F1980 X154.787 Y151.036 E31.36776
G0 F9000 X154.478 Y150.638
G1 F1980 X156.141 Y148.974 E31.46557
G0 F9000 X155.693 Y148.715
G1 F1980 X154.101 Y150.308 E31.55920
G0 F9000 X153.657 Y150.044
G1 F1980 X155.245 Y148.457 E31.65254
G0 F9000 X154.796 Y148.198
G1 F1980 X153.134 Y149.860 E31.75026
G0 F9000 X152.514 Y149.773
G1 F1980 X154.348 Y147.939 E31.85809
G0 F9000 X153.900 Y147.680
G1 F1980 X151.682 Y149.898 E31.98850
G1 F2400 E31.38850
G1 Z0.900
G0 F9000 X151.036 Y147.716
G1 Z0.400
G1 F2400 E31.98850
G1 F1980 X147.624 Y151.127 E32.18908
G0 F9000 X147.624 Y151.834
G1 F1980 X152.555 Y146.904 E32.47898
G0 F9000 X153.003 Y147.163
G1 F1980 X147.624 Y152.542 E32.79524
G0 F9000 X147.624 Y153.249
G1 F1980 X153.452 Y147.421 E33.13791
G1 F2400 E32.53791
G1 Z0.900
G0 F9000 X149.362 Y148.682
G1 Z0.400
G1 F2400 E33.13791
G1 F1980 X147.624 Y150.420 E33.24009
G1 F2400 E32.64009
G1 Z0.900
G0 F9000 X149.909 Y151.671
G1 Z0.400
G1 F2400 E33.24009
G1 F1980 X147.624 Y153.956 E33.37444
G0 F9000 X147.624 Y154.663
G1 F1980 X149.776 Y152.511 E33.50097
G0 F9000 X149.859 Y153.135
G1 F1980 X147.660 Y155.334 E33.63027
G0 F9000 X148.109 Y155.593
G1 F1980 X150.040 Y153.661 E33.74383
G0 F9000 X150.307 Y154.101
G1 F1980 X148.557 Y155.851 E33.84672
G0 F9000 X149.005 Y156.110
G1 F1980 X150.631 Y154.485 E33.94230
G0 F9000 X151.029 Y154.794
G1 F1980 X149.454 Y156.369 E34.03490
G0 F9000 X149.902 Y156.628
G1 F1980 X151.506 Y155.024 E34.12921
G0 F9000 X152.051 Y155.185
G1 F1980 X150.350 Y156.887 E34.22925
G0 F9000 X150.799 Y157.145
G1 F1980 X152.738 Y155.206 E34.34326
G0 F9000 X153.730 Y154.921
G1 F1980 X151.247 Y157.404 E34.48925
G0 F9000 X151.695 Y157.663
G1 F1980 X157.374 Y151.984 E34.82315
G0 F9000 X157.374 Y152.691
G1 F1980 X152.143 Y157.922 E35.13071
G0 F9000 X152.844 Y157.928
G1 F1980 X157.374 Y153.399 E35.39703
G0 F9000 X157.374 Y154.106
G1 F1980 X154.518 Y156.962 E35.56495
G1 F2400 E34.96495
G1 Z0.900
G0 F9000 X156.192 Y155.995
G1 Z0.400
G1 F2400 E35.56495
G1 F1980 X157.374 Y154.813 E35.63445
G1 F2400 E35.03445
G1 Z0.900
G0 F9000 X154.924 Y153.727
G1 Z0.400
G1 F2400 E35.63445
G1 F1980 X157.374 Y151.277 E35.77850
G0 F9000 X157.374 Y150.570
G1 F1980 X155.214 Y152.730 E35.90550
G1 F2400 E35.30550
G1 Z0.900
G0 F9000 X163.050 Y155.415
;TYPE:WALL-INNER
G1 Z0.400
G1 F2400 E35.90550
G1 F1980 X163.050 Y149.585 E36.14788
G1 X168.100 Y146.670 E36.39031
G1 X173.150 Y149.585 E36.63273
G1 X173.150 Y155.415 E36.87511
G1 X168.100 Y158.330 E37.11753
G1 X163.050 Y155.415 E37.35996
G1 F2400 E36.75996
G1 Z0.900
G0 F9000 X165.842 Y153.691
G1 Z0.400
G1 F2400 E37.35996
G1 F1980 X166.133 Y154.124 E37.38164
G1 X166.358 Y154.366 E37.39538
G1 X166.750 Y154.669 E37.41598
G1 X167.322 Y154.932 E37.44216
G1 X167.667 Y155.013 E37.45689
G1 X167.965 Y155.046 E37.46935
G1 X168.183 Y155.050 E37.47842
G1 X168.654 Y154.993 E37.49814
G1 X169.123 Y154.838 E37.51868
G1 X169.567 Y154.591 E37.53980
G1 X170.039 Y154.162 E37.56632
G1 X170.328 Y153.745 E37.58741
G1 X170.521 Y153.303 E37.60747
G1 X170.606 Y152.975 E37.62155
G1 X170.645 Y152.673 E37.63421
G1 X170.650 Y152.443 E37.64378
G1 X170.566 Y151.838 E37.66917
G1 X170.386 Y151.364 E37.69025
G1 X170.123 Y150.943 E37.71089
G1 X169.784 Y150.583 E37.73145
G1 X169.381 Y150.292 E37.75211
G1 X168.933 Y150.088 E37.77258
G1 X168.480 Y149.977 E37.79197
G1 X168.122 Y149.949 E37.80690
G1 X167.781 Y149.968 E37.82110
G1 X167.324 Y150.068 E37.84055
G1 X166.889 Y150.255 E37.86023
G1 X166.710 Y150.360 E37.86886
G1 X166.242 Y150.751 E37.89422
G1 X166.100 Y150.915 E37.90324
G1 X165.845 Y151.304 E37.92257
G1 X165.695 Y151.645 E37.93806
G1 X165.561 Y152.224 E37.96277
G1 X165.548 Y152.625 E37.97945
G1 X165.654 Y153.241 E38.00544
G1 X165.842 Y153.691 E38.02571
G0 F9000 X166.424 Y153.681
;TYPE:WALL-OUTER
G1 F1980 X166.516 Y153.801 E38.03200
G1 X166.696 Y153.995 E38.04300
G1 X167.011 Y154.238 E38.05954
G1 X167.486 Y154.457 E38.08129
G1 X167.752 Y154.520 E38.09265
G1 X167.996 Y154.547 E38.10286
G1 X168.156 Y154.549 E38.10951
G1 X168.545 Y154.502 E38.12580
G1 X168.922 Y154.378 E38.14230
G1 X169.274 Y154.182 E38.15905
G1 X169.660 Y153.831 E38.18074
G1 X169.889 Y153.500 E38.19748
G1 X170.047 Y153.140 E38.21382
G1 X170.114 Y152.880 E38.22498
G1 X170.146 Y152.635 E38.23526
G1 X170.149 Y152.472 E38.24204
G1 X170.079 Y151.963 E38.26340
G1 X169.936 Y151.587 E38.28012
G1 X169.725 Y151.250 E38.29665
G1 X169.453 Y150.960 E38.31318
G1 X169.129 Y150.727 E38.32977
G1 X168.768 Y150.563 E38.34626
G1 X168.401 Y150.472 E38.36198
G1 X168.117 Y150.450 E38.37382
G1 X167.848 Y150.465 E38.38502
G1 X167.477 Y150.546 E38.40081
G1 X167.115 Y150.702 E38.41720
G1 X166.998 Y150.771 E38.42285
G1 X166.594 Y151.108 E38.44472
G1 X166.286 Y151.543 E38.46688
G1 X166.172 Y151.803 E38.47868
G1 X166.059 Y152.289 E38.49942
G1 X166.049 Y152.590 E38.51195
G1 X166.137 Y153.100 E38.53346
G1 X166.288 Y153.462 E38.54977
G1 X166.424 Y153.681 E38.56049
G1 F2400 E37.96049
G1 Z0.900
G0 F9000 X162.550 Y155.703
G1 Z0.400
G1 F2400 E38.56049
G1 F1980 X162.550 Y149.297 E38.82682
G1 X168.100 Y146.092 E39.09327
G1 X173.650 Y149.297 E39.35972
G1 X173.650 Y155.703 E39.62605
G1 X168.100 Y158.908 E39.89251
G1 X162.550 Y155.703 E40.15896
G0 F9000 X163.232 Y155.318
;TYPE:SKIN
G1 F1980 X165.450 Y153.100 E40.28937
G0 F9000 X165.626 Y153.632
G1 F1980 X163.681 Y155.577 E40.40373
G0 F9000 X164.129 Y155.836
G1 F1980 X165.888 Y154.077 E40.50715
G0 F9000 X166.208 Y154.463
G1 F1980 X164.577 Y156.095 E40.60308
G0 F9000 X165.025 Y156.354
G1 F1980 X166.603 Y154.776 E40.69586
G0 F9000 X167.075 Y155.011
G1 F1980 X165.474 Y156.612 E40.78999
G0 F9000 X165.922 Y156.871
G1 F1980 X167.614 Y155.179 E40.88947
G0 F9000 X168.288 Y155.212
G1 F1980 X166.370 Y157.130 E41.00224
G0 F9000 X166.819 Y157.389
G1 F1980 X169.233 Y154.975 E41.14418
G1 F2400 E40.54418
G1 Z0.900
G0 F9000 X170.558 Y153.650
G1 Z0.400
G1 F2400 E41.14418
G1 F1980 X172.973 Y151.234 E41.28620
G0 F9000 X172.973 Y151.941
G1 F1980 X167.267 Y157.648 E41.62172
G0 F9000 X167.715 Y157.906
G1 F1980 X172.973 Y152.648 E41.93087
G0 F9000 X172.973 Y153.355
G1 F1980 X168.340 Y157.989 E42.20330
G1 F2400 E41.60330
G1 Z0.900
G0 F9000 X170.013 Y157.022
G1 Z0.400
G1 F2400 E42.20330
G1 F1980 X172.973 Y154.063 E42.37731
G0 F9000 X172.973 Y154.770
G1 F1980 X171.688 Y156.055 E42.45286
G1 F2400 E41.85286
G1 Z0.900
G0 F9000 X170.820 Y152.681
G1 Z0.400
G1 F2400 E42.45286
G1 F1980 X172.973 Y150.527 E42.57948
G0 F9000 X172.973 Y149.820
G1 F1980 X170.769 Y152.025 E42.70910
G0 F9000 X170.614 Y151.472
G1 F1980 X172.611 Y149.476 E42.82648
G0 F9000 X172.162 Y149.217
G1 F1980 X170.370 Y151.009 E42.93185
G0 F9000 X170.056 Y150.616
G1 F1980 X171.714 Y148.958 E43.02933
G0 F9000 X171.266 Y148.699
G1 F1980 X169.675 Y150.289 E43.12285
G0 F9000 X169.227 Y150.031
G1 F1980 X170.817 Y148.440 E43.21636
G0 F9000 X170.369 Y148.182
G1 F1980 X168.700 Y149.851 E43.31449
G0 F9000 X168.067 Y149.776
G1 F1980 X169.921 Y147.923 E43.42347
G0 F9000 X169.472 Y147.664
G1 F1980 X167.210 Y149.927 E43.55650
G1 F2400 E42.95650
G1 Z0.900
G0 F9000 X166.532 Y147.776
G1 Z0.400
G1 F2400 E43.55650
G1 F1980 X163.224 Y151.084 E43.75099
G0 F9000 X163.224 Y151.791
G1 F1980 X168.128 Y146.887 E44.03933
G0 F9000 X168.576 Y147.146
G1 F1980 X163.224 Y152.498 E44.35401
G0 F9000 X163.224 Y153.205
G1 F1980 X169.024 Y147.405 E44.69503
G1 F2400 E44.09503
G1 Z0.900
G0 F9000 X164.858 Y148.743
G1 Z0.400
G1 F2400 E44.69503
G1 F1980 X163.224 Y150.377 E44.79110
G1 F2400 E44.19110
G1 Z0.900
G0 F9000 X165.520 Y151.617
G1 Z0.400
G1 F2400 E44.79110
G1 F1980 X163.224 Y153.913 E44.92609
G0 F9000 X163.224 Y154.620
G1 F1980 X165.376 Y152.467 E45.05265
;LAYER:2
M106 S20
G1 F2400 E44.45265
G1 Z0.900
G0 F9000 X157.550 Y149.585 Z0.600
;TYPE:WALL-INNER
G1 Z0.600
G1 F2400 E45.05265
G1 F2220 X157.550 Y155.415 E45.29504
G1 X152.500 Y158.330 E45.53746
G1 X147.450 Y155.415 E45.77988
G1 X147.450 Y149.585 E46.02226
G1 X152.500 Y146.670 E46.26469
G1 X157.550 Y149.585 E46.50711
G1 F2400 E45.90711
G1 Z1.100
G0 F9000 X154.770 Y151.332
G1 Z0.600
G1 F2400 E46.50711
G1 F2220 X154.437 Y150.835 E46.53198
G1 X154.057 Y150.480 E46.55360
G1 X153.762 Y150.282 E46.56837
G1 X153.338 Y150.088 E46.58776
G1 X152.738 Y149.959 E46.61327
G1 X152.496 Y149.950 E46.62334
G1 X152.169 Y149.970 E46.63696
G1 X151.712 Y150.071 E46.65642
G1 X151.135 Y150.342 E46.68292
G1 X150.839 Y150.564 E46.69830
G1 X150.500 Y150.913 E46.71853
G1 X150.225 Y151.343 E46.73975
G1 X150.046 Y151.797 E46.76004
G1 X149.960 Y152.262 E46.77970
G1 X149.949 Y152.600 E46.79376
G1 X150.020 Y153.110 E46.81517
G1 X150.249 Y153.709 E46.84183
G1 X150.623 Y154.230 E46.86849
G1 X150.878 Y154.469 E46.88302
G1 X151.302 Y154.756 E46.90431
G1 X151.893 Y154.979 E46.93057
G1 X152.214 Y155.035 E46.94412
G1 X152.566 Y155.052 E46.95877
G1 X153.182 Y154.962 E46.98465
G1 X153.658 Y154.776 E47.00590
G1 X154.085 Y154.498 E47.02708
G1 X154.340 Y154.270 E47.04131
G1 X154.721 Y153.756 E47.06791
G1 X154.926 Y153.290 E47.08907
G1 X155.029 Y152.839 E47.10831
G1 X155.051 Y152.457 E47.12421
G1 X155.000 Y151.986 E47.14391
G1 X154.907 Y151.656 E47.15816
G1 X154.770 Y151.332 E47.17279
G0 F9000 X154.434 Y151.822
;TYPE:WALL-OUTER
G1 F2220 X154.328 Y151.571 E47.18412
G1 X154.054 Y151.161 E47.20462
G1 X153.745 Y150.873 E47.22218
G1 X153.517 Y150.720 E47.23360
G1 X153.179 Y150.565 E47.24906
G1 X152.676 Y150.457 E47.27044
G1 X152.502 Y150.451 E47.27768
G1 X152.238 Y150.467 E47.28868
G1 X151.874 Y150.547 E47.30417
G1 X151.394 Y150.773 E47.32623
G1 X151.170 Y150.941 E47.33787
G1 X150.894 Y151.225 E47.35434
G1 X150.672 Y151.572 E47.37146
G1 X150.529 Y151.936 E47.38772
G1 X150.459 Y152.315 E47.40375
G1 X150.450 Y152.573 E47.41448
G1 X150.507 Y152.985 E47.43177
G1 X150.693 Y153.470 E47.45337
G1 X151.000 Y153.899 E47.47530
G1 X151.191 Y154.077 E47.48615
G1 X151.533 Y154.309 E47.50333
G1 X152.026 Y154.494 E47.52523
G1 X152.269 Y154.537 E47.53549
G1 X152.541 Y154.550 E47.54681
G1 X153.053 Y154.475 E47.56832
G1 X153.429 Y154.329 E47.58509
G1 X153.780 Y154.100 E47.60252
G1 X153.969 Y153.931 E47.61306
G1 X154.290 Y153.498 E47.63547
G1 X154.446 Y153.145 E47.65151
G1 X154.532 Y152.768 E47.66759
G1 X154.550 Y152.470 E47.68000
G1 X154.507 Y152.081 E47.69627
G1 X154.434 Y151.822 E47.70746
G1 F2400 E47.10746
G1 Z1.100
G0 F9000 X158.050 Y149.297
G1 Z0.600
G1 F2400 E47.70746
G1 F2220 X158.050 Y155.703 E47.97379
G1 X152.500 Y158.908 E48.24024
G1 X146.950 Y155.703 E48.50669
G1 X146.950 Y149.297 E48.77302
G1 X152.500 Y146.092 E49.03948
G1 X158.050 Y149.297 E49.30593
G0 F9000 X157.374 Y149.949
;TYPE:SKIN
G1 F2220 X156.752 Y149.327 E49.34250
G0 F9000 X157.374 Y150.656
G1 F2220 X155.079 Y148.361 E49.47744
G1 F2400 E48.87744
G1 Z1.100
G0 F9000 X153.406 Y147.395
G1 Z0.600
G1 F2400 E49.47744
G1 F2220 X157.374 Y151.363 E49.71074
G0 F9000 X157.374 Y152.071
G1 F2220 X152.293 Y146.990 E50.00949
G0 F9000 X151.845 Y147.249
G1 F2220 X157.374 Y152.778 E50.33457
G0 F9000 X157.374 Y153.485
G1 F2220 X151.397 Y147.508 E50.68599
G0 F9000 X150.948 Y147.766
G1 F2220 X153.022 Y149.840 E50.80794
G0 F9000 X152.264 Y149.789
G1 F2220 X150.501 Y148.026 E50.91159
G0 F9000 X150.053 Y148.285
G1 F2220 X151.668 Y149.900 E51.00655
G0 F9000 X151.185 Y150.125
G1 F2220 X149.604 Y148.544 E51.09951
G0 F9000 X149.156 Y148.802
G1 F2220 X150.757 Y150.404 E51.19367
G0 F9000 X150.405 Y150.759
G1 F2220 X148.708 Y149.061 E51.29348
G0 F9000 X148.259 Y149.320
G1 F2220 X150.120 Y151.180 E51.40287
G0 F9000 X149.907 Y151.675
G1 F2220 X147.811 Y149.579 E51.52610
G0 F9000 X147.624 Y150.099
G1 F2220 X149.786 Y152.261 E51.65322
G0 F9000 X149.829 Y153.011
G1 F2220 X147.624 Y150.806 E51.78287
G0 F9000 X147.624 Y151.513
G1 F2220 X153.601 Y157.491 E52.13432
G0 F9000 X153.153 Y157.749
G1 F2220 X147.624 Y152.220 E52.45940
G0 F9000 X147.624 Y152.928
G1 F2220 X152.705 Y158.008 E52.75812
G0 F9000 X151.593 Y157.603
G1 F2220 X147.624 Y153.635 E52.99145
G0 F9000 X147.624 Y154.342
G1 F2220 X149.920 Y156.637 E53.12642
G1 F2400 E52.52642
G1 Z1.100
G0 F9000 X148.247 Y155.671
G1 Z0.600
G1 F2400 E53.12642
G1 F2220 X147.624 Y155.049 E53.16302
G1 F2400 E52.56302
G1 Z1.100
G0 F9000 X151.991 Y155.173
G1 Z0.600
G1 F2400 E53.16302
G1 F2220 X154.050 Y157.232 E53.28408
G0 F9000 X154.497 Y156.972
G1 F2220 X152.730 Y155.204 E53.38800
G0 F9000 X153.325 Y155.093
G1 F2220 X154.946 Y156.713 E53.48328
G0 F9000 X155.394 Y156.455
G1 F2220 X153.819 Y154.879 E53.57591
G0 F9000 X154.240 Y154.594
G1 F2220 X155.842 Y156.196 E53.67011
G0 F9000 X156.291 Y155.937
G1 F2220 X154.585 Y154.232 E53.77038
G0 F9000 X154.881 Y153.821
G1 F2220 X156.739 Y155.678 E53.87960
G0 F9000 X157.187 Y155.419
G1 F2220 X155.095 Y153.327 E54.00260
G0 F9000 X155.209 Y152.734
G1 F2220 X157.374 Y154.899 E54.12989
G0 F9000 X157.374 Y154.192
G1 F2220 X155.175 Y151.993 E54.25918
G1 F2400 E53.65918
G1 Z1.100
G0 F9000 X163.050 Y149.585
;TYPE:WALL-INNER
G1 Z0.600
G1 F2400 E54.25918
G1 F2220 X168.100 Y146.670 E54.50161
G1 X173.150 Y149.585 E54.74403
G1 X173.150 Y155.415 E54.98641
G1 X168.100 Y158.330 E55.22883
G1 X163.050 Y155.415 E55.47125
G1 X163.050 Y149.585 E55.71364
G1 F2400 E55.11364
G1 Z1.100
G0 F9000 X165.824 Y151.343
G1 Z0.600
G1 F2400 E55.71364
G1 F2220 X165.645 Y151.797 E55.73393
G1 X165.559 Y152.262 E55.75359
G1 X165.548 Y152.600 E55.76765
G1 X165.619 Y153.110 E55.78906
G1 X165.848 Y153.709 E55.81572
G1 X166.222 Y154.230 E55.84238
G1 X166.477 Y154.470 E55.85694
G1 X166.910 Y154.761 E55.87863
G1 X167.601 Y155.003 E55.90907
G1 X167.823 Y155.035 E55.91839
G1 X168.166 Y155.052 E55.93267
G1 X168.782 Y154.962 E55.95855
G1 X169.258 Y154.776 E55.97980
G1 X169.685 Y154.498 E56.00098
G1 X169.940 Y154.270 E56.01520
G1 X170.321 Y153.756 E56.04181
G1 X170.526 Y153.290 E56.06297
G1 X170.629 Y152.839 E56.08220
G1 X170.651 Y152.457 E56.09811
G1 X170.600 Y151.986 E56.11781
G1 X170.507 Y151.656 E56.13206
G1 X170.370 Y151.332 E56.14669
G1 X170.037 Y150.835 E56.17156
G1 X169.657 Y150.480 E56.19318
G1 X169.362 Y150.282 E56.20795
G1 X168.938 Y150.088 E56.22734
G1 X168.338 Y149.959 E56.25285
G1 X168.095 Y149.950 E56.26296
G1 X167.768 Y149.970 E56.27658
G1 X167.311 Y150.071 E56.29604
G1 X166.734 Y150.342 E56.32254
G1 X166.438 Y150.564 E56.33793
G1 X166.099 Y150.913 E56.35815
G1 X165.824 Y151.343 E56.37937
G0 F9000 X166.271 Y151.572
;TYPE:WALL-OUTER
G1 F2220 X166.128 Y151.936 E56.39563
G1 X166.058 Y152.315 E56.41166
G1 X166.049 Y152.573 E56.42239
G1 X166.106 Y152.985 E56.43968
G1 X166.292 Y153.470 E56.46128
G1 X166.599 Y153.899 E56.48321
G1 X166.790 Y154.077 E56.49407
G1 X167.136 Y154.310 E56.51141
G1 X167.721 Y154.515 E56.53718
G1 X168.141 Y154.550 E56.55470
G1 X168.653 Y154.475 E56.57622
G1 X169.029 Y154.329 E56.59298
G1 X169.380 Y154.100 E56.61041
G1 X169.569 Y153.931 E56.62095
G1 X169.890 Y153.498 E56.64336
G1 X170.046 Y153.145 E56.65940
G1 X170.132 Y152.768 E56.67548
G1 X170.150 Y152.470 E56.68789
G1 X170.107 Y152.081 E56.70416
G1 X170.034 Y151.822 E56.71535
G1 X169.928 Y151.571 E56.72668
G1 X169.654 Y151.161 E56.74718
G1 X169.345 Y150.873 E56.76474
G1 X169.117 Y150.720 E56.77616
G1 X168.779 Y150.565 E56.79162
G1 X168.276 Y150.457 E56.81301
G1 X168.101 Y150.451 E56.82029
G1 X167.837 Y150.467 E56.83128
G1 X167.473 Y150.547 E56.84678
G1 X166.993 Y150.773 E56.86883
G1 X166.769 Y150.941 E56.88048
G1 X166.493 Y151.225 E56.89694
G1 X166.271 Y151.572 E56.91407
G1 F2400 E56.31407
G1 Z1.100
G0 F9000 X162.550 Y149.297
G1 Z0.600
G1 F2400 E56.91407
G1 F2220 X168.100 Y146.092 E57.18052
G1 X173.650 Y149.297 E57.44697
G1 X173.650 Y155.703 E57.71330
G1 X168.100 Y158.908 E57.97976
G1 X162.550 Y155.703 E58.24621
G1 X162.550 Y149.297 E58.51254
G0 F9000 X163.384 Y149.595
;TYPE:SKIN
G1 F2220 X165.493 Y151.704 E58.63654
G0 F9000 X165.702 Y151.207
G1 F2220 X163.832 Y149.336 E58.74652
G0 F9000 X164.280 Y149.077
G1 F2220 X165.983 Y150.780 E58.84665
G0 F9000 X166.332 Y150.422
G1 F2220 X164.729 Y148.819 E58.94090
G0 F9000 X165.177 Y148.560
G1 F2220 X166.755 Y150.138 E59.03368
G0 F9000 X167.236 Y149.912
G1 F2220 X165.625 Y148.301 E59.12840
G0 F9000 X166.073 Y148.041
G1 F2220 X167.822 Y149.791 E59.23126
G0 F9000 X168.567 Y149.828
G1 F2220 X166.521 Y147.783 E59.35153
G0 F9000 X166.969 Y147.524
G1 F2220 X170.106 Y150.661 E59.53597
G0 F9000 X170.179 Y150.733
G1 F2220 X172.974 Y153.529 E59.70034
G0 F9000 X172.974 Y154.236
G1 F2220 X170.780 Y152.042 E59.82934
G0 F9000 X170.806 Y152.775
G1 F2220 X172.974 Y154.943 E59.95681
G0 F9000 X172.760 Y155.436
G1 F2220 X170.684 Y153.360 E60.07887
G0 F9000 X170.467 Y153.850
G1 F2220 X172.312 Y155.695 E60.18735
G0 F9000 X171.863 Y155.953
G1 F2220 X170.166 Y154.256 E60.28712
G0 F9000 X169.817 Y154.614
G1 F2220 X171.415 Y156.212 E60.38108
G0 F9000 X170.967 Y156.471
G1 F2220 X169.393 Y154.897 E60.47363
G0 F9000 X168.893 Y155.105
G1 F2220 X170.518 Y156.730 E60.56917
G0 F9000 X170.070 Y156.989
G1 F2220 X168.292 Y155.211 E60.67371
G0 F9000 X167.543 Y155.168
G1 F2220 X169.622 Y157.247 E60.79595
G0 F9000 X169.174 Y157.507
G1 F2220 X163.224 Y151.557 E61.14578
G0 F9000 X163.224 Y152.264
G1 F2220 X168.726 Y157.766 E61.46928
G0 F9000 X168.277 Y158.024
G1 F2220 X163.224 Y152.971 E61.76638
G0 F9000 X163.224 Y153.678
G1 F2220 X167.092 Y157.546 E61.99380
G1 F2400 E61.39380
G1 Z1.100
G0 F9000 X165.419 Y156.580
G1 Z0.600
G1 F2400 E61.99380
G1 F2220 X163.224 Y154.385 E62.12286
G0 F9000 X163.224 Y155.092
G1 F2220 X163.746 Y155.614 E62.15355
G1 F2400 E61.55355
G1 Z1.100
G0 F9000 X165.433 Y153.059
G1 Z0.600
G1 F2400 E62.15355
G1 F2220 X163.224 Y150.849 E62.28346
G0 F9000 X163.224 Y150.142
G1 F2220 X165.383 Y152.301 E62.41040
G1 F2400 E61.81040
G1 Z1.100
G0 F9000 X167.418 Y147.265
G1 Z0.600
G1 F2400 E62.41040
G1 F2220 X172.974 Y152.822 E62.73710
G0 F9000 X172.974 Y152.114
G1 F2220 X167.866 Y147.006 E63.03743
G0 F9000 X168.902 Y147.335
G1 F2220 X172.974 Y151.407 E63.27685
G0 F9000 X172.974 Y150.700
G1 F2220 X170.575 Y148.301 E63.41790
G1 F2400 E62.81790
G1 Z1.100
G0 F9000 X172.249 Y149.268
G1 Z0.600
G1 F2400 E63.41790
G1 F2220 X172.974 Y149.993 E63.46053
;LAYER:3
M106 S30
G1 F2400 E62.86053
G1 Z1.100
G0 F9000 X157.550 Y149.585 Z0.800
;TYPE:WALL-INNER
G1 Z0.800
G1 F2400 E63.46053
G1 X157.550 Y155.415 E63.70291
G1 X152.500 Y158.330 E63.94534
G1 X147.450 Y155.415 E64.18776
G1 X147.450 Y149.585 E64.43014
G1 X152.500 Y146.670 E64.67256
G1 X157.550 Y149.585 E64.91498
G1 F2400 E64.31498
G1 Z1.300
G0 F9000 X154.548 Y150.975
G1 Z0.800
G1 F2400 E64.91498
G1 X154.280 Y150.673 E64.93177
G1 X153.956 Y150.406 E64.94923
G1 X153.787 Y150.298 E64.95756
G1 X153.489 Y150.148 E64.97143
G1 X153.005 Y150.000 E64.99248
G1 X152.710 Y149.958 E65.00487
G1 X152.462 Y149.949 E65.01518
G1 X151.920 Y150.016 E65.03789
G1 X151.690 Y150.080 E65.04781
G1 X151.120 Y150.350 E65.07404
G1 X150.719 Y150.670 E65.09536
G1 X150.404 Y151.041 E65.11560
G1 X150.105 Y151.618 E65.14262
G1 X150.004 Y151.978 E65.15816
G1 X149.959 Y152.281 E65.17090
G1 X149.950 Y152.590 E65.18375
G1 X149.986 Y152.937 E65.19825
G1 X150.072 Y153.287 E65.21324
G1 X150.251 Y153.705 E65.23214
G1 X150.429 Y153.988 E65.24604
G1 X150.518 Y154.104 E65.25212
G1 X150.862 Y154.458 E65.27264
G1 X151.276 Y154.740 E65.29347
G1 X151.727 Y154.933 E65.31386
G1 X152.200 Y155.034 E65.33397
G1 X152.570 Y155.052 E65.34937
G1 X153.210 Y154.952 E65.37630
G1 X153.507 Y154.843 E65.38946
G1 X153.798 Y154.696 E65.40301
G1 X154.082 Y154.502 E65.41731
G1 X154.433 Y154.168 E65.43746
G1 X154.718 Y153.764 E65.45801
G1 X154.917 Y153.319 E65.47828
G1 X155.009 Y152.952 E65.49401
G1 X155.045 Y152.671 E65.50579
G1 X155.050 Y152.429 E65.51585
G1 X154.995 Y151.963 E65.53536
G1 X154.857 Y151.518 E65.55473
G1 X154.548 Y150.975 E65.58070
G0 F9000 X153.932 Y151.034
;TYPE:WALL-OUTER
G1 F2400 X153.662 Y150.811 E65.59526
G1 X153.302 Y150.613 E65.61234
G1 X152.896 Y150.489 E65.62999
G1 X152.667 Y150.457 E65.63960
G1 X152.484 Y150.450 E65.64722
G1 X152.019 Y150.507 E65.66670
G1 X151.867 Y150.550 E65.67326
G1 X151.387 Y150.777 E65.69534
G1 X151.069 Y151.031 E65.71226
G1 X150.822 Y151.322 E65.72813
G1 X150.572 Y151.803 E65.75067
G1 X150.494 Y152.083 E65.76275
G1 X150.458 Y152.326 E65.77296
G1 X150.451 Y152.571 E65.78315
G1 X150.480 Y152.851 E65.79486
G1 X150.548 Y153.128 E65.80671
G1 X150.696 Y153.472 E65.82228
G1 X150.897 Y153.776 E65.83744
G1 X151.185 Y154.073 E65.85464
G1 X151.517 Y154.299 E65.87133
G1 X151.879 Y154.454 E65.88770
G1 X152.265 Y154.537 E65.90412
G1 X152.543 Y154.550 E65.91569
G1 X153.085 Y154.465 E65.93850
G1 X153.308 Y154.384 E65.94836
G1 X153.543 Y154.265 E65.95931
G1 X153.767 Y154.112 E65.97059
G1 X154.052 Y153.840 E65.98697
G1 X154.281 Y153.515 E66.00350
G1 X154.443 Y153.154 E66.01995
G1 X154.517 Y152.859 E66.03260
G1 X154.546 Y152.634 E66.04203
G1 X154.549 Y152.454 E66.04951
G1 X154.504 Y152.067 E66.06571
G1 X154.396 Y151.718 E66.08090
G1 X154.139 Y151.268 E66.10244
G1 X153.932 Y151.034 E66.11543
G1 F2400 E65.51543
G1 Z1.300
G0 F9000 X158.050 Y149.297
G1 Z0.800
G1 F2400 E66.11543
G1 X158.050 Y155.703 E66.38176
G1 X152.500 Y158.908 E66.64822
G1 X146.950 Y155.703 E66.91467
G1 X146.950 Y149.297 E67.18100
G1 X152.500 Y146.092 E67.44745
G1 X158.050 Y149.297 E67.71391
G0 F9000 X157.374 Y149.863
;TYPE:SKIN
G1 F2400 X155.183 Y152.054 E67.84273
G0 F9000 X155.033 Y151.497
G1 F2400 X157.038 Y149.492 E67.96061
G0 F9000 X156.590 Y149.233
G1 F2400 X154.784 Y151.038 E68.06677
G0 F9000 X154.480 Y150.635
G1 F2400 X156.141 Y148.974 E68.16443
G0 F9000 X155.693 Y148.715
G1 F2400 X154.105 Y150.304 E68.25783
G0 F9000 X153.662 Y150.040
G1 F2400 X155.245 Y148.457 E68.35090
G0 F9000 X154.796 Y148.198
G1 F2400 X153.136 Y149.858 E68.44850
G0 F9000 X152.512 Y149.775
G1 F2400 X154.348 Y147.939 E68.55645
G0 F9000 X153.900 Y147.680
G1 F2400 X151.679 Y149.901 E68.68704
G1 F2400 E68.08704
G1 Z1.300
G0 F9000 X151.036 Y147.716
G1 Z0.800
G1 F2400 E68.68704
G1 X147.624 Y151.127 E68.88762
G0 F9000 X147.624 Y151.834
G1 F2400 X152.555 Y146.904 E69.17752
G0 F9000 X153.003 Y147.163
G1 F2400 X147.624 Y152.542 E69.49378
G0 F9000 X147.624 Y153.249
G1 F2400 X153.452 Y147.421 E69.83645
G1 F2400 E69.23645
G1 Z1.300
G0 F9000 X149.362 Y148.682
G1 Z0.800
G1 F2400 E69.83645
G1 X147.624 Y150.420 E69.93863
G1 F2400 E69.33863
G1 Z1.300
G0 F9000 X149.906 Y151.674
G1 Z0.800
G1 F2400 E69.93863
G1 X147.624 Y153.956 E70.07281
G0 F9000 X147.624 Y154.663
G1 F2400 X149.777 Y152.510 E70.19940
G0 F9000 X149.855 Y153.140
G1 F2400 X147.660 Y155.334 E70.32842
G0 F9000 X148.109 Y155.593
G1 F2400 X150.040 Y153.661 E70.44199
G0 F9000 X150.301 Y154.107
G1 F2400 X148.557 Y155.851 E70.54453
G0 F9000 X149.005 Y156.110
G1 F2400 X150.637 Y154.478 E70.64048
G0 F9000 X151.035 Y154.787
G1 F2400 X149.454 Y156.369 E70.73347
G0 F9000 X149.902 Y156.628
G1 F2400 X151.503 Y155.026 E70.82763
G0 F9000 X152.056 Y155.181
G1 F2400 X150.350 Y156.887 E70.92794
G0 F9000 X150.799 Y157.145
G1 F2400 X152.743 Y155.201 E71.04224
G0 F9000 X153.722 Y154.929
G1 F2400 X151.247 Y157.404 E71.18776
G0 F9000 X151.695 Y157.663
G1 F2400 X157.374 Y151.984 E71.52166
G0 F9000 X157.374 Y152.691
G1 F2400 X152.143 Y157.922 E71.82923
G0 F9000 X152.844 Y157.928
G1 F2400 X157.374 Y153.399 E72.09554
G0 F9000 X157.374 Y154.106
G1 F2400 X154.518 Y156.962 E72.26346
G1 F2400 E71.66346
G1 Z1.300
G0 F9000 X156.192 Y155.995
G1 Z0.800
G1 F2400 E72.26346
G1 X157.374 Y154.813 E72.33296
G1 F2400 E71.73296
G1 Z1.300
G0 F9000 X154.926 Y153.725
G1 Z0.800
G1 F2400 E72.33296
G1 X157.374 Y151.277 E72.47689
G0 F9000 X157.374 Y150.570
G1 F2400 X155.214 Y152.730 E72.60389
G1 F2400 E72.00389
G1 Z1.300
G0 F9000 X163.050 Y155.415
;TYPE:WALL-INNER
G1 Z0.800
G1 F2400 E72.60389
G1 X163.050 Y149.585 E72.84628
G1 X168.100 Y146.670 E73.08870
G1 X173.150 Y149.585 E73.33112
G1 X173.150 Y155.415 E73.57350
G1 X168.100 Y158.330 E73.81593
G1 X163.050 Y155.415 E74.05835
G1 F2400 E73.45835
G1 Z1.300
G0 F9000 X166.028 Y153.988
G1 Z0.800
G1 F2400 E74.05835
G1 X166.117 Y154.104 E74.06443
G1 X166.461 Y154.458 E74.08495
G1 X166.875 Y154.740 E74.10577
G1 X167.326 Y154.933 E74.12617
G1 X167.799 Y155.034 E74.14628
G1 X168.170 Y155.052 E74.16172
G1 X168.810 Y154.952 E74.18865
G1 X169.107 Y154.843 E74.20180
G1 X169.398 Y154.696 E74.21536
G1 X169.682 Y154.502 E74.22966
G1 X170.033 Y154.168 E74.24980
G1 X170.318 Y153.764 E74.27036
G1 X170.517 Y153.319 E74.29062
G1 X170.609 Y152.952 E74.30635
G1 X170.645 Y152.671 E74.31813
G1 X170.650 Y152.429 E74.32820
G1 X170.595 Y151.963 E74.34770
G1 X170.457 Y151.518 E74.36707
G1 X170.148 Y150.975 E74.39305
G1 X169.880 Y150.673 E74.40984
G1 X169.556 Y150.406 E74.42729
G1 X169.387 Y150.298 E74.43563
G1 X169.089 Y150.148 E74.44950
G1 X168.605 Y150.000 E74.47054
G1 X168.310 Y149.958 E74.48293
G1 X168.061 Y149.949 E74.49329
G1 X167.519 Y150.016 E74.51599
G1 X167.289 Y150.080 E74.52592
G1 X166.719 Y150.350 E74.55214
G1 X166.318 Y150.670 E74.57347
G1 X166.003 Y151.041 E74.59370
G1 X165.704 Y151.618 E74.62072
G1 X165.603 Y151.978 E74.63627
G1 X165.558 Y152.281 E74.64900
G1 X165.549 Y152.590 E74.66186
G1 X165.585 Y152.937 E74.67636
G1 X165.671 Y153.287 E74.69134
G1 X165.850 Y153.705 E74.71025
G1 X166.028 Y153.988 E74.72415
G0 F9000 X166.496 Y153.776
;TYPE:WALL-OUTER
G1 F2400 X166.784 Y154.073 E74.74135
G1 X167.116 Y154.299 E74.75805
G1 X167.478 Y154.454 E74.77442
G1 X167.864 Y154.537 E74.79083
G1 X168.143 Y154.550 E74.80244
G1 X168.685 Y154.465 E74.82525
G1 X168.908 Y154.384 E74.83512
G1 X169.143 Y154.265 E74.84607
G1 X169.367 Y154.112 E74.85735
G1 X169.652 Y153.840 E74.87373
G1 X169.881 Y153.515 E74.89026
G1 X170.043 Y153.154 E74.90671
G1 X170.117 Y152.859 E74.91935
G1 X170.146 Y152.634 E74.92878
G1 X170.149 Y152.454 E74.93627
G1 X170.104 Y152.067 E74.95247
G1 X169.996 Y151.718 E74.96765
G1 X169.739 Y151.268 E74.98920
G1 X169.532 Y151.034 E75.00219
G1 X169.262 Y150.811 E75.01675
G1 X168.902 Y150.613 E75.03383
G1 X168.496 Y150.489 E75.05148
G1 X168.267 Y150.457 E75.06109
G1 X168.083 Y150.450 E75.06875
G1 X167.618 Y150.507 E75.08822
G1 X167.466 Y150.550 E75.09479
G1 X166.986 Y150.777 E75.11687
G1 X166.668 Y151.031 E75.13379
G1 X166.421 Y151.322 E75.14966
G1 X166.171 Y151.803 E75.17219
G1 X166.093 Y152.083 E75.18428
G1 X166.057 Y152.326 E75.19449
G1 X166.050 Y152.571 E75.20468
G1 X166.079 Y152.851 E75.21638
G1 X166.147 Y153.128 E75.22824
G1 X166.295 Y153.472 E75.24381
G1 X166.496 Y153.776 E75.25896
G1 F2400 E74.65896
G1 Z1.300
G0 F9000 X162.550 Y155.703
G1 Z0.800
G1 F2400 E75.25896
G1 X162.550 Y149.297 E75.52529
G1 X168.100 Y146.092 E75.79175
G1 X173.650 Y149.297 E76.05820
G1 X173.650 Y155.703 E76.32453
G1 X168.100 Y158.908 E76.59098
G1 X162.550 Y155.703 E76.85743
G0 F9000 X163.232 Y155.318
;TYPE:SKIN
G1 F2400 X165.445 Y153.106 E76.98752
G0 F9000 X165.627 Y153.631
G1 F2400 X163.681 Y155.577 E77.10194
G0 F9000 X164.129 Y155.836
G1 F2400 X165.881 Y154.084 E77.20495
G0 F9000 X166.215 Y154.457
G1 F2400 X164.577 Y156.095 E77.30126
G0 F9000 X165.025 Y156.354
G1 F2400 X166.609 Y154.770 E77.39439
G0 F9000 X167.072 Y155.014
G1 F2400 X165.474 Y156.612 E77.48835
G0 F9000 X165.922 Y156.871
G1 F2400 X167.619 Y155.174 E77.58812
G0 F9000 X168.291 Y155.209
G1 F2400 X166.370 Y157.130 E77.70107
G0 F9000 X166.819 Y157.389
G1 F2400 X169.233 Y154.974 E77.84304
G1 F2400 E77.24304
G1 Z1.300
G0 F9000 X170.561 Y153.646
G1 Z0.800
G1 F2400 E77.84304
G1 X172.973 Y151.234 E77.98485
G0 F9000 X172.973 Y151.941
G1 F2400 X167.267 Y157.648 E78.32037
G0 F9000 X167.715 Y157.906
G1 F2400 X172.973 Y152.648 E78.62952
G0 F9000 X172.973 Y153.355
G1 F2400 X168.340 Y157.989 E78.90195
G1 F2400 E78.30195
G1 Z1.300
G0 F9000 X170.013 Y157.022
G1 Z0.800
G1 F2400 E78.90195
G1 X172.973 Y154.063 E79.07596
G0 F9000 X172.973 Y154.770
G1 F2400 X171.688 Y156.055 E79.15151
G1 F2400 E78.55151
G1 Z1.300
G0 F9000 X170.819 Y152.682
G1 Z0.800
G1 F2400 E79.15151
G1 X172.973 Y150.527 E79.27819
G0 F9000 X172.973 Y149.820
G1 F2400 X170.778 Y152.015 E79.40725
G0 F9000 X170.623 Y151.463
G1 F2400 X172.611 Y149.476 E79.52411
G0 F9000 X172.162 Y149.217
G1 F2400 X170.369 Y151.010 E79.62953
G0 F9000 X170.060 Y150.612
G1 F2400 X171.714 Y148.958 E79.72678
G0 F9000 X171.266 Y148.699
G1 F2400 X169.681 Y150.284 E79.81997
G0 F9000 X169.233 Y150.025
G1 F2400 X170.817 Y148.440 E79.91313
G0 F9000 X170.369 Y148.182
G1 F2400 X168.703 Y149.847 E80.01106
G0 F9000 X168.070 Y149.774
G1 F2400 X169.921 Y147.923 E80.11989
G0 F9000 X169.472 Y147.664
G1 F2400 X167.215 Y149.921 E80.25259
G1 F2400 E79.65259
G1 Z1.300
G0 F9000 X166.532 Y147.776
G1 Z0.800
G1 F2400 E80.25259
G1 X163.224 Y151.084 E80.44709
G0 F9000 X163.224 Y151.791
G1 F2400 X168.128 Y146.887 E80.73542
G0 F9000 X168.576 Y147.146
G1 F2400 X163.224 Y152.498 E81.05010
G0 F9000 X163.224 Y153.205
G1 F2400 X169.024 Y147.405 E81.39112
G1 F2400 E80.79112
G1 Z1.300
G0 F9000 X164.858 Y148.743
G1 Z0.800
G1 F2400 E81.39112
G1 X163.224 Y150.377 E81.48719
G1 F2400 E80.88719
G1 Z1.300
G0 F9000 X165.520 Y151.616
G1 Z0.800
G1 F2400 E81.48719
G1 X163.224 Y153.913 E81.62222
G0 F9000 X163.224 Y154.620
G1 F2400 X165.376 Y152.467 E81.74878
;LAYER:4
M106 S40
G1 F2400 E81.14878
G1 Z1.300
G0 F9000 X157.550 Y149.585 Z1.000
;TYPE:WALL-INNER
G1 Z1.000
G1 F2400 E81.74878
G1 F2700 X157.550 Y155.415 E81.99116
G1 X152.500 Y158.330 E82.23358
G1 X147.450 Y155.415 E82.47600
G1 X147.450 Y149.585 E82.71839
G1 X152.500 Y146.670 E82.96081
G1 X157.550 Y149.585 E83.20323
G1 F2400 E82.60323
G1 Z1.500
G0 F9000 X154.835 Y151.469
G1 Z1.000
G1 F2400 E83.20323
G1 F2700 X154.542 Y150.965 E83.22747
G1 X154.200 Y150.596 E83.24838
G1 X153.810 Y150.310 E83.26849
G1 X153.504 Y150.155 E83.28275
G1 X153.183 Y150.041 E83.29691
G1 X152.724 Y149.958 E83.31631
G1 X152.438 Y149.949 E83.32820
G1 X151.764 Y150.056 E83.35658
G1 X151.499 Y150.154 E83.36832
G1 X151.129 Y150.348 E83.38569
G1 X150.723 Y150.667 E83.40716
G1 X150.474 Y150.949 E83.42280
G1 X150.156 Y151.484 E83.44867
G1 X149.983 Y152.087 E83.47476
G1 X149.948 Y152.432 E83.48917
G1 X149.996 Y153.006 E83.51312
G1 X150.204 Y153.618 E83.53999
G1 X150.514 Y154.106 E83.56403
G1 X150.893 Y154.484 E83.58628
G1 X151.323 Y154.766 E83.60766
G1 X151.930 Y154.988 E83.63453
G1 X152.356 Y155.046 E83.65241
G1 X152.558 Y155.050 E83.66081
G1 X152.936 Y155.014 E83.67659
G1 X153.348 Y154.906 E83.69430
G1 X153.712 Y154.745 E83.71085
G1 X154.076 Y154.508 E83.72891
G1 X154.445 Y154.157 E83.75008
G1 X154.813 Y153.581 E83.77850
G1 X154.968 Y153.150 E83.79754
G1 X155.044 Y152.687 E83.81705
G1 X155.050 Y152.481 E83.82562
G1 X155.023 Y152.124 E83.84050
G1 X154.983 Y151.921 E83.84910
G1 X154.835 Y151.469 E83.86888
G0 F9000 X154.376 Y151.675
;TYPE:WALL-OUTER
G1 F2700 X154.137 Y151.264 E83.88864
G1 X153.865 Y150.971 E83.90526
G1 X153.547 Y150.737 E83.92168
G1 X153.307 Y150.616 E83.93285
G1 X153.054 Y150.526 E83.94402
G1 X152.671 Y150.457 E83.96020
G1 X152.469 Y150.450 E83.96860
G1 X151.891 Y150.542 E83.99293
G1 X151.702 Y150.612 E84.00131
G1 X151.402 Y150.769 E84.01539
G1 X151.068 Y151.032 E84.03306
G1 X150.879 Y151.245 E84.04490
G1 X150.619 Y151.684 E84.06612
G1 X150.476 Y152.182 E84.08766
G1 X150.450 Y152.436 E84.09827
G1 X150.489 Y152.903 E84.11776
G1 X150.658 Y153.401 E84.13962
G1 X150.906 Y153.791 E84.15883
G1 X151.210 Y154.094 E84.17668
G1 X151.549 Y154.317 E84.19355
G1 X152.051 Y154.500 E84.21576
G1 X152.394 Y154.547 E84.23016
G1 X152.539 Y154.549 E84.23619
G1 X152.849 Y154.520 E84.24913
G1 X153.183 Y154.433 E84.26348
G1 X153.473 Y154.304 E84.27668
G1 X153.765 Y154.114 E84.29116
G1 X154.056 Y153.836 E84.30789
G1 X154.362 Y153.359 E84.33145
G1 X154.482 Y153.024 E84.34625
G1 X154.545 Y152.640 E84.36243
G1 X154.549 Y152.494 E84.36850
G1 X154.498 Y152.047 E84.38720
G1 X154.376 Y151.675 E84.40348
G1 F2400 E83.80348
G1 Z1.500
G0 F9000 X158.050 Y149.297
G1 Z1.000
G1 F2400 E84.40348
G1 F2700 X158.050 Y155.703 E84.66981
G1 X152.500 Y158.908 E84.93626
G1 X146.950 Y155.703 E85.20271
G1 X146.950 Y149.297 E85.46905
G1 X152.500 Y146.092 E85.73550
G1 X158.050 Y149.297 E86.00195
G0 F9000 X157.374 Y149.862
;TYPE:FILL
G1 F2700 X156.960 Y149.447 E86.02632
G0 F9000 X157.374 Y150.745
G1 F2700 X154.868 Y148.239 E86.17367
G1 F2400 E85.57367
G1 Z1.500
G0 F9000 X152.776 Y147.032
G1 Z1.000
G1 F2400 E86.17367
G1 F2700 X157.374 Y151.629 E86.44398
G0 F9000 X157.374 Y152.513
G1 F2700 X152.013 Y147.152 E86.75919
G0 F9000 X151.453 Y147.476
G1 F2700 X157.374 Y153.397 E87.10732
G0 F9000 X157.374 Y154.281
G1 F2700 X155.195 Y152.102 E87.23544
G0 F9000 X155.173 Y152.964
G1 F2700 X157.374 Y155.165 E87.36485
G0 F9000 X156.906 Y155.581
G1 F2700 X154.973 Y153.648 E87.47850
G0 F9000 X154.630 Y154.189
G1 F2700 X156.346 Y155.905 E87.57939
G0 F9000 X155.786 Y156.228
G1 F2700 X154.194 Y154.637 E87.67297
G0 F9000 X153.640 Y154.966
G1 F2700 X155.226 Y156.552 E87.76622
G0 F9000 X154.665 Y156.875
G1 F2700 X152.974 Y155.185 E87.86561
G0 F9000 X152.092 Y155.186
G1 F2700 X154.105 Y157.199 E87.98397
G0 F9000 X153.545 Y157.523
G1 F2700 X150.246 Y154.224 E88.17794
G0 F9000 X150.133 Y154.111
G1 F2700 X149.871 Y153.850 E88.19331
G0 F9000 X148.988 Y153.850
G1 F2700 X152.984 Y157.846 E88.42826
G0 F9000 X152.218 Y157.964
G1 F2700 X148.104 Y153.850 E88.67015
G0 F9000 X147.624 Y154.254
G1 F2700 X150.127 Y156.757 E88.81732
G1 F2400 E88.21732
G1 Z1.500
G0 F9000 X148.036 Y155.550
G1 Z1.000
G1 F2400 E88.81732
G1 F2700 X147.624 Y155.138 E88.84154
G1 F2400 E88.24154
G1 Z1.500
G0 F9000 X148.054 Y151.148
G1 Z1.000
G1 F2400 E88.84154
G1 F2700 X147.624 Y150.719 E88.86679
G0 F9000 X147.624 Y149.835
G1 F2700 X148.936 Y151.146 E88.94391
G0 F9000 X149.818 Y151.145
G1 F2700 X148.091 Y149.418 E89.04545
G0 F9000 X148.651 Y149.094
G1 F2700 X150.365 Y150.808 E89.14622
G0 F9000 X150.813 Y150.371
G1 F2700 X149.211 Y148.770 E89.24039
G0 F9000 X149.772 Y148.447
G1 F2700 X151.355 Y150.030 E89.33346
G0 F9000 X152.042 Y149.833
G1 F2700 X150.332 Y148.123 E89.43400
G0 F9000 X150.893 Y147.800
G1 F2700 X152.906 Y149.814 E89.55239
G1 F2400 E88.95239
G1 Z1.500
G0 F9000 X150.407 Y150.760
;TYPE:SKIN
G1 Z1.000
G1 F2400 E89.55239
G1 F2700 X150.135 Y150.842 E89.56781
G1 X149.437 Y150.498 E89.60016
G0 F9000 X148.730 Y150.498
G1 F2700 X149.917 Y151.685 E89.66996
G0 F9000 X149.790 Y152.265
G1 F2700 X148.024 Y150.499 E89.77379
G0 F9000 X147.624 Y150.806
G1 F2700 X149.820 Y153.002 E89.90291
G0 F9000 X149.903 Y154.499
G1 F2700 X147.624 Y152.220 E90.03690
G0 F9000 X147.624 Y151.513
G1 F2700 X150.553 Y154.442 E90.20912
G0 F9000 X149.195 Y154.499
G1 F2700 X147.624 Y152.928 E90.30149
G0 F9000 X147.624 Y153.635
G1 F2700 X148.488 Y154.499 E90.35229
G0 F9000 X147.781 Y154.499
G1 F2700 X147.624 Y154.342 E90.36152
G1 F2400 E89.76152
G1 Z1.500
G0 F9000 X163.050 Y155.415
;TYPE:WALL-INNER
G1 Z1.000
G1 F2400 E90.36152
G1 F2700 X163.050 Y149.585 E90.60390
G1 X168.100 Y146.670 E90.84632
G1 X173.150 Y149.585 E91.08874
G1 X173.150 Y155.415 E91.33113
G1 X168.100 Y158.330 E91.57355
G1 X163.050 Y155.415 E91.81597
G1 F2400 E91.21597
G1 Z1.500
G0 F9000 X165.803 Y153.618
G1 Z1.000
G1 F2400 E91.81597
G1 F2700 X166.113 Y154.106 E91.84001
G1 X166.498 Y154.490 E91.86261
G1 X167.020 Y154.816 E91.88820
G1 X167.624 Y155.008 E91.91455
G1 X167.964 Y155.046 E91.92877
G1 X168.158 Y155.050 E91.93684
G1 X168.536 Y155.014 E91.95263
G1 X168.948 Y154.906 E91.97034
G1 X169.312 Y154.745 E91.98688
G1 X169.676 Y154.508 E92.00494
G1 X170.045 Y154.157 E92.02611
G1 X170.413 Y153.581 E92.05453
G1 X170.568 Y153.150 E92.07357
G1 X170.644 Y152.687 E92.09308
G1 X170.650 Y152.481 E92.10165
G1 X170.623 Y152.124 E92.11653
G1 X170.583 Y151.921 E92.12514
G1 X170.435 Y151.469 E92.14491
G1 X170.142 Y150.965 E92.16915
G1 X169.800 Y150.596 E92.19006
G1 X169.410 Y150.310 E92.21017
G1 X169.104 Y150.155 E92.22443
G1 X168.783 Y150.041 E92.23859
G1 X168.324 Y149.958 E92.25799
G1 X168.037 Y149.949 E92.26992
G1 X167.363 Y150.056 E92.29830
G1 X167.098 Y150.154 E92.31004
G1 X166.728 Y150.348 E92.32741
G1 X166.322 Y150.667 E92.34888
G1 X166.073 Y150.949 E92.36452
G1 X165.755 Y151.484 E92.39040
G1 X165.582 Y152.087 E92.41648
G1 X165.547 Y152.432 E92.43089
G1 X165.595 Y153.006 E92.45484
G1 X165.803 Y153.618 E92.48171
G0 F9000 X166.257 Y153.401
;TYPE:WALL-OUTER
G1 F2700 X166.505 Y153.791 E92.50093
G1 X166.811 Y154.096 E92.51889
G1 X167.231 Y154.359 E92.53949
G1 X167.729 Y154.517 E92.56122
G1 X167.996 Y154.547 E92.57239
G1 X168.139 Y154.549 E92.57833
G1 X168.449 Y154.520 E92.59128
G1 X168.783 Y154.433 E92.60563
G1 X169.073 Y154.304 E92.61882
G1 X169.365 Y154.114 E92.63331
G1 X169.656 Y153.836 E92.65004
G1 X169.962 Y153.359 E92.67360
G1 X170.082 Y153.024 E92.68839
G1 X170.145 Y152.640 E92.70457
G1 X170.149 Y152.494 E92.71064
G1 X170.098 Y152.047 E92.72935
G1 X169.976 Y151.675 E92.74562
G1 X169.737 Y151.264 E92.76539
G1 X169.465 Y150.971 E92.78201
G1 X169.147 Y150.737 E92.79843
G1 X168.907 Y150.616 E92.80960
G1 X168.654 Y150.526 E92.82077
G1 X168.271 Y150.457 E92.83695
G1 X168.068 Y150.450 E92.84539
G1 X167.490 Y150.542 E92.86972
G1 X167.301 Y150.612 E92.87810
G1 X167.001 Y150.769 E92.89218
G1 X166.667 Y151.032 E92.90985
G1 X166.478 Y151.245 E92.92169
G1 X166.218 Y151.684 E92.94291
G1 X166.075 Y152.182 E92.96445
G1 X166.049 Y152.436 E92.97506
G1 X166.088 Y152.903 E92.99455
G1 X166.257 Y153.401 E93.01641
G1 F2400 E92.41641
G1 Z1.500
G0 F9000 X162.550 Y155.703
G1 Z1.000
G1 F2400 E93.01641
G1 F2700 X162.550 Y149.297 E93.28274
G1 X168.100 Y146.092 E93.54919
G1 X173.650 Y149.297 E93.81565
G1 X173.650 Y155.703 E94.08198
G1 X168.100 Y158.908 E94.34843
G1 X162.550 Y155.703 E94.61488
G0 F9000 X163.224 Y154.828
;TYPE:FILL
G1 F2700 X164.371 Y155.975 E94.68232
G1 F2400 E94.08232
G1 Z1.500
G0 F9000 X164.014 Y153.850
G1 Z1.000
G1 F2400 E94.68232
G1 F2700 X168.221 Y158.057 E94.92968
G0 F9000 X168.781 Y157.733
G1 F2700 X164.899 Y153.851 E95.15792
G1 F2400 E94.55792
G1 Z1.500
G0 F9000 X163.224 Y153.944
G1 Z1.000
G1 F2400 E95.15792
G1 F2700 X166.462 Y157.182 E95.34830
G1 F2400 E94.74830
G1 Z1.500
G0 F9000 X166.846 Y154.914
G1 Z1.000
G1 F2400 E95.34830
G1 F2700 X169.342 Y157.410 E95.49506
G0 F9000 X169.902 Y157.086
G1 F2700 X168.038 Y155.222 E95.60466
G0 F9000 X168.819 Y155.120
G1 F2700 X170.462 Y156.762 E95.70123
G0 F9000 X171.022 Y156.439
G1 F2700 X169.448 Y154.864 E95.79380
G0 F9000 X169.953 Y154.485
G1 F2700 X171.582 Y156.115 E95.88961
G0 F9000 X172.143 Y155.792
G1 F2700 X170.351 Y154.000 E95.99497
G0 F9000 X170.655 Y153.420
G1 F2700 X172.703 Y155.468 E96.11539
G0 F9000 X172.974 Y154.855
G1 F2700 X170.817 Y152.698 E96.24221
G0 F9000 X170.688 Y151.685
G1 F2700 X172.974 Y153.971 E96.37662
G0 F9000 X172.974 Y153.087
G1 F2700 X167.249 Y147.363 E96.71320
G0 F9000 X166.689 Y147.686
G1 F2700 X168.900 Y149.898 E96.84323
G0 F9000 X167.909 Y149.790
G1 F2700 X166.129 Y148.010 E96.94788
G0 F9000 X165.569 Y148.334
G1 F2700 X167.173 Y149.938 E97.04219
G0 F9000 X166.586 Y150.235
G1 F2700 X165.008 Y148.657 E97.13497
G0 F9000 X164.448 Y148.981
G1 F2700 X166.109 Y150.642 E97.23263
G0 F9000 X165.729 Y151.146
G1 F2700 X163.888 Y149.304 E97.34091
G0 F9000 X163.327 Y149.628
G1 F2700 X164.846 Y151.146 E97.43019
G0 F9000 X163.963 Y151.148
G1 F2700 X163.224 Y150.408 E97.47367
G1 F2400 E96.87367
G1 Z1.500
G0 F9000 X167.809 Y147.039
G1 Z1.000
G1 F2400 E97.47367
G1 F2700 X172.974 Y152.204 E97.77735
G0 F9000 X172.974 Y151.320
G1 F2700 X169.110 Y147.455 E98.00457
G1 F2400 E97.40457
G1 Z1.500
G0 F9000 X171.201 Y148.662
G1 Z1.000
G1 F2400 E98.00457
G1 F2700 X172.974 Y150.436 E98.10884
G1 F2400 E97.50884
G1 Z1.500
G0 F9000 X165.986 Y150.783
;TYPE:SKIN
G1 Z1.000
G1 F2400 E98.10884
G1 F2700 X165.700 Y150.497 E98.12566
G0 F9000 X164.994 Y150.498
G1 F2700 X165.711 Y151.215 E98.16782
G0 F9000 X165.506 Y151.718
G1 F2700 X164.288 Y150.499 E98.23946
G0 F9000 X163.582 Y150.500
G1 F2700 X165.385 Y152.303 E98.34547
G0 F9000 X165.424 Y153.049
G1 F2700 X163.224 Y150.849 E98.47482
G0 F9000 X163.224 Y151.557
G1 F2700 X166.139 Y154.472 E98.64621
G0 F9000 X165.460 Y154.500
G1 F2700 X163.224 Y152.264 E98.77768
G0 F9000 X163.224 Y152.971
G1 F2700 X164.753 Y154.500 E98.86758
G0 F9000 X164.045 Y154.500
G1 F2700 X163.224 Y153.678 E98.91588
G0 F9000 X163.224 Y154.385
G1 F2700 X163.338 Y154.500 E98.92261
;LAYER:5
M106 S51
G1 F2400 E98.32261
G1 Z1.500
G0 F9000 X157.550 Y155.415 Z1.200
;TYPE:WALL-INNER
G1 Z1.200
G1 F2400 E98.92261
G1 F2700 X152.500 Y158.330 E99.16503
G1 X147.450 Y155.415 E99.40746
G1 X147.450 Y149.585 E99.64984
G1 X152.500 Y146.670 E99.89226
G1 X157.550 Y149.585 E100.13468
G1 X157.550 Y155.415 E100.37707
G1 F2400 E99.77707
G1 Z1.700
G0 F9000 X154.715 Y153.771
G1 Z1.200
G1 F2400 E100.37707
G1 F2700 X154.921 Y153.312 E100.39798
G1 X155.029 Y152.841 E100.41807
G1 X155.051 Y152.489 E100.43274
G1 X155.005 Y152.001 E100.45311
G1 X154.832 Y151.461 E100.47669
G1 X154.535 Y150.954 E100.50112
G1 X154.084 Y150.496 E100.52784
G1 X153.645 Y150.217 E100.54947
G1 X153.057 Y150.009 E100.57540
G1 X152.711 Y149.958 E100.58994
G1 X152.450 Y149.950 E100.60079
G1 X152.056 Y149.988 E100.61725
G1 X151.726 Y150.069 E100.63138
G1 X151.373 Y150.209 E100.64717
G1 X150.872 Y150.533 E100.67197
G1 X150.509 Y150.900 E100.69343
G1 X150.177 Y151.434 E100.71957
G1 X149.978 Y152.101 E100.74851
G1 X149.947 Y152.602 E100.76938
G1 X150.052 Y153.235 E100.79606
G1 X150.313 Y153.817 E100.82258
G1 X150.623 Y154.230 E100.84405
G1 X150.958 Y154.532 E100.86280
G1 X151.320 Y154.762 E100.88063
G1 X151.730 Y154.934 E100.89911
G1 X152.200 Y155.034 E100.91909
G1 X152.566 Y155.052 E100.93433
G1 X153.171 Y154.963 E100.95975
G1 X153.522 Y154.838 E100.97524
G1 X153.999 Y154.567 E100.99805
G1 X154.378 Y154.230 E101.01914
G1 X154.715 Y153.771 E101.04281
G0 F9000 X154.280 Y153.518
;TYPE:WALL-OUTER
G1 F2700 X154.444 Y153.152 E101.05948
G1 X154.532 Y152.768 E101.07586
G1 X154.550 Y152.496 E101.08720
G1 X154.512 Y152.102 E101.10365
G1 X154.373 Y151.666 E101.12268
G1 X154.135 Y151.261 E101.14221
G1 X153.767 Y150.887 E101.16402
G1 X153.424 Y150.669 E101.18092
G1 X152.936 Y150.496 E101.20244
G1 X152.667 Y150.457 E101.21375
G1 X152.467 Y150.451 E101.22206
G1 X152.140 Y150.482 E101.23572
G1 X151.879 Y150.546 E101.24689
G1 X151.603 Y150.656 E101.25925
G1 X151.189 Y150.923 E101.27973
G1 X150.904 Y151.211 E101.29657
G1 X150.637 Y151.641 E101.31762
G1 X150.473 Y152.189 E101.34140
G1 X150.450 Y152.576 E101.35751
G1 X150.535 Y153.090 E101.37917
G1 X150.746 Y153.562 E101.40067
G1 X150.994 Y153.891 E101.41780
G1 X151.261 Y154.133 E101.43278
G1 X151.552 Y154.317 E101.44709
G1 X151.880 Y154.455 E101.46189
G1 X152.265 Y154.537 E101.47825
G1 X152.541 Y154.550 E101.48974
G1 X153.050 Y154.476 E101.51113
G1 X153.313 Y154.382 E101.52274
G1 X153.706 Y154.158 E101.54154
G1 X154.006 Y153.891 E101.55824
G1 X154.280 Y153.518 E101.57748
G1 F2400 E100.97748
G1 Z1.700
G0 F9000 X158.050 Y155.703
G1 Z1.200
G1 F2400 E101.57748
G1 F2700 X152.500 Y158.908 E101.84394
G1 X146.950 Y155.703 E102.11039
G1 X146.950 Y149.297 E102.37672
G1 X152.500 Y146.092 E102.64317
G1 X158.050 Y149.297 E102.90962
G1 X158.050 Y155.703 E103.17596
G0 F9000 X157.374 Y155.079
;TYPE:FILL
G1 F2700 X156.821 Y155.632 E103.20847
G1 F2400 E102.60847
G1 Z1.700
G0 F9000 X157.374 Y154.195
G1 Z1.200
G1 F2400 E103.20847
G1 F2700 X154.729 Y156.840 E103.36399
G1 F2400 E102.76399
G1 Z1.700
G0 F9000 X152.637 Y158.048
G1 Z1.200
G1 F2400 E103.36399
G1 F2700 X157.374 Y153.311 E103.64250
G0 F9000 X157.374 Y152.427
G1 F2700 X151.976 Y157.825 E103.95988
G0 F9000 X151.416 Y157.501
G1 F2700 X157.374 Y151.543 E104.31019
G0 F9000 X157.374 Y150.659
G1 F2700 X155.204 Y152.829 E104.43778
G0 F9000 X155.176 Y151.973
G1 F2700 X157.374 Y149.775 E104.56701
G0 F9000 X156.870 Y149.395
G1 F2700 X154.949 Y151.316 E104.67996
G0 F9000 X154.605 Y150.777
G1 F2700 X156.310 Y149.072 E104.78021
G0 F9000 X155.750 Y148.748
G1 F2700 X154.160 Y150.337 E104.87367
G0 F9000 X153.598 Y150.016
G1 F2700 X155.190 Y148.424 E104.96727
G0 F9000 X154.629 Y148.101
G1 F2700 X152.918 Y149.812 E105.06787
G0 F9000 X152.030 Y149.816
G1 F2700 X154.069 Y147.777 E105.18775
G0 F9000 X153.508 Y147.454
G1 F2700 X150.074 Y150.888 E105.38966
G0 F9000 X149.190 Y150.888
G1 F2700 X152.948 Y147.130 E105.61062
G0 F9000 X152.083 Y147.111
G1 F2700 X148.306 Y150.888 E105.83269
G0 F9000 X147.624 Y150.686
G1 F2700 X149.992 Y148.319 E105.97189
G1 F2400 E105.37189
G1 Z1.700
G0 F9000 X147.899 Y149.527
G1 Z1.200
G1 F2400 E105.97189
G1 F2700 X147.624 Y149.802 E105.98806
G0 F9000 X147.737 Y154.109
G1 F2700 X147.624 Y154.222 E105.99470
G0 F9000 X147.624 Y155.105
G1 F2700 X148.621 Y154.109 E106.05329
G0 F9000 X149.505 Y154.109
G1 F2700 X148.054 Y155.560 E106.13861
G0 F9000 X148.614 Y155.884
G1 F2700 X150.238 Y154.259 E106.23412
G0 F9000 X150.777 Y154.604
G1 F2700 X149.174 Y156.207 E106.32837
G0 F9000 X149.734 Y156.531
G1 F2700 X151.317 Y154.949 E106.42142
G0 F9000 X151.984 Y155.166
G1 F2700 X150.295 Y156.854 E106.52069
G0 F9000 X150.855 Y157.178
G1 F2700 X152.847 Y155.186 E106.63781
G1 F2400 E106.03781
G1 Z1.700
G0 F9000 X150.638 Y154.478
;TYPE:SKIN
G1 Z1.200
G1 F2400 E106.63781
G1 F2700 X150.331 Y154.430 E106.65438
G1 X149.649 Y154.760 E106.68588
G0 F9000 X148.942 Y154.760
G1 F2700 X150.048 Y153.654 E106.75090
G0 F9000 X149.858 Y153.136
G1 F2700 X148.235 Y154.760 E106.84636
G0 F9000 X147.625 Y154.662
G1 F2700 X149.777 Y152.510 E106.97289
G0 F9000 X149.928 Y151.652
G1 F2700 X147.625 Y153.955 E107.10830
G0 F9000 X147.625 Y153.248
G1 F2700 X150.634 Y150.238 E107.28524
G0 F9000 X149.927 Y150.238
G1 F2700 X147.625 Y152.541 E107.42062
G0 F9000 X147.625 Y151.834
G1 F2700 X149.220 Y150.238 E107.51443
G0 F9000 X148.513 Y150.238
G1 F2700 X147.625 Y151.127 E107.56667
G0 F9000 X147.625 Y150.419
G1 F2700 X147.806 Y150.238 E107.57731
G1 F2400 E106.97731
G1 Z1.700
G0 F9000 X163.050 Y149.585
;TYPE:WALL-INNER
G1 Z1.200
G1 F2400 E107.57731
G1 F2700 X168.100 Y146.670 E107.81974
G1 X173.150 Y149.585 E108.06216
G1 X173.150 Y155.415 E108.30454
G1 X168.100 Y158.330 E108.54696
G1 X163.050 Y155.415 E108.78938
G1 X163.050 Y149.585 E109.03177
G1 F2400 E108.43177
G1 Z1.700
G0 F9000 X165.776 Y151.434
G1 Z1.200
G1 F2400 E109.03177
G1 F2700 X165.577 Y152.101 E109.06071
G1 X165.546 Y152.602 E109.08158
G1 X165.651 Y153.235 E109.10825
G1 X165.912 Y153.817 E109.13477
G1 X166.222 Y154.230 E109.15624
G1 X166.557 Y154.533 E109.17502
G1 X166.920 Y154.762 E109.19286
G1 X167.329 Y154.934 E109.21131
G1 X167.799 Y155.034 E109.23129
G1 X168.166 Y155.052 E109.24656
G1 X168.771 Y154.963 E109.27199
G1 X169.122 Y154.838 E109.28748
G1 X169.599 Y154.567 E109.31029
G1 X169.978 Y154.230 E109.33137
G1 X170.315 Y153.771 E109.35505
G1 X170.521 Y153.312 E109.37596
G1 X170.629 Y152.841 E109.39605
G1 X170.651 Y152.489 E109.41072
G1 X170.605 Y152.001 E109.43109
G1 X170.432 Y151.461 E109.45467
G1 X170.135 Y150.954 E109.47910
G1 X169.684 Y150.496 E109.50582
G1 X169.245 Y150.217 E109.52745
G1 X168.657 Y150.009 E109.55338
G1 X168.311 Y149.958 E109.56792
G1 X168.049 Y149.950 E109.57882
G1 X167.655 Y149.988 E109.59527
G1 X167.326 Y150.069 E109.60936
G1 X166.892 Y150.254 E109.62897
G1 X166.468 Y150.536 E109.65014
G1 X166.108 Y150.900 E109.67143
G1 X165.776 Y151.434 E109.69757
G0 F9000 X166.236 Y151.641
;TYPE:WALL-OUTER
G1 F2700 X166.072 Y152.189 E109.72135
G1 X166.049 Y152.576 E109.73747
G1 X166.134 Y153.090 E109.75913
G1 X166.345 Y153.562 E109.78063
G1 X166.593 Y153.891 E109.79776
G1 X166.860 Y154.133 E109.81274
G1 X167.152 Y154.317 E109.82709
G1 X167.479 Y154.455 E109.84184
G1 X167.864 Y154.537 E109.85821
G1 X168.141 Y154.550 E109.86974
G1 X168.650 Y154.476 E109.89112
G1 X168.913 Y154.382 E109.90273
G1 X169.306 Y154.158 E109.92154
G1 X169.606 Y153.891 E109.93824
G1 X169.880 Y153.518 E109.95748
G1 X170.044 Y153.152 E109.97415
G1 X170.132 Y152.768 E109.99053
G1 X170.150 Y152.496 E110.00186
G1 X170.112 Y152.102 E110.01832
G1 X169.973 Y151.666 E110.03735
G1 X169.735 Y151.261 E110.05688
G1 X169.367 Y150.887 E110.07869
G1 X169.024 Y150.669 E110.09559
G1 X168.536 Y150.496 E110.11711
G1 X168.267 Y150.457 E110.12841
G1 X168.066 Y150.451 E110.13677
G1 X167.739 Y150.482 E110.15043
G1 X167.478 Y150.546 E110.16160
G1 X167.143 Y150.687 E110.17671
G1 X166.787 Y150.924 E110.19449
G1 X166.503 Y151.211 E110.21128
G1 X166.236 Y151.641 E110.23232
G1 F2400 E109.63232
G1 Z1.700
G0 F9000 X162.550 Y149.297
G1 Z1.200
G1 F2400 E110.23232
G1 F2700 X168.100 Y146.092 E110.49878
G1 X173.650 Y149.297 E110.76523
G1 X173.650 Y155.703 E111.03156
G1 X168.100 Y158.908 E111.29801
G1 X162.550 Y155.703 E111.56447
G1 X162.550 Y149.297 E111.83080
G0 F9000 X163.224 Y150.113
;TYPE:FILL
G1 F2700 X164.232 Y149.104 E111.89009
G1 F2400 E111.29009
G1 Z1.700
G0 F9000 X164.215 Y150.889
G1 Z1.200
G1 F2400 E111.89009
G1 F2700 X168.184 Y146.920 E112.12345
G0 F9000 X168.744 Y147.244
G1 F2700 X165.099 Y150.889 E112.33777
G1 F2400 E111.73777
G1 Z1.700
G0 F9000 X166.706 Y150.166
G1 Z1.200
G1 F2400 E112.33777
G1 F2700 X169.305 Y147.567 E112.49058
G0 F9000 X169.865 Y147.891
G1 F2700 X167.974 Y149.782 E112.60176
G0 F9000 X168.774 Y149.866
G1 F2700 X170.426 Y148.214 E112.69889
G0 F9000 X170.986 Y148.538
G1 F2700 X169.410 Y150.114 E112.79156
G0 F9000 X169.921 Y150.487
G1 F2700 X171.546 Y148.861 E112.88713
G0 F9000 X172.106 Y149.185
G1 F2700 X170.337 Y150.954 E112.99114
G0 F9000 X170.639 Y151.536
G1 F2700 X172.667 Y149.508 E113.11038
G0 F9000 X172.973 Y150.086
G1 F2700 X170.803 Y152.256 E113.23797
G0 F9000 X170.719 Y153.224
G1 F2700 X172.973 Y150.970 E113.37049
G0 F9000 X172.973 Y151.854
G1 F2700 X167.211 Y157.616 E113.70928
G0 F9000 X166.651 Y157.292
G1 F2700 X168.810 Y155.133 E113.83622
G0 F9000 X167.848 Y155.211
G1 F2700 X166.090 Y156.969 E113.93958
G0 F9000 X165.530 Y156.645
G1 F2700 X167.133 Y155.042 E114.03383
G0 F9000 X166.553 Y154.739
G1 F2700 X164.970 Y156.322 E114.12690
G0 F9000 X164.410 Y155.998
G1 F2700 X166.075 Y154.333 E114.22480
G0 F9000 X165.414 Y154.109
G1 F2700 X163.850 Y155.674 E114.31679
G0 F9000 X163.289 Y155.351
G1 F2700 X164.530 Y154.110 E114.38975
G0 F9000 X163.646 Y154.110
G1 F2700 X163.224 Y154.532 E114.41456
G1 F2400 E113.81456
G1 Z1.700
G0 F9000 X163.331 Y150.889
G1 Z1.200
G1 F2400 E114.41456
G1 F2700 X166.324 Y147.896 E114.59054
G1 F2400 E113.99054
G1 Z1.700
G0 F9000 X172.973 Y152.737
G1 Z1.200
G1 F2400 E114.59054
G1 F2700 X167.772 Y157.939 E114.89637
G0 F9000 X168.969 Y157.626
G1 F2700 X172.973 Y153.621 E115.13182
G0 F9000 X172.973 Y154.505
G1 F2700 X171.061 Y156.417 E115.24424
G1 F2400 E114.64424
G1 Z1.700
G0 F9000 X166.213 Y154.458
;TYPE:SKIN
G1 Z1.200
G1 F2400 E115.24424
G1 F2700 X165.899 Y154.419 E115.26200
G1 X165.204 Y154.760 E115.29418
G0 F9000 X164.497 Y154.761
G1 F2700 X165.632 Y153.626 E115.36092
G0 F9000 X165.450 Y153.100
G1 F2700 X163.789 Y154.761 E115.45858
G0 F9000 X163.224 Y154.620
G1 F2700 X165.378 Y152.466 E115.58522
G0 F9000 X165.544 Y151.593
G1 F2700 X163.224 Y153.913 E115.72163
G0 F9000 X163.224 Y153.205
G1 F2700 X166.191 Y150.238 E115.89608
G0 F9000 X165.484 Y150.238
G1 F2700 X163.224 Y152.498 E116.02896
G0 F9000 X163.224 Y151.791
G1 F2700 X164.776 Y150.239 E116.12021
G0 F9000 X164.069 Y150.239
G1 F2700 X163.224 Y151.084 E116.16989
G0 F9000 X163.224 Y150.377
G1 F2700 X163.362 Y150.239 E116.17801
;LAYER:6
M106 S63
G1 F2400 E115.57801
G1 Z1.700
G0 F9000 X157.550 Y149.584 Z1.400
;TYPE:WALL-INNER
G1 Z1.400
G1 F2400 E116.17801
G1 F2700 X157.550 Y155.416 E116.42047
G1 X152.500 Y158.331 E116.66289
G1 X147.450 Y155.416 E116.90532
G1 X147.450 Y149.584 E117.14778
G1 X152.500 Y146.669 E117.39020
G1 X157.550 Y149.584 E117.63263
G1 F2400 E117.03263
G1 Z1.900
G0 F9000 X154.796 Y151.382
G1 Z1.400
G1 F2400 E117.63263
G1 F2700 X154.529 Y150.949 E117.65378
G1 X154.092 Y150.505 E117.67968
G1 X153.798 Y150.304 E117.69448
G1 X153.481 Y150.144 E117.70925
G1 X152.895 Y149.978 E117.73457
G1 X152.529 Y149.949 E117.74983
G1 X152.061 Y149.986 E117.76935
G1 X151.701 Y150.075 E117.78477
G1 X151.099 Y150.363 E117.81251
G1 X150.673 Y150.717 E117.83554
G1 X150.374 Y151.088 E117.85535
G1 X150.143 Y151.516 E117.87557
G1 X149.965 Y152.195 E117.90475
G1 X149.949 Y152.605 E117.92181
G1 X150.028 Y153.137 E117.94417
G1 X150.152 Y153.499 E117.96008
G1 X150.399 Y153.946 E117.98131
G1 X150.530 Y154.121 E117.99040
G1 X150.817 Y154.416 E118.00751
G1 X151.092 Y154.628 E118.02195
G1 X151.416 Y154.810 E118.03740
G1 X151.739 Y154.936 E118.05181
G1 X152.200 Y155.034 E118.07141
G1 X152.566 Y155.052 E118.08664
G1 X153.182 Y154.962 E118.11253
G1 X153.667 Y154.772 E118.13418
G1 X154.181 Y154.420 E118.16008
G1 X154.447 Y154.151 E118.17581
G1 X154.798 Y153.619 E118.20231
G1 X155.000 Y153.016 E118.22875
G1 X155.045 Y152.674 E118.24309
G1 X155.050 Y152.461 E118.25195
G1 X154.972 Y151.858 E118.27723
G1 X154.796 Y151.382 E118.29833
G0 F9000 X154.344 Y151.602
;TYPE:WALL-OUTER
G1 F2700 X154.133 Y151.259 E118.31507
G1 X153.770 Y150.890 E118.33659
G1 X153.543 Y150.735 E118.34802
G1 X153.299 Y150.612 E118.35938
G1 X152.806 Y150.473 E118.38067
G1 X152.529 Y150.450 E118.39223
G1 X152.142 Y150.481 E118.40837
G1 X151.870 Y150.548 E118.42002
G1 X151.371 Y150.787 E118.44302
G1 X151.031 Y151.070 E118.46141
G1 X150.792 Y151.366 E118.47723
G1 X150.612 Y151.701 E118.49304
G1 X150.462 Y152.269 E118.51746
G1 X150.450 Y152.578 E118.53032
G1 X150.516 Y153.018 E118.54882
G1 X150.611 Y153.296 E118.56103
G1 X150.820 Y153.673 E118.57895
G1 X150.911 Y153.796 E118.58531
G1 X151.150 Y154.042 E118.59957
G1 X151.368 Y154.209 E118.61099
G1 X151.631 Y154.357 E118.62354
G1 X151.883 Y154.455 E118.63478
G1 X152.265 Y154.537 E118.65102
G1 X152.541 Y154.550 E118.66251
G1 X153.053 Y154.475 E118.68402
G1 X153.432 Y154.327 E118.70094
G1 X153.859 Y154.035 E118.72244
G1 X154.057 Y153.834 E118.73417
G1 X154.345 Y153.398 E118.75590
G1 X154.511 Y152.903 E118.77761
G1 X154.546 Y152.635 E118.78884
G1 X154.549 Y152.487 E118.79500
G1 X154.483 Y151.979 E118.81629
G1 X154.344 Y151.602 E118.83300
G1 F2400 E118.23300
G1 Z1.900
G0 F9000 X158.050 Y149.296
G1 Z1.400
G1 F2400 E118.83300
G1 F2700 X158.050 Y155.704 E119.09941
G1 X152.500 Y158.909 E119.36587
G1 X146.950 Y155.704 E119.63232
G1 X146.950 Y149.296 E119.89873
G1 X152.500 Y146.091 E120.16518
G1 X158.050 Y149.296 E120.43164
G0 F9000 X157.374 Y149.862
;TYPE:FILL
G1 F2700 X156.958 Y149.446 E120.45610
G0 F9000 X157.374 Y150.745
G1 F2700 X154.866 Y148.238 E120.60353
G1 F2400 E120.00353
G1 Z1.900
G0 F9000 X152.774 Y147.030
G1 Z1.400
G1 F2400 E120.60353
G1 F2700 X157.374 Y151.629 E120.87396
G0 F9000 X157.374 Y152.513
G1 F2700 X152.013 Y147.152 E121.18917
G0 F9000 X151.453 Y147.476
G1 F2700 X157.374 Y153.397 E121.53730
G0 F9000 X157.374 Y154.281
G1 F2700 X155.176 Y152.083 E121.66653
G0 F9000 X155.181 Y152.972
G1 F2700 X157.374 Y155.165 E121.79547
G0 F9000 X156.907 Y155.582
G1 F2700 X154.971 Y153.646 E121.90930
G0 F9000 X154.630 Y154.188
G1 F2700 X156.347 Y155.906 E122.01029
G0 F9000 X155.786 Y156.229
G1 F2700 X154.186 Y154.628 E122.10439
G0 F9000 X153.642 Y154.968
G1 F2700 X155.226 Y156.553 E122.19755
G0 F9000 X154.666 Y156.876
G1 F2700 X152.960 Y155.171 E122.29783
G0 F9000 X152.096 Y155.190
G1 F2700 X154.106 Y157.200 E122.41601
G0 F9000 X153.545 Y157.523
G1 F2700 X150.328 Y154.306 E122.60516
G0 F9000 X149.444 Y154.306
G1 F2700 X152.985 Y157.847 E122.81335
G0 F9000 X152.221 Y157.967
G1 F2700 X148.560 Y154.306 E123.02861
G0 F9000 X147.676 Y154.306
G1 F2700 X150.129 Y156.759 E123.17283
G1 F2400 E122.57283
G1 Z1.900
G0 F9000 X148.037 Y155.550
G1 Z1.400
G1 F2400 E123.17283
G1 F2700 X147.625 Y155.139 E123.19703
G1 F2400 E122.59703
G1 Z1.900
G0 F9000 X148.481 Y150.692
G1 Z1.400
G1 F2400 E123.19703
G1 F2700 X147.624 Y149.835 E123.24742
G0 F9000 X148.090 Y149.417
G1 F2700 X149.365 Y150.692 E123.32238
G0 F9000 X150.249 Y150.692
G1 F2700 X148.650 Y149.093 E123.41640
G0 F9000 X149.211 Y148.770
G1 F2700 X150.813 Y150.371 E123.51056
G0 F9000 X151.365 Y150.040
G1 F2700 X149.771 Y148.446 E123.60428
G0 F9000 X150.332 Y148.123
G1 F2700 X152.023 Y149.814 E123.70370
G0 F9000 X152.896 Y149.803
G1 F2700 X150.892 Y147.799 E123.82153
G1 F2400 E123.22153
G1 Z1.900
G0 F9000 X150.398 Y150.044
;TYPE:SKIN
G1 Z1.400
G1 F2400 E123.82153
G1 F2700 X150.765 Y150.411 E123.84311
G0 F9000 X150.410 Y150.763
G1 F2700 X149.690 Y150.043 E123.88544
G0 F9000 X148.983 Y150.043
G1 F2700 X150.123 Y151.184 E123.95250
G0 F9000 X149.917 Y151.685
G1 F2700 X148.275 Y150.043 E124.04904
G0 F9000 X147.624 Y150.099
G1 F2700 X149.787 Y152.262 E124.17622
G0 F9000 X149.833 Y153.015
G1 F2700 X147.624 Y150.806 E124.30610
G0 F9000 X147.624 Y151.513
G1 F2700 X151.066 Y154.955 E124.50848
G0 F9000 X150.359 Y154.955
G1 F2700 X147.624 Y152.220 E124.66928
G0 F9000 X147.624 Y152.928
G1 F2700 X149.652 Y154.955 E124.78849
G0 F9000 X148.944 Y154.955
G1 F2700 X147.624 Y153.635 E124.86610
G0 F9000 X147.624 Y154.342
G1 F2700 X148.237 Y154.955 E124.90215
G1 F2400 E124.30215
G1 Z1.900
G0 F9000 X163.050 Y155.416
;TYPE:WALL-INNER
G1 Z1.400
G1 F2400 E124.90215
G1 F2700 X163.050 Y149.584 E125.14461
G1 X168.100 Y146.669 E125.38703
G1 X173.150 Y149.584 E125.62946
G1 X173.150 Y155.416 E125.87192
G1 X168.100 Y158.331 E126.11434
G1 X163.050 Y155.416 E126.35677
G1 F2400 E125.75677
G1 Z1.900
G0 F9000 X165.998 Y153.946
G1 Z1.400
G1 F2400 E126.35677
G1 F2700 X166.129 Y154.121 E126.36585
G1 X166.416 Y154.416 E126.38297
G1 X166.691 Y154.628 E126.39740
G1 X167.015 Y154.810 E126.41285
G1 X167.338 Y154.936 E126.42727
G1 X167.799 Y155.034 E126.44686
G1 X168.166 Y155.052 E126.46214
G1 X168.782 Y154.962 E126.48802
G1 X169.267 Y154.772 E126.50967
G1 X169.781 Y154.420 E126.53558
G1 X170.047 Y154.151 E126.55130
G1 X170.398 Y153.619 E126.57780
G1 X170.600 Y153.016 E126.60424
G1 X170.645 Y152.674 E126.61858
G1 X170.650 Y152.461 E126.62744
G1 X170.572 Y151.858 E126.65272
G1 X170.396 Y151.382 E126.67382
G1 X170.129 Y150.949 E126.69497
G1 X169.692 Y150.505 E126.72087
G1 X169.398 Y150.304 E126.73567
G1 X169.081 Y150.144 E126.75044
G1 X168.495 Y149.978 E126.77576
G1 X168.130 Y149.949 E126.79098
G1 X167.660 Y149.986 E126.81058
G1 X167.300 Y150.075 E126.82600
G1 X166.698 Y150.363 E126.85375
G1 X166.272 Y150.717 E126.87677
G1 X165.973 Y151.088 E126.89658
G1 X165.742 Y151.516 E126.91680
G1 X165.564 Y152.195 E126.94599
G1 X165.548 Y152.605 E126.96305
G1 X165.627 Y153.137 E126.98541
G1 X165.751 Y153.499 E127.00132
G1 X165.998 Y153.946 E127.02255
G0 F9000 X166.419 Y153.673
;TYPE:WALL-OUTER
G1 F2700 X166.510 Y153.796 E127.02891
G1 X166.749 Y154.042 E127.04317
G1 X166.967 Y154.209 E127.05459
G1 X167.230 Y154.357 E127.06713
G1 X167.482 Y154.455 E127.07837
G1 X167.864 Y154.537 E127.09462
G1 X168.141 Y154.550 E127.10615
G1 X168.653 Y154.475 E127.12766
G1 X169.032 Y154.327 E127.14458
G1 X169.459 Y154.035 E127.16608
G1 X169.657 Y153.834 E127.17781
G1 X169.945 Y153.398 E127.19954
G1 X170.111 Y152.903 E127.22124
G1 X170.146 Y152.635 E127.23248
G1 X170.149 Y152.487 E127.23863
G1 X170.083 Y151.979 E127.25993
G1 X169.944 Y151.602 E127.27664
G1 X169.733 Y151.259 E127.29338
G1 X169.370 Y150.890 E127.31490
G1 X169.143 Y150.735 E127.32633
G1 X168.899 Y150.612 E127.33769
G1 X168.406 Y150.473 E127.35898
G1 X168.129 Y150.450 E127.37054
G1 X167.741 Y150.481 E127.38672
G1 X167.469 Y150.548 E127.39837
G1 X166.970 Y150.787 E127.42137
G1 X166.630 Y151.070 E127.43976
G1 X166.391 Y151.366 E127.45558
G1 X166.211 Y151.701 E127.47139
G1 X166.061 Y152.269 E127.49581
G1 X166.049 Y152.578 E127.50867
G1 X166.115 Y153.018 E127.52717
G1 X166.210 Y153.296 E127.53938
G1 X166.419 Y153.673 E127.55730
G1 F2400 E126.95730
G1 Z1.900
G0 F9000 X162.550 Y155.704
G1 Z1.400
G1 F2400 E127.55730
G1 F2700 X162.550 Y149.296 E127.82372
G1 X168.100 Y146.091 E128.09017
G1 X173.650 Y149.296 E128.35662
G1 X173.650 Y155.704 E128.62304
G1 X168.100 Y158.909 E128.88949
G1 X162.550 Y155.704 E129.15594
G0 F9000 X163.224 Y154.828
;TYPE:FILL
G1 F2700 X164.374 Y155.978 E129.22356
G1 F2400 E128.62356
G1 Z1.900
G0 F9000 X164.471 Y154.307
G1 Z1.400
G1 F2400 E129.22356
G1 F2700 X168.221 Y158.057 E129.44404
G0 F9000 X168.782 Y157.734
G1 F2700 X165.354 Y154.306 E129.64560
G1 F2400 E129.04560
G1 Z1.900
G0 F9000 X166.851 Y154.920
G1 Z1.400
G1 F2400 E129.64560
G1 F2700 X169.342 Y157.410 E129.79203
G0 F9000 X169.902 Y157.087
G1 F2700 X168.037 Y155.221 E129.90171
G0 F9000 X168.830 Y155.130
G1 F2700 X170.462 Y156.763 E129.99770
G0 F9000 X171.022 Y156.439
G1 F2700 X169.445 Y154.862 E130.09042
G0 F9000 X169.956 Y154.489
G1 F2700 X171.583 Y156.116 E130.18608
G0 F9000 X172.143 Y155.792
G1 F2700 X170.353 Y154.002 E130.29133
G0 F9000 X170.649 Y153.414
G1 F2700 X172.704 Y155.469 E130.41215
G0 F9000 X172.974 Y154.855
G1 F2700 X170.817 Y152.699 E130.53895
G0 F9000 X170.697 Y151.694
G1 F2700 X172.974 Y153.971 E130.67283
G0 F9000 X172.974 Y153.087
G1 F2700 X167.249 Y147.362 E131.00943
G0 F9000 X167.809 Y147.039
G1 F2700 X172.974 Y152.204 E131.31312
G0 F9000 X172.974 Y151.320
G1 F2700 X169.107 Y147.452 E131.54051
G1 F2400 E130.94051
G1 Z1.900
G0 F9000 X171.199 Y148.661
G1 Z1.400
G1 F2400 E131.54051
G1 F2700 X172.974 Y150.436 E131.64487
G1 F2400 E131.04487
G1 Z1.900
G0 F9000 X168.919 Y149.916
G1 Z1.400
G1 F2400 E131.64487
G1 F2700 X166.689 Y147.686 E131.77599
G0 F9000 X166.128 Y148.009
G1 F2700 X167.909 Y149.790 E131.88070
G0 F9000 X167.174 Y149.939
G1 F2700 X165.568 Y148.333 E131.97513
G0 F9000 X165.007 Y148.656
G1 F2700 X166.582 Y150.231 E132.06773
G0 F9000 X166.108 Y150.641
G1 F2700 X164.447 Y148.980 E132.16540
G0 F9000 X163.886 Y149.303
G1 F2700 X165.277 Y150.693 E132.24715
G0 F9000 X164.392 Y150.692
G1 F2700 X163.326 Y149.627 E132.30980
G0 F9000 X163.224 Y150.408
G1 F2700 X163.508 Y150.692 E132.32650
G1 F2400 E131.72650
G1 Z1.900
G0 F9000 X163.587 Y154.307
G1 Z1.400
G1 F2400 E132.32650
G1 F2700 X166.465 Y157.185 E132.49571
G1 F2400 E131.89571
G1 Z1.900
G0 F9000 X166.623 Y154.956
;TYPE:SKIN
G1 Z1.400
G1 F2400 E132.49571
G1 F2700 X163.224 Y151.557 E132.69556
G0 F9000 X163.224 Y152.264
G1 F2700 X165.916 Y154.956 E132.85384
G0 F9000 X165.209 Y154.956
G1 F2700 X163.224 Y152.971 E132.97055
G0 F9000 X163.224 Y153.678
G1 F2700 X164.502 Y154.956 E133.04569
G0 F9000 X163.794 Y154.956
G1 F2700 X163.224 Y154.385 E133.07923
G1 F2400 E132.47923
G1 Z1.900
G0 F9000 X165.438 Y153.063
G1 Z1.400
G1 F2400 E133.07923
G1 F2700 X163.224 Y150.849 E133.20941
G0 F9000 X163.224 Y150.142
G1 F2700 X165.384 Y152.303 E133.33644
G0 F9000 X165.508 Y151.719
G1 F2700 X163.831 Y150.043 E133.43501
G0 F9000 X164.538 Y150.043
G1 F2700 X165.707 Y151.211 E133.50371
G0 F9000 X165.989 Y150.786
G1 F2700 X165.246 Y150.043 E133.54740
G0 F9000 X165.953 Y150.043
G1 F2700 X166.341 Y150.431 E133.57021
;LAYER:7
M106 S73
G1 F2400 E132.97021
G1 Z1.900
G0 F9000 X157.550 Y149.585 Z1.600
;TYPE:WALL-INNER
G1 Z1.600
G1 F2400 E133.57021
G1 F2700 X157.550 Y155.415 E133.81260
G1 X152.500 Y158.330 E134.05502
G1 X147.450 Y155.415 E134.29744
G1 X147.450 Y154.039 E134.35465
G1 X149.198 Y154.038 E134.42732
G1 X149.849 Y154.041 E134.45439
G1 X150.488 Y154.040 E134.48095
G1 X150.613 Y154.223 E134.49017
G1 X150.984 Y154.551 E134.51075
G1 X151.204 Y154.697 E134.52173
G1 X151.587 Y154.885 E134.53947
G1 X152.188 Y155.034 E134.56521
G1 X152.553 Y155.051 E134.58040
G1 X153.041 Y154.996 E134.60082
G1 X153.599 Y154.805 E134.62534
G1 X154.059 Y154.520 E134.64784
G1 X154.328 Y154.281 E134.66280
G1 X154.639 Y153.895 E134.68341
G1 X154.918 Y153.324 E134.70983
G1 X155.029 Y152.841 E134.73043
G1 X155.052 Y152.480 E134.74547
G1 X154.985 Y151.920 E134.76892
G1 X154.863 Y151.538 E134.78559
G1 X154.716 Y151.237 E134.79952
G1 X154.521 Y150.941 E134.81426
G1 X154.077 Y150.490 E134.84057
G1 X153.601 Y150.202 E134.86370
G1 X153.472 Y150.141 E134.86963
G1 X152.895 Y149.978 E134.89456
G1 X152.529 Y149.949 E134.90982
G1 X152.030 Y149.989 E134.93064
G1 X151.350 Y150.217 E134.96045
G1 X150.859 Y150.542 E134.98493
G1 X150.474 Y150.960 E135.00856
G1 X149.850 Y150.960 E135.03450
G1 X147.450 Y150.962 E135.13428
G1 X147.450 Y149.585 E135.19153
G1 X152.500 Y146.670 E135.43396
G1 X157.550 Y149.585 E135.67638
G0 F9000 X158.050 Y149.297
;TYPE:WALL-OUTER
G1 F2700 X158.050 Y155.703 E135.94271
G1 X152.500 Y158.908 E136.20916
G1 X146.950 Y155.703 E136.47561
G1 X146.950 Y153.539 E136.56558
G1 X149.200 Y153.538 E136.65913
G1 X149.850 Y153.541 E136.68615
G1 X150.752 Y153.539 E136.72365
G1 X150.991 Y153.890 E136.74131
G1 X151.289 Y154.154 E136.75786
G1 X151.453 Y154.262 E136.76602
G1 X151.759 Y154.412 E136.78019
G1 X152.261 Y154.537 E136.80170
G1 X152.537 Y154.550 E136.81319
G1 X152.931 Y154.505 E136.82967
G1 X153.384 Y154.350 E136.84958
G1 X153.759 Y154.118 E136.86791
G1 X153.965 Y153.935 E136.87937
G1 X154.214 Y153.625 E136.89590
G1 X154.443 Y153.156 E136.91760
G1 X154.532 Y152.768 E136.93415
G1 X154.550 Y152.493 E136.94560
G1 X154.494 Y152.027 E136.96512
G1 X154.398 Y151.725 E136.97829
G1 X154.281 Y151.485 E136.98939
G1 X154.130 Y151.256 E137.00080
G1 X153.765 Y150.885 E137.02244
G1 X153.364 Y150.643 E137.04191
G1 X153.296 Y150.611 E137.04503
G1 X152.806 Y150.473 E137.06620
G1 X152.529 Y150.450 E137.07775
G1 X152.131 Y150.482 E137.09435
G1 X151.571 Y150.670 E137.11891
G1 X151.186 Y150.925 E137.13811
G1 X150.828 Y151.313 E137.16006
G1 X150.741 Y151.460 E137.16716
G1 X146.950 Y151.462 E137.32477
G1 X146.950 Y149.297 E137.41478
G1 X152.500 Y146.092 E137.68124
G1 X158.050 Y149.297 E137.94769
G0 F9000 X157.374 Y149.775
;TYPE:FILL
G1 F2700 X155.168 Y151.981 E138.07739
G0 F9000 X154.950 Y151.315
G1 F2700 X156.870 Y149.395 E138.19028
G0 F9000 X156.310 Y149.072
G1 F2700 X154.605 Y150.777 E138.29053
G0 F9000 X154.161 Y150.337
G1 F2700 X155.750 Y148.748 E138.38396
G0 F9000 X155.190 Y148.424
G1 F2700 X153.604 Y150.010 E138.47721
G0 F9000 X152.924 Y149.806
G1 F2700 X154.629 Y148.101 E138.57745
G0 F9000 X154.069 Y147.777
G1 F2700 X152.034 Y149.812 E138.69710
G1 F2400 E138.09710
G1 Z2.100
G0 F9000 X150.178 Y150.784
G1 Z1.600
G1 F2400 E138.69710
G1 F2700 X153.508 Y147.454 E138.89290
G0 F9000 X152.948 Y147.130
G1 F2700 X149.293 Y150.785 E139.10780
G0 F9000 X148.408 Y150.786
G1 F2700 X152.083 Y147.111 E139.32387
G1 F2400 E138.72387
G1 Z2.100
G0 F9000 X149.992 Y148.319
G1 Z1.600
G1 F2400 E139.32387
G1 F2700 X147.625 Y150.685 E139.46301
G0 F9000 X147.625 Y149.801
G1 F2700 X147.899 Y149.527 E139.47912
G1 F2400 E138.87912
G1 Z2.100
G0 F9000 X148.517 Y154.213
G1 Z1.600
G1 F2400 E139.47912
G1 F2700 X147.624 Y155.105 E139.53160
G0 F9000 X148.054 Y155.560
G1 F2700 X149.401 Y154.213 E139.61080
G0 F9000 X150.284 Y154.213
G1 F2700 X148.614 Y155.884 E139.70902
G0 F9000 X149.174 Y156.207
G1 F2700 X150.779 Y154.603 E139.80335
G0 F9000 X151.319 Y154.946
G1 F2700 X149.734 Y156.531 E139.89655
G0 F9000 X150.295 Y156.854
G1 F2700 X151.987 Y155.162 E139.99603
G0 F9000 X152.840 Y155.193
G1 F2700 X150.855 Y157.178 E140.11274
G0 F9000 X151.416 Y157.501
G1 F2700 X157.374 Y151.543 E140.46305
G0 F9000 X157.374 Y152.427
G1 F2700 X151.976 Y157.825 E140.78043
G0 F9000 X152.637 Y158.048
G1 F2700 X157.374 Y153.311 E141.05895
G0 F9000 X157.374 Y154.195
G1 F2700 X154.729 Y156.840 E141.21446
G1 F2400 E140.61446
G1 Z2.100
G0 F9000 X156.821 Y155.632
G1 Z1.600
G1 F2400 E141.21446
G1 F2700 X157.374 Y155.079 E141.24698
G1 F2400 E140.64698
G1 Z2.100
G0 F9000 X155.204 Y152.829
G1 Z1.600
G1 F2400 E141.24698
G1 F2700 X157.374 Y150.659 E141.37456
G1 F2400 E140.77456
G1 Z2.100
G0 F9000 X150.982 Y149.891
;TYPE:SKIN
G1 Z1.600
G1 F2400 E141.37456
G1 F2700 X150.089 Y150.784 E141.42707
G0 F9000 X149.381 Y150.785
G1 F2700 X150.276 Y149.890 E141.47969
G0 F9000 X149.570 Y149.888
G1 F2700 X148.674 Y150.785 E141.53240
G0 F9000 X147.966 Y150.786
G1 F2700 X148.862 Y149.889 E141.58511
G0 F9000 X148.156 Y149.888
G1 F2700 X147.625 Y150.419 E141.61633
G1 F2400 E141.01633
G1 Z2.100
G0 F9000 X148.074 Y154.213
G1 Z1.600
G1 F2400 E141.61633
G1 F2700 X147.624 Y154.663 E141.64279
G0 F9000 X147.886 Y155.108
G1 F2700 X148.781 Y154.213 E141.69542
G0 F9000 X149.488 Y154.213
G1 F2700 X148.593 Y155.108 E141.74804
G0 F9000 X149.300 Y155.108
G1 F2700 X150.195 Y154.213 E141.80066
G0 F9000 X150.638 Y154.478
G1 F2700 X150.361 Y155.108 E141.83763
G1 X151.032 Y154.791 E141.86848
G1 F2400 E141.26848
G1 Z2.100
G0 F9000 X163.050 Y155.415
;TYPE:WALL-INNER
G1 Z1.600
G1 F2400 E141.86848
G1 F2700 X163.050 Y154.039 E141.92569
G1 X164.797 Y154.038 E141.99832
G1 X165.448 Y154.041 E142.02539
G1 X166.087 Y154.040 E142.05195
G1 X166.212 Y154.223 E142.06117
G1 X166.583 Y154.551 E142.08175
G1 X166.803 Y154.697 E142.09273
G1 X167.186 Y154.885 E142.11047
G1 X167.787 Y155.034 E142.13621
G1 X168.153 Y155.051 E142.15145
G1 X168.641 Y154.996 E142.17186
G1 X169.199 Y154.805 E142.19638
G1 X169.659 Y154.520 E142.21888
G1 X169.928 Y154.281 E142.23384
G1 X170.239 Y153.895 E142.25445
G1 X170.518 Y153.324 E142.28087
G1 X170.629 Y152.841 E142.30148
G1 X170.652 Y152.480 E142.31652
G1 X170.585 Y151.920 E142.33996
G1 X170.463 Y151.538 E142.35664
G1 X170.316 Y151.237 E142.37056
G1 X170.121 Y150.941 E142.38530
G1 X169.677 Y150.490 E142.41161
G1 X169.201 Y150.202 E142.43474
G1 X169.072 Y150.141 E142.44067
G1 X168.495 Y149.978 E142.46560
G1 X168.130 Y149.949 E142.48082
G1 X167.629 Y149.989 E142.50172
G1 X166.951 Y150.217 E142.53146
G1 X166.459 Y150.541 E142.55595
G1 X166.073 Y150.960 E142.57964
G1 X165.449 Y150.960 E142.60558
G1 X163.050 Y150.962 E142.70532
G1 X163.050 Y149.585 E142.76257
G1 X168.100 Y146.670 E143.00499
G1 X173.150 Y149.585 E143.24741
G1 X173.150 Y155.415 E143.48979
G1 X168.100 Y158.330 E143.73222
G1 X163.050 Y155.415 E143.97464
G0 F9000 X162.550 Y155.703
;TYPE:WALL-OUTER
G1 F2700 X162.550 Y153.539 E144.06461
G1 X164.799 Y153.538 E144.15811
G1 X165.449 Y153.541 E144.18513
G1 X166.351 Y153.539 E144.22263
G1 X166.590 Y153.890 E144.24029
G1 X166.888 Y154.154 E144.25684
G1 X167.052 Y154.262 E144.26500
G1 X167.358 Y154.412 E144.27917
G1 X167.860 Y154.537 E144.30068
G1 X168.137 Y154.550 E144.31221
G1 X168.531 Y154.505 E144.32870
G1 X168.984 Y154.350 E144.34860
G1 X169.359 Y154.118 E144.36694
G1 X169.565 Y153.935 E144.37839
G1 X169.814 Y153.625 E144.39492
G1 X170.043 Y153.156 E144.41662
G1 X170.132 Y152.768 E144.43317
G1 X170.150 Y152.493 E144.44463
G1 X170.094 Y152.027 E144.46414
G1 X169.998 Y151.725 E144.47732
G1 X169.881 Y151.485 E144.48842
G1 X169.730 Y151.256 E144.49982
G1 X169.365 Y150.885 E144.52146
G1 X168.964 Y150.643 E144.54093
G1 X168.896 Y150.611 E144.54406
G1 X168.406 Y150.473 E144.56522
G1 X168.129 Y150.450 E144.57678
G1 X167.730 Y150.482 E144.59342
G1 X167.172 Y150.670 E144.61790
G1 X166.785 Y150.925 E144.63717
G1 X166.427 Y151.313 E144.65912
G1 X166.340 Y151.460 E144.66622
G1 X162.550 Y151.462 E144.82379
G1 X162.550 Y149.297 E144.91380
G1 X168.100 Y146.092 E145.18025
G1 X173.650 Y149.297 E145.44670
G1 X173.650 Y155.703 E145.71303
G1 X168.100 Y158.908 E145.97949
G1 X162.550 Y155.703 E146.24594
G0 F9000 X163.289 Y155.351
;TYPE:FILL
G1 F2700 X164.426 Y154.214 E146.31279
G0 F9000 X165.310 Y154.214
G1 F2700 X163.850 Y155.674 E146.39863
G0 F9000 X164.410 Y155.998
G1 F2700 X166.073 Y154.334 E146.49644
G0 F9000 X166.551 Y154.740
G1 F2700 X164.970 Y156.322 E146.58943
G0 F9000 X165.530 Y156.645
G1 F2700 X167.126 Y155.049 E146.68327
G0 F9000 X167.848 Y155.211
G1 F2700 X166.090 Y156.969 E146.78663
G0 F9000 X166.651 Y157.292
G1 F2700 X168.827 Y155.116 E146.91457
G1 F2400 E146.31457
G1 Z2.100
G0 F9000 X168.969 Y157.626
G1 Z1.600
G1 F2400 E146.91457
G1 F2700 X172.973 Y153.621 E147.15002
G0 F9000 X172.973 Y154.505
G1 F2700 X171.061 Y156.417 E147.26244
G1 F2400 E146.66244
G1 Z2.100
G0 F9000 X170.719 Y153.224
G1 Z1.600
G1 F2400 E147.26244
G1 F2700 X172.973 Y150.970 E147.39496
G0 F9000 X172.973 Y151.854
G1 F2700 X167.211 Y157.616 E147.73375
G0 F9000 X167.772 Y157.939
G1 F2700 X172.973 Y152.737 E148.03958
G1 F2400 E147.43958
G1 Z2.100
G0 F9000 X170.801 Y152.258
G1 Z1.600
G1 F2400 E148.03958
G1 F2700 X172.973 Y150.086 E148.16728
G0 F9000 X172.667 Y149.508
G1 F2700 X170.644 Y151.531 E148.28623
G0 F9000 X170.338 Y150.953
G1 F2700 X172.106 Y149.185 E148.39018
G0 F9000 X171.546 Y148.861
G1 F2700 X169.920 Y150.487 E148.48578
G0 F9000 X169.403 Y150.120
G1 F2700 X170.986 Y148.538 E148.57882
G0 F9000 X170.426 Y148.214
G1 F2700 X168.766 Y149.874 E148.67643
G0 F9000 X167.971 Y149.785
G1 F2700 X169.865 Y147.891 E148.78779
G0 F9000 X169.305 Y147.567
G1 F2700 X166.699 Y150.173 E148.94101
G1 F2400 E148.34101
G1 Z2.100
G0 F9000 X165.202 Y150.786
G1 Z1.600
G1 F2400 E148.94101
G1 F2700 X168.744 Y147.244 E149.14926
G0 F9000 X168.184 Y146.920
G1 F2700 X164.318 Y150.786 E149.37657
G0 F9000 X163.433 Y150.787
G1 F2700 X166.324 Y147.896 E149.54655
G1 F2400 E148.94655
G1 Z2.100
G0 F9000 X164.232 Y149.104
G1 Z1.600
G1 F2400 E149.54655
G1 F2700 X163.224 Y150.113 E149.60585
G1 F2400 E149.00585
G1 Z2.100
G0 F9000 X163.542 Y154.214
G1 Z1.600
G1 F2400 E149.60585
G1 F2700 X163.224 Y154.576 E149.62452
G1 X163.630 Y154.214 E149.64713
G0 F9000 X164.337 Y154.214
;TYPE:SKIN
G1 F2700 X163.442 Y155.109 E149.69975
G0 F9000 X164.149 Y155.109
G1 F2700 X165.044 Y154.214 E149.75238
G0 F9000 X165.751 Y154.214
G1 F2700 X164.856 Y155.109 E149.80500
G0 F9000 X165.564 Y155.108
G1 F2700 X166.408 Y154.616 E149.84318
G1 X166.271 Y155.108 E149.86441
G1 F2400 E149.26441
G1 Z2.100
G0 F9000 X165.644 Y150.785
G1 Z1.600
G1 F2400 E149.86441
G1 F2700 X166.537 Y149.892 E149.91692
G0 F9000 X165.832 Y149.891
G1 F2700 X164.936 Y150.786 E149.96957
G0 F9000 X164.229 Y150.786
G1 F2700 X165.125 Y149.890 E150.02225
G0 F9000 X164.419 Y149.889
G1 F2700 X163.521 Y150.787 E150.07505
G0 F9000 X163.224 Y150.377
G1 F2700 X163.712 Y149.889 E150.10374
;LAYER:8
M106 S84
G1 F2400 E149.50374
G1 Z2.100
G0 F9000 X157.550 Y149.585 Z1.800
;TYPE:WALL-INNER
G1 Z1.800
G1 F2400 E150.10374
G1 F2700 X157.550 Y155.415 E150.34612
G1 X152.500 Y158.330 E150.58855
G1 X147.450 Y155.415 E150.83097
G1 X147.450 Y154.425 E150.87213
G1 X148.542 Y154.425 E150.91753
G1 X149.202 Y154.424 E150.94497
G1 X150.838 Y154.425 E151.01298
G1 X150.950 Y154.531 E151.01940
G1 X151.565 Y154.879 E151.04877
G1 X152.188 Y155.034 E151.07546
G1 X152.553 Y155.051 E151.09066
G1 X153.045 Y154.996 E151.11124
G1 X153.657 Y154.779 E151.13823
G1 X154.191 Y154.413 E151.16515
G1 X154.528 Y154.050 E151.18574
G1 X154.716 Y153.763 E151.20001
G1 X154.861 Y153.467 E151.21371
G1 X154.961 Y153.167 E151.22686
G1 X155.005 Y152.982 E151.23476
G1 X155.045 Y152.674 E151.24768
G1 X155.050 Y152.485 E151.25554
G1 X155.029 Y152.159 E151.26912
G1 X154.923 Y151.701 E151.28866
G1 X154.786 Y151.363 E151.30383
G1 X154.465 Y150.870 E151.32828
G1 X154.086 Y150.501 E151.35028
G1 X153.788 Y150.297 E151.36529
G1 X153.363 Y150.099 E151.38478
G1 X153.034 Y150.005 E151.39901
G1 X152.716 Y149.958 E151.41237
G1 X152.503 Y149.949 E151.42124
G1 X151.898 Y150.017 E151.44655
G1 X151.424 Y150.186 E151.46747
G1 X151.057 Y150.395 E151.48503
G1 X150.846 Y150.571 E151.49645
G1 X149.199 Y150.576 E151.56493
G1 X147.450 Y150.575 E151.63764
G1 X147.450 Y149.585 E151.67880
G1 X152.500 Y146.670 E151.92122
G1 X157.550 Y149.585 E152.16365
G0 F9000 X158.050 Y149.297
;TYPE:WALL-OUTER
G1 F2700 X158.050 Y155.703 E152.42998
G1 X152.500 Y158.908 E152.69643
G1 X146.950 Y155.703 E152.96288
G1 X146.950 Y153.925 E153.03680
G1 X151.040 Y153.926 E153.20684
G1 X151.250 Y154.126 E153.21890
G1 X151.752 Y154.410 E153.24288
G1 X152.261 Y154.537 E153.26469
G1 X152.537 Y154.550 E153.27618
G1 X152.932 Y154.505 E153.29271
G1 X153.428 Y154.330 E153.31457
G1 X153.862 Y154.032 E153.33646
G1 X154.133 Y153.741 E153.35299
G1 X154.281 Y153.515 E153.36423
G1 X154.397 Y153.277 E153.37523
G1 X154.512 Y152.892 E153.39194
G1 X154.546 Y152.635 E153.40272
G1 X154.549 Y152.495 E153.40854
G1 X154.532 Y152.232 E153.41949
G1 X154.445 Y151.852 E153.43570
G1 X154.341 Y151.596 E153.44719
G1 X154.076 Y151.189 E153.46738
G1 X153.768 Y150.889 E153.48526
G1 X153.540 Y150.733 E153.49674
G1 X153.188 Y150.569 E153.51289
G1 X152.929 Y150.495 E153.52409
G1 X152.669 Y150.457 E153.53501
G1 X152.520 Y150.450 E153.54121
G1 X152.011 Y150.508 E153.56251
G1 X151.633 Y150.642 E153.57919
G1 X151.343 Y150.808 E153.59308
G1 X151.032 Y151.070 E153.60998
G1 X146.950 Y151.076 E153.77969
G1 X146.950 Y149.297 E153.85366
G1 X152.500 Y146.092 E154.12011
G1 X158.050 Y149.297 E154.38656
G0 F9000 X157.374 Y149.862
;TYPE:FILL
G1 F2700 X156.960 Y149.447 E154.41093
G0 F9000 X157.374 Y150.745
G1 F2700 X154.868 Y148.239 E154.55828
G1 F2400 E153.95828
G1 Z2.300
G0 F9000 X152.776 Y147.032
G1 Z1.800
G1 F2400 E154.55828
G1 F2700 X157.374 Y151.629 E154.82859
G0 F9000 X157.374 Y152.513
G1 F2700 X152.013 Y147.152 E155.14380
G0 F9000 X151.453 Y147.476
G1 F2700 X157.374 Y153.397 E155.49193
G0 F9000 X157.374 Y154.281
G1 F2700 X155.193 Y152.100 E155.62016
G0 F9000 X155.181 Y152.972
G1 F2700 X157.374 Y155.165 E155.74910
G0 F9000 X156.906 Y155.581
G1 F2700 X154.968 Y153.643 E155.86305
G0 F9000 X154.633 Y154.192
G1 F2700 X156.346 Y155.905 E155.96377
G0 F9000 X155.786 Y156.228
G1 F2700 X154.185 Y154.627 E156.05790
G0 F9000 X153.642 Y154.969
G1 F2700 X155.226 Y156.552 E156.15101
G0 F9000 X154.665 Y156.875
G1 F2700 X152.969 Y155.180 E156.25069
G0 F9000 X152.096 Y155.190
G1 F2700 X154.105 Y157.199 E156.36882
G0 F9000 X153.545 Y157.523
G1 F2700 X150.621 Y154.599 E156.54074
G0 F9000 X149.737 Y154.599
G1 F2700 X152.984 Y157.846 E156.73165
G0 F9000 X152.218 Y157.964
G1 F2700 X148.853 Y154.599 E156.92950
G0 F9000 X147.969 Y154.599
G1 F2700 X150.127 Y156.757 E157.05638
G1 F2400 E156.45638
G1 Z2.300
G0 F9000 X148.036 Y155.550
G1 Z1.800
G1 F2400 E157.05638
G1 F2700 X147.624 Y155.138 E157.08060
G1 F2400 E156.48060
G1 Z2.300
G0 F9000 X148.188 Y150.398
G1 Z1.800
G1 F2400 E157.08060
G1 F2700 X147.624 Y149.835 E157.11373
G0 F9000 X148.091 Y149.418
G1 F2700 X149.071 Y150.398 E157.17135
G0 F9000 X149.954 Y150.397
G1 F2700 X148.651 Y149.094 E157.24797
G0 F9000 X149.211 Y148.770
G1 F2700 X150.811 Y150.370 E157.34204
G0 F9000 X151.351 Y150.026
G1 F2700 X149.772 Y148.447 E157.43488
G0 F9000 X150.332 Y148.123
G1 F2700 X152.035 Y149.826 E157.53501
G0 F9000 X152.901 Y149.808
G1 F2700 X150.893 Y147.800 E157.65307
G1 F2400 E157.05307
G1 Z2.300
G0 F9000 X150.833 Y149.772
;TYPE:SKIN
G1 Z1.800
G1 F2400 E157.65307
G1 F2700 X151.361 Y149.946 E157.67360
G1 X151.677 Y149.909 E157.68682
G0 F9000 X150.750 Y150.396
G1 F2700 X150.084 Y150.084 E157.72352
G1 X149.377 Y150.084 E157.76014
G1 X148.671 Y150.085 E157.79683
G1 X147.814 Y149.935 E157.83358
G1 X147.923 Y150.398 E157.85336
G1 F2400 E157.25336
G1 Z2.300
G0 F9000 X147.882 Y154.599
G1 Z1.800
G1 F2400 E157.85336
G1 F2700 X148.549 Y154.912 E157.89018
G1 X149.256 Y154.912 E157.92698
G1 X149.962 Y154.912 E157.96378
G1 X150.670 Y154.912 E158.00058
G1 X151.337 Y155.226 E158.03123
G1 F2400 E157.43123
G1 Z2.300
G0 F9000 X147.802 Y155.226
G1 Z1.800
G1 F2400 E158.03123
G1 F2700 X147.624 Y155.049 E158.04166
G0 F9000 X163.050 Y155.415
;TYPE:WALL-INNER
G1 F2700 X163.050 Y154.425 E158.08282
G1 X164.141 Y154.425 E158.12818
G1 X164.801 Y154.424 E158.15562
G1 X166.437 Y154.425 E158.22364
G1 X166.549 Y154.531 E158.23005
G1 X167.164 Y154.879 E158.25943
G1 X167.787 Y155.034 E158.28612
G1 X168.153 Y155.051 E158.30135
G1 X168.645 Y154.996 E158.32193
G1 X169.257 Y154.779 E158.34893
G1 X169.791 Y154.413 E158.37585
G1 X170.128 Y154.050 E158.39644
G1 X170.316 Y153.763 E158.41070
G1 X170.461 Y153.467 E158.42441
G1 X170.561 Y153.167 E158.43755
G1 X170.605 Y152.982 E158.44546
G1 X170.645 Y152.674 E158.45837
G1 X170.650 Y152.485 E158.46623
G1 X170.629 Y152.159 E158.47981
G1 X170.523 Y151.701 E158.49936
G1 X170.386 Y151.363 E158.51452
G1 X170.065 Y150.870 E158.53898
G1 X169.686 Y150.501 E158.56097
G1 X169.388 Y150.297 E158.57599
G1 X168.963 Y150.099 E158.59548
G1 X168.634 Y150.005 E158.60970
G1 X168.316 Y149.958 E158.62307
G1 X168.103 Y149.949 E158.63193
G1 X167.498 Y150.017 E158.65724
G1 X167.023 Y150.186 E158.67820
G1 X166.656 Y150.395 E158.69576
G1 X166.445 Y150.571 E158.70719
G1 X164.798 Y150.576 E158.77566
G1 X163.050 Y150.575 E158.84834
G1 X163.050 Y149.585 E158.88949
G1 X168.100 Y146.670 E159.13192
G1 X173.150 Y149.585 E159.37434
G1 X173.150 Y155.415 E159.61672
G1 X168.100 Y158.330 E159.85914
G1 X163.050 Y155.415 E160.10157
G0 F9000 X162.550 Y155.703
;TYPE:WALL-OUTER
G1 F2700 X162.550 Y153.925 E160.17549
G1 X166.639 Y153.926 E160.34549
G1 X166.849 Y154.126 E160.35754
G1 X167.351 Y154.410 E160.38152
G1 X167.860 Y154.537 E160.40333
G1 X168.137 Y154.550 E160.41486
G1 X168.532 Y154.505 E160.43139
G1 X169.028 Y154.330 E160.45326
G1 X169.462 Y154.032 E160.47515
G1 X169.733 Y153.741 E160.49168
G1 X169.881 Y153.515 E160.50291
G1 X169.997 Y153.277 E160.51392
G1 X170.112 Y152.892 E160.53062
G1 X170.146 Y152.635 E160.54140
G1 X170.149 Y152.495 E160.54722
G1 X170.132 Y152.232 E160.55818
G1 X170.045 Y151.852 E160.57439
G1 X169.941 Y151.596 E160.58587
G1 X169.676 Y151.189 E160.60607
G1 X169.368 Y150.889 E160.62394
G1 X169.140 Y150.733 E160.63543
G1 X168.788 Y150.569 E160.65157
G1 X168.529 Y150.495 E160.66277
G1 X168.269 Y150.457 E160.67370
G1 X168.120 Y150.450 E160.67990
G1 X167.611 Y150.508 E160.70120
G1 X167.232 Y150.642 E160.71791
G1 X166.942 Y150.808 E160.73180
G1 X166.631 Y151.070 E160.74871
G1 X162.550 Y151.076 E160.91838
G1 X162.550 Y149.297 E160.99234
G1 X168.100 Y146.092 E161.25879
G1 X173.650 Y149.297 E161.52524
G1 X173.650 Y155.703 E161.79157
G1 X168.100 Y158.908 E162.05803
G1 X162.550 Y155.703 E162.32448
G0 F9000 X163.224 Y154.828
;TYPE:FILL
G1 F2700 X164.371 Y155.975 E162.39192
G0 F9000 X164.764 Y154.600
G1 F2700 X168.221 Y158.057 E162.59518
G0 F9000 X168.781 Y157.733
G1 F2700 X165.648 Y154.600 E162.77939
G0 F9000 X166.815 Y154.883
G1 F2700 X169.342 Y157.410 E162.92796
G0 F9000 X169.902 Y157.086
G1 F2700 X168.036 Y155.221 E163.03765
G0 F9000 X168.818 Y155.119
G1 F2700 X170.462 Y156.762 E163.13428
G0 F9000 X171.022 Y156.439
G1 F2700 X169.445 Y154.862 E163.22700
G0 F9000 X169.956 Y154.489
G1 F2700 X171.582 Y156.115 E163.32260
G0 F9000 X172.143 Y155.792
G1 F2700 X170.361 Y154.010 E163.42738
G0 F9000 X170.659 Y153.424
G1 F2700 X172.703 Y155.468 E163.54756
G0 F9000 X172.974 Y154.855
G1 F2700 X170.817 Y152.699 E163.67435
G0 F9000 X170.701 Y151.698
G1 F2700 X172.974 Y153.971 E163.80800
G0 F9000 X172.974 Y153.087
G1 F2700 X167.249 Y147.363 E164.14457
G0 F9000 X166.689 Y147.686
G1 F2700 X168.902 Y149.899 E164.27469
G0 F9000 X167.913 Y149.794
G1 F2700 X166.129 Y148.010 E164.37958
G0 F9000 X165.569 Y148.334
G1 F2700 X167.179 Y149.944 E164.47424
G0 F9000 X166.584 Y150.233
G1 F2700 X165.008 Y148.657 E164.56691
G0 F9000 X164.448 Y148.981
G1 F2700 X165.863 Y150.395 E164.65007
G0 F9000 X164.980 Y150.397
G1 F2700 X163.888 Y149.304 E164.71431
G0 F9000 X163.327 Y149.628
G1 F2700 X164.098 Y150.398 E164.75961
G1 F2400 E164.15961
G1 Z2.300
G0 F9000 X163.880 Y154.600
G1 Z1.800
G1 F2400 E164.75961
G1 F2700 X166.462 Y157.182 E164.91142
G1 F2400 E164.31142
G1 Z2.300
G0 F9000 X172.974 Y152.204
G1 Z1.800
G1 F2400 E164.91142
G1 F2700 X167.809 Y147.039 E165.21511
G0 F9000 X169.110 Y147.455
G1 F2700 X172.974 Y151.320 E165.44232
G0 F9000 X172.974 Y150.436
G1 F2700 X171.201 Y148.662 E165.54660
G1 F2400 E164.94660
G1 Z2.300
G0 F9000 X167.244 Y149.920
;TYPE:SKIN
G1 Z1.800
G1 F2400 E165.54660
G1 F2700 X166.925 Y149.954 E165.55527
G1 X166.347 Y150.083 E165.57664
G1 X165.640 Y150.084 E165.61326
G1 X164.934 Y150.084 E165.64989
G1 X164.227 Y150.085 E165.68658
G1 X163.392 Y149.957 E165.72338
G1 X163.480 Y150.399 E165.74212
G1 F2400 E165.14212
G1 Z2.300
G0 F9000 X163.439 Y154.600
G1 Z1.800
G1 F2400 E165.74212
G1 F2700 X164.106 Y154.913 E165.77894
G1 X164.813 Y154.913 E165.81574
G1 X165.519 Y154.913 E165.85249
G1 X166.227 Y154.913 E165.88929
G1 X166.894 Y155.226 E165.91992
G1 F2400 E165.31992
G1 Z2.300
G0 F9000 X163.359 Y155.227
G1 Z1.800
G1 F2400 E165.91992
G1 F2700 X163.224 Y155.092 E165.92785
;LAYER:9
M106 S94
G0 F9000 X157.550 Y155.415 Z2.000
;TYPE:WALL-INNER
G1 F2700 X152.500 Y158.330 E166.17028
G1 X147.450 Y155.415 E166.41270
G1 X147.450 Y154.686 E166.44301
G1 X151.206 Y154.685 E166.59916
G1 X151.426 Y154.818 E166.60985
G1 X152.025 Y155.008 E166.63598
G1 X152.364 Y155.046 E166.65016
G1 X152.565 Y155.050 E166.65852
G1 X153.033 Y154.997 E166.67810
G1 X153.505 Y154.847 E166.69869
G1 X153.951 Y154.603 E166.71983
G1 X154.434 Y154.170 E166.74679
G1 X154.791 Y153.629 E166.77374
G1 X154.958 Y153.178 E166.79374
G1 X155.005 Y152.982 E166.80212
G1 X155.045 Y152.674 E166.81503
G1 X155.050 Y152.485 E166.82289
G1 X155.028 Y152.147 E166.83697
G1 X154.865 Y151.532 E166.86342
G1 X154.544 Y150.968 E166.89040
G1 X154.200 Y150.596 E166.91147
G1 X153.810 Y150.310 E166.93158
G1 X153.493 Y150.150 E166.94634
G1 X153.046 Y150.007 E166.96585
G1 X152.716 Y149.958 E166.97972
G1 X152.503 Y149.949 E166.98858
G1 X151.882 Y150.019 E167.01457
G1 X151.245 Y150.276 E167.04312
G1 X151.188 Y150.314 E167.04597
G1 X147.450 Y150.315 E167.20138
G1 X147.450 Y149.585 E167.23173
G1 X152.500 Y146.670 E167.47415
G1 X157.550 Y149.585 E167.71657
G1 X157.550 Y155.415 E167.95896
G0 F9000 X158.050 Y155.703
;TYPE:WALL-OUTER
G1 F2700 X152.500 Y158.908 E168.22541
G1 X146.950 Y155.703 E168.49186
G1 X146.950 Y154.186 E168.55493
G1 X151.346 Y154.185 E168.73770
G1 X151.634 Y154.359 E168.75169
G1 X152.130 Y154.517 E168.77333
G1 X152.397 Y154.547 E168.78450
