;-- START GCODE --
;Sliced for Type A Machines Series 1
;Sliced at: Sun 08-11-2020 10:18:21
;Basic settings: Layer height: 0.2 Walls: 1 Fill: 20
;Print Speed: 45 Support: 0
;Retraction Speed: 40 Retraction Distance: 0.6
;Print time: 4 minutes
;Filament used: 0.17m 0.0g
;Settings based on: Type A Machines ProMatte
G21        ;metric values
G90        ;absolute positioning
G28     ;move to endstops
G29		;allows for auto-levelling
G1 Z15.0 F12000 ;move the platform down 15mm
G1 X150 Y5 F9000 ;center
M140 S50 ;Prep Heat Bed
M109 S210 ;Heat To temp
M190 S50 ;Heat Bed to temp
G1 X150 Y5 Z0.3 ;move the platform to purge extrusion
G92 E0 ;zero the extruded length
G1 F200 X250 E30 ;extrude 30mm of feed stock
G92 E0 ;zero the extruded length again
G1 X150 Y150  Z25 F12000 ;recenter and begin
G1 F9000

;Layer count: 25
;LAYER:0
M107
G0 F9000 X142.552 Y146.757 Z0.200
;TYPE:SKIRT
G1 F1800 X147.475 Y143.913 E0.23637
G1 X152.500 Y141.012 E0.47760
G1 X162.450 Y146.755 E0.95524
G1 X162.450 Y152.443 E1.19172
G1 X162.448 Y158.243 E1.43285
G1 X157.525 Y161.087 E1.66923
G1 X152.500 Y163.988 E1.91046
G1 X142.550 Y158.245 E2.38809
G1 X142.550 Y152.557 E2.62457
G1 X142.552 Y146.757 E2.86571
G0 F9000 X143.052 Y147.045
G1 F1800 X147.725 Y144.346 E3.09007
G1 X152.500 Y141.589 E3.31930
G1 X161.950 Y147.044 E3.77295
G1 X161.950 Y152.443 E3.99741
G1 X161.948 Y157.955 E4.22657
G1 X157.275 Y160.654 E4.45093
G1 X152.500 Y163.411 E4.68017
G1 X143.050 Y157.956 E5.13381
G1 X143.050 Y152.557 E5.35828
G1 X143.052 Y147.045 E5.58744
G0 F9000 X143.551 Y147.334
G1 F1800 X147.975 Y144.779 E5.79984
G1 X152.500 Y142.166 E6.01708
G1 X161.450 Y147.332 E6.44671
G1 X161.449 Y157.666 E6.87635
G1 X157.025 Y160.221 E7.08875
G1 X152.500 Y162.834 E7.30599
G1 X143.550 Y157.668 E7.73563
G1 X143.551 Y147.334 E8.16526
G1 F2400 E7.56526
G1 Z0.700
G0 F9000 X147.551 Y149.642
;TYPE:WALL-INNER
G1 Z0.200
G1 F2400 E8.16526
G1 F1800 X152.499 Y146.785 E8.40281
G1 X157.450 Y149.643 E8.64048
G1 X157.449 Y155.358 E8.87808
G1 X152.501 Y158.215 E9.11563
G1 X147.550 Y155.357 E9.35330
G1 X147.551 Y149.642 E9.59090
G1 F2400 E8.99090
G1 Z0.700
G0 F9000 X150.298 Y151.422
G1 Z0.200
G1 F2400 E9.59090
G1 F1800 X150.133 Y151.859 E9.61032
G1 X150.070 Y152.181 E9.62396
G1 X150.047 Y152.521 E9.63813
G1 X150.096 Y152.986 E9.65757
G1 X150.236 Y153.442 E9.67740
G1 X150.463 Y153.865 E9.69736
G1 X150.768 Y154.238 E9.71739
G1 X151.118 Y154.524 E9.73618
G1 X151.278 Y154.625 E9.74405
G1 X151.442 Y154.709 E9.75171
G1 X151.846 Y154.862 E9.76967
G1 X152.193 Y154.931 E9.78438
G1 X152.529 Y154.953 E9.79838
G1 X153.129 Y154.873 E9.82354
G1 X153.589 Y154.697 E9.84402
G1 X153.997 Y154.443 E9.86400
G1 X154.347 Y154.113 E9.88400
G1 X154.634 Y153.713 E9.90447
G1 X154.860 Y153.163 E9.92919
G1 X154.931 Y152.807 E9.94428
G1 X154.953 Y152.471 E9.95828
G1 X154.873 Y151.871 E9.98345
G1 X154.697 Y151.411 E10.00393
G1 X154.443 Y151.003 E10.02391
G1 X154.113 Y150.653 E10.04391
G1 X153.713 Y150.366 E10.06437
G1 X153.163 Y150.140 E10.08910
G1 X152.807 Y150.069 E10.10419
G1 X152.471 Y150.047 E10.11819
G1 X151.871 Y150.127 E10.14335
G1 X151.440 Y150.291 E10.16252
G1 X151.244 Y150.394 E10.17173
G1 X150.781 Y150.750 E10.19601
G1 X150.549 Y151.016 E10.21069
G1 X150.298 Y151.422 E10.23053
G0 F9000 X150.749 Y151.644
;TYPE:WALL-OUTER
G1 F1800 X150.616 Y151.996 E10.24618
G1 X150.567 Y152.246 E10.25677
G1 X150.549 Y152.512 E10.26785
G1 X150.588 Y152.886 E10.28348
G1 X150.699 Y153.249 E10.29927
G1 X150.880 Y153.586 E10.31517
G1 X151.123 Y153.883 E10.33112
G1 X151.411 Y154.117 E10.34655
G1 X151.645 Y154.251 E10.35776
G1 X151.992 Y154.383 E10.37320
G1 X152.250 Y154.434 E10.38413
G1 X152.512 Y154.451 E10.39505
G1 X153.005 Y154.385 E10.41573
G1 X153.366 Y154.247 E10.43179
G1 X153.690 Y154.045 E10.44767
G1 X153.969 Y153.782 E10.46361
G1 X154.194 Y153.469 E10.47964
G1 X154.382 Y153.011 E10.50022
G1 X154.434 Y152.750 E10.51128
G1 X154.451 Y152.488 E10.52220
G1 X154.385 Y151.995 E10.54288
G1 X154.247 Y151.634 E10.55895
G1 X154.045 Y151.310 E10.57482
G1 X153.782 Y151.031 E10.59076
G1 X153.469 Y150.806 E10.60679
G1 X153.011 Y150.618 E10.62737
G1 X152.750 Y150.566 E10.63843
G1 X152.488 Y150.549 E10.64935
G1 X151.995 Y150.615 E10.67003
G1 X151.646 Y150.748 E10.68556
G1 X151.515 Y150.817 E10.69171
G1 X151.125 Y151.116 E10.71214
G1 X150.953 Y151.313 E10.72302
G1 X150.749 Y151.644 E10.73918
G1 F2400 E10.13918
G1 Z0.700
G0 F9000 X147.051 Y149.354
G1 Z0.200
G1 F2400 E10.73918
G1 F1800 X152.499 Y146.208 E11.00074
G1 X157.950 Y149.354 E11.26240
G1 X157.949 Y155.646 E11.52399
G1 X152.501 Y158.792 E11.78554
G1 X147.050 Y155.646 E12.04720
G1 X147.051 Y149.354 E12.30879
G0 F9000 X147.885 Y149.652
;TYPE:SKIN
G1 F1800 X149.986 Y151.754 E12.43235
G0 F9000 X150.195 Y151.256
G1 F1800 X148.332 Y149.393 E12.54189
G0 F9000 X148.780 Y149.134
G1 F1800 X150.477 Y150.830 E12.64164
G0 F9000 X150.837 Y150.484
G1 F1800 X149.229 Y148.875 E12.73621
G0 F9000 X149.677 Y148.616
G1 F1800 X151.252 Y150.191 E12.82882
G0 F9000 X151.752 Y149.984
G1 F1800 X150.125 Y148.358 E12.92445
G0 F9000 X150.574 Y148.099
G1 F1800 X152.359 Y149.884 E13.02940
G0 F9000 X153.140 Y149.958
G1 F1800 X151.022 Y147.840 E13.15393
G0 F9000 X151.470 Y147.580
G1 F1800 X157.273 Y153.384 E13.49515
G0 F9000 X157.273 Y152.677
G1 F1800 X151.918 Y147.322 E13.81001
G0 F9000 X152.366 Y147.063
G1 F1800 X157.273 Y151.970 E14.09852
G0 F9000 X157.273 Y151.263
G1 F1800 X153.679 Y147.669 E14.30983
G1 F2400 E13.70983
G1 Z0.700
G0 F9000 X155.353 Y148.635
G1 Z0.200
G1 F2400 E14.30983
G1 F1800 X157.273 Y150.556 E14.42275
G0 F9000 X157.273 Y149.849
G1 F1800 X157.026 Y149.601 E14.43730
G1 F2400 E13.83730
G1 Z0.700
G0 F9000 X155.048 Y151.866
G1 Z0.200
G1 F2400 E14.43730
G1 F1800 X157.273 Y154.092 E14.56816
G0 F9000 X157.273 Y154.799
G1 F1800 X155.116 Y152.641 E14.69501
G0 F9000 X155.014 Y153.246
G1 F1800 X157.114 Y155.347 E14.81851
G0 F9000 X156.666 Y155.605
G1 F1800 X154.808 Y153.747 E14.92775
G0 F9000 X154.521 Y154.167
G1 F1800 X156.218 Y155.864 E15.02753
G0 F9000 X155.770 Y156.124
G1 F1800 X154.168 Y154.521 E15.12175
G0 F9000 X153.744 Y154.805
G1 F1800 X155.322 Y156.383 E15.21453
G0 F9000 X154.874 Y156.641
G1 F1800 X153.247 Y155.014 E15.31019
G0 F9000 X152.639 Y155.114
G1 F1800 X154.425 Y156.900 E15.41520
G0 F9000 X153.977 Y157.159
G1 F1800 X151.859 Y155.041 E15.53973
G1 F2400 E14.93973
G1 Z0.700
G0 F9000 X151.319 Y157.329
G1 Z0.200
G1 F2400 E15.53973
G1 F1800 X147.725 Y153.735 E15.75105
G0 F9000 X147.725 Y154.442
G1 F1800 X149.645 Y156.363 E15.86396
G1 F2400 E15.26396
G1 Z0.700
G0 F9000 X147.972 Y155.397
G1 Z0.200
G1 F2400 E15.86396
G1 F1800 X147.725 Y155.149 E15.87852
G0 F9000 X147.725 Y153.028
G1 F1800 X152.632 Y157.935 E16.16703
G0 F9000 X153.080 Y157.677
G1 F1800 X147.725 Y152.322 E16.48188
G0 F9000 X147.725 Y151.615
G1 F1800 X153.529 Y157.418 E16.82311
G1 F2400 E16.22311
G1 Z0.700
G0 F9000 X149.962 Y153.144
G1 Z0.200
G1 F2400 E16.82311
G1 F1800 X147.725 Y150.907 E16.95463
G0 F9000 X147.725 Y150.200
G1 F1800 X149.883 Y152.358 E17.08151
;LAYER:1
M106 S10
G0 F9000 X150.070 Y152.167 Z0.400
;TYPE:WALL-INNER
G1 F1680 X150.047 Y152.542 E17.09713
G1 X150.099 Y153.002 E17.11638
G1 X150.243 Y153.463 E17.13646
G1 X150.556 Y153.997 E17.16219
G1 X150.895 Y154.355 E17.18269
G1 X151.263 Y154.616 E17.20145
G1 X151.437 Y154.706 E17.20959
G1 X151.878 Y154.873 E17.22920
G1 X152.317 Y154.944 E17.24769
G1 X152.553 Y154.952 E17.25751
G1 X153.141 Y154.870 E17.28219
G1 X153.601 Y154.691 E17.30271
G1 X153.995 Y154.442 E17.32209
G1 X154.254 Y154.214 E17.33643
G1 X154.533 Y153.870 E17.35485
G1 X154.705 Y153.571 E17.36919
G1 X154.874 Y153.120 E17.38921
G1 X154.944 Y152.683 E17.40761
G1 X154.952 Y152.447 E17.41743
G1 X154.870 Y151.859 E17.44211
G1 X154.691 Y151.399 E17.46263
G1 X154.442 Y151.005 E17.48201
G1 X154.214 Y150.746 E17.49636
G1 X153.870 Y150.467 E17.51477
G1 X153.571 Y150.295 E17.52911
G1 X153.120 Y150.126 E17.54914
G1 X152.683 Y150.056 E17.56754
G1 X152.447 Y150.048 E17.57735
G1 X151.861 Y150.130 E17.60195
G1 X151.433 Y150.294 E17.62101
G1 X151.237 Y150.398 E17.63023
G1 X150.767 Y150.763 E17.65498
G1 X150.447 Y151.154 E17.67598
G1 X150.173 Y151.726 E17.70235
G1 X150.070 Y152.167 E17.72118
G1 F2400 E17.12118
G1 Z0.900
G0 F9000 X147.450 Y149.584
G1 Z0.400
G1 F2400 E17.72118
G1 F1680 X152.500 Y146.668 E17.96362
G1 X157.550 Y149.585 E18.20608
G1 X157.550 Y155.416 E18.44851
G1 X152.500 Y158.332 E18.69095
G1 X147.450 Y155.415 E18.93342
G1 X147.450 Y149.584 E19.17584
G0 F9000 X146.950 Y149.296
;TYPE:WALL-OUTER
G1 F1680 X152.500 Y146.091 E19.44229
G1 X158.050 Y149.296 E19.70875
G1 X158.050 Y155.704 E19.97516
G1 X152.500 Y158.909 E20.24161
G1 X146.950 Y155.704 E20.50806
G1 X146.950 Y149.296 E20.77448
G1 F2400 E20.17448
G1 Z0.900
G0 F9000 X150.872 Y151.424
G1 Z0.400
G1 F2400 E20.77448
G1 F1680 X150.648 Y151.893 E20.79609
G1 X150.567 Y152.240 E20.81090
G1 X150.549 Y152.529 E20.82294
G1 X150.590 Y152.899 E20.83842
G1 X150.703 Y153.259 E20.85410
G1 X150.959 Y153.695 E20.87512
G1 X151.224 Y153.976 E20.89118
G1 X151.524 Y154.188 E20.90646
G1 X152.008 Y154.388 E20.92823
G1 X152.365 Y154.445 E20.94326
G1 X152.526 Y154.451 E20.94996
G1 X153.014 Y154.383 E20.97044
G1 X153.375 Y154.242 E20.98655
G1 X153.694 Y154.041 E21.00223
G1 X153.892 Y153.867 E21.01319
G1 X154.120 Y153.586 E21.02823
G1 X154.251 Y153.358 E21.03917
G1 X154.388 Y152.991 E21.05545
G1 X154.445 Y152.635 E21.07044
G1 X154.451 Y152.474 E21.07714
G1 X154.383 Y151.986 E21.09762
G1 X154.242 Y151.625 E21.11374
G1 X154.041 Y151.306 E21.12941
G1 X153.867 Y151.108 E21.14037
G1 X153.586 Y150.880 E21.15542
G1 X153.358 Y150.749 E21.16635
G1 X152.991 Y150.612 E21.18263
G1 X152.635 Y150.555 E21.19762
G1 X152.474 Y150.549 E21.20432
G1 X151.986 Y150.617 E21.22481
G1 X151.640 Y150.750 E21.24022
G1 X151.510 Y150.819 E21.24634
G1 X151.118 Y151.123 E21.26696
G1 X150.872 Y151.424 E21.28312
G0 F9000 X150.094 Y151.487
;TYPE:SKIN
G1 F1680 X147.625 Y153.955 E21.42826
G0 F9000 X147.625 Y154.662
G1 F1680 X149.880 Y152.407 E21.56085
G0 F9000 X149.934 Y153.061
G1 F1680 X147.660 Y155.334 E21.69452
G0 F9000 X148.109 Y155.593
G1 F1680 X150.113 Y153.588 E21.81238
G0 F9000 X150.375 Y154.034
G1 F1680 X148.557 Y155.851 E21.91924
G0 F9000 X149.005 Y156.111
G1 F1680 X150.707 Y154.409 E22.01931
G0 F9000 X151.105 Y154.717
G1 F1680 X149.453 Y156.370 E22.11647
G0 F9000 X149.901 Y156.629
G1 F1680 X151.583 Y154.947 E22.21537
G0 F9000 X152.146 Y155.091
G1 F1680 X150.349 Y156.887 E22.32099
G0 F9000 X150.797 Y157.147
G1 F1680 X152.859 Y155.085 E22.44223
G0 F9000 X154.017 Y154.634
G1 F1680 X151.245 Y157.406 E22.60521
G0 F9000 X151.694 Y157.665
G1 F1680 X157.373 Y151.985 E22.93915
G0 F9000 X157.373 Y152.692
G1 F1680 X152.142 Y157.923 E23.24671
G0 F9000 X152.838 Y157.935
G1 F1680 X157.373 Y153.399 E23.51338
G0 F9000 X157.373 Y154.106
G1 F1680 X154.512 Y156.968 E23.68162
G1 F2400 E23.08162
G1 Z0.900
G0 F9000 X156.185 Y156.001
G1 Z0.400
G1 F2400 E23.68162
G1 F1680 X157.373 Y154.813 E23.75147
G1 F2400 E23.15147
G1 Z0.900
G0 F9000 X154.659 Y153.993
G1 Z0.400
G1 F2400 E23.75147
G1 F1680 X157.373 Y151.278 E23.91108
G0 F9000 X157.373 Y150.571
G1 F1680 X155.093 Y152.851 E24.04513
G0 F9000 X155.087 Y152.150
G1 F1680 X157.373 Y149.864 E24.17954
G0 F9000 X157.038 Y149.492
G1 F1680 X154.949 Y151.581 E24.30237
G0 F9000 X154.714 Y151.108
G1 F1680 X156.590 Y149.232 E24.41267
G0 F9000 X156.142 Y148.973
G1 F1680 X154.411 Y150.704 E24.51444
G0 F9000 X154.034 Y150.375
G1 F1680 X155.694 Y148.715 E24.61204
G0 F9000 X155.246 Y148.456
G1 F1680 X153.587 Y150.115 E24.70959
G0 F9000 X153.056 Y149.939
G1 F1680 X154.798 Y148.196 E24.81204
G0 F9000 X154.350 Y147.938
G1 F1680 X152.412 Y149.875 E24.92596
G0 F9000 X151.499 Y150.081
G1 F1680 X153.901 Y147.679 E25.06719
G0 F9000 X153.453 Y147.420
G1 F1680 X147.625 Y153.248 E25.40985
G0 F9000 X147.625 Y152.541
G1 F1680 X153.005 Y147.160 E25.72620
G0 F9000 X152.557 Y146.902
G1 F1680 X147.625 Y151.834 E26.01619
G0 F9000 X147.625 Y151.127
G1 F1680 X151.042 Y147.709 E26.21712
G1 F2400 E25.61712
G1 Z0.900
G0 F9000 X149.369 Y148.676
G1 Z0.400
G1 F2400 E26.21712
G1 F1680 X147.625 Y150.419 E26.31963
;LAYER:2
M106 S20
G0 F9000 X147.450 Y149.585 Z0.600
;TYPE:WALL-INNER
G1 F1680 X152.500 Y146.670 E26.56205
G1 X157.550 Y149.585 E26.80448
G1 X157.550 Y155.415 E27.04686
G1 X152.500 Y158.330 E27.28928
G1 X147.450 Y155.415 E27.53170
G1 X147.450 Y149.585 E27.77409
G1 F2400 E27.17409
G1 Z1.100
G0 F9000 X150.363 Y151.292
G1 Z0.600
G1 F2400 E27.77409
G1 F1680 X150.142 Y151.827 E27.79815
G1 X150.069 Y152.174 E27.81289
G1 X150.047 Y152.568 E27.82930
G1 X150.122 Y153.111 E27.85209
G1 X150.372 Y153.724 E27.87961
G1 X150.652 Y154.112 E27.89951
G1 X150.899 Y154.358 E27.91400
G1 X151.267 Y154.619 E27.93276
G1 X151.425 Y154.700 E27.94014
G1 X151.747 Y154.832 E27.95461
G1 X152.171 Y154.930 E27.97270
G1 X152.542 Y154.953 E27.98815
G1 X152.983 Y154.902 E28.00661
G1 X153.186 Y154.853 E28.01529
G1 X153.610 Y154.686 E28.03424
G1 X153.994 Y154.445 E28.05309
G1 X154.346 Y154.115 E28.07315
G1 X154.639 Y153.701 E28.09423
G1 X154.830 Y153.261 E28.11418
G1 X154.930 Y152.829 E28.13261
G1 X154.953 Y152.458 E28.14807
G1 X154.902 Y152.017 E28.16652
G1 X154.853 Y151.814 E28.17520
G1 X154.686 Y151.390 E28.19415
G1 X154.445 Y151.006 E28.21300
G1 X154.115 Y150.654 E28.23306
G1 X153.701 Y150.361 E28.25415
G1 X153.261 Y150.170 E28.27409
G1 X152.829 Y150.070 E28.29252
G1 X152.458 Y150.047 E28.30798
G1 X152.017 Y150.098 E28.32643
G1 X151.816 Y150.146 E28.33503
G1 X151.430 Y150.296 E28.35224
G1 X151.252 Y150.389 E28.36059
G1 X150.752 Y150.774 E28.38683
G1 X150.363 Y151.292 E28.41376
G0 F9000 X150.801 Y151.541
;TYPE:WALL-OUTER
G1 F1680 X150.622 Y151.975 E28.43328
G1 X150.566 Y152.240 E28.44454
G1 X150.549 Y152.548 E28.45736
G1 X150.609 Y152.980 E28.47550
G1 X150.813 Y153.480 E28.49795
G1 X151.033 Y153.786 E28.51362
G1 X151.222 Y153.974 E28.52470
G1 X151.527 Y154.190 E28.54024
G1 X151.899 Y154.354 E28.55714
G1 X152.243 Y154.433 E28.57181
G1 X152.529 Y154.451 E28.58373
G1 X152.896 Y154.409 E28.59909
G1 X153.035 Y154.375 E28.60504
G1 X153.383 Y154.238 E28.62058
G1 X153.687 Y154.047 E28.63551
G1 X153.967 Y153.785 E28.65145
G1 X154.201 Y153.454 E28.66831
G1 X154.353 Y153.104 E28.68417
G1 X154.433 Y152.757 E28.69898
G1 X154.451 Y152.471 E28.71089
G1 X154.409 Y152.104 E28.72625
G1 X154.375 Y151.965 E28.73220
G1 X154.238 Y151.617 E28.74775
G1 X154.047 Y151.313 E28.76267
G1 X153.785 Y151.033 E28.77861
G1 X153.454 Y150.799 E28.79547
G1 X153.104 Y150.647 E28.81133
G1 X152.757 Y150.567 E28.82614
G1 X152.471 Y150.549 E28.83805
G1 X152.104 Y150.591 E28.85341
G1 X151.965 Y150.625 E28.85936
G1 X151.523 Y150.812 E28.87931
G1 X151.111 Y151.129 E28.90092
G1 X150.801 Y151.541 E28.92236
G1 F2400 E28.32236
G1 Z1.100
G0 F9000 X146.950 Y149.297
G1 Z0.600
G1 F2400 E28.92236
G1 F1680 X152.500 Y146.092 E29.18881
G1 X158.050 Y149.297 E29.45527
G1 X158.050 Y155.703 E29.72160
G1 X152.500 Y158.908 E29.98805
G1 X146.950 Y155.703 E30.25450
G1 X146.950 Y149.297 E30.52083
G0 F9000 X147.811 Y149.579
;TYPE:SKIN
G1 F1680 X149.983 Y151.751 E30.64854
G0 F9000 X150.190 Y151.250
G1 F1680 X148.259 Y149.320 E30.76204
G0 F9000 X148.708 Y149.061
G1 F1680 X150.485 Y150.838 E30.86652
G0 F9000 X150.839 Y150.485
G1 F1680 X149.156 Y148.802 E30.96548
G0 F9000 X149.604 Y148.544
G1 F1680 X151.251 Y150.190 E31.06229
G0 F9000 X151.750 Y149.983
G1 F1680 X150.053 Y148.285 E31.16209
G0 F9000 X150.501 Y148.026
G1 F1680 X152.357 Y149.882 E31.27122
G0 F9000 X153.146 Y149.964
G1 F1680 X150.948 Y147.766 E31.40045
G0 F9000 X151.397 Y147.508
G1 F1680 X157.374 Y153.485 E31.75188
G0 F9000 X157.374 Y154.192
G1 F1680 X155.043 Y151.861 E31.88893
G0 F9000 X155.115 Y152.641
G1 F1680 X157.374 Y154.899 E32.02172
G0 F9000 X157.187 Y155.419
G1 F1680 X155.011 Y153.244 E32.14963
G0 F9000 X154.808 Y153.747
G1 F1680 X156.739 Y155.678 E32.26317
G0 F9000 X156.291 Y155.937
G1 F1680 X154.521 Y154.168 E32.36721
G0 F9000 X154.167 Y154.521
G1 F1680 X155.842 Y156.196 E32.46569
G0 F9000 X155.394 Y156.455
G1 F1680 X153.746 Y154.806 E32.56262
G0 F9000 X153.248 Y155.016
G1 F1680 X154.946 Y156.713 E32.66242
G0 F9000 X154.497 Y156.972
G1 F1680 X152.641 Y155.116 E32.77155
G0 F9000 X151.854 Y155.035
G1 F1680 X154.050 Y157.232 E32.90069
G0 F9000 X153.601 Y157.491
G1 F1680 X147.624 Y151.513 E33.25215
G0 F9000 X147.624 Y152.220
G1 F1680 X153.153 Y157.749 E33.57723
G0 F9000 X152.705 Y158.008
G1 F1680 X147.624 Y152.928 E33.87595
G0 F9000 X147.624 Y153.635
G1 F1680 X151.593 Y157.603 E34.10928
G1 F2400 E33.50928
G1 Z1.100
G0 F9000 X149.920 Y156.637
G1 Z0.600
G1 F2400 E34.10928
G1 F1680 X147.624 Y154.342 E34.24425
G0 F9000 X147.624 Y155.049
G1 F1680 X148.247 Y155.671 E34.28085
G1 F2400 E33.68085
G1 Z1.100
G0 F9000 X149.948 Y153.130
G1 Z0.600
G1 F2400 E34.28085
G1 F1680 X147.624 Y150.806 E34.41749
G0 F9000 X147.624 Y150.099
G1 F1680 X149.883 Y152.358 E34.55031
G1 F2400 E33.95031
G1 Z1.100
G0 F9000 X151.845 Y147.249
G1 Z0.600
G1 F2400 E34.55031
G1 F1680 X157.374 Y152.778 E34.87539
G0 F9000 X157.374 Y152.071
G1 F1680 X152.293 Y146.990 E35.17414
G0 F9000 X153.406 Y147.395
G1 F1680 X157.374 Y151.363 E35.40744
G0 F9000 X157.374 Y150.656
G1 F1680 X155.079 Y148.361 E35.54238
G1 F2400 E34.94238
G1 Z1.100
G0 F9000 X156.752 Y149.327
G1 Z0.600
G1 F2400 E35.54238
G1 F1680 X157.374 Y149.949 E35.57895
;LAYER:3
M106 S30
G0 F9000 X157.550 Y149.585 Z0.800
;TYPE:WALL-INNER
G1 F1680 X157.550 Y155.415 E35.82133
G1 X152.500 Y158.330 E36.06375
G1 X147.450 Y155.415 E36.30618
G1 X147.450 Y153.565 E36.38309
G1 X147.498 Y153.504 E36.38632
G1 X147.636 Y153.249 E36.39837
G1 X147.715 Y153.026 E36.40821
G1 X147.777 Y152.700 E36.42200
G1 X147.789 Y152.484 E36.43100
G1 X147.756 Y152.139 E36.44541
G1 X147.647 Y151.772 E36.46132
G1 X147.509 Y151.517 E36.47338
G1 X147.450 Y151.438 E36.47748
G1 X147.450 Y149.585 E36.55452
G1 X152.500 Y146.670 E36.79694
G1 X157.550 Y149.585 E37.03936
G1 F2400 E36.43936
G1 Z1.300
G0 F9000 X154.514 Y151.102
G1 Z0.800
G1 F2400 E37.03936
G1 F1680 X154.196 Y150.725 E37.05986
G1 X153.689 Y150.352 E37.08603
G1 X153.107 Y150.123 E37.11204
G1 X152.683 Y150.056 E37.12988
G1 X152.472 Y150.049 E37.13866
G1 X151.981 Y150.103 E37.15920
G1 X151.548 Y150.242 E37.17810
G1 X151.364 Y150.328 E37.18655
G1 X150.864 Y150.668 E37.21169
G1 X150.426 Y151.186 E37.23989
G1 X150.178 Y151.710 E37.26399
G1 X150.072 Y152.158 E37.28313
G1 X150.048 Y152.509 E37.29776
G1 X150.092 Y152.984 E37.31759
G1 X150.344 Y153.676 E37.34821
G1 X150.641 Y154.102 E37.36980
G1 X151.088 Y154.505 E37.39482
G1 X151.324 Y154.651 E37.40636
G1 X151.892 Y154.877 E37.43177
G1 X152.317 Y154.944 E37.44966
G1 X152.528 Y154.951 E37.45844
G1 X153.019 Y154.897 E37.47897
G1 X153.479 Y154.749 E37.49906
G1 X153.898 Y154.514 E37.51904
G1 X154.275 Y154.196 E37.53954
G1 X154.648 Y153.689 E37.56571
G1 X154.877 Y153.107 E37.59171
G1 X154.944 Y152.683 E37.60956
G1 X154.951 Y152.472 E37.61834
G1 X154.897 Y151.981 E37.63887
G1 X154.749 Y151.521 E37.65896
G1 X154.514 Y151.102 E37.67894
G0 F9000 X154.101 Y151.388
;TYPE:WALL-OUTER
G1 F1680 X153.852 Y151.093 E37.69499
G1 X153.445 Y150.793 E37.71601
G1 X152.975 Y150.608 E37.73701
G1 X152.635 Y150.555 E37.75131
G1 X152.491 Y150.550 E37.75730
G1 X152.086 Y150.594 E37.77424
G1 X151.731 Y150.709 E37.78976
G1 X151.612 Y150.764 E37.79521
G1 X151.201 Y151.043 E37.81586
G1 X150.850 Y151.459 E37.83849
G1 X150.653 Y151.876 E37.85766
G1 X150.568 Y152.233 E37.87292
G1 X150.549 Y152.503 E37.88417
G1 X150.584 Y152.873 E37.89962
G1 X150.791 Y153.443 E37.92484
G1 X151.018 Y153.769 E37.94135
G1 X151.390 Y154.104 E37.96216
G1 X151.550 Y154.203 E37.96999
G1 X152.025 Y154.392 E37.99124
G1 X152.365 Y154.445 E38.00555
G1 X152.509 Y154.450 E38.01154
G1 X152.914 Y154.406 E38.02847
G1 X153.278 Y154.288 E38.04438
G1 X153.612 Y154.101 E38.06030
G1 X153.907 Y153.852 E38.07635
G1 X154.207 Y153.445 E38.09737
G1 X154.392 Y152.975 E38.11837
G1 X154.445 Y152.635 E38.13267
G1 X154.450 Y152.491 E38.13866
G1 X154.406 Y152.086 E38.15560
G1 X154.288 Y151.722 E38.17151
G1 X154.101 Y151.388 E38.18742
G1 F2400 E37.58742
G1 Z1.300
G0 F9000 X158.050 Y149.297
G1 Z0.800
G1 F2400 E38.18742
G1 F1680 X158.050 Y155.703 E38.45375
G1 X152.500 Y158.908 E38.72021
G1 X146.950 Y155.703 E38.98666
G1 X146.950 Y153.381 E39.08320
G1 X147.079 Y153.228 E39.09152
G1 X147.178 Y153.045 E39.10017
G1 X147.231 Y152.895 E39.10678
G1 X147.280 Y152.639 E39.11762
G1 X147.288 Y152.495 E39.12362
G1 X147.263 Y152.235 E39.13447
G1 X147.182 Y151.962 E39.14631
G1 X147.134 Y151.872 E39.15055
G1 X147.088 Y151.790 E39.15446
G1 X146.981 Y151.647 E39.16189
G1 X146.950 Y151.620 E39.16360
G1 X146.950 Y149.297 E39.26018
G1 X152.500 Y146.092 E39.52663
G1 X158.050 Y149.297 E39.79308
G0 F9000 X157.374 Y149.863
;TYPE:SKIN
G1 F1680 X155.091 Y152.146 E39.92731
G0 F9000 X154.951 Y151.578
G1 F1680 X157.038 Y149.492 E40.04999
G0 F9000 X156.590 Y149.233
G1 F1680 X154.717 Y151.106 E40.16012
G0 F9000 X154.410 Y150.706
G1 F1680 X156.141 Y148.974 E40.26192
G0 F9000 X155.693 Y148.715
G1 F1680 X154.026 Y150.383 E40.35997
G0 F9000 X153.580 Y150.121
G1 F1680 X155.245 Y148.457 E40.45783
G0 F9000 X154.796 Y148.198
G1 F1680 X153.056 Y149.938 E40.56014
G0 F9000 X152.406 Y149.881
G1 F1680 X154.348 Y147.939 E40.67432
G0 F9000 X153.900 Y147.680
G1 F1680 X151.511 Y150.069 E40.81478
G1 F2400 E40.21478
G1 Z1.300
G0 F9000 X150.086 Y151.494
G1 Z0.800
G1 F2400 E40.81478
G1 F1680 X147.624 Y153.956 E40.95954
G0 F9000 X147.624 Y154.663
G1 F1680 X149.879 Y152.409 E41.09210
G0 F9000 X149.933 Y153.061
G1 F1680 X147.660 Y155.334 E41.22574
G0 F9000 X148.109 Y155.593
G1 F1680 X150.123 Y153.579 E41.34415
G0 F9000 X150.378 Y154.030
G1 F1680 X148.557 Y155.851 E41.45122
G0 F9000 X149.005 Y156.110
G1 F1680 X150.714 Y154.402 E41.55168
G0 F9000 X151.103 Y154.719
G1 F1680 X149.454 Y156.369 E41.64866
G0 F9000 X149.902 Y156.628
G1 F1680 X151.588 Y154.942 E41.74779
G0 F9000 X152.145 Y155.092
G1 F1680 X150.350 Y156.887 E41.85333
G0 F9000 X150.799 Y157.145
G1 F1680 X152.855 Y155.089 E41.97421
G0 F9000 X153.987 Y154.664
G1 F1680 X151.247 Y157.404 E42.13532
G0 F9000 X151.695 Y157.663
G1 F1680 X157.374 Y151.984 E42.46922
G0 F9000 X157.374 Y152.691
G1 F1680 X152.143 Y157.922 E42.77678
G0 F9000 X152.844 Y157.928
G1 F1680 X157.374 Y153.399 E43.04310
G0 F9000 X157.374 Y154.106
G1 F1680 X154.518 Y156.962 E43.21102
G1 F2400 E42.61102
G1 Z1.300
G0 F9000 X156.192 Y155.995
G1 Z0.800
G1 F2400 E43.21102
G1 F1680 X157.374 Y154.813 E43.28052
G1 F2400 E42.68052
G1 Z1.300
G0 F9000 X154.594 Y154.057
G1 Z0.800
G1 F2400 E43.28052
G1 F1680 X157.374 Y151.277 E43.44397
G0 F9000 X157.374 Y150.570
G1 F1680 X155.093 Y152.851 E43.57809
G1 F2400 E42.97809
G1 Z1.300
G0 F9000 X153.452 Y147.421
G1 Z0.800
G1 F2400 E43.57809
G1 F1680 X147.904 Y152.969 E43.90429
G0 F9000 X147.940 Y152.225
G1 F1680 X153.003 Y147.163 E44.20194
G0 F9000 X152.555 Y146.904
G1 F1680 X147.790 Y151.668 E44.48208
G0 F9000 X147.624 Y151.127
G1 F1680 X151.036 Y147.716 E44.68266
G1 F2400 E44.08266
G1 Z1.300
G0 F9000 X149.362 Y148.682
G1 Z0.800
G1 F2400 E44.68266
G1 F1680 X147.624 Y150.420 E44.78485
;LAYER:4
M106 S40
G0 F9000 X147.625 Y151.201 Z1.000
;TYPE:WALL-INNER
G1 F1080 X147.450 Y151.019 E44.79534
G1 X147.450 Y149.585 E44.85496
G1 X152.500 Y146.670 E45.09739
G1 X157.550 Y149.585 E45.33981
G1 X157.550 Y155.415 E45.58219
G1 X152.500 Y158.330 E45.82461
G1 X147.450 Y155.415 E46.06703
G1 X147.450 Y153.997 E46.12599
G1 X147.477 Y153.976 E46.12741
G1 X147.648 Y153.764 E46.13873
G1 X147.876 Y153.338 E46.15882
G1 X148.003 Y152.799 E46.18184
G1 X148.020 Y152.478 E46.19521
G1 X147.961 Y151.948 E46.21738
G1 X147.853 Y151.616 E46.23189
G1 X147.761 Y151.422 E46.24082
G1 X147.625 Y151.201 E46.25161
G1 F2400 E45.65161
G1 Z1.500
G0 F9000 X150.112 Y151.941
G1 Z1.000
G1 F2400 E46.25161
G1 F1080 X150.053 Y152.367 E46.26949
G1 X150.049 Y152.515 E46.27565
G1 X150.073 Y152.854 E46.28977
G1 X150.214 Y153.393 E46.31294
G1 X150.480 Y153.893 E46.33648
G1 X150.769 Y154.235 E46.35510
G1 X150.994 Y154.433 E46.36756
G1 X151.285 Y154.628 E46.38212
G1 X151.423 Y154.699 E46.38858
G1 X151.851 Y154.865 E46.40766
G1 X152.181 Y154.930 E46.42164
G1 X152.505 Y154.952 E46.43515
G1 X152.853 Y154.924 E46.44966
G1 X153.016 Y154.896 E46.45654
G1 X153.574 Y154.706 E46.48104
G1 X153.986 Y154.450 E46.50121
G1 X154.275 Y154.190 E46.51737
G1 X154.553 Y153.845 E46.53579
G1 X154.830 Y153.261 E46.56267
G1 X154.931 Y152.809 E46.58192
G1 X154.952 Y152.495 E46.59500
G1 X154.924 Y152.147 E46.60952
G1 X154.896 Y151.984 E46.61640
G1 X154.706 Y151.426 E46.64090
G1 X154.450 Y151.014 E46.66107
G1 X154.190 Y150.725 E46.67723
G1 X153.845 Y150.447 E46.69565
G1 X153.261 Y150.170 E46.72252
G1 X152.809 Y150.069 E46.74178
G1 X152.495 Y150.048 E46.75486
G1 X152.147 Y150.076 E46.76938
G1 X151.983 Y150.104 E46.77630
G1 X151.392 Y150.308 E46.80229
G1 X150.878 Y150.659 E46.82817
G1 X150.584 Y150.971 E46.84599
G1 X150.295 Y151.421 E46.86822
G1 X150.112 Y151.941 E46.89114
G0 F9000 X150.550 Y152.505
;TYPE:WALL-OUTER
G1 F1080 X150.568 Y152.773 E46.90231
G1 X150.683 Y153.210 E46.92110
G1 X150.897 Y153.611 E46.93999
G1 X151.127 Y153.884 E46.95483
G1 X151.299 Y154.036 E46.96438
G1 X151.628 Y154.242 E46.98052
G1 X151.991 Y154.383 E46.99671
G1 X152.246 Y154.433 E47.00751
G1 X152.502 Y154.451 E47.01818
G1 X152.893 Y154.410 E47.03452
G1 X153.359 Y154.251 E47.05500
G1 X153.685 Y154.049 E47.07094
G1 X153.911 Y153.845 E47.08360
G1 X154.126 Y153.578 E47.09785
G1 X154.357 Y153.092 E47.12022
G1 X154.434 Y152.750 E47.13480
G1 X154.451 Y152.498 E47.14530
G1 X154.410 Y152.107 E47.16164
G1 X154.251 Y151.641 E47.18211
G1 X154.049 Y151.315 E47.19806
G1 X153.845 Y151.089 E47.21071
G1 X153.578 Y150.874 E47.22497
G1 X153.092 Y150.643 E47.24734
G1 X152.750 Y150.566 E47.26191
G1 X152.498 Y150.549 E47.27241
G1 X152.107 Y150.590 E47.28876
G1 X151.619 Y150.759 E47.31023
G1 X151.205 Y151.042 E47.33108
G1 X150.979 Y151.280 E47.34472
G1 X150.748 Y151.642 E47.36258
G1 X150.601 Y152.060 E47.38100
G1 X150.552 Y152.408 E47.39561
G1 X150.550 Y152.505 E47.39964
G1 F2400 E46.79964
G1 Z1.500
G0 F9000 X147.519 Y152.493
G1 Z1.000
G1 F2400 E47.39964
G1 F1080 X147.470 Y152.054 E47.41801
G1 X147.388 Y151.801 E47.42907
G1 X147.321 Y151.661 E47.43552
G1 X147.227 Y151.508 E47.44298
G1 X146.993 Y151.265 E47.45701
G1 X146.950 Y151.237 E47.45914
G1 X146.950 Y149.297 E47.53980
G1 X152.500 Y146.092 E47.80625
G1 X158.050 Y149.297 E48.07270
G1 X158.050 Y155.703 E48.33904
G1 X152.500 Y158.908 E48.60549
G1 X146.950 Y155.703 E48.87194
G1 X146.950 Y153.751 E48.95310
G1 X147.125 Y153.616 E48.96228
G1 X147.229 Y153.487 E48.96917
G1 X147.405 Y153.159 E48.98465
G1 X147.506 Y152.728 E49.00305
G1 X147.519 Y152.493 E49.01284
G1 F2400 E48.41284
G1 Z1.500
G0 F9000 X149.464 Y151.055
;TYPE:FILL
G1 Z1.000
G1 F2400 E49.01284
G1 F1080 X153.227 Y147.292 E49.23409
G1 F2400 E48.63409
G1 Z1.500
G0 F9000 X151.173 Y147.637
G1 Z1.000
G1 F2400 E49.23409
G1 F1080 X153.738 Y150.202 E49.38490
G1 F2400 E48.78490
G1 Z1.500
G0 F9000 X154.827 Y151.291
G1 Z1.000
G1 F2400 E49.38490
G1 F1080 X157.374 Y153.838 E49.53465
G1 F2400 E48.93465
G1 Z1.500
G0 F9000 X155.125 Y152.466
G1 Z1.000
G1 F2400 E49.53465
G1 F1080 X157.374 Y150.217 E49.66689
G1 F2400 E49.06689
G1 Z1.500
G0 F9000 X152.467 Y155.124
G1 Z1.000
G1 F2400 E49.66689
G1 F1080 X150.574 Y157.016 E49.77816
G1 F2400 E49.17816
G1 Z1.500
G0 F9000 X151.291 Y154.827
G1 Z1.000
G1 F2400 E49.77816
G1 F1080 X153.826 Y157.361 E49.92718
G1 F2400 E49.32718
G1 Z1.500
G0 F9000 X150.703 Y154.592
;TYPE:SKIN
G1 Z1.000
G1 F2400 E49.92718
G1 F1080 X148.145 Y152.035 E50.07755
G0 F9000 X148.178 Y152.774
G1 F1080 X149.996 Y154.592 E50.18444
G0 F9000 X149.289 Y154.592
G1 F1080 X148.051 Y153.354 E50.25723
G0 F9000 X147.813 Y153.824
G1 F1080 X148.582 Y154.592 E50.30242
G0 F9000 X147.875 Y154.592
G1 F1080 X147.624 Y154.342 E50.31714
G1 F2400 E49.71714
G1 Z1.500
G0 F9000 X149.971 Y153.153
G1 Z1.000
G1 F2400 E50.31714
G1 F1080 X147.624 Y150.806 E50.45514
G0 F9000 X147.931 Y150.406
G1 F1080 X149.878 Y152.353 E50.56961
G0 F9000 X149.990 Y151.758
G1 F1080 X148.638 Y150.406 E50.64911
G0 F9000 X149.345 Y150.406
G1 F1080 X150.193 Y151.254 E50.69897
G0 F9000 X150.475 Y150.829
G1 F1080 X150.053 Y150.406 E50.72381
;LAYER:5
M106 S51
G0 F9000 X150.661 Y150.878 Z1.200
;TYPE:WALL-INNER
G1 F1020 X150.417 Y151.213 E50.74104
G1 X149.526 Y151.214 E50.77808
G1 X148.982 Y151.213 E50.80070
G1 X147.849 Y151.214 E50.84780
G1 X147.667 Y150.950 E50.86113
G1 X147.450 Y150.727 E50.87407
G1 X147.450 Y149.585 E50.92155
G1 X152.500 Y146.670 E51.16397
G1 X157.550 Y149.585 E51.40639
G1 X157.550 Y155.415 E51.64878
G1 X152.500 Y158.330 E51.89120
G1 X147.450 Y155.415 E52.13362
G1 X147.450 Y154.275 E52.18102
G1 X147.649 Y154.075 E52.19275
G1 X147.843 Y153.787 E52.20718
G1 X149.525 Y153.786 E52.27711
G1 X150.434 Y153.787 E52.31490
G1 X150.592 Y154.044 E52.32745
G1 X151.008 Y154.446 E52.35150
G1 X151.380 Y154.680 E52.36977
G1 X151.720 Y154.825 E52.38514
G1 X152.167 Y154.929 E52.40422
G1 X152.512 Y154.953 E52.41859
G1 X152.979 Y154.906 E52.43811
G1 X153.426 Y154.770 E52.45753
G1 X153.759 Y154.607 E52.47295
G1 X154.321 Y154.145 E52.50319
G1 X154.546 Y153.852 E52.51855
G1 X154.755 Y153.460 E52.53702
G1 X154.828 Y153.264 E52.54572
G1 X154.929 Y152.833 E52.56412
G1 X154.953 Y152.488 E52.57850
G1 X154.906 Y152.021 E52.59801
G1 X154.770 Y151.574 E52.61744
G1 X154.607 Y151.241 E52.63285
G1 X154.145 Y150.679 E52.66310
G1 X153.852 Y150.454 E52.67846
G1 X153.460 Y150.245 E52.69693
G1 X153.264 Y150.172 E52.70562
G1 X152.833 Y150.071 E52.72403
G1 X152.488 Y150.047 E52.73841
G1 X152.021 Y150.094 E52.75792
G1 X151.583 Y150.227 E52.77695
G1 X151.278 Y150.375 E52.79105
G1 X150.939 Y150.610 E52.80819
G1 X150.661 Y150.878 E52.82425
G0 F9000 X151.039 Y151.208
;TYPE:WALL-OUTER
G1 F1020 X150.823 Y151.504 E52.83948
G1 X150.728 Y151.712 E52.84899
G1 X147.530 Y151.714 E52.98195
G1 X147.462 Y151.546 E52.98948
G1 X147.416 Y151.464 E52.99339
G1 X147.221 Y151.203 E53.00694
G1 X147.098 Y151.084 E53.01405
G1 X147.022 Y151.027 E53.01800
G1 X146.950 Y150.983 E53.02151
G1 X146.950 Y149.297 E53.09161
G1 X152.500 Y146.092 E53.35806
G1 X158.050 Y149.297 E53.62451
G1 X158.050 Y155.703 E53.89084
G1 X152.500 Y158.908 E54.15729
G1 X146.950 Y155.703 E54.42375
G1 X146.950 Y154.008 E54.49422
G1 X147.105 Y153.912 E54.50180
G1 X147.260 Y153.756 E54.51094
G1 X147.459 Y153.461 E54.52573
G1 X147.524 Y153.287 E54.53346
G1 X150.716 Y153.288 E54.66616
G1 X150.985 Y153.729 E54.68764
G1 X151.318 Y154.051 E54.70690
G1 X151.612 Y154.235 E54.72132
G1 X151.876 Y154.348 E54.73326
G1 X152.242 Y154.433 E54.74888
G1 X152.504 Y154.451 E54.75980
G1 X152.880 Y154.413 E54.77551
G1 X153.242 Y154.303 E54.79124
G1 X153.486 Y154.184 E54.80253
G1 X153.959 Y153.795 E54.82799
G1 X154.124 Y153.580 E54.83925
G1 X154.298 Y153.253 E54.85465
G1 X154.349 Y153.119 E54.86062
G1 X154.433 Y152.758 E54.87603
G1 X154.451 Y152.496 E54.88694
G1 X154.413 Y152.120 E54.90266
G1 X154.303 Y151.758 E54.91839
G1 X154.184 Y151.514 E54.92967
G1 X153.795 Y151.041 E54.95513
G1 X153.580 Y150.876 E54.96640
G1 X153.253 Y150.702 E54.98180
G1 X153.119 Y150.651 E54.98776
G1 X152.758 Y150.567 E55.00317
G1 X152.496 Y150.549 E55.01409
G1 X152.120 Y150.587 E55.02980
G1 X151.761 Y150.696 E55.04540
G1 X151.537 Y150.804 E55.05574
G1 X151.257 Y150.998 E55.06990
G1 X151.039 Y151.208 E55.08249
G1 F2400 E54.48249
G1 Z1.700
G0 F9000 X149.482 Y151.038
;TYPE:FILL
G1 Z1.200
G1 F2400 E55.08249
G1 F1020 X153.227 Y147.292 E55.30271
G1 F2400 E54.70271
G1 Z1.700
G0 F9000 X151.173 Y147.637
G1 Z1.200
G1 F2400 E55.30271
G1 F1020 X153.721 Y150.185 E55.45252
G1 F2400 E54.85252
G1 Z1.700
G0 F9000 X154.825 Y151.289
G1 Z1.200
G1 F2400 E55.45252
G1 F1020 X157.374 Y153.838 E55.60239
G1 F2400 E55.00239
G1 Z1.700
G0 F9000 X155.125 Y152.465
G1 Z1.200
G1 F2400 E55.60239
G1 F1020 X157.374 Y150.217 E55.73459
G1 F2400 E55.13459
G1 Z1.700
G0 F9000 X152.467 Y155.124
G1 Z1.200
G1 F2400 E55.73459
G1 F1020 X150.574 Y157.016 E55.84587
G1 F2400 E55.24587
G1 Z1.700
G0 F9000 X151.299 Y154.835
G1 Z1.200
G1 F2400 E55.84587
G1 F1020 X153.826 Y157.361 E55.99441
G1 F2400 E55.39441
G1 Z1.700
G0 F9000 X150.713 Y154.403
;TYPE:SKIN
G1 Z1.200
G1 F2400 E55.99441
G1 F1020 X150.397 Y154.364 E56.01175
G1 X149.710 Y154.698 E56.04351
G0 F9000 X149.003 Y154.698
G1 F1020 X149.741 Y153.961 E56.08688
G0 F9000 X149.034 Y153.961
G1 F1020 X148.296 Y154.698 E56.13024
G0 F9000 X147.624 Y154.663
G1 F1020 X148.326 Y153.961 E56.17151
G1 F2400 E55.57151
G1 Z1.700
G0 F9000 X148.421 Y151.038
G1 Z1.200
G1 F2400 E56.17151
G1 F1020 X149.159 Y150.299 E56.21493
G0 F9000 X148.453 Y150.299
G1 F1020 X147.736 Y150.661 E56.25040
G1 X147.746 Y150.299 E56.26545
G1 F2400 E55.66545
G1 Z1.700
G0 F9000 X149.128 Y151.038
G1 Z1.200
G1 F2400 E56.26545
G1 F1020 X149.866 Y150.300 E56.30884
G0 F9000 X150.573 Y150.300
G1 F1020 X149.835 Y151.038 E56.35224
;LAYER:6
M106 S63
G0 F9000 X149.527 Y150.850 Z1.400
;TYPE:WALL-INNER
G1 F960 X147.761 Y150.851 E56.42566
G1 X147.541 Y150.598 E56.43960
G1 X147.450 Y150.529 E56.44435
G1 X147.450 Y149.585 E56.48359
G1 X152.500 Y146.670 E56.72601
G1 X157.550 Y149.585 E56.96844
G1 X157.550 Y155.415 E57.21082
G1 X152.500 Y158.330 E57.45324
G1 X147.450 Y155.415 E57.69566
G1 X147.450 Y154.471 E57.73491
G1 X147.541 Y154.406 E57.73956
G1 X147.753 Y154.150 E57.75338
G1 X149.525 Y154.149 E57.82705
G1 X150.203 Y154.150 E57.85524
G1 X150.713 Y154.149 E57.87644
G1 X150.889 Y154.354 E57.88767
G1 X151.384 Y154.686 E57.91245
G1 X152.005 Y154.904 E57.93982
G1 X152.512 Y154.955 E57.96100
G1 X153.130 Y154.873 E57.98692
G1 X153.654 Y154.664 E58.01037
G1 X154.056 Y154.394 E58.03051
G1 X154.397 Y154.054 E58.05053
G1 X154.667 Y153.650 E58.07073
G1 X154.864 Y153.152 E58.09300
G1 X154.930 Y152.819 E58.10711
G1 X154.953 Y152.476 E58.12140
G1 X154.873 Y151.870 E58.14681
G1 X154.664 Y151.346 E58.17027
G1 X154.394 Y150.944 E58.19040
G1 X154.054 Y150.603 E58.21042
G1 X153.650 Y150.333 E58.23062
G1 X153.152 Y150.136 E58.25289
G1 X152.819 Y150.070 E58.26700
G1 X152.476 Y150.047 E58.28130
G1 X151.874 Y150.126 E58.30654
G1 X151.368 Y150.321 E58.32908
G1 X150.839 Y150.694 E58.35599
G1 X150.701 Y150.851 E58.36468
G1 X149.527 Y150.850 E58.41349
G1 F2400 E57.81349
G1 Z1.900
G0 F9000 X151.175 Y151.069
;TYPE:WALL-OUTER
G1 Z1.400
G1 F2400 E58.41349
G1 F960 X150.927 Y151.351 E58.42911
G1 X147.499 Y151.351 E58.57163
G1 X147.440 Y151.244 E58.57671
G1 X147.198 Y150.965 E58.59206
G1 X147.043 Y150.848 E58.60014
G1 X146.950 Y150.801 E58.60447
G1 X146.950 Y149.297 E58.66700
G1 X152.500 Y146.092 E58.93345
G1 X158.050 Y149.297 E59.19990
G1 X158.050 Y155.703 E59.46623
G1 X152.500 Y158.908 E59.73269
G1 X146.950 Y155.703 E59.99914
G1 X146.950 Y154.202 E60.06154
G1 X146.998 Y154.179 E60.06376
G1 X147.198 Y154.037 E60.07395
G1 X147.474 Y153.702 E60.09200
G1 X147.501 Y153.650 E60.09444
G1 X150.943 Y153.648 E60.23754
G1 X151.224 Y153.977 E60.25553
G1 X151.610 Y154.235 E60.27483
G1 X152.114 Y154.413 E60.29705
G1 X152.504 Y154.452 E60.31335
G1 X153.003 Y154.386 E60.33427
G1 X153.419 Y154.219 E60.35291
G1 X153.737 Y154.006 E60.36882
G1 X154.008 Y153.735 E60.38476
G1 X154.222 Y153.416 E60.40073
G1 X154.383 Y153.010 E60.41888
G1 X154.433 Y152.754 E60.42973
G1 X154.451 Y152.492 E60.44065
G1 X154.386 Y151.997 E60.46140
G1 X154.219 Y151.581 E60.48004
G1 X154.006 Y151.263 E60.49595
G1 X153.735 Y150.992 E60.51189
G1 X153.416 Y150.778 E60.52786
G1 X153.010 Y150.617 E60.54602
G1 X152.754 Y150.567 E60.55686
G1 X152.492 Y150.549 E60.56778
G1 X151.999 Y150.614 E60.58845
G1 X151.605 Y150.766 E60.60601
G1 X151.175 Y151.069 E60.62788
G0 F9000 X149.845 Y150.675
;TYPE:FILL
G1 F960 X153.227 Y147.292 E60.82676
G1 F2400 E60.22676
G1 Z1.900
G0 F9000 X151.173 Y147.637
G1 Z1.400
G1 F2400 E60.82676
G1 F960 X153.700 Y150.164 E60.97533
G1 F2400 E60.37533
G1 Z1.900
G0 F9000 X154.830 Y151.294
G1 Z1.400
G1 F2400 E60.97533
G1 F960 X157.374 Y153.838 E61.12491
G1 F2400 E60.52491
G1 Z1.900
G0 F9000 X155.127 Y152.463
G1 Z1.400
G1 F2400 E61.12491
G1 F960 X157.374 Y150.217 E61.25700
G1 F2400 E60.65700
G1 Z1.900
G0 F9000 X152.467 Y155.124
G1 Z1.400
G1 F2400 E61.25700
G1 F960 X150.574 Y157.016 E61.36827
G1 F2400 E60.76827
G1 Z1.900
G0 F9000 X151.309 Y154.845
G1 Z1.400
G1 F2400 E61.36827
G1 F960 X153.826 Y157.361 E61.51623
G1 F2400 E60.91623
G1 Z1.900
G0 F9000 X150.878 Y154.767
;TYPE:SKIN
G1 Z1.400
G1 F2400 E61.51623
G1 F960 X150.302 Y154.545 E61.54231
G1 X149.595 Y154.545 E61.56835
G1 X148.889 Y154.545 E61.59435
G1 X148.182 Y154.545 E61.62034
G1 X147.731 Y154.449 E61.63951
G1 F2400 E61.03951
G1 Z1.900
G0 F9000 X148.200 Y150.675
G1 Z1.400
G1 F2400 E61.63951
G1 F960 X148.108 Y150.230 E61.66566
G1 X149.038 Y150.452 E61.69173
G1 X149.745 Y150.452 E61.71783
G1 X150.452 Y150.452 E61.74394
G1 X150.835 Y150.481 E61.75990
;LAYER:7
M106 S73
G0 F9000 X151.356 Y150.330 Z1.600
;TYPE:WALL-INNER
G1 F900 X150.922 Y150.632 E61.78189
G1 X149.527 Y150.633 E61.83988
G1 X148.537 Y150.632 E61.88104
G1 X147.732 Y150.633 E61.91451
G1 X147.691 Y150.577 E61.91740
G1 X147.450 Y150.393 E61.93000
G1 X147.450 Y149.585 E61.96360
G1 X152.500 Y146.670 E62.20602
G1 X157.550 Y149.585 E62.44844
G1 X157.550 Y155.415 E62.69082
G1 X152.500 Y158.330 E62.93324
G1 X147.450 Y155.415 E63.17567
G1 X147.450 Y154.618 E63.20880
G1 X147.726 Y154.382 E63.22390
G1 X147.736 Y154.368 E63.22461
G1 X150.802 Y154.367 E63.35208
G1 X150.937 Y154.367 E63.35770
G1 X151.109 Y154.520 E63.36727
G1 X151.421 Y154.698 E63.38220
G1 X151.939 Y154.888 E63.40514
G1 X152.320 Y154.944 E63.42115
G1 X152.532 Y154.952 E63.42997
G1 X153.044 Y154.889 E63.45142
G1 X153.304 Y154.815 E63.46266
G1 X153.737 Y154.620 E63.48240
G1 X154.227 Y154.244 E63.50808
G1 X154.540 Y153.862 E63.52861
G1 X154.772 Y153.427 E63.54911
G1 X154.928 Y152.845 E63.57416
G1 X154.953 Y152.480 E63.58937
G1 X154.889 Y151.956 E63.61132
G1 X154.815 Y151.696 E63.62255
G1 X154.620 Y151.263 E63.64230
G1 X154.244 Y150.773 E63.66798
G1 X153.862 Y150.460 E63.68851
G1 X153.427 Y150.228 E63.70900
G1 X152.845 Y150.072 E63.73406
G1 X152.480 Y150.047 E63.74927
G1 X151.956 Y150.111 E63.77121
G1 X151.704 Y150.182 E63.78210
G1 X151.356 Y150.330 E63.79782
G0 F9000 X151.599 Y150.770
;TYPE:WALL-OUTER
G1 F900 X151.197 Y151.049 E63.81816
G1 X151.116 Y151.132 E63.82299
G1 X147.477 Y151.133 E63.97428
G1 X147.330 Y150.930 E63.98470
G1 X147.002 Y150.680 E64.00184
G1 X146.950 Y150.654 E64.00426
G1 X146.950 Y149.297 E64.06068
G1 X152.500 Y146.092 E64.32713
G1 X158.050 Y149.297 E64.59358
G1 X158.050 Y155.703 E64.85992
G1 X152.500 Y158.908 E65.12637
G1 X146.950 Y155.703 E65.39282
G1 X146.950 Y154.343 E65.44936
G1 X147.092 Y154.266 E65.45608
G1 X147.355 Y154.041 E65.47047
G1 X147.478 Y153.868 E65.47929
G1 X151.127 Y153.868 E65.63100
G1 X151.406 Y154.115 E65.64649
G1 X151.620 Y154.238 E65.65676
G1 X152.063 Y154.401 E65.67638
G1 X152.366 Y154.445 E65.68911
G1 X152.511 Y154.451 E65.69514
G1 X152.945 Y154.398 E65.71332
G1 X153.132 Y154.344 E65.72141
G1 X153.479 Y154.188 E65.73723
G1 X153.877 Y153.883 E65.75808
G1 X154.122 Y153.583 E65.77418
G1 X154.304 Y153.242 E65.79025
G1 X154.433 Y152.762 E65.81092
G1 X154.451 Y152.493 E65.82212
G1 X154.398 Y152.055 E65.84047
G1 X154.344 Y151.868 E65.84856
G1 X154.188 Y151.521 E65.86438
G1 X153.883 Y151.123 E65.88522
G1 X153.583 Y150.878 E65.90133
G1 X153.242 Y150.696 E65.91740
G1 X152.762 Y150.567 E65.93806
G1 X152.493 Y150.549 E65.94927
G1 X152.055 Y150.602 E65.96761
G1 X151.871 Y150.655 E65.97557
G1 X151.599 Y150.770 E65.98785
G1 F2400 E65.38785
G1 Z2.100
G0 F9000 X150.062 Y150.457
;TYPE:FILL
G1 Z1.600
G1 F2400 E65.98785
G1 F900 X153.227 Y147.292 E66.17394
G1 F2400 E65.57394
G1 Z2.100
G0 F9000 X151.173 Y147.637
G1 Z1.600
G1 F2400 E66.17394
G1 F900 X153.722 Y150.187 E66.32384
G1 F2400 E65.72384
G1 Z2.100
G0 F9000 X154.821 Y151.286
G1 Z1.600
G1 F2400 E66.32384
G1 F900 X157.374 Y153.838 E66.47392
G1 F2400 E65.87392
G1 Z2.100
G0 F9000 X155.127 Y152.464
G1 Z1.600
G1 F2400 E66.47392
G1 F900 X157.374 Y150.217 E66.60603
G1 F2400 E66.00603
G1 Z2.100
G0 F9000 X152.467 Y155.123
G1 Z1.600
G1 F2400 E66.60603
G1 F900 X150.574 Y157.016 E66.71733
G1 F2400 E66.11733
G1 Z2.100
G0 F9000 X151.288 Y154.823
G1 Z1.600
G1 F2400 E66.71733
G1 F900 X153.826 Y157.361 E66.86656
;LAYER:8
M106 S84
G1 F2400 E66.26656
G1 Z2.100
G0 F9000 X153.135 Y154.873 Z1.800
;TYPE:WALL-INNER
G1 Z1.800
G1 F2400 E66.86656
G1 F900 X153.717 Y154.632 E66.89275
G1 X154.118 Y154.344 E66.91327
G1 X154.454 Y153.984 E66.93375
G1 X154.769 Y153.440 E66.95988
G1 X154.928 Y152.845 E66.98549
G1 X154.953 Y152.476 E67.00086
G1 X154.873 Y151.865 E67.02648
G1 X154.632 Y151.283 E67.05267
G1 X154.344 Y150.882 E67.07320
G1 X153.984 Y150.546 E67.09367
G1 X153.440 Y150.231 E67.11981
G1 X152.845 Y150.072 E67.14541
G1 X152.476 Y150.047 E67.16079
G1 X151.873 Y150.126 E67.18607
G1 X151.365 Y150.324 E67.20874
G1 X151.133 Y150.481 E67.22039
G1 X149.893 Y150.482 E67.27194
G1 X149.402 Y150.481 E67.29235
G1 X147.712 Y150.482 E67.36262
G1 X147.696 Y150.461 E67.36371
G1 X147.450 Y150.269 E67.37669
G1 X147.450 Y149.585 E67.40512
G1 X152.500 Y146.670 E67.64755
G1 X157.550 Y149.585 E67.88997
G1 X157.550 Y155.415 E68.13235
G1 X152.500 Y158.330 E68.37477
G1 X147.450 Y155.415 E68.61719
G1 X147.450 Y154.741 E68.64522
G1 X147.711 Y154.519 E68.65946
G1 X149.524 Y154.518 E68.73484
G1 X149.891 Y154.519 E68.75010
G1 X151.130 Y154.518 E68.80161
G1 X151.299 Y154.638 E68.81022
G1 X151.718 Y154.824 E68.82928
G1 X152.167 Y154.929 E68.84846
G1 X152.524 Y154.953 E68.86333
G1 X153.135 Y154.873 E68.88895
G0 F9000 X153.004 Y154.386
;TYPE:WALL-OUTER
G1 F900 X153.472 Y154.192 E68.91001
G1 X153.786 Y153.967 E68.92607
G1 X154.050 Y153.684 E68.94216
G1 X154.303 Y153.247 E68.96316
G1 X154.433 Y152.762 E68.98403
G1 X154.451 Y152.492 E68.99528
G1 X154.386 Y151.996 E69.01608
G1 X154.192 Y151.528 E69.03714
G1 X153.967 Y151.214 E69.05320
G1 X153.684 Y150.950 E69.06929
G1 X153.247 Y150.697 E69.09029
G1 X152.762 Y150.567 E69.11116
G1 X152.492 Y150.549 E69.12241
G1 X151.998 Y150.614 E69.14313
G1 X151.599 Y150.769 E69.16092
G1 X151.288 Y150.981 E69.17657
G1 X147.471 Y150.982 E69.33527
G1 X147.341 Y150.818 E69.34397
G1 X147.084 Y150.618 E69.35750
G1 X146.950 Y150.549 E69.36377
G1 X146.950 Y149.297 E69.41582
G1 X152.500 Y146.092 E69.68228
G1 X158.050 Y149.297 E69.94873
G1 X158.050 Y155.703 E70.21506
G1 X152.500 Y158.908 E70.48151
G1 X146.950 Y155.703 E70.74797
G1 X146.950 Y154.448 E70.80014
G1 X147.169 Y154.325 E70.81058
G1 X147.347 Y154.175 E70.82026
G1 X147.478 Y154.019 E70.82873
G1 X151.289 Y154.018 E70.98717
G1 X151.554 Y154.206 E71.00068
G1 X151.875 Y154.347 E71.01526
G1 X152.242 Y154.433 E71.03093
G1 X152.508 Y154.451 E71.04201
G1 X153.004 Y154.386 E71.06281
G0 F9000 X152.467 Y155.123
;TYPE:FILL
G1 F900 X150.574 Y157.016 E71.17411
G1 F2400 E70.57411
G1 Z2.300
G0 F9000 X151.286 Y154.822
G1 Z1.800
G1 F2400 E71.17411
G1 F900 X153.826 Y157.361 E71.32343
G1 F2400 E70.72343
G1 Z2.300
G0 F9000 X157.374 Y153.838
G1 Z1.800
G1 F2400 E71.32343
G1 F900 X154.823 Y151.287 E71.47342
G0 F9000 X155.127 Y152.463
G1 F900 X157.374 Y150.217 E71.60550
G1 F2400 E71.00550
G1 Z2.300
G0 F9000 X153.737 Y150.201
G1 Z1.800
G1 F2400 E71.60550
G1 F900 X151.173 Y147.637 E71.75625
G1 F2400 E71.15625
G1 Z2.300
G0 F9000 X153.227 Y147.292
G1 Z1.800
G1 F2400 E71.75625
G1 F900 X150.214 Y150.306 E71.93344
;LAYER:9
M106 S94
G0 F9000 X150.088 Y150.375 Z2.000
;TYPE:WALL-INNER
G1 F900 X149.525 Y150.376 E71.95684
G1 X147.698 Y150.375 E72.03280
G1 X147.450 Y150.186 E72.04576
G1 X147.450 Y149.585 E72.07075
G1 X152.500 Y146.670 E72.31317
G1 X157.550 Y149.585 E72.55560
G1 X157.550 Y155.415 E72.79798
G1 X152.500 Y158.330 E73.04040
G1 X147.450 Y155.415 E73.28282
G1 X147.450 Y154.824 E73.30739
G1 X147.697 Y154.624 E73.32061
G1 X149.279 Y154.625 E73.38638
G1 X151.282 Y154.624 E73.46965
G1 X151.860 Y154.869 E73.49575
G1 X152.314 Y154.944 E73.51488
G1 X152.512 Y154.951 E73.52312
G1 X152.833 Y154.929 E73.53650
G1 X153.288 Y154.823 E73.55592
G1 X153.727 Y154.625 E73.57594
G1 X154.116 Y154.345 E73.59587
G1 X154.425 Y154.018 E73.61458
G1 X154.698 Y153.588 E73.63575
G1 X154.870 Y153.134 E73.65594
G1 X154.944 Y152.686 E73.67481
G1 X154.951 Y152.488 E73.68305
G1 X154.929 Y152.167 E73.69643
G1 X154.823 Y151.712 E73.71585
G1 X154.625 Y151.273 E73.73587
G1 X154.345 Y150.884 E73.75580
G1 X154.018 Y150.575 E73.77450
G1 X153.588 Y150.302 E73.79568
G1 X153.134 Y150.130 E73.81586
G1 X152.686 Y150.056 E73.83474
G1 X152.488 Y150.049 E73.84298
G1 X152.167 Y150.071 E73.85636
G1 X151.720 Y150.175 E73.87544
G1 X151.367 Y150.326 E73.89140
G1 X151.286 Y150.376 E73.89536
G1 X150.088 Y150.375 E73.94516
G1 F2400 E73.34516
G1 Z2.500
G0 F9000 X151.597 Y150.771
;TYPE:WALL-OUTER
G1 Z2.000
G1 F2400 E73.94516
G1 F900 X151.426 Y150.876 E73.95351
G1 X147.597 Y150.875 E74.11270
G1 X147.465 Y150.876 E74.11819
G1 X147.341 Y150.728 E74.12621
G1 X147.079 Y150.533 E74.13979
G1 X146.950 Y150.471 E74.14574
G1 X146.950 Y149.297 E74.19455
G1 X152.500 Y146.092 E74.46100
G1 X158.050 Y149.297 E74.72746
G1 X158.050 Y155.703 E74.99379
G1 X152.500 Y158.908 E75.26024
G1 X146.950 Y155.703 E75.52669
G1 X146.950 Y154.518 E75.57596
G1 X147.161 Y154.415 E75.58572
G1 X147.353 Y154.260 E75.59598
G1 X147.467 Y154.124 E75.60336
G1 X151.426 Y154.124 E75.76795
G1 X151.611 Y154.233 E75.77688
G1 X151.994 Y154.384 E75.79400
G1 X152.364 Y154.445 E75.80959
G1 X152.504 Y154.450 E75.81541
G1 X152.758 Y154.433 E75.82600
G1 X153.127 Y154.347 E75.84175
G1 X153.476 Y154.190 E75.85766
G1 X153.785 Y153.967 E75.87350
G1 X154.029 Y153.709 E75.88827
G1 X154.249 Y153.363 E75.90531
G1 X154.385 Y153.004 E75.92127
G1 X154.445 Y152.636 E75.93677
G1 X154.450 Y152.496 E75.94260
G1 X154.433 Y152.242 E75.95318
G1 X154.347 Y151.873 E75.96893
G1 X154.190 Y151.524 E75.98484
G1 X153.967 Y151.215 E76.00069
G1 X153.709 Y150.971 E76.01545
G1 X153.363 Y150.751 E76.03250
G1 X153.004 Y150.615 E76.04846
G1 X152.636 Y150.555 E76.06396
G1 X152.496 Y150.550 E76.06978
G1 X152.242 Y150.567 E76.08037
G1 X151.876 Y150.652 E76.09599
G1 X151.597 Y150.771 E76.10860
G0 F9000 X150.318 Y150.201
;TYPE:FILL
G1 F900 X153.227 Y147.292 E76.27964
G1 F2400 E75.67964
G1 Z2.500
G0 F9000 X151.173 Y147.637
G1 Z2.000
G1 F2400 E76.27964
G1 F900 X153.702 Y150.166 E76.42833
G1 F2400 E75.82833
G1 Z2.500
G0 F9000 X154.823 Y151.287
G1 Z2.000
G1 F2400 E76.42833
G1 F900 X157.374 Y153.838 E76.57832
G1 F2400 E75.97832
G1 Z2.500
G0 F9000 X155.123 Y152.467
G1 Z2.000
G1 F2400 E76.57832
G1 F900 X157.374 Y150.217 E76.71064
G1 F2400 E76.11064
G1 Z2.500
G0 F9000 X152.468 Y155.122
G1 Z2.000
G1 F2400 E76.71064
G1 F900 X150.574 Y157.016 E76.82200
G1 F2400 E76.22200
G1 Z2.500
G0 F9000 X151.275 Y154.811
G1 Z2.000
G1 F2400 E76.82200
G1 F900 X153.826 Y157.361 E76.97196
;LAYER:10
M106 S104
G1 F2400 E76.37196
G1 Z2.500
G0 F9000 X152.979 Y154.906 Z2.200
;TYPE:WALL-INNER
G1 Z2.200
G1 F2400 E76.97196
G1 F900 X153.426 Y154.770 E76.99139
G1 X153.747 Y154.613 E77.00624
G1 X154.227 Y154.244 E77.03142
G1 X154.540 Y153.862 E77.05195
G1 X154.755 Y153.460 E77.07090
G1 X154.828 Y153.264 E77.07960
G1 X154.929 Y152.833 E77.09800
G1 X154.953 Y152.488 E77.11238
G1 X154.906 Y152.021 E77.13189
G1 X154.770 Y151.574 E77.15132
G1 X154.613 Y151.253 E77.16617
G1 X154.244 Y150.773 E77.19135
G1 X153.862 Y150.460 E77.21188
G1 X153.460 Y150.245 E77.23083
G1 X153.264 Y150.172 E77.23953
G1 X152.833 Y150.071 E77.25793
G1 X152.488 Y150.047 E77.27231
G1 X152.021 Y150.094 E77.29182
G1 X151.582 Y150.228 E77.31091
G1 X151.416 Y150.305 E77.31851
G1 X150.177 Y150.305 E77.37003
G1 X149.525 Y150.306 E77.39713
G1 X147.690 Y150.305 E77.47342
G1 X147.450 Y150.119 E77.48605
G1 X147.450 Y149.585 E77.50825
G1 X152.500 Y146.670 E77.75067
G1 X157.550 Y149.585 E77.99309
G1 X157.550 Y155.415 E78.23547
G1 X152.500 Y158.330 E78.47790
G1 X147.450 Y155.415 E78.72032
G1 X147.450 Y154.876 E78.74273
G1 X147.573 Y154.794 E78.74887
G1 X147.675 Y154.694 E78.75481
G1 X149.227 Y154.695 E78.81934
G1 X150.177 Y154.694 E78.85883
G1 X151.419 Y154.695 E78.91047
G1 X151.718 Y154.824 E78.92401
G1 X152.167 Y154.929 E78.94318
G1 X152.512 Y154.953 E78.95756
G1 X152.979 Y154.906 E78.97707
G0 F9000 X152.880 Y154.413
;TYPE:WALL-OUTER
G1 F900 X153.242 Y154.303 E78.99280
G1 X153.482 Y154.186 E79.00390
G1 X153.877 Y153.883 E79.02460
G1 X154.122 Y153.583 E79.04070
G1 X154.298 Y153.253 E79.05625
G1 X154.349 Y153.119 E79.06221
G1 X154.433 Y152.758 E79.07762
G1 X154.451 Y152.496 E79.08854
G1 X154.413 Y152.120 E79.10425
G1 X154.303 Y151.758 E79.11998
G1 X154.186 Y151.518 E79.13108
G1 X153.883 Y151.123 E79.15178
G1 X153.583 Y150.878 E79.16788
G1 X153.253 Y150.702 E79.18343
G1 X153.119 Y150.651 E79.18939
G1 X152.758 Y150.567 E79.20480
G1 X152.496 Y150.549 E79.21572
G1 X152.120 Y150.587 E79.23143
G1 X151.761 Y150.696 E79.24703
G1 X151.539 Y150.805 E79.25731
G1 X147.463 Y150.806 E79.42677
G1 X147.345 Y150.670 E79.43426
G1 X147.158 Y150.525 E79.44410
G1 X146.950 Y150.427 E79.45366
G1 X146.950 Y149.297 E79.50064
G1 X152.500 Y146.092 E79.76709
G1 X158.050 Y149.297 E80.03354
G1 X158.050 Y155.703 E80.29987
G1 X152.500 Y158.908 E80.56633
G1 X146.950 Y155.703 E80.83278
G1 X146.950 Y154.580 E80.87947
G1 X147.069 Y154.528 E80.88487
G1 X147.257 Y154.403 E80.89425
G1 X147.472 Y154.194 E80.90672
G1 X151.541 Y154.195 E81.07589
G1 X151.595 Y154.226 E81.07848
G1 X151.875 Y154.347 E81.09116
G1 X152.242 Y154.433 E81.10683
G1 X152.504 Y154.451 E81.11775
G1 X152.880 Y154.413 E81.13346
G0 F9000 X152.467 Y155.124
;TYPE:FILL
G1 F900 X150.574 Y157.016 E81.24473
G1 F2400 E80.64473
G1 Z2.700
G0 F9000 X151.333 Y154.869
G1 Z2.200
G1 F2400 E81.24473
G1 F900 X153.826 Y157.361 E81.39128
G1 F2400 E80.79128
G1 Z2.700
G0 F9000 X157.374 Y153.838
G1 Z2.200
G1 F2400 E81.39128
G1 F900 X154.824 Y151.289 E81.54118
G0 F9000 X155.125 Y152.465
G1 F900 X157.374 Y150.217 E81.67339
G1 F2400 E81.07339
G1 Z2.700
G0 F9000 X153.721 Y150.185
G1 Z2.200
G1 F2400 E81.67339
G1 F900 X151.173 Y147.637 E81.82320
G1 F2400 E81.22320
G1 Z2.700
G0 F9000 X153.227 Y147.292
G1 Z2.200
G1 F2400 E81.82320
G1 F900 X150.390 Y150.130 E81.99003
;LAYER:11
M106 S114
G0 F9000 X149.872 Y150.263 Z2.400
;TYPE:WALL-INNER
G1 F840 X149.522 Y150.265 E82.00458
G1 X147.684 Y150.264 E82.08100
G1 X147.450 Y150.094 E82.09302
G1 X147.450 Y149.585 E82.11419
G1 X152.500 Y146.670 E82.35661
G1 X157.550 Y149.585 E82.59903
G1 X157.550 Y155.415 E82.84141
G1 X152.500 Y158.330 E83.08383
G1 X147.450 Y155.415 E83.32626
G1 X147.450 Y154.916 E83.34700
G1 X147.671 Y154.735 E83.35888
G1 X149.339 Y154.736 E83.42823
G1 X149.530 Y154.735 E83.43617
G1 X151.524 Y154.736 E83.51907
G1 X151.860 Y154.869 E83.53409
G1 X152.314 Y154.944 E83.55322
G1 X152.524 Y154.951 E83.56196
G1 X152.979 Y154.906 E83.58097
G1 X153.438 Y154.766 E83.60092
G1 X153.841 Y154.551 E83.61991
G1 X154.002 Y154.435 E83.62816
G1 X154.343 Y154.119 E83.64749
G1 X154.625 Y153.727 E83.66756
G1 X154.817 Y153.299 E83.68707
G1 X154.904 Y152.978 E83.70089
G1 X154.944 Y152.674 E83.71364
G1 X154.951 Y152.476 E83.72188
G1 X154.906 Y152.021 E83.74089
G1 X154.766 Y151.562 E83.76084
G1 X154.551 Y151.159 E83.77983
G1 X154.435 Y150.998 E83.78808
G1 X154.119 Y150.657 E83.80741
G1 X153.727 Y150.375 E83.82748
G1 X153.299 Y150.183 E83.84698
G1 X152.978 Y150.096 E83.86081
G1 X152.674 Y150.056 E83.87356
G1 X152.476 Y150.049 E83.88180
G1 X152.021 Y150.094 E83.90081
G1 X151.581 Y150.228 E83.91993
G1 X151.504 Y150.264 E83.92346
G1 X149.872 Y150.263 E83.99131
G0 F9000 X149.873 Y150.763
;TYPE:WALL-OUTER
G1 F840 X149.525 Y150.765 E84.00578
G1 X147.538 Y150.764 E84.08839
G1 X147.461 Y150.764 E84.09159
G1 X147.336 Y150.626 E84.09933
G1 X147.071 Y150.439 E84.11282
G1 X146.950 Y150.388 E84.11828
G1 X146.950 Y149.297 E84.16364
G1 X152.500 Y146.092 E84.43009
G1 X158.050 Y149.297 E84.69654
G1 X158.050 Y155.703 E84.96287
G1 X152.500 Y158.908 E85.22932
G1 X146.950 Y155.703 E85.49578
G1 X146.950 Y154.605 E85.54143
G1 X147.160 Y154.507 E85.55106
G1 X147.412 Y154.301 E85.56459
G1 X147.467 Y154.235 E85.56817
G1 X149.338 Y154.236 E85.64595
G1 X149.527 Y154.235 E85.65381
G1 X151.619 Y154.236 E85.74079
G1 X151.994 Y154.384 E85.75755
G1 X152.364 Y154.445 E85.77314
G1 X152.508 Y154.450 E85.77913
G1 X152.880 Y154.413 E85.79467
G1 X153.246 Y154.302 E85.81057
G1 X153.576 Y154.126 E85.82612
G1 X153.685 Y154.048 E85.83169
G1 X153.966 Y153.786 E85.84767
G1 X154.190 Y153.476 E85.86357
G1 X154.345 Y153.130 E85.87933
G1 X154.413 Y152.880 E85.89010
G1 X154.445 Y152.632 E85.90050
G1 X154.450 Y152.492 E85.90632
G1 X154.413 Y152.120 E85.92186
G1 X154.302 Y151.754 E85.93776
G1 X154.126 Y151.424 E85.95331
G1 X154.048 Y151.315 E85.95889
G1 X153.786 Y151.034 E85.97486
G1 X153.476 Y150.810 E85.99076
G1 X153.130 Y150.655 E86.00652
G1 X152.880 Y150.587 E86.01729
G1 X152.632 Y150.555 E86.02769
G1 X152.492 Y150.550 E86.03351
G1 X152.120 Y150.587 E86.04906
G1 X151.760 Y150.696 E86.06469
G1 X151.615 Y150.764 E86.07135
G1 X149.873 Y150.763 E86.14378
G0 F9000 X150.431 Y150.089
;TYPE:FILL
G1 F840 X153.227 Y147.292 E86.30820
G1 F2400 E85.70820
G1 Z2.900
G0 F9000 X151.173 Y147.637
G1 Z2.400
G1 F2400 E86.30820
G1 F840 X153.711 Y150.176 E86.45745
G1 F2400 E85.85745
G1 Z2.900
G0 F9000 X154.810 Y151.274
G1 Z2.400
G1 F2400 E86.45745
G1 F840 X157.374 Y153.838 E86.60821
G1 F2400 E86.00821
G1 Z2.900
G0 F9000 X155.124 Y152.467
G1 Z2.400
G1 F2400 E86.60821
G1 F840 X157.374 Y150.217 E86.74050
G1 F2400 E86.14050
G1 Z2.900
G0 F9000 X152.468 Y155.122
G1 Z2.400
G1 F2400 E86.74050
G1 F840 X150.574 Y157.016 E86.85186
G1 F2400 E86.25186
G1 Z2.900
G0 F9000 X151.374 Y154.910
G1 Z2.400
G1 F2400 E86.85186
G1 F840 X153.826 Y157.361 E86.99600
;LAYER:12
M106 S127
G1 F2400 E86.39600
G1 Z2.900
G0 F9000 X153.134 Y154.867 Z2.600
;TYPE:WALL-INNER
G1 Z2.600
G1 F2400 E86.99600
G1 F840 X153.581 Y154.698 E87.01587
G1 X153.991 Y154.443 E87.03594
G1 X154.233 Y154.233 E87.04926
G1 X154.535 Y153.863 E87.06912
G1 X154.763 Y153.437 E87.08920
G1 X154.867 Y153.134 E87.10252
G1 X154.903 Y152.976 E87.10926
G1 X154.945 Y152.662 E87.12243
G1 X154.950 Y152.500 E87.12917
G1 X154.929 Y152.181 E87.14246
G1 X154.903 Y152.024 E87.14908
G1 X154.867 Y151.866 E87.15581
G1 X154.698 Y151.419 E87.17568
G1 X154.443 Y151.009 E87.19576
G1 X154.233 Y150.767 E87.20908
G1 X153.863 Y150.465 E87.22893
G1 X153.437 Y150.237 E87.24902
G1 X153.134 Y150.133 E87.26234
G1 X152.807 Y150.069 E87.27619
G1 X152.488 Y150.047 E87.28949
G1 X152.047 Y150.091 E87.30791
G1 X151.712 Y150.181 E87.32233
G1 X151.534 Y150.250 E87.33027
G1 X147.677 Y150.250 E87.49063
G1 X147.450 Y150.074 E87.50257
G1 X147.450 Y149.585 E87.52290
G1 X152.500 Y146.670 E87.76532
G1 X157.550 Y149.585 E88.00774
G1 X157.550 Y155.415 E88.25013
G1 X152.500 Y158.330 E88.49255
G1 X147.450 Y155.415 E88.73497
G1 X147.450 Y154.926 E88.75530
G1 X147.677 Y154.750 E88.76724
G1 X151.533 Y154.750 E88.92756
G1 X151.866 Y154.867 E88.94223
G1 X152.024 Y154.903 E88.94897
G1 X152.338 Y154.945 E88.96214
G1 X152.500 Y154.950 E88.96888
G1 X152.819 Y154.929 E88.98217
G1 X152.976 Y154.903 E88.98878
G1 X153.134 Y154.867 E88.99552
G0 F9000 X153.127 Y154.346
;TYPE:WALL-OUTER
G1 F840 X153.475 Y154.189 E89.01139
G1 X153.584 Y154.120 E89.01676
G1 X153.879 Y153.879 E89.03259
G1 X154.046 Y153.686 E89.04320
G1 X154.120 Y153.584 E89.04844
G1 X154.249 Y153.361 E89.05915
G1 X154.384 Y153.004 E89.07502
G1 X154.446 Y152.628 E89.09087
G1 X154.450 Y152.500 E89.09619
G1 X154.412 Y152.121 E89.11203
G1 X154.346 Y151.873 E89.12270
G1 X154.189 Y151.525 E89.13857
G1 X154.120 Y151.416 E89.14393
G1 X153.879 Y151.121 E89.15977
G1 X153.686 Y150.954 E89.17038
G1 X153.584 Y150.880 E89.17562
G1 X153.361 Y150.751 E89.18633
G1 X153.004 Y150.616 E89.20220
G1 X152.750 Y150.566 E89.21296
G1 X152.496 Y150.549 E89.22354
G1 X152.128 Y150.586 E89.23892
G1 X151.754 Y150.699 E89.25516
G1 X151.642 Y150.750 E89.26028
G1 X147.468 Y150.750 E89.43382
G1 X147.160 Y150.481 E89.45082
G1 X146.977 Y150.380 E89.45951
G1 X146.950 Y150.369 E89.46072
G1 X146.950 Y149.297 E89.50529
G1 X152.500 Y146.092 E89.77174
G1 X158.050 Y149.297 E90.03819
G1 X158.050 Y155.703 E90.30452
G1 X152.500 Y158.908 E90.57098
G1 X146.950 Y155.703 E90.83743
G1 X146.950 Y154.631 E90.88200
G1 X147.163 Y154.516 E90.89206
G1 X147.334 Y154.386 E90.90099
G1 X147.468 Y154.250 E90.90893
G1 X151.643 Y154.250 E91.08251
G1 X151.996 Y154.384 E91.09820
G1 X152.372 Y154.446 E91.11405
G1 X152.500 Y154.450 E91.11937
G1 X152.879 Y154.412 E91.13521
G1 X153.127 Y154.346 E91.14588
G0 F9000 X152.468 Y155.122
;TYPE:FILL
G1 F840 X150.574 Y157.016 E91.25724
G1 F2400 E90.65724
G1 Z3.100
G0 F9000 X151.388 Y154.924
G1 Z2.600
G1 F2400 E91.25724
G1 F840 X153.826 Y157.361 E91.40055
G1 F2400 E90.80055
G1 Z3.100
G0 F9000 X157.374 Y153.838
G1 Z2.600
G1 F2400 E91.40055
G1 F840 X154.816 Y151.280 E91.55095
G0 F9000 X155.122 Y152.468
G1 F840 X157.374 Y150.217 E91.68333
G1 F2400 E91.08333
G1 Z3.100
G0 F9000 X153.732 Y150.196
G1 Z2.600
G1 F2400 E91.68333
G1 F840 X151.173 Y147.637 E91.83379
G1 F2400 E91.23379
G1 Z3.100
G0 F9000 X153.227 Y147.292
G1 Z2.600
G1 F2400 E91.83379
G1 F840 X150.445 Y150.074 E91.99736
;LAYER:13
M106 S137
G0 F9000 X149.834 Y150.264 Z2.800
;TYPE:WALL-INNER
G1 F900 X149.357 Y150.265 E92.01719
G1 X147.681 Y150.264 E92.08687
G1 X147.530 Y150.139 E92.09502
G1 X147.450 Y150.092 E92.09888
G1 X147.450 Y149.585 E92.11996
G1 X152.500 Y146.670 E92.36238
G1 X157.550 Y149.585 E92.60480
G1 X157.550 Y155.415 E92.84719
G1 X152.500 Y158.330 E93.08961
G1 X147.450 Y155.415 E93.33203
G1 X147.450 Y154.910 E93.35303
G1 X147.575 Y154.827 E93.35927
G1 X147.672 Y154.735 E93.36482
G1 X151.524 Y154.736 E93.52497
G1 X151.858 Y154.867 E93.53989
G1 X152.182 Y154.930 E93.55361
G1 X152.535 Y154.953 E93.56832
G1 X153.134 Y154.871 E93.59345
G1 X153.575 Y154.703 E93.61307
G1 X153.881 Y154.526 E93.62777
G1 X154.243 Y154.227 E93.64729
G1 X154.541 Y153.860 E93.66694
G1 X154.770 Y153.429 E93.68724
G1 X154.899 Y153.001 E93.70582
G1 X154.953 Y152.465 E93.72822
G1 X154.871 Y151.866 E93.75335
G1 X154.703 Y151.425 E93.77297
G1 X154.526 Y151.119 E93.78767
G1 X154.227 Y150.757 E93.80719
G1 X153.860 Y150.459 E93.82684
G1 X153.429 Y150.230 E93.84714
G1 X153.001 Y150.101 E93.86572
G1 X152.465 Y150.047 E93.88812
G1 X151.866 Y150.129 E93.91325
G1 X151.511 Y150.264 E93.92904
G1 X149.834 Y150.264 E93.99877
G1 F2400 E93.39877
G1 Z3.300
G0 F9000 X151.991 Y150.616
;TYPE:WALL-OUTER
G1 Z2.800
G1 F2400 E93.99877
G1 F900 X151.613 Y150.764 E94.01564
G1 X147.461 Y150.764 E94.18826
G1 X147.340 Y150.631 E94.19574
G1 X147.243 Y150.550 E94.20099
G1 X146.950 Y150.380 E94.21508
G1 X146.950 Y149.297 E94.26010
G1 X152.500 Y146.092 E94.52655
G1 X158.050 Y149.297 E94.79301
G1 X158.050 Y155.703 E95.05934
G1 X152.500 Y158.908 E95.32579
G1 X146.950 Y155.703 E95.59224
G1 X146.950 Y154.613 E95.63756
G1 X147.068 Y154.563 E95.64289
G1 X147.262 Y154.434 E95.65257
G1 X147.471 Y154.235 E95.66457
G1 X151.619 Y154.236 E95.83703
G1 X151.999 Y154.385 E95.85400
G1 X152.247 Y154.433 E95.86450
G1 X152.517 Y154.451 E95.87575
G1 X153.009 Y154.384 E95.89639
G1 X153.359 Y154.250 E95.91197
G1 X153.594 Y154.114 E95.92326
G1 X153.886 Y153.873 E95.93900
G1 X154.122 Y153.583 E95.95455
G1 X154.305 Y153.238 E95.97078
G1 X154.411 Y152.888 E95.98599
G1 X154.451 Y152.483 E96.00291
G1 X154.384 Y151.991 E96.02355
G1 X154.250 Y151.641 E96.03913
G1 X154.114 Y151.406 E96.05042
G1 X153.873 Y151.114 E96.06616
G1 X153.583 Y150.878 E96.08171
G1 X153.238 Y150.695 E96.09794
G1 X152.888 Y150.589 E96.11315
G1 X152.483 Y150.549 E96.13007
G1 X151.991 Y150.616 E96.15071
G1 F2400 E95.55071
G1 Z3.300
G0 F9000 X150.431 Y150.089
;TYPE:FILL
G1 Z2.800
G1 F2400 E96.15071
G1 F900 X153.227 Y147.292 E96.31513
G1 F2400 E95.71513
G1 Z3.300
G0 F9000 X151.173 Y147.637
G1 Z2.800
G1 F2400 E96.31513
G1 F900 X153.724 Y150.188 E96.46512
G1 F2400 E95.86512
G1 Z3.300
G0 F9000 X154.825 Y151.290
G1 Z2.800
G1 F2400 E96.46512
G1 F900 X157.374 Y153.838 E96.61496
G1 F2400 E96.01496
G1 Z3.300
G0 F9000 X155.127 Y152.463
G1 Z2.800
G1 F2400 E96.61496
G1 F900 X157.374 Y150.217 E96.74705
G1 F2400 E96.14705
G1 Z3.300
G0 F9000 X152.469 Y155.122
G1 Z2.800
G1 F2400 E96.74705
G1 F900 X150.574 Y157.016 E96.85844
G1 F2400 E96.25844
G1 Z3.300
G0 F9000 X151.375 Y154.910
G1 Z2.800
G1 F2400 E96.85844
G1 F900 X153.826 Y157.361 E97.00255
;LAYER:14
M106 S147
G1 F2400 E96.40255
G1 Z3.300
G0 F9000 X153.004 Y154.900 Z3.000
;TYPE:WALL-INNER
G1 Z3.000
G1 F2400 E97.00255
G1 F900 X153.471 Y154.753 E97.02290
G1 X153.976 Y154.459 E97.04720
G1 X154.266 Y154.202 E97.06331
G1 X154.622 Y153.734 E97.08775
G1 X154.829 Y153.267 E97.10899
G1 X154.930 Y152.830 E97.12764
G1 X154.953 Y152.465 E97.14284
G1 X154.900 Y151.996 E97.16247
G1 X154.753 Y151.529 E97.18282
G1 X154.459 Y151.024 E97.20712
G1 X154.202 Y150.734 E97.22323
G1 X153.734 Y150.378 E97.24767
G1 X153.267 Y150.171 E97.26891
G1 X152.830 Y150.070 E97.28756
G1 X152.465 Y150.047 E97.30276
G1 X151.996 Y150.100 E97.32239
G1 X151.561 Y150.237 E97.34135
G1 X151.416 Y150.305 E97.34801
G1 X150.130 Y150.305 E97.40147
G1 X149.525 Y150.306 E97.42662
G1 X147.683 Y150.305 E97.50321
G1 X147.546 Y150.186 E97.51075
G1 X147.450 Y150.126 E97.51546
G1 X147.450 Y149.584 E97.53799
G1 X152.500 Y146.669 E97.78041
G1 X157.550 Y149.584 E98.02283
G1 X157.550 Y155.416 E98.26530
G1 X152.500 Y158.331 E98.50772
G1 X147.450 Y155.416 E98.75014
G1 X147.450 Y154.873 E98.77272
G1 X147.687 Y154.694 E98.78507
G1 X149.526 Y154.695 E98.86152
G1 X150.130 Y154.694 E98.88664
G1 X151.418 Y154.695 E98.94018
G1 X151.869 Y154.869 E98.96028
G1 X152.184 Y154.930 E98.97362
G1 X152.535 Y154.953 E98.98825
G1 X153.004 Y154.900 E99.00787
G0 F9000 X152.900 Y154.409
;TYPE:WALL-OUTER
G1 F900 X153.268 Y154.293 E99.02391
G1 X153.681 Y154.052 E99.04379
G1 X153.898 Y153.860 E99.05584
G1 X154.189 Y153.478 E99.07580
G1 X154.352 Y153.108 E99.09261
G1 X154.433 Y152.757 E99.10759
G1 X154.451 Y152.477 E99.11925
G1 X154.409 Y152.100 E99.13502
G1 X154.293 Y151.732 E99.15106
G1 X154.052 Y151.319 E99.17094
G1 X153.860 Y151.102 E99.18299
G1 X153.478 Y150.811 E99.20296
G1 X153.108 Y150.648 E99.21977
G1 X152.757 Y150.567 E99.23474
G1 X152.477 Y150.549 E99.24641
G1 X152.100 Y150.591 E99.26218
G1 X151.743 Y150.704 E99.27775
G1 X151.539 Y150.805 E99.28721
G1 X147.465 Y150.805 E99.45659
G1 X147.373 Y150.698 E99.46245
G1 X147.248 Y150.589 E99.46935
G1 X146.981 Y150.424 E99.48240
G1 X146.950 Y150.412 E99.48378
G1 X146.950 Y149.296 E99.53018
G1 X152.500 Y146.091 E99.79663
G1 X158.050 Y149.296 E100.06308
G1 X158.050 Y155.704 E100.32950
G1 X152.500 Y158.909 E100.59595
G1 X146.950 Y155.704 E100.86240
G1 X146.950 Y154.581 E100.90909
G1 X147.073 Y154.528 E100.91466
G1 X147.334 Y154.340 E100.92803
G1 X147.473 Y154.194 E100.93641
G1 X151.540 Y154.195 E101.10550
G1 X152.008 Y154.387 E101.12653
G1 X152.247 Y154.433 E101.13665
G1 X152.523 Y154.451 E101.14815
G1 X152.900 Y154.409 E101.16392
G0 F9000 X152.469 Y155.122
;TYPE:FILL
G1 F900 X150.574 Y157.016 E101.27531
G1 F2400 E100.67531
G1 Z3.500
G0 F9000 X151.333 Y154.869
G1 Z3.000
G1 F2400 E101.27531
G1 F900 X153.826 Y157.361 E101.42186
G1 F2400 E100.82186
G1 Z3.500
G0 F9000 X157.374 Y153.838
G1 Z3.000
G1 F2400 E101.42186
G1 F900 X154.801 Y151.265 E101.57314
G0 F9000 X155.127 Y152.464
G1 F900 X157.373 Y150.217 E101.70523
G1 F2400 E101.10523
G1 Z3.500
G0 F9000 X153.713 Y150.178
G1 Z3.000
G1 F2400 E101.70523
G1 F900 X151.173 Y147.637 E101.85460
G1 F2400 E101.25460
G1 Z3.500
G0 F9000 X153.228 Y147.291
G1 Z3.000
G1 F2400 E101.85460
G1 F900 X150.390 Y150.130 E102.02149
;LAYER:15
M106 S158
G0 F9000 X150.037 Y150.375 Z3.200
;TYPE:WALL-INNER
G1 F900 X149.525 Y150.376 E102.04278
G1 X147.681 Y150.375 E102.11944
G1 X147.450 Y150.188 E102.13180
G1 X147.450 Y149.585 E102.15687
G1 X152.500 Y146.670 E102.39929
G1 X157.550 Y149.585 E102.64171
G1 X157.550 Y155.415 E102.88410
G1 X152.500 Y158.330 E103.12652
G1 X147.450 Y155.415 E103.36894
G1 X147.450 Y154.822 E103.39359
G1 X147.698 Y154.624 E103.40679
G1 X149.527 Y154.625 E103.48283
G1 X150.037 Y154.624 E103.50403
G1 X151.281 Y154.624 E103.55575
G1 X151.404 Y154.689 E103.56154
G1 X151.749 Y154.833 E103.57708
G1 X152.171 Y154.930 E103.59508
G1 X152.547 Y154.953 E103.61074
G1 X152.988 Y154.901 E103.62920
G1 X153.199 Y154.850 E103.63823
G1 X153.719 Y154.630 E103.66170
G1 X154.120 Y154.342 E103.68223
G1 X154.475 Y153.955 E103.70406
G1 X154.776 Y153.416 E103.72973
G1 X154.908 Y152.957 E103.74958
G1 X154.945 Y152.670 E103.76162
G1 X154.951 Y152.441 E103.77114
G1 X154.901 Y152.012 E103.78910
G1 X154.850 Y151.801 E103.79812
G1 X154.630 Y151.281 E103.82160
G1 X154.342 Y150.880 E103.84212
G1 X153.955 Y150.525 E103.86396
G1 X153.416 Y150.224 E103.88962
G1 X152.957 Y150.092 E103.90948
G1 X152.670 Y150.055 E103.92151
G1 X152.441 Y150.049 E103.93103
G1 X152.012 Y150.099 E103.94899
G1 X151.808 Y150.148 E103.95771
G1 X151.372 Y150.322 E103.97723
G1 X151.286 Y150.376 E103.98145
G1 X150.037 Y150.375 E104.03338
G1 F2400 E103.43338
G1 Z3.700
G0 F9000 X151.599 Y150.770
;TYPE:WALL-OUTER
G1 Z3.200
G1 F2400 E104.03338
G1 F900 X151.429 Y150.876 E104.04171
G1 X147.471 Y150.875 E104.20626
G1 X147.413 Y150.801 E104.21017
G1 X147.084 Y150.535 E104.22776
G1 X146.950 Y150.470 E104.23395
G1 X146.950 Y149.297 E104.28272
G1 X152.500 Y146.092 E104.54917
G1 X158.050 Y149.297 E104.81563
G1 X158.050 Y155.703 E105.08196
G1 X152.500 Y158.908 E105.34841
G1 X146.950 Y155.703 E105.61486
G1 X146.950 Y154.523 E105.66392
G1 X147.107 Y154.449 E105.67114
G1 X147.350 Y154.262 E105.68388
G1 X147.466 Y154.124 E105.69138
G1 X151.426 Y154.124 E105.85602
G1 X151.609 Y154.232 E105.86485
G1 X151.902 Y154.355 E105.87806
G1 X152.243 Y154.433 E105.89261
G1 X152.533 Y154.451 E105.90469
G1 X152.900 Y154.408 E105.92005
G1 X153.042 Y154.373 E105.92613
G1 X153.473 Y154.191 E105.94558
G1 X153.787 Y153.966 E105.96164
G1 X154.067 Y153.660 E105.97888
G1 X154.311 Y153.223 E105.99969
G1 X154.417 Y152.856 E106.01557
G1 X154.446 Y152.631 E106.02501
G1 X154.450 Y152.463 E106.03199
G1 X154.408 Y152.100 E106.04719
G1 X154.373 Y151.958 E106.05327
G1 X154.191 Y151.527 E106.07272
G1 X153.966 Y151.213 E106.08878
G1 X153.660 Y150.933 E106.10602
G1 X153.223 Y150.689 E106.12683
G1 X152.856 Y150.583 E106.14271
G1 X152.631 Y150.554 E106.15214
G1 X152.463 Y150.550 E106.15913
G1 X152.100 Y150.592 E106.17432
G1 X151.960 Y150.626 E106.18031
G1 X151.599 Y150.770 E106.19647
G0 F9000 X150.319 Y150.200
;TYPE:FILL
G1 F900 X153.227 Y147.292 E106.36745
G1 F2400 E105.76745
G1 Z3.700
G0 F9000 X151.173 Y147.637
G1 Z3.200
G1 F2400 E106.36745
G1 F900 X153.741 Y150.205 E106.51844
G1 F2400 E105.91844
G1 Z3.700
G0 F9000 X154.821 Y151.286
G1 Z3.200
G1 F2400 E106.51844
G1 F900 X157.374 Y153.838 E106.66852
G1 F2400 E106.06852
G1 Z3.700
G0 F9000 X155.125 Y152.466
G1 Z3.200
G1 F2400 E106.66852
G1 F900 X157.374 Y150.217 E106.80075
G1 F2400 E106.20075
G1 Z3.700
G0 F9000 X152.468 Y155.122
G1 Z3.200
G1 F2400 E106.80075
G1 F900 X150.574 Y157.016 E106.91211
G1 F2400 E106.31211
G1 Z3.700
G0 F9000 X151.292 Y154.828
G1 Z3.200
G1 F2400 E106.91211
G1 F900 X153.826 Y157.361 E107.06107
;LAYER:16
M106 S168
G1 F2400 E106.46107
G1 Z3.700
G0 F9000 X153.156 Y154.863 Z3.400
;TYPE:WALL-INNER
G1 Z3.400
G1 F2400 E107.06107
G1 F900 X153.483 Y154.745 E107.07552
G1 X153.786 Y154.588 E107.08971
G1 X154.234 Y154.238 E107.11335
G1 X154.562 Y153.826 E107.13524
G1 X154.767 Y153.436 E107.15356
G1 X154.903 Y152.990 E107.17294
G1 X154.944 Y152.674 E107.18619
G1 X154.952 Y152.460 E107.19509
G1 X154.863 Y151.844 E107.22097
G1 X154.745 Y151.517 E107.23542
G1 X154.588 Y151.214 E107.24961
G1 X154.238 Y150.766 E107.27325
G1 X153.826 Y150.438 E107.29514
G1 X153.436 Y150.233 E107.31346
G1 X152.990 Y150.097 E107.33284
G1 X152.674 Y150.056 E107.34609
G1 X152.460 Y150.048 E107.35500
G1 X151.844 Y150.137 E107.38087
G1 X151.530 Y150.251 E107.39476
G1 X151.340 Y150.340 E107.40348
G1 X151.136 Y150.482 E107.41382
G1 X147.705 Y150.483 E107.55646
G1 X147.665 Y150.434 E107.55909
G1 X147.450 Y150.268 E107.57038
G1 X147.450 Y149.584 E107.59882
G1 X152.500 Y146.669 E107.84124
G1 X157.550 Y149.584 E108.08367
G1 X157.550 Y155.416 E108.32613
G1 X152.500 Y158.331 E108.56855
G1 X147.450 Y155.416 E108.81098
G1 X147.450 Y154.731 E108.83945
G1 X147.711 Y154.518 E108.85346
G1 X149.372 Y154.517 E108.92252
G1 X149.964 Y154.519 E108.94713
G1 X151.130 Y154.517 E108.99561
G1 X151.298 Y154.637 E109.00419
G1 X151.425 Y154.699 E109.01007
G1 X151.993 Y154.900 E109.03512
G1 X152.326 Y154.944 E109.04908
G1 X152.540 Y154.952 E109.05798
G1 X153.156 Y154.863 E109.08386
G0 F9000 X153.034 Y154.376
;TYPE:WALL-OUTER
G1 F900 X153.282 Y154.286 E109.09483
G1 X153.515 Y154.165 E109.10574
G1 X153.879 Y153.881 E109.12494
G1 X154.141 Y153.551 E109.14246
G1 X154.302 Y153.245 E109.15683
G1 X154.412 Y152.884 E109.17252
G1 X154.445 Y152.632 E109.18309
G1 X154.451 Y152.487 E109.18912
G1 X154.376 Y151.966 E109.21101
G1 X154.286 Y151.718 E109.22197
G1 X154.165 Y151.485 E109.23289
G1 X153.881 Y151.121 E109.25208
G1 X153.551 Y150.859 E109.26960
G1 X153.245 Y150.698 E109.28398
G1 X152.884 Y150.588 E109.29967
G1 X152.632 Y150.555 E109.31023
G1 X152.487 Y150.549 E109.31627
G1 X151.966 Y150.624 E109.33815
G1 X151.591 Y150.775 E109.35496
G1 X151.293 Y150.982 E109.37004
G1 X147.503 Y150.983 E109.52761
G1 X147.469 Y150.983 E109.52903
G1 X147.315 Y150.795 E109.53913
G1 X147.079 Y150.614 E109.55150
G1 X146.950 Y150.555 E109.55739
G1 X146.950 Y149.296 E109.60974
G1 X152.500 Y146.091 E109.87619
G1 X158.050 Y149.296 E110.14264
G1 X158.050 Y155.704 E110.40906
G1 X152.500 Y158.909 E110.67551
G1 X146.950 Y155.704 E110.94196
G1 X146.950 Y154.446 E110.99426
G1 X147.081 Y154.386 E111.00025
G1 X147.344 Y154.178 E111.01419
G1 X147.479 Y154.018 E111.02290
G1 X151.289 Y154.017 E111.18130
G1 X151.554 Y154.206 E111.19483
G1 X151.618 Y154.237 E111.19779
G1 X152.110 Y154.411 E111.21948
G1 X152.368 Y154.445 E111.23030
G1 X152.513 Y154.451 E111.23634
G1 X153.034 Y154.376 E111.25822
G0 F9000 X152.467 Y155.123
;TYPE:FILL
G1 F900 X150.574 Y157.016 E111.36952
G1 F2400 E110.76952
G1 Z3.900
G0 F9000 X151.294 Y154.830
G1 Z3.400
G1 F2400 E111.36952
G1 F900 X153.826 Y157.361 E111.51836
G1 F2400 E110.91836
G1 Z3.900
G0 F9000 X157.374 Y153.838
G1 Z3.400
G1 F2400 E111.51836
G1 F900 X154.820 Y151.284 E111.66853
G0 F9000 X155.127 Y152.464
G1 F900 X157.373 Y150.217 E111.80062
G1 F2400 E111.20062
G1 Z3.900
G0 F9000 X153.721 Y150.185
G1 Z3.400
G1 F2400 E111.80062
G1 F900 X151.173 Y147.637 E111.95043
G1 F2400 E111.35043
G1 Z3.900
G0 F9000 X153.228 Y147.291
G1 Z3.400
G1 F2400 E111.95043
G1 F900 X150.213 Y150.306 E112.12770
;LAYER:17
M106 S178
G0 F9000 X151.095 Y150.491 Z3.600
;TYPE:WALL-INNER
G1 F900 X150.919 Y150.633 E112.13710
G1 X148.369 Y150.634 E112.24312
G1 X147.736 Y150.633 E112.26943
G1 X147.726 Y150.619 E112.27015
G1 X147.450 Y150.383 E112.28525
G1 X147.450 Y149.585 E112.31842
G1 X152.500 Y146.670 E112.56085
G1 X157.550 Y149.585 E112.80327
G1 X157.550 Y155.415 E113.04565
G1 X152.500 Y158.330 E113.28807
G1 X147.450 Y155.415 E113.53050
G1 X147.450 Y154.619 E113.56359
G1 X147.609 Y154.495 E113.57197
G1 X147.727 Y154.367 E113.57921
G1 X148.508 Y154.366 E113.61168
G1 X149.526 Y154.367 E113.65400
G1 X150.773 Y154.366 E113.70585
G1 X150.914 Y154.366 E113.71171
G1 X151.071 Y154.490 E113.72003
G1 X151.408 Y154.691 E113.73634
G1 X151.770 Y154.840 E113.75262
G1 X152.172 Y154.929 E113.76973
G1 X152.512 Y154.953 E113.78391
G1 X152.984 Y154.905 E113.80363
G1 X153.500 Y154.740 E113.82615
G1 X153.987 Y154.452 E113.84968
G1 X154.349 Y154.113 E113.87029
G1 X154.653 Y153.675 E113.89246
G1 X154.839 Y153.234 E113.91236
G1 X154.929 Y152.828 E113.92965
G1 X154.953 Y152.488 E113.94382
G1 X154.905 Y152.016 E113.96354
G1 X154.740 Y151.500 E113.98607
G1 X154.452 Y151.013 E114.00959
G1 X154.113 Y150.651 E114.03021
G1 X153.675 Y150.347 E114.05237
G1 X153.234 Y150.161 E114.07227
G1 X152.828 Y150.071 E114.08956
G1 X152.488 Y150.047 E114.10373
G1 X152.016 Y150.095 E114.12346
G1 X151.536 Y150.248 E114.14440
G1 X151.367 Y150.327 E114.15216
G1 X151.095 Y150.491 E114.16536
G0 F9000 X151.382 Y150.902
;TYPE:WALL-OUTER
G1 F900 X151.181 Y151.064 E114.17610
G1 X151.114 Y151.133 E114.18010
G1 X147.479 Y151.133 E114.33122
G1 X147.355 Y150.959 E114.34010
G1 X147.092 Y150.734 E114.35449
G1 X146.950 Y150.656 E114.36123
G1 X146.950 Y149.297 E114.41773
G1 X152.500 Y146.092 E114.68418
G1 X158.050 Y149.297 E114.95064
G1 X158.050 Y155.703 E115.21697
G1 X152.500 Y158.908 E115.48342
G1 X146.950 Y155.703 E115.74987
G1 X146.950 Y154.338 E115.80662
G1 X147.083 Y154.272 E115.81280
G1 X147.269 Y154.126 E115.82263
G1 X147.432 Y153.949 E115.83263
G1 X147.485 Y153.867 E115.83669
G1 X151.117 Y153.867 E115.98769
G1 X151.360 Y154.081 E116.00115
G1 X151.615 Y154.236 E116.01356
G1 X151.921 Y154.361 E116.02730
G1 X152.243 Y154.433 E116.04102
G1 X152.504 Y154.451 E116.05190
G1 X152.882 Y154.413 E116.06769
G1 X153.293 Y154.281 E116.08564
G1 X153.685 Y154.049 E116.10458
G1 X153.968 Y153.784 E116.12069
G1 X154.212 Y153.432 E116.13850
G1 X154.361 Y153.081 E116.15435
G1 X154.433 Y152.757 E116.16815
G1 X154.451 Y152.496 E116.17903
G1 X154.413 Y152.118 E116.19482
G1 X154.281 Y151.707 E116.21277
G1 X154.049 Y151.315 E116.23171
G1 X153.784 Y151.032 E116.24783
G1 X153.432 Y150.788 E116.26564
G1 X153.081 Y150.639 E116.28149
G1 X152.757 Y150.567 E116.29529
G1 X152.496 Y150.549 E116.30616
G1 X152.118 Y150.587 E116.32196
G1 X151.719 Y150.715 E116.33938
G1 X151.382 Y150.902 E116.35540
G0 F9000 X150.062 Y150.458
;TYPE:FILL
G1 F900 X153.227 Y147.292 E116.54152
G1 F2400 E115.94152
G1 Z4.100
G0 F9000 X151.173 Y147.637
G1 Z3.600
G1 F2400 E116.54152
G1 F900 X153.706 Y150.171 E116.69048
G1 F2400 E116.09048
G1 Z4.100
G0 F9000 X154.807 Y151.272
G1 Z3.600
G1 F2400 E116.69048
G1 F900 X157.374 Y153.838 E116.84138
G1 F2400 E116.24138
G1 Z4.100
G0 F9000 X155.125 Y152.465
G1 Z3.600
G1 F2400 E116.84138
G1 F900 X157.374 Y150.217 E116.97359
G1 F2400 E116.37359
G1 Z4.100
G0 F9000 X152.467 Y155.124
G1 Z3.600
G1 F2400 E116.97359
G1 F900 X150.574 Y157.016 E117.08486
G1 F2400 E116.48486
G1 Z4.100
G0 F9000 X151.287 Y154.823
G1 Z3.600
G1 F2400 E117.08486
G1 F900 X153.826 Y157.361 E117.23411
;LAYER:18
M106 S191
G1 F2400 E116.63411
G1 Z4.100
G0 F9000 X153.129 Y154.873 Z3.800
;TYPE:WALL-INNER
G1 Z3.800
G1 F2400 E117.23411
G1 F960 X153.615 Y154.681 E117.25584
G1 X153.748 Y154.609 E117.26213
G1 X154.118 Y154.344 E117.28105
G1 X154.428 Y154.011 E117.29996
G1 X154.551 Y153.842 E117.30865
G1 X154.772 Y153.427 E117.32820
G1 X154.928 Y152.845 E117.35325
G1 X154.953 Y152.476 E117.36863
G1 X154.873 Y151.871 E117.39400
G1 X154.681 Y151.385 E117.41572
G1 X154.609 Y151.252 E117.42201
G1 X154.344 Y150.882 E117.44093
G1 X154.011 Y150.572 E117.45985
G1 X153.842 Y150.449 E117.46854
G1 X153.427 Y150.228 E117.48809
G1 X152.845 Y150.072 E117.51314
G1 X152.476 Y150.047 E117.52851
G1 X151.874 Y150.126 E117.55376
G1 X151.368 Y150.321 E117.57630
G1 X150.829 Y150.701 E117.60372
G1 X150.704 Y150.852 E117.61187
G1 X147.994 Y150.853 E117.72454
G1 X147.773 Y150.853 E117.73373
G1 X147.521 Y150.581 E117.74914
G1 X147.450 Y150.530 E117.75278
G1 X147.450 Y149.585 E117.79206
G1 X152.500 Y146.670 E118.03449
G1 X157.550 Y149.585 E118.27691
G1 X157.550 Y155.415 E118.51929
G1 X152.500 Y158.330 E118.76171
G1 X147.450 Y155.415 E119.00414
G1 X147.450 Y154.470 E119.04342
G1 X147.509 Y154.431 E119.04636
G1 X147.757 Y154.173 E119.06124
G1 X147.774 Y154.148 E119.06250
G1 X148.882 Y154.147 E119.10856
G1 X150.243 Y154.149 E119.16515
G1 X150.712 Y154.148 E119.18465
G1 X150.889 Y154.354 E119.19594
G1 X151.363 Y154.672 E119.21967
G1 X151.719 Y154.824 E119.23576
G1 X152.167 Y154.929 E119.25489
G1 X152.524 Y154.953 E119.26977
G1 X153.129 Y154.873 E119.29514
G0 F9000 X153.002 Y154.386
;TYPE:WALL-OUTER
G1 F960 X153.483 Y154.184 E119.31683
G1 X153.786 Y153.967 E119.33233
G1 X154.041 Y153.693 E119.34789
G1 X154.126 Y153.577 E119.35387
G1 X154.304 Y153.242 E119.36964
G1 X154.433 Y152.762 E119.39030
G1 X154.451 Y152.492 E119.40155
G1 X154.386 Y151.998 E119.42227
G1 X154.184 Y151.517 E119.44396
G1 X153.967 Y151.214 E119.45945
G1 X153.693 Y150.959 E119.47501
G1 X153.577 Y150.874 E119.48099
G1 X153.242 Y150.696 E119.49676
G1 X152.762 Y150.567 E119.51743
G1 X152.492 Y150.549 E119.52868
G1 X151.999 Y150.614 E119.54935
G1 X151.605 Y150.766 E119.56691
G1 X151.172 Y151.071 E119.58893
G1 X150.940 Y151.352 E119.60408
G1 X147.499 Y151.352 E119.74714
G1 X147.447 Y151.257 E119.75164
G1 X147.364 Y151.140 E119.75761
G1 X147.191 Y150.960 E119.76798
G1 X146.950 Y150.797 E119.78008
G1 X146.950 Y149.297 E119.84244
G1 X152.500 Y146.092 E120.10890
G1 X158.050 Y149.297 E120.37535
G1 X158.050 Y155.703 E120.64168
G1 X152.500 Y158.908 E120.90813
G1 X146.950 Y155.703 E121.17459
G1 X146.950 Y154.201 E121.23703
G1 X147.187 Y154.044 E121.24885
G1 X147.365 Y153.859 E121.25952
G1 X147.505 Y153.648 E121.27005
G1 X150.942 Y153.647 E121.41295
G1 X151.224 Y153.977 E121.43099
G1 X151.603 Y154.231 E121.44996
G1 X151.876 Y154.347 E121.46229
G1 X152.242 Y154.433 E121.47792
G1 X152.508 Y154.451 E121.48901
G1 X153.002 Y154.386 E121.50972
G0 F9000 X152.467 Y155.123
;TYPE:FILL
G1 F960 X150.574 Y157.016 E121.62102
G1 F2400 E121.02102
G1 Z4.300
G0 F9000 X151.298 Y154.834
G1 Z3.800
G1 F2400 E121.62102
G1 F960 X153.826 Y157.361 E121.76963
G1 F2400 E121.16963
G1 Z4.300
G0 F9000 X157.374 Y153.838
G1 Z3.800
G1 F2400 E121.76963
G1 F960 X154.830 Y151.294 E121.91921
G0 F9000 X155.127 Y152.463
G1 F960 X157.374 Y150.217 E122.05130
G1 F2400 E121.45130
G1 Z4.300
G0 F9000 X153.722 Y150.187
G1 Z3.800
G1 F2400 E122.05130
G1 F960 X151.173 Y147.637 E122.20120
G1 F2400 E121.60120
G1 Z4.300
G0 F9000 X153.227 Y147.292
G1 Z3.800
G1 F2400 E122.20120
G1 F960 X149.843 Y150.676 E122.40016
G0 F9000 X149.615 Y150.675
;TYPE:SKIN
G1 F960 X149.038 Y150.453 E122.42633
G1 X148.331 Y150.453 E122.45249
G1 X147.755 Y150.230 E122.47817
G1 F2400 E121.87817
G1 Z4.300
G0 F9000 X149.876 Y150.230
G1 Z3.800
G1 F2400 E122.47817
G1 F960 X150.453 Y150.452 E122.50433
G1 X150.835 Y150.481 E122.52026
G1 F2400 E121.92026
G1 Z4.300
G0 F9000 X150.433 Y154.322
G1 Z3.800
G1 F2400 E122.52026
G1 F960 X150.525 Y154.768 E122.54646
G1 X149.595 Y154.545 E122.57263
G1 X148.888 Y154.544 E122.59879
G1 X148.181 Y154.544 E122.62489
G1 X147.732 Y154.449 E122.64397
;LAYER:19
M106 S201
G0 F9000 X147.557 Y154.179 Z4.000
;TYPE:WALL-INNER
G1 F1020 X147.786 Y153.890 E122.65930
G1 X147.847 Y153.784 E122.66438
G1 X148.920 Y153.783 E122.70899
G1 X150.432 Y153.785 E122.77186
G1 X150.592 Y154.044 E122.78451
G1 X151.008 Y154.447 E122.80859
G1 X151.396 Y154.689 E122.82760
G1 X151.935 Y154.887 E122.85148
G1 X152.320 Y154.944 E122.86766
G1 X152.536 Y154.952 E122.87664
G1 X153.123 Y154.874 E122.90126
G1 X153.592 Y154.697 E122.92211
G1 X154.058 Y154.394 E122.94521
G1 X154.395 Y154.054 E122.96512
G1 X154.634 Y153.712 E122.98246
G1 X154.868 Y153.146 E123.00793
G1 X154.944 Y152.686 E123.02731
G1 X154.952 Y152.464 E123.03655
G1 X154.874 Y151.877 E123.06117
G1 X154.697 Y151.408 E123.08201
G1 X154.394 Y150.942 E123.10512
G1 X154.054 Y150.605 E123.12502
G1 X153.712 Y150.366 E123.14237
G1 X153.146 Y150.132 E123.16783
G1 X152.686 Y150.056 E123.18721
G1 X152.464 Y150.048 E123.19645
G1 X151.875 Y150.126 E123.22115
G1 X151.278 Y150.375 E123.24804
G1 X150.939 Y150.610 E123.26519
G1 X150.661 Y150.878 E123.28125
G1 X150.415 Y151.215 E123.29859
G1 X149.524 Y151.217 E123.33564
G1 X147.845 Y151.217 E123.40544
G1 X147.692 Y150.979 E123.41720
G1 X147.450 Y150.724 E123.43182
G1 X147.450 Y149.584 E123.47922
G1 X152.500 Y146.669 E123.72164
G1 X157.550 Y149.584 E123.96406
G1 X157.550 Y155.416 E124.20653
G1 X152.500 Y158.331 E124.44895
G1 X147.450 Y155.416 E124.69137
G1 X147.450 Y154.262 E124.73935
G1 X147.557 Y154.179 E124.74498
G0 F9000 X147.203 Y153.820
;TYPE:WALL-OUTER
G1 F1020 X147.371 Y153.608 E124.75622
G1 X147.533 Y153.284 E124.77128
G1 X150.714 Y153.285 E124.90353
G1 X150.985 Y153.729 E124.92516
G1 X151.318 Y154.051 E124.94442
G1 X151.617 Y154.238 E124.95908
G1 X152.059 Y154.400 E124.97865
G1 X152.366 Y154.445 E124.99155
G1 X152.512 Y154.451 E124.99763
G1 X153.000 Y154.386 E125.01809
G1 X153.365 Y154.248 E125.03432
G1 X153.741 Y154.004 E125.05295
G1 X154.010 Y153.733 E125.06883
G1 X154.193 Y153.471 E125.08212
G1 X154.384 Y153.008 E125.10294
G1 X154.445 Y152.636 E125.11861
G1 X154.451 Y152.488 E125.12477
G1 X154.386 Y152.000 E125.14524
G1 X154.248 Y151.635 E125.16146
G1 X154.004 Y151.259 E125.18010
G1 X153.733 Y150.990 E125.19597
G1 X153.471 Y150.807 E125.20926
G1 X153.008 Y150.616 E125.23008
G1 X152.636 Y150.555 E125.24575
G1 X152.488 Y150.549 E125.25191
G1 X151.999 Y150.614 E125.27242
G1 X151.625 Y150.758 E125.28908
G1 X151.537 Y150.804 E125.29321
G1 X151.257 Y150.998 E125.30737
G1 X151.039 Y151.208 E125.31996
G1 X150.823 Y151.504 E125.33519
G1 X150.727 Y151.714 E125.34479
G1 X147.531 Y151.716 E125.47767
G1 X147.518 Y151.675 E125.47945
G1 X147.454 Y151.534 E125.48589
G1 X147.297 Y151.289 E125.49799
G1 X147.112 Y151.095 E125.50913
G1 X146.950 Y150.984 E125.51730
G1 X146.950 Y149.296 E125.58748
G1 X152.500 Y146.091 E125.85393
G1 X158.050 Y149.296 E126.12038
G1 X158.050 Y155.704 E126.38680
G1 X152.500 Y158.909 E126.65325
G1 X146.950 Y155.704 E126.91970
G1 X146.950 Y154.015 E126.98992
G1 X147.203 Y153.820 E127.00320
G1 F2400 E126.40320
G1 Z4.500
G0 F9000 X149.480 Y151.040
;TYPE:FILL
G1 Z4.000
G1 F2400 E127.00320
G1 F1020 X153.228 Y147.291 E127.22360
G1 F2400 E126.62360
G1 Z4.500
G0 F9000 X151.173 Y147.637
G1 Z4.000
G1 F2400 E127.22360
G1 F1020 X153.710 Y150.174 E127.37277
G1 F2400 E126.77277
G1 Z4.500
G0 F9000 X154.833 Y151.297
G1 Z4.000
G1 F2400 E127.37277
G1 F1020 X157.374 Y153.838 E127.52217
G1 F2400 E126.92217
G1 Z4.500
G0 F9000 X155.127 Y152.464
G1 Z4.000
G1 F2400 E127.52217
G1 F1020 X157.373 Y150.217 E127.65425
G1 F2400 E127.05425
G1 Z4.500
G0 F9000 X152.467 Y155.124
G1 Z4.000
G1 F2400 E127.65425
G1 F1020 X150.574 Y157.016 E127.76552
G1 F2400 E127.16552
G1 Z4.500
G0 F9000 X151.296 Y154.832
G1 Z4.000
G1 F2400 E127.76552
G1 F1020 X153.826 Y157.361 E127.91425
G1 F2400 E127.31425
G1 Z4.500
G0 F9000 X150.712 Y154.403
;TYPE:SKIN
G1 Z4.000
G1 F2400 E127.91425
G1 F1020 X150.397 Y154.364 E127.93159
G1 X149.710 Y154.698 E127.96335
G0 F9000 X149.003 Y154.698
G1 F1020 X149.743 Y153.959 E128.00683
G0 F9000 X149.036 Y153.958
G1 F1020 X148.296 Y154.698 E128.05034
G0 F9000 X147.624 Y154.663
G1 F1020 X148.329 Y153.958 E128.09179
G1 F2400 E127.49179
G1 Z4.500
G0 F9000 X148.418 Y151.041
G1 Z4.000
G1 F2400 E128.09179
G1 F1020 X149.159 Y150.299 E128.13539
G0 F9000 X148.453 Y150.299
G1 F1020 X147.738 Y150.659 E128.17073
G1 X147.746 Y150.299 E128.18570
G1 F2400 E127.58570
G1 Z4.500
G0 F9000 X149.125 Y151.040
G1 Z4.000
G1 F2400 E128.18570
G1 F1020 X149.866 Y150.300 E128.22924
G0 F9000 X150.573 Y150.300
G1 F1020 X149.834 Y151.039 E128.27269
;LAYER:20
M106 S211
G0 F9000 X150.295 Y151.421 Z4.200
;TYPE:WALL-INNER
G1 F1080 X150.112 Y151.942 E128.29565
G1 X150.053 Y152.368 E128.31353
G1 X150.049 Y152.515 E128.31964
G1 X150.073 Y152.854 E128.33377
G1 X150.214 Y153.393 E128.35693
G1 X150.477 Y153.886 E128.38017
G1 X150.700 Y154.163 E128.39495
G1 X150.986 Y154.427 E128.41113
G1 X151.285 Y154.628 E128.42611
G1 X151.431 Y154.703 E128.43293
G1 X151.946 Y154.889 E128.45570
G1 X152.321 Y154.944 E128.47146
G1 X152.532 Y154.952 E128.48024
G1 X153.075 Y154.885 E128.50298
G1 X153.580 Y154.702 E128.52531
G1 X153.989 Y154.448 E128.54533
G1 X154.310 Y154.154 E128.56343
G1 X154.623 Y153.731 E128.58530
G1 X154.823 Y153.288 E128.60551
G1 X154.929 Y152.833 E128.62494
G1 X154.953 Y152.480 E128.63965
G1 X154.885 Y151.925 E128.66289
G1 X154.702 Y151.420 E128.68522
G1 X154.448 Y151.011 E128.70524
G1 X154.154 Y150.690 E128.72334
G1 X153.731 Y150.377 E128.74522
G1 X153.288 Y150.177 E128.76542
G1 X152.833 Y150.071 E128.78485
G1 X152.480 Y150.047 E128.79956
G1 X151.923 Y150.115 E128.82289
G1 X151.386 Y150.312 E128.84667
G1 X150.878 Y150.659 E128.87224
G1 X150.584 Y150.971 E128.89007
G1 X150.295 Y151.421 E128.91230
G1 F2400 E128.31230
G1 Z4.700
G0 F9000 X147.973 Y152.017
G1 Z4.200
G1 F2400 E128.91230
G1 F1080 X147.856 Y151.622 E128.92943
G1 X147.758 Y151.420 E128.93876
G1 X147.640 Y151.227 E128.94817
G1 X147.487 Y151.039 E128.95825
G1 X147.450 Y151.008 E128.96025
G1 X147.450 Y149.585 E129.01941
G1 X152.500 Y146.670 E129.26184
G1 X157.550 Y149.585 E129.50426
G1 X157.550 Y155.415 E129.74664
G1 X152.500 Y158.330 E129.98906
G1 X147.450 Y155.415 E130.23148
G1 X147.450 Y153.992 E130.29065
G1 X147.502 Y153.942 E130.29364
G1 X147.640 Y153.773 E130.30272
G1 X147.762 Y153.573 E130.31246
G1 X147.881 Y153.314 E130.32431
G1 X147.997 Y152.836 E130.34476
G1 X148.019 Y152.487 E130.35929
G1 X147.973 Y152.017 E130.37893
G0 F9000 X147.480 Y152.114
;TYPE:WALL-OUTER
G1 F1080 X147.388 Y151.803 E130.39241
G1 X147.231 Y151.516 E130.40601
G1 X147.128 Y151.390 E130.41278
G1 X146.950 Y151.239 E130.42248
G1 X146.950 Y149.297 E130.50322
G1 X152.500 Y146.092 E130.76967
G1 X158.050 Y149.297 E131.03613
G1 X158.050 Y155.703 E131.30246
G1 X152.500 Y158.908 E131.56891
G1 X146.950 Y155.703 E131.83536
G1 X146.950 Y153.759 E131.91619
G1 X147.027 Y153.706 E131.92007
G1 X147.231 Y153.484 E131.93261
G1 X147.406 Y153.149 E131.94832
G1 X147.501 Y152.761 E131.96493
G1 X147.518 Y152.496 E131.97597
G1 X147.480 Y152.114 E131.99193
G1 F2400 E131.39193
G1 Z4.700
G0 F9000 X150.550 Y152.505
G1 Z4.200
G1 F2400 E131.99193
G1 F1080 X150.568 Y152.773 E132.00310
G1 X150.683 Y153.210 E132.02188
G1 X150.896 Y153.609 E132.04069
G1 X151.067 Y153.821 E132.05201
G1 X151.297 Y154.034 E132.06504
G1 X151.540 Y154.197 E132.07721
G1 X151.631 Y154.244 E132.08147
G1 X152.069 Y154.402 E132.10083
G1 X152.366 Y154.445 E132.11330
G1 X152.511 Y154.451 E132.11934
G1 X152.958 Y154.396 E132.13806
G1 X153.361 Y154.250 E132.15588
G1 X153.686 Y154.048 E132.17179
G1 X153.937 Y153.818 E132.18594
G1 X154.189 Y153.477 E132.20357
G1 X154.347 Y153.127 E132.21954
G1 X154.433 Y152.758 E132.23529
G1 X154.451 Y152.493 E132.24633
G1 X154.396 Y152.042 E132.26522
G1 X154.250 Y151.639 E132.28304
G1 X154.048 Y151.314 E132.29895
G1 X153.818 Y151.063 E132.31310
G1 X153.477 Y150.811 E132.33073
G1 X153.127 Y150.653 E132.34670
G1 X152.758 Y150.567 E132.36245
G1 X152.493 Y150.549 E132.37349
G1 X152.041 Y150.604 E132.39242
G1 X151.617 Y150.760 E132.41121
G1 X151.205 Y151.042 E132.43196
G1 X150.979 Y151.280 E132.44561
G1 X150.748 Y151.642 E132.46346
G1 X150.601 Y152.060 E132.48188
G1 X150.552 Y152.409 E132.49654
G1 X150.550 Y152.505 E132.50053
G1 F2400 E131.90053
G1 Z4.700
G0 F9000 X149.463 Y151.057
;TYPE:FILL
G1 Z4.200
G1 F2400 E132.50053
G1 F1080 X153.227 Y147.292 E132.72187
G1 F2400 E132.12187
G1 Z4.700
G0 F9000 X151.173 Y147.637
G1 Z4.200
G1 F2400 E132.72187
G1 F1080 X153.710 Y150.174 E132.87103
G1 F2400 E132.27103
G1 Z4.700
G0 F9000 X154.828 Y151.292
G1 Z4.200
G1 F2400 E132.87103
G1 F1080 X157.374 Y153.838 E133.02073
G1 F2400 E132.42073
G1 Z4.700
G0 F9000 X155.127 Y152.464
G1 Z4.200
G1 F2400 E133.02073
G1 F1080 X157.374 Y150.217 E133.15284
G1 F2400 E132.55284
G1 Z4.700
G0 F9000 X152.467 Y155.123
G1 Z4.200
G1 F2400 E133.15284
G1 F1080 X150.574 Y157.016 E133.26414
G1 F2400 E132.66414
G1 Z4.700
G0 F9000 X151.291 Y154.827
G1 Z4.200
G1 F2400 E133.26414
G1 F1080 X153.826 Y157.361 E133.41316
G1 F2400 E132.81316
G1 Z4.700
G0 F9000 X150.574 Y154.593
;TYPE:SKIN
G1 Z4.200
G1 F2400 E133.41316
G1 F1080 X150.580 Y154.290 E133.42576
G0 F9000 X150.074 Y154.593
G1 F1080 X150.093 Y153.537 E133.46967
G0 F9000 X149.574 Y154.592
G1 F1080 X149.647 Y150.406 E133.64373
G0 F9000 X149.147 Y150.406
G1 F1080 X149.074 Y154.593 E133.81784
G0 F9000 X148.574 Y154.593
G1 F1080 X148.647 Y150.407 E133.99190
G0 F9000 X148.147 Y150.406
G1 F1080 X148.121 Y151.904 E134.05418
G0 F9000 X147.638 Y150.947
G1 F1080 X147.647 Y150.414 E134.07635
G1 F2400 E133.47635
G1 Z4.700
G0 F9000 X150.147 Y150.406
G1 Z4.200
G1 F2400 E134.07635
G1 F1080 X150.387 Y151.006 E134.11600
G1 X150.647 Y150.406 E134.14319
G1 F2400 E133.54319
G1 Z4.700
G0 F9000 X148.099 Y153.150
G1 Z4.200
G1 F2400 E134.14319
G1 F1080 X148.074 Y154.593 E134.20319
;LAYER:21
M106 S221
G0 F9000 X147.483 Y153.528 Z4.400
;TYPE:WALL-INNER
G1 F1680 X147.652 Y153.215 E134.21798
G1 X147.769 Y152.766 E134.23727
G1 X147.789 Y152.504 E134.24819
G1 X147.747 Y152.101 E134.26504
G1 X147.633 Y151.745 E134.28058
G1 X147.495 Y151.497 E134.29238
G1 X147.450 Y151.440 E134.29540
G1 X147.450 Y149.584 E134.37256
G1 X152.500 Y146.669 E134.61499
G1 X157.550 Y149.584 E134.85741
G1 X157.550 Y155.416 E135.09987
G1 X152.500 Y158.331 E135.34230
G1 X147.450 Y155.416 E135.58472
G1 X147.450 Y153.563 E135.66176
G1 X147.483 Y153.528 E135.66376
G1 F2400 E135.06376
G1 Z4.900
G0 F9000 X150.092 Y152.984
G1 Z4.400
G1 F2400 E135.66376
G1 F1680 X150.344 Y153.676 E135.69437
G1 X150.641 Y154.102 E135.71596
G1 X151.088 Y154.505 E135.74099
G1 X151.417 Y154.696 E135.75680
G1 X151.720 Y154.825 E135.77049
G1 X152.167 Y154.929 E135.78957
G1 X152.512 Y154.953 E135.80395
G1 X152.967 Y154.907 E135.82297
G1 X153.299 Y154.817 E135.83727
G1 X153.737 Y154.620 E135.85723
G1 X154.227 Y154.244 E135.88291
G1 X154.540 Y153.862 E135.90344
G1 X154.772 Y153.427 E135.92394
G1 X154.928 Y152.845 E135.94899
G1 X154.953 Y152.488 E135.96387
G1 X154.907 Y152.033 E135.98288
G1 X154.817 Y151.701 E135.99718
G1 X154.620 Y151.263 E136.01715
G1 X154.244 Y150.773 E136.04283
G1 X153.862 Y150.460 E136.06336
G1 X153.427 Y150.228 E136.08386
G1 X152.845 Y150.072 E136.10891
G1 X152.488 Y150.047 E136.12379
G1 X152.033 Y150.093 E136.14280
G1 X151.711 Y150.180 E136.15667
G1 X151.377 Y150.319 E136.17171
G1 X150.868 Y150.666 E136.19732
G1 X150.452 Y151.146 E136.22373
G1 X150.179 Y151.705 E136.24959
G1 X150.072 Y152.158 E136.26894
G1 X150.048 Y152.509 E136.28357
G1 X150.092 Y152.984 E136.30340
G0 F9000 X150.549 Y152.503
;TYPE:WALL-OUTER
G1 F1680 X150.584 Y152.873 E136.31886
G1 X150.791 Y153.443 E136.34407
G1 X151.018 Y153.769 E136.36058
G1 X151.390 Y154.104 E136.38140
G1 X151.629 Y154.243 E136.39289
G1 X151.876 Y154.348 E136.40405
G1 X152.242 Y154.433 E136.41967
G1 X152.504 Y154.451 E136.43059
G1 X152.876 Y154.414 E136.44613
G1 X153.130 Y154.345 E136.45707
G1 X153.479 Y154.188 E136.47298
G1 X153.877 Y153.883 E136.49383
G1 X154.122 Y153.583 E136.50993
G1 X154.304 Y153.242 E136.52600
G1 X154.433 Y152.762 E136.54667
G1 X154.451 Y152.496 E136.55775
G1 X154.414 Y152.124 E136.57330
G1 X154.345 Y151.870 E136.58424
G1 X154.188 Y151.521 E136.60015
G1 X153.883 Y151.123 E136.62100
G1 X153.583 Y150.878 E136.63710
G1 X153.242 Y150.696 E136.65317
G1 X152.762 Y150.567 E136.67383
G1 X152.496 Y150.549 E136.68492
G1 X152.124 Y150.586 E136.70046
G1 X151.873 Y150.654 E136.71127
G1 X151.616 Y150.761 E136.72285
G1 X151.203 Y151.043 E136.74364
G1 X150.873 Y151.424 E136.76459
G1 X150.653 Y151.874 E136.78542
G1 X150.568 Y152.233 E136.80076
G1 X150.549 Y152.503 E136.81201
G1 F2400 E136.21201
G1 Z4.900
G0 F9000 X147.287 Y152.511
G1 Z4.400
G1 F2400 E136.81201
G1 F1680 X147.255 Y152.204 E136.82484
G1 X147.172 Y151.944 E136.83619
G1 X147.078 Y151.775 E136.84423
G1 X146.968 Y151.636 E136.85160
G1 X146.950 Y151.620 E136.85260
G1 X146.950 Y149.296 E136.94922
G1 X152.500 Y146.091 E137.21567
G1 X158.050 Y149.296 E137.48213
G1 X158.050 Y155.704 E137.74854
G1 X152.500 Y158.909 E138.01499
G1 X146.950 Y155.704 E138.28144
G1 X146.950 Y153.367 E138.37861
G1 X147.074 Y153.234 E138.38617
G1 X147.183 Y153.031 E138.39575
G1 X147.274 Y152.683 E138.41070
G1 X147.287 Y152.511 E138.41787
G0 F9000 X147.936 Y152.230
;TYPE:SKIN
G1 F1680 X153.004 Y147.162 E138.71585
G0 F9000 X153.452 Y147.421
G1 F1680 X147.894 Y152.979 E139.04264
G0 F9000 X147.625 Y153.955
G1 F1680 X150.084 Y151.496 E139.18722
G0 F9000 X149.879 Y152.409
G1 F1680 X147.625 Y154.662 E139.31972
G0 F9000 X147.660 Y155.334
G1 F1680 X149.933 Y153.061 E139.45336
G0 F9000 X150.123 Y153.579
G1 F1680 X148.109 Y155.593 E139.57178
G0 F9000 X148.557 Y155.851
G1 F1680 X150.378 Y154.030 E139.67884
G0 F9000 X150.714 Y154.401
G1 F1680 X149.005 Y156.110 E139.77933
G0 F9000 X149.454 Y156.369
G1 F1680 X151.107 Y154.716 E139.87652
G0 F9000 X151.577 Y154.953
G1 F1680 X149.902 Y156.628 E139.97500
G0 F9000 X150.350 Y156.887
G1 F1680 X152.137 Y155.100 E140.08007
G0 F9000 X152.852 Y155.092
G1 F1680 X150.798 Y157.146 E140.20084
G0 F9000 X151.246 Y157.405
G1 F1680 X154.063 Y154.589 E140.36643
G0 F9000 X154.649 Y154.002
G1 F1680 X157.373 Y151.278 E140.52660
G0 F9000 X157.373 Y151.985
G1 F1680 X151.694 Y157.664 E140.86050
G0 F9000 X152.143 Y157.923
G1 F1680 X157.373 Y152.692 E141.16803
G0 F9000 X157.373 Y153.399
G1 F1680 X152.843 Y157.929 E141.43438
G1 F2400 E140.83438
G1 Z4.900
G0 F9000 X154.516 Y156.963
G1 Z4.400
G1 F2400 E141.43438
G1 F1680 X157.373 Y154.106 E141.60236
G0 F9000 X157.373 Y154.813
G1 F1680 X156.189 Y155.998 E141.67200
G1 F2400 E141.07200
G1 Z4.900
G0 F9000 X155.103 Y152.841
G1 Z4.400
G1 F2400 E141.67200
G1 F1680 X157.373 Y150.571 E141.80547
G0 F9000 X157.373 Y149.864
G1 F1680 X155.093 Y152.144 E141.93953
G0 F9000 X154.953 Y151.577
G1 F1680 X157.038 Y149.492 E142.06212
G0 F9000 X156.590 Y149.233
G1 F1680 X154.718 Y151.105 E142.17218
G0 F9000 X154.410 Y150.705
G1 F1680 X156.142 Y148.973 E142.27402
G0 F9000 X155.694 Y148.715
G1 F1680 X154.033 Y150.376 E142.37168
G0 F9000 X153.587 Y150.115
G1 F1680 X155.246 Y148.456 E142.46922
G0 F9000 X154.797 Y148.197
G1 F1680 X153.049 Y149.945 E142.57200
G0 F9000 X152.407 Y149.880
G1 F1680 X154.349 Y147.938 E142.68618
G0 F9000 X153.901 Y147.679
G1 F1680 X151.504 Y150.076 E142.82711
G1 F2400 E142.22711
G1 Z4.900
G0 F9000 X151.038 Y147.714
G1 Z4.400
G1 F2400 E142.82711
G1 F1680 X147.624 Y151.127 E143.02781
G0 F9000 X147.791 Y151.668
G1 F1680 X152.556 Y146.903 E143.30798
G1 F2400 E142.70798
G1 Z4.900
G0 F9000 X149.364 Y148.680
G1 Z4.400
G1 F2400 E143.30798
G1 F1680 X147.624 Y150.420 E143.41028
;LAYER:22
M106 S232
G0 F9000 X147.450 Y149.585 Z4.600
;TYPE:WALL-INNER
G1 F1680 X152.500 Y146.670 E143.65270
G1 X157.550 Y149.585 E143.89513
G1 X157.550 Y155.415 E144.13751
G1 X152.500 Y158.330 E144.37993
G1 X147.450 Y155.415 E144.62235
G1 X147.450 Y149.585 E144.86474
G1 F2400 E144.26474
G1 Z5.100
G0 F9000 X150.363 Y151.292
G1 Z4.600
G1 F2400 E144.86474
G1 F1680 X150.142 Y151.827 E144.88880
G1 X150.069 Y152.174 E144.90354
G1 X150.047 Y152.568 E144.91995
G1 X150.122 Y153.111 E144.94274
G1 X150.372 Y153.724 E144.97026
G1 X150.652 Y154.112 E144.99016
G1 X150.889 Y154.347 E145.00403
G1 X151.284 Y154.628 E145.02419
G1 X151.432 Y154.704 E145.03110
G1 X151.852 Y154.865 E145.04980
G1 X152.181 Y154.930 E145.06375
G1 X152.500 Y154.952 E145.07704
G1 X152.845 Y154.928 E145.09142
G1 X153.440 Y154.769 E145.11702
G1 X153.984 Y154.454 E145.14316
G1 X154.344 Y154.118 E145.16363
G1 X154.632 Y153.717 E145.18416
G1 X154.863 Y153.157 E145.20934
G1 X154.930 Y152.819 E145.22367
G1 X154.952 Y152.500 E145.23696
G1 X154.928 Y152.155 E145.25134
G1 X154.769 Y151.560 E145.27695
G1 X154.454 Y151.016 E145.30308
G1 X154.118 Y150.656 E145.32355
G1 X153.717 Y150.368 E145.34408
G1 X153.157 Y150.137 E145.36927
G1 X152.819 Y150.070 E145.38359
G1 X152.500 Y150.048 E145.39689
G1 X152.155 Y150.072 E145.41126
G1 X151.596 Y150.222 E145.43533
G1 X151.410 Y150.306 E145.44381
G1 X151.127 Y150.469 E145.45739
G1 X150.744 Y150.784 E145.47801
G1 X150.363 Y151.292 E145.50441
G0 F9000 X150.801 Y151.541
;TYPE:WALL-OUTER
G1 F1680 X150.622 Y151.975 E145.52392
G1 X150.566 Y152.240 E145.53519
G1 X150.549 Y152.548 E145.54801
G1 X150.609 Y152.980 E145.56614
G1 X150.813 Y153.480 E145.58859
G1 X151.033 Y153.786 E145.60426
G1 X151.219 Y153.970 E145.61514
G1 X151.402 Y154.112 E145.62477
G1 X151.533 Y154.193 E145.63117
G1 X151.637 Y154.247 E145.63605
G1 X151.991 Y154.383 E145.65181
G1 X152.246 Y154.433 E145.66262
G1 X152.500 Y154.451 E145.67320
G1 X152.762 Y154.433 E145.68412
G1 X153.247 Y154.303 E145.70500
G1 X153.684 Y154.050 E145.72599
G1 X153.967 Y153.786 E145.74208
G1 X154.192 Y153.472 E145.75814
G1 X154.382 Y153.012 E145.77883
G1 X154.433 Y152.754 E145.78977
G1 X154.451 Y152.500 E145.80035
G1 X154.433 Y152.238 E145.81127
G1 X154.303 Y151.753 E145.83215
G1 X154.050 Y151.316 E145.85314
G1 X153.786 Y151.033 E145.86923
G1 X153.472 Y150.808 E145.88529
G1 X153.012 Y150.618 E145.90598
G1 X152.754 Y150.567 E145.91692
G1 X152.500 Y150.549 E145.92750
G1 X152.238 Y150.567 E145.93842
G1 X151.765 Y150.694 E145.95878
G1 X151.534 Y150.806 E145.96946
G1 X151.418 Y150.877 E145.97511
G1 X151.108 Y151.132 E145.99180
G1 X150.801 Y151.541 E146.01306
G1 F2400 E145.41306
G1 Z5.100
G0 F9000 X146.950 Y149.297
G1 Z4.600
G1 F2400 E146.01306
G1 F1680 X152.500 Y146.092 E146.27951
G1 X158.050 Y149.297 E146.54597
G1 X158.050 Y155.703 E146.81230
G1 X152.500 Y158.908 E147.07875
G1 X146.950 Y155.703 E147.34520
G1 X146.950 Y149.297 E147.61153
G0 F9000 X147.811 Y149.579
;TYPE:SKIN
G1 F1680 X149.983 Y151.751 E147.73924
G0 F9000 X150.190 Y151.250
G1 F1680 X148.259 Y149.320 E147.85274
G0 F9000 X148.708 Y149.061
G1 F1680 X150.484 Y150.837 E147.95717
G0 F9000 X150.835 Y150.481
G1 F1680 X149.156 Y148.802 E148.05588
G0 F9000 X149.604 Y148.544
G1 F1680 X151.253 Y150.193 E148.15284
G0 F9000 X151.762 Y149.995
G1 F1680 X150.053 Y148.285 E148.25335
G0 F9000 X150.501 Y148.026
G1 F1680 X152.356 Y149.881 E148.36242
G0 F9000 X153.137 Y149.955
G1 F1680 X150.948 Y147.766 E148.49112
G0 F9000 X151.397 Y147.508
G1 F1680 X157.374 Y153.485 E148.84255
G0 F9000 X157.374 Y154.192
G1 F1680 X155.025 Y151.843 E148.98066
G0 F9000 X155.117 Y152.642
G1 F1680 X157.374 Y154.899 E149.11336
G0 F9000 X157.187 Y155.419
G1 F1680 X155.014 Y153.246 E149.24113
G0 F9000 X154.807 Y153.746
G1 F1680 X156.739 Y155.678 E149.35472
G0 F9000 X156.291 Y155.937
G1 F1680 X154.521 Y154.168 E149.45876
G0 F9000 X154.167 Y154.521
G1 F1680 X155.842 Y156.196 E149.55725
G0 F9000 X155.394 Y156.455
G1 F1680 X153.737 Y154.798 E149.65467
G0 F9000 X153.236 Y155.004
G1 F1680 X154.946 Y156.713 E149.75518
G0 F9000 X154.497 Y156.972
G1 F1680 X152.642 Y155.117 E149.86425
G0 F9000 X151.863 Y155.045
G1 F1680 X154.050 Y157.232 E149.99284
G0 F9000 X153.601 Y157.491
G1 F1680 X147.624 Y151.513 E150.34429
G0 F9000 X147.624 Y152.220
G1 F1680 X153.153 Y157.749 E150.66937
G0 F9000 X152.705 Y158.008
G1 F1680 X147.624 Y152.928 E150.96809
G0 F9000 X147.624 Y153.635
G1 F1680 X151.593 Y157.603 E151.20142
G1 F2400 E150.60142
G1 Z5.100
G0 F9000 X149.920 Y156.637
G1 Z4.600
G1 F2400 E151.20142
G1 F1680 X147.624 Y154.342 E151.33639
G0 F9000 X147.624 Y155.049
G1 F1680 X148.247 Y155.671 E151.37299
G1 F2400 E150.77299
G1 Z5.100
G0 F9000 X149.948 Y153.130
G1 Z4.600
G1 F2400 E151.37299
G1 F1680 X147.624 Y150.806 E151.50963
G0 F9000 X147.624 Y150.099
G1 F1680 X149.883 Y152.358 E151.64245
G1 F2400 E151.04245
G1 Z5.100
G0 F9000 X151.845 Y147.249
G1 Z4.600
G1 F2400 E151.64245
G1 F1680 X157.374 Y152.778 E151.96754
G0 F9000 X157.374 Y152.071
G1 F1680 X152.293 Y146.990 E152.26628
G0 F9000 X153.406 Y147.395
G1 F1680 X157.374 Y151.363 E152.49958
G0 F9000 X157.374 Y150.656
G1 F1680 X155.079 Y148.361 E152.63452
G1 F2400 E152.03452
G1 Z5.100
G0 F9000 X156.752 Y149.327
G1 Z4.600
G1 F2400 E152.63452
G1 F1680 X157.374 Y149.949 E152.67109
;LAYER:23
M106 S242
G0 F9000 X157.550 Y149.585 Z4.800
;TYPE:WALL-INNER
G1 F1680 X157.550 Y155.415 E152.91347
G1 X152.500 Y158.330 E153.15590
G1 X147.450 Y155.415 E153.39832
G1 X147.450 Y149.585 E153.64070
G1 X152.500 Y146.670 E153.88312
G1 X157.550 Y149.585 E154.12554
G1 F2400 E153.52554
G1 Z5.300
G0 F9000 X154.540 Y151.138
G1 Z4.800
G1 F2400 E154.12554
G1 F1680 X154.235 Y150.765 E154.14558
G1 X153.862 Y150.460 E154.16561
G1 X153.438 Y150.234 E154.18558
G1 X152.990 Y150.097 E154.20506
G1 X152.674 Y150.056 E154.21831
G1 X152.476 Y150.049 E154.22655
G1 X152.021 Y150.094 E154.24555
G1 X151.585 Y150.227 E154.26451
G1 X151.237 Y150.398 E154.28063
G1 X150.767 Y150.763 E154.30537
G1 X150.447 Y151.154 E154.32637
G1 X150.173 Y151.726 E154.35274
G1 X150.070 Y152.167 E154.37157
G1 X150.047 Y152.542 E154.38719
G1 X150.099 Y153.002 E154.40644
G1 X150.243 Y153.463 E154.42652
G1 X150.556 Y153.997 E154.45225
G1 X150.895 Y154.355 E154.47275
G1 X151.270 Y154.621 E154.49186
G1 X151.574 Y154.770 E154.50594
G1 X152.010 Y154.903 E154.52489
G1 X152.326 Y154.944 E154.53814
G1 X152.524 Y154.951 E154.54637
G1 X152.979 Y154.906 E154.56538
G1 X153.438 Y154.766 E154.58533
G1 X153.862 Y154.540 E154.60531
G1 X154.235 Y154.235 E154.62534
G1 X154.540 Y153.862 E154.64537
G1 X154.766 Y153.438 E154.66535
G1 X154.903 Y152.990 E154.68483
G1 X154.944 Y152.674 E154.69807
G1 X154.951 Y152.476 E154.70631
G1 X154.906 Y152.021 E154.72532
G1 X154.766 Y151.562 E154.74527
G1 X154.540 Y151.138 E154.76525
G0 F9000 X154.122 Y151.417
;TYPE:WALL-OUTER
G1 F1680 X153.880 Y151.120 E154.78117
G1 X153.583 Y150.878 E154.79710
G1 X153.246 Y150.698 E154.81299
G1 X152.884 Y150.588 E154.82872
G1 X152.632 Y150.555 E154.83928
G1 X152.492 Y150.550 E154.84511
G1 X152.120 Y150.587 E154.86065
G1 X151.762 Y150.696 E154.87621
G1 X151.510 Y150.819 E154.88787
G1 X151.118 Y151.123 E154.90849
G1 X150.872 Y151.424 E154.92465
G1 X150.648 Y151.893 E154.94626
G1 X150.567 Y152.240 E154.96107
G1 X150.549 Y152.529 E154.97311
