;-- START GCODE --
;Sliced for Type A Machines Series 1
;Sliced at: Sat 17-10-2020 19:00:19
;Basic settings: Layer height: 0.2 Walls: 1 Fill: 20
;Print Speed: 45 Support: 0
;Retraction Speed: 40 Retraction Distance: 0.6
;Print time: 1 hour 47 minutes
;Filament used: 5.79m 17.0g
;Settings based on: Type A Machines ProMatte
G21        ;metric values
G90        ;absolute positioning
G28     ;move to endstops
G29		;allows for auto-levelling
G1 Z15.0 F12000 ;move the platform down 15mm
G1 X150 Y5 F9000 ;center
M140 S50 ;Prep Heat Bed
M109 S205 ;Heat To temp
M190 S50 ;Heat Bed to temp
G1 X150 Y5 Z0.3 ;move the platform to purge extrusion
G92 E0 ;zero the extruded length
G1 F200 X250 E30 ;extrude 30mm of feed stock
G92 E0 ;zero the extruded length again
G1 X150 Y150  Z25 F12000 ;recenter and begin
G1 F9000

;Layer count: 392
;LAYER:-2
;RAFT
G0 F9000 X115.800 Y141.300 Z0.300
;TYPE:SUPPORT
G1 F1800 X121.200 Y141.300 E0.47146
G1 X121.200 Y140.100 E0.57623
G1 X143.100 Y140.100 E2.48827
G1 X143.100 Y140.657 E2.53690
G1 X144.107 Y140.706 E2.62493
G1 X145.600 Y140.768 E2.75539
G1 X147.036 Y140.817 E2.88084
G1 X148.375 Y140.852 E2.99778
G1 X149.596 Y140.875 E3.10440
G1 X151.041 Y140.893 E3.23057
G1 X152.493 Y140.899 E3.35735
G1 X153.829 Y140.894 E3.47399
G1 X155.233 Y140.878 E3.59658
G1 X156.605 Y140.852 E3.71639
G1 X157.959 Y140.817 E3.83464
G1 X159.380 Y140.769 E3.95878
G1 X160.873 Y140.707 E4.08924
G1 X161.800 Y140.662 E4.17027
G1 X161.800 Y140.100 E4.21934
G1 X183.500 Y140.100 E6.11392
G1 X183.500 Y141.300 E6.21869
G1 X188.900 Y141.300 E6.69015
G1 X188.900 Y155.100 E7.89500
G1 X176.000 Y155.100 E9.02127
G1 X176.000 Y154.500 E9.07365
G1 X167.646 Y154.500 E9.80302
G1 X166.986 Y154.569 E9.86096
G1 X165.343 Y154.729 E10.00508
G1 X164.900 Y154.767 E10.04390
G1 X164.900 Y165.100 E10.94606
G1 X139.800 Y165.100 E13.13748
G1 X139.800 Y160.700 E13.52164
G1 X136.000 Y160.700 E13.85341
G1 X136.000 Y154.500 E14.39472
G1 X128.900 Y154.500 E15.01460
G1 X128.900 Y155.100 E15.06699
G1 X115.800 Y155.100 E16.21072
G1 X115.800 Y141.300 E17.41557
G0 F9000 X118.500 Y141.195
G1 F1800 X118.500 Y155.205 E18.63875
G0 F9000 X121.500 Y155.205
G1 F1800 X121.500 Y139.995 E19.96670
G0 F9000 X124.500 Y139.995
G1 F1800 X124.500 Y155.205 E21.29466
G0 F9000 X127.500 Y155.205
G1 F1800 X127.500 Y139.995 E22.62261
G0 F9000 X130.500 Y139.995
G1 F1800 X130.500 Y154.605 E23.89818
G0 F9000 X133.500 Y154.605
G1 F1800 X133.500 Y139.995 E25.17374
G0 F9000 X136.500 Y139.995
G1 F1800 X136.500 Y160.805 E26.99062
G0 F9000 X139.500 Y160.805
G1 F1800 X139.500 Y139.995 E28.80750
G0 F9000 X142.500 Y139.995
G1 F1800 X142.500 Y165.205 E31.00853
G0 F9000 X145.500 Y165.205
G1 F1800 X145.500 Y140.659 E33.15159
G0 F9000 X148.500 Y140.749
G1 F1800 X148.500 Y165.205 E35.28679
G0 F9000 X151.500 Y165.205
G1 F1800 X151.500 Y140.789 E37.41850
G0 F9000 X154.500 Y140.778
G1 F1800 X154.500 Y165.205 E39.55116
G0 F9000 X157.500 Y165.205
G1 F1800 X157.500 Y140.720 E41.68890
G0 F9000 X160.500 Y140.614
G1 F1800 X160.500 Y165.205 E43.83589
G0 F9000 X163.500 Y165.205
G1 F1800 X163.500 Y139.995 E46.03692
G0 F9000 X166.500 Y139.995
G1 F1800 X166.500 Y154.720 E47.32252
G0 F9000 X169.500 Y154.605
G1 F1800 X169.500 Y139.995 E48.59809
G0 F9000 X172.500 Y139.995
G1 F1800 X172.500 Y154.605 E49.87366
G0 F9000 X175.500 Y154.605
G1 F1800 X175.500 Y139.995 E51.14923
G0 F9000 X178.500 Y139.995
G1 F1800 X178.500 Y155.205 E52.47718
G0 F9000 X181.500 Y155.205
G1 F1800 X181.500 Y139.995 E53.80513
G0 F9000 X184.500 Y141.195
G1 F1800 X184.500 Y155.205 E55.02832
G0 F9000 X187.500 Y155.205
G1 F1800 X187.500 Y141.195 E56.25150
;LAYER:-1
;RAFT
G0 F9000 X187.373 Y141.270 Z0.500
;TYPE:SUPPORT
G1 F1800 X188.929 Y142.826 E56.28809
G0 F9000 X188.929 Y143.392
G1 F1800 X186.807 Y141.270 E56.33800
G0 F9000 X186.242 Y141.270
G1 F1800 X188.929 Y143.957 E56.40119
G0 F9000 X188.929 Y144.523
G1 F1800 X185.676 Y141.270 E56.47770
G0 F9000 X185.110 Y141.270
G1 F1800 X188.929 Y145.089 E56.56752
G0 F9000 X188.929 Y145.654
G1 F1800 X184.544 Y141.270 E56.67063
G0 F9000 X183.979 Y141.270
G1 F1800 X188.929 Y146.220 E56.78705
G0 F9000 X188.929 Y146.786
G1 F1800 X182.213 Y140.070 E56.94500
G0 F9000 X181.647 Y140.070
G1 F1800 X188.929 Y147.351 E57.11625
G0 F9000 X188.929 Y147.917
G1 F1800 X181.082 Y140.070 E57.30080
G0 F9000 X180.516 Y140.070
G1 F1800 X188.929 Y148.483 E57.49866
G0 F9000 X188.929 Y149.048
G1 F1800 X179.950 Y140.070 E57.70982
G0 F9000 X179.385 Y140.070
G1 F1800 X188.929 Y149.614 E57.93428
G0 F9000 X188.929 Y150.180
G1 F1800 X178.819 Y140.070 E58.17205
G0 F9000 X178.253 Y140.070
G1 F1800 X188.929 Y150.745 E58.42312
G0 F9000 X188.929 Y151.311
G1 F1800 X177.688 Y140.070 E58.68749
G0 F9000 X177.122 Y140.070
G1 F1800 X188.929 Y151.877 E58.96518
G0 F9000 X188.929 Y152.443
G1 F1800 X176.556 Y140.070 E59.25617
G0 F9000 X175.991 Y140.070
G1 F1800 X188.929 Y153.008 E59.56045
G0 F9000 X188.929 Y153.574
G1 F1800 X175.425 Y140.070 E59.87805
G0 F9000 X174.859 Y140.070
G1 F1800 X188.929 Y154.140 E60.20895
G0 F9000 X188.929 Y154.705
G1 F1800 X174.294 Y140.070 E60.55314
G0 F9000 X173.728 Y140.070
G1 F1800 X188.788 Y155.130 E60.90733
G0 F9000 X188.222 Y155.130
G1 F1800 X173.162 Y140.070 E61.26152
G0 F9000 X172.596 Y140.070
G1 F1800 X187.656 Y155.130 E61.61571
G0 F9000 X187.091 Y155.130
G1 F1800 X172.031 Y140.070 E61.96990
G0 F9000 X171.465 Y140.070
G1 F1800 X186.525 Y155.130 E62.32408
G0 F9000 X185.959 Y155.130
G1 F1800 X170.899 Y140.070 E62.67827
G0 F9000 X170.334 Y140.070
G1 F1800 X185.394 Y155.130 E63.03246
G0 F9000 X184.828 Y155.130
G1 F1800 X169.768 Y140.070 E63.38665
G0 F9000 X169.202 Y140.070
G1 F1800 X184.262 Y155.130 E63.74084
G0 F9000 X183.697 Y155.130
G1 F1800 X168.637 Y140.070 E64.09503
G0 F9000 X168.071 Y140.070
G1 F1800 X183.131 Y155.130 E64.44921
G0 F9000 X182.565 Y155.130
G1 F1800 X167.505 Y140.070 E64.80340
G0 F9000 X166.940 Y140.070
G1 F1800 X182.000 Y155.130 E65.15759
G0 F9000 X181.434 Y155.130
G1 F1800 X166.374 Y140.070 E65.51178
G0 F9000 X165.808 Y140.070
G1 F1800 X180.868 Y155.130 E65.86597
G0 F9000 X180.303 Y155.130
G1 F1800 X165.243 Y140.070 E66.22015
G0 F9000 X164.677 Y140.070
G1 F1800 X179.737 Y155.130 E66.57434
G0 F9000 X179.171 Y155.130
G1 F1800 X164.111 Y140.070 E66.92853
G0 F9000 X163.546 Y140.070
G1 F1800 X178.605 Y155.130 E67.28271
G0 F9000 X178.040 Y155.130
G1 F1800 X162.980 Y140.070 E67.63689
G0 F9000 X162.414 Y140.070
G1 F1800 X177.474 Y155.130 E67.99108
G0 F9000 X176.908 Y155.130
G1 F1800 X161.848 Y140.070 E68.34527
G0 F9000 X161.769 Y140.556
G1 F1800 X175.742 Y154.529 E68.67389
G0 F9000 X175.969 Y154.755
G1 F1800 X176.343 Y155.130 E68.68270
G0 F9000 X175.177 Y154.529
G1 F1800 X161.298 Y140.650 E69.00911
G0 F9000 X160.752 Y140.670
G1 F1800 X174.611 Y154.529 E69.33506
G0 F9000 X174.045 Y154.529
G1 F1800 X160.206 Y140.690 E69.66053
G0 F9000 X159.660 Y140.710
G1 F1800 X173.480 Y154.529 E69.98554
G0 F9000 X172.914 Y154.529
G1 F1800 X159.115 Y140.730 E70.31007
G0 F9000 X158.569 Y140.750
G1 F1800 X172.348 Y154.529 E70.63413
G0 F9000 X171.783 Y154.529
G1 F1800 X158.023 Y140.770 E70.95774
G0 F9000 X157.477 Y140.789
G1 F1800 X171.217 Y154.529 E71.28088
G0 F9000 X170.651 Y154.529
G1 F1800 X156.932 Y140.810 E71.60353
G0 F9000 X156.379 Y140.823
G1 F1800 X170.086 Y154.529 E71.92589
G0 F9000 X169.520 Y154.529
G1 F1800 X155.815 Y140.824 E72.24821
G0 F9000 X155.251 Y140.826
G1 F1800 X168.954 Y154.529 E72.57048
G0 F9000 X168.388 Y154.529
G1 F1800 X154.688 Y140.828 E72.89270
G0 F9000 X154.123 Y140.830
G1 F1800 X167.823 Y154.529 E73.21489
G0 F9000 X167.291 Y154.563
G1 F1800 X153.560 Y140.832 E73.53782
G0 F9000 X152.995 Y140.833
G1 F1800 X166.776 Y154.613 E73.86192
G0 F9000 X166.260 Y154.664
G1 F1800 X152.432 Y140.835 E74.18714
G0 F9000 X151.868 Y140.837
G1 F1800 X165.745 Y154.714 E74.51351
G0 F9000 X165.229 Y154.764
G1 F1800 X151.304 Y140.839 E74.84100
G0 F9000 X150.741 Y140.841
G1 F1800 X164.929 Y155.030 E75.17469
G0 F9000 X164.929 Y155.596
G1 F1800 X150.177 Y140.843 E75.52165
G0 F9000 X149.613 Y140.845
G1 F1800 X164.929 Y156.161 E75.88186
G0 F9000 X164.929 Y156.727
G1 F1800 X149.029 Y140.826 E76.25581
G0 F9000 X148.443 Y140.806
G1 F1800 X164.929 Y157.293 E76.64355
G0 F9000 X164.929 Y157.858
G1 F1800 X147.858 Y140.787 E77.04503
G0 F9000 X147.272 Y140.767
G1 F1800 X164.929 Y158.424 E77.46030
G0 F9000 X164.929 Y158.990
G1 F1800 X146.687 Y140.747 E77.88934
G0 F9000 X146.102 Y140.728
G1 F1800 X164.929 Y159.555 E78.33212
G0 F9000 X164.929 Y160.121
G1 F1800 X145.516 Y140.708 E78.78868
G0 F9000 X144.931 Y140.688
G1 F1800 X164.929 Y160.687 E79.25902
G0 F9000 X164.929 Y161.252
G1 F1800 X144.345 Y140.668 E79.74312
G0 F9000 X143.760 Y140.649
G1 F1800 X164.929 Y161.818 E80.24098
G0 F9000 X164.929 Y162.384
G1 F1800 X143.175 Y140.630 E80.75260
G0 F9000 X143.129 Y140.584
G1 F1800 X142.615 Y140.070 E80.76469
G0 F9000 X142.049 Y140.070
G1 F1800 X164.929 Y162.949 E81.30278
G0 F9000 X164.929 Y163.515
G1 F1800 X141.484 Y140.070 E81.85417
G0 F9000 X140.918 Y140.070
G1 F1800 X164.929 Y164.081 E82.41887
G0 F9000 X164.929 Y164.646
G1 F1800 X140.352 Y140.070 E82.99688
G0 F9000 X139.787 Y140.070
G1 F1800 X164.846 Y165.129 E83.58623
G0 F9000 X164.280 Y165.129
G1 F1800 X139.221 Y140.070 E84.17557
G0 F9000 X138.655 Y140.070
G1 F1800 X163.715 Y165.129 E84.76494
G0 F9000 X163.149 Y165.129
G1 F1800 X138.090 Y140.070 E85.35428
G0 F9000 X137.524 Y140.070
G1 F1800 X162.583 Y165.129 E85.94363
G0 F9000 X162.017 Y165.129
G1 F1800 X136.958 Y140.070 E86.53298
G0 F9000 X136.393 Y140.070
G1 F1800 X161.452 Y165.129 E87.12233
G0 F9000 X160.886 Y165.129
G1 F1800 X135.827 Y140.070 E87.71168
G0 F9000 X135.261 Y140.070
G1 F1800 X160.320 Y165.129 E88.30103
G0 F9000 X159.755 Y165.129
G1 F1800 X134.696 Y140.070 E88.89038
G0 F9000 X134.130 Y140.070
G1 F1800 X159.189 Y165.129 E89.47973
G0 F9000 X158.623 Y165.129
G1 F1800 X133.564 Y140.070 E90.06908
G0 F9000 X132.999 Y140.070
G1 F1800 X158.058 Y165.129 E90.65843
G0 F9000 X157.492 Y165.129
G1 F1800 X132.433 Y140.070 E91.24778
G0 F9000 X131.867 Y140.070
G1 F1800 X156.926 Y165.129 E91.83713
G0 F9000 X156.361 Y165.129
G1 F1800 X131.301 Y140.070 E92.42649
G0 F9000 X130.736 Y140.070
G1 F1800 X155.795 Y165.129 E93.01584
G0 F9000 X155.229 Y165.129
G1 F1800 X130.170 Y140.070 E93.60519
G0 F9000 X129.604 Y140.070
G1 F1800 X154.664 Y165.129 E94.19455
G0 F9000 X154.098 Y165.129
G1 F1800 X129.039 Y140.070 E94.78390
G0 F9000 X128.473 Y140.070
G1 F1800 X153.532 Y165.129 E95.37325
G0 F9000 X152.966 Y165.129
G1 F1800 X127.907 Y140.070 E95.96259
G0 F9000 X127.342 Y140.070
G1 F1800 X152.401 Y165.129 E96.55194
G0 F9000 X151.835 Y165.129
G1 F1800 X126.776 Y140.070 E97.14129
G0 F9000 X126.210 Y140.070
G1 F1800 X151.269 Y165.129 E97.73064
G0 F9000 X150.704 Y165.129
G1 F1800 X125.645 Y140.070 E98.31999
G0 F9000 X125.079 Y140.070
G1 F1800 X150.138 Y165.129 E98.90934
G0 F9000 X149.572 Y165.129
G1 F1800 X124.513 Y140.070 E99.49869
G0 F9000 X123.948 Y140.070
G1 F1800 X149.007 Y165.129 E100.08804
G0 F9000 X148.441 Y165.129
G1 F1800 X123.382 Y140.070 E100.67739
G0 F9000 X122.816 Y140.070
G1 F1800 X147.875 Y165.129 E101.26674
G0 F9000 X147.310 Y165.129
G1 F1800 X122.250 Y140.070 E101.85610
G0 F9000 X121.685 Y140.070
G1 F1800 X146.744 Y165.129 E102.44545
G0 F9000 X146.178 Y165.129
G1 F1800 X135.970 Y154.920 E102.68554
G0 F9000 X135.578 Y154.528
G1 F1800 X121.169 Y140.120 E103.02440
G0 F9000 X121.169 Y140.685
G1 F1800 X135.012 Y154.528 E103.34997
G0 F9000 X134.447 Y154.528
G1 F1800 X121.169 Y141.251 E103.66224
G0 F9000 X120.621 Y141.269
G1 F1800 X133.881 Y154.528 E103.97408
G0 F9000 X133.315 Y154.528
G1 F1800 X120.056 Y141.269 E104.28591
G0 F9000 X119.490 Y141.269
G1 F1800 X132.750 Y154.528 E104.59775
G0 F9000 X132.184 Y154.528
G1 F1800 X118.924 Y141.269 E104.90960
G0 F9000 X118.359 Y141.269
G1 F1800 X131.618 Y154.528 E105.22143
G0 F9000 X131.053 Y154.528
G1 F1800 X117.793 Y141.269 E105.53327
G0 F9000 X117.227 Y141.269
G1 F1800 X130.487 Y154.528 E105.84511
G0 F9000 X129.921 Y154.528
G1 F1800 X116.662 Y141.269 E106.15694
G0 F9000 X116.096 Y141.269
G1 F1800 X129.355 Y154.528 E106.46878
G0 F9000 X128.930 Y154.669
G1 F1800 X115.769 Y141.508 E106.77830
G0 F9000 X115.769 Y142.074
G1 F1800 X128.824 Y155.129 E107.08534
G0 F9000 X128.259 Y155.129
G1 F1800 X115.769 Y142.639 E107.37908
G0 F9000 X115.769 Y143.205
G1 F1800 X127.693 Y155.129 E107.65952
G0 F9000 X127.127 Y155.129
G1 F1800 X115.769 Y143.771 E107.92664
G0 F9000 X115.769 Y144.336
G1 F1800 X126.562 Y155.129 E108.18047
G0 F9000 X125.996 Y155.129
G1 F1800 X115.769 Y144.902 E108.42100
G0 F9000 X115.769 Y145.468
G1 F1800 X125.430 Y155.129 E108.64821
G0 F9000 X124.865 Y155.129
G1 F1800 X115.769 Y146.033 E108.86213
G0 F9000 X115.769 Y146.599
G1 F1800 X124.299 Y155.129 E109.06275
G0 F9000 X123.733 Y155.129
G1 F1800 X115.769 Y147.165 E109.25005
G0 F9000 X115.769 Y147.730
G1 F1800 X123.168 Y155.129 E109.42406
G0 F9000 X122.602 Y155.129
G1 F1800 X115.769 Y148.296 E109.58476
G0 F9000 X115.769 Y148.862
G1 F1800 X122.036 Y155.129 E109.73215
G0 F9000 X121.471 Y155.129
G1 F1800 X115.769 Y149.427 E109.86625
G0 F9000 X115.769 Y149.993
G1 F1800 X120.905 Y155.129 E109.98704
G0 F9000 X120.339 Y155.129
G1 F1800 X115.769 Y150.559 E110.09452
G0 F9000 X115.769 Y151.124
G1 F1800 X119.773 Y155.129 E110.18870
G0 F9000 X119.208 Y155.129
G1 F1800 X115.769 Y151.690 E110.26958
G0 F9000 X115.769 Y152.256
G1 F1800 X118.642 Y155.129 E110.33715
G0 F9000 X118.076 Y155.129
G1 F1800 X115.769 Y152.822 E110.39141
G0 F9000 X115.769 Y153.387
G1 F1800 X117.511 Y155.129 E110.43238
G0 F9000 X116.945 Y155.129
G1 F1800 X115.769 Y153.953 E110.46004
G0 F9000 X115.769 Y154.519
G1 F1800 X116.379 Y155.129 E110.47438
G0 F9000 X115.814 Y155.129
G1 F1800 X115.769 Y155.084 E110.47544
G0 F9000 X135.970 Y155.486
G1 F1800 X145.613 Y165.129 E110.70223
G0 F9000 X145.047 Y165.129
G1 F1800 X135.970 Y156.052 E110.91571
G0 F9000 X135.970 Y156.617
G1 F1800 X144.481 Y165.129 E111.11588
G0 F9000 X143.916 Y165.129
G1 F1800 X139.769 Y160.982 E111.21342
G0 F9000 X139.515 Y160.728
G1 F1800 X135.970 Y157.183 E111.29679
G0 F9000 X135.970 Y157.749
G1 F1800 X138.950 Y160.728 E111.36686
G0 F9000 X138.384 Y160.728
G1 F1800 X135.970 Y158.314 E111.42364
G0 F9000 X135.970 Y158.880
G1 F1800 X137.818 Y160.728 E111.46710
G0 F9000 X137.252 Y160.728
G1 F1800 X135.970 Y159.446 E111.49725
G0 F9000 X135.970 Y160.011
G1 F1800 X136.687 Y160.728 E111.51411
G0 F9000 X136.121 Y160.728
G1 F1800 X135.970 Y160.577 E111.51766
G0 F9000 X139.769 Y161.548
G1 F1800 X143.350 Y165.129 E111.60188
G0 F9000 X142.784 Y165.129
G1 F1800 X139.769 Y162.114 E111.67279
G0 F9000 X139.769 Y162.679
G1 F1800 X142.218 Y165.129 E111.73040
G0 F9000 X141.653 Y165.129
G1 F1800 X139.769 Y163.245 E111.77471
G0 F9000 X139.769 Y163.811
G1 F1800 X141.087 Y165.129 E111.80570
G0 F9000 X140.521 Y165.129
G1 F1800 X139.769 Y164.376 E111.82340
G0 F9000 X139.769 Y164.942
G1 F1800 X139.956 Y165.129 E111.82780
G0 F9000 X182.779 Y140.070
G1 F1800 X183.529 Y140.820 E111.84544
G0 F9000 X183.529 Y140.254
G1 F1800 X183.345 Y140.070 E111.84977
G0 F9000 X187.939 Y141.270
G1 F1800 X188.929 Y142.260 E111.87305
G0 F9000 X188.929 Y141.695
G1 F1800 X188.504 Y141.270 E111.88304
;LAYER:-1
;RAFT
G0 F9000 X188.960 Y141.400 Z0.770
;TYPE:SUPPORT
G1 F1800 X115.739 Y141.400 E115.17075
G0 F9000 X115.739 Y141.800
G1 F1800 X188.960 Y141.800 E118.45846
G0 F9000 X188.960 Y142.200
G1 F1800 X115.739 Y142.200 E121.74617
G0 F9000 X115.739 Y142.600
G1 F1800 X188.960 Y142.600 E125.03388
G0 F9000 X188.960 Y143.000
G1 F1800 X115.739 Y143.000 E128.32159
G0 F9000 X115.739 Y143.400
G1 F1800 X188.960 Y143.400 E131.60930
G0 F9000 X188.960 Y143.800
G1 F1800 X115.739 Y143.800 E134.89701
G0 F9000 X115.739 Y144.200
G1 F1800 X188.960 Y144.200 E138.18472
G0 F9000 X188.960 Y144.600
G1 F1800 X115.739 Y144.600 E141.47243
G0 F9000 X115.739 Y145.000
G1 F1800 X188.960 Y145.000 E144.76014
G0 F9000 X188.960 Y145.400
G1 F1800 X115.739 Y145.400 E148.04785
G0 F9000 X115.739 Y145.800
G1 F1800 X188.960 Y145.800 E151.33556
G0 F9000 X188.960 Y146.200
G1 F1800 X115.739 Y146.200 E154.62327
G0 F9000 X115.739 Y146.600
G1 F1800 X188.960 Y146.600 E157.91098
G0 F9000 X188.960 Y147.000
G1 F1800 X115.739 Y147.000 E161.19869
G0 F9000 X115.739 Y147.400
G1 F1800 X188.960 Y147.400 E164.48640
G0 F9000 X188.960 Y147.800
G1 F1800 X115.739 Y147.800 E167.77411
G0 F9000 X115.739 Y148.200
G1 F1800 X188.960 Y148.200 E171.06182
G0 F9000 X188.960 Y148.600
G1 F1800 X115.739 Y148.600 E174.34952
G0 F9000 X115.739 Y149.000
G1 F1800 X188.960 Y149.000 E177.63723
G0 F9000 X188.960 Y149.400
G1 F1800 X115.739 Y149.400 E180.92494
G0 F9000 X115.739 Y149.800
G1 F1800 X188.960 Y149.800 E184.21265
G0 F9000 X188.960 Y150.200
G1 F1800 X115.739 Y150.200 E187.50036
G0 F9000 X115.739 Y150.600
G1 F1800 X188.960 Y150.600 E190.78807
G0 F9000 X188.960 Y151.000
G1 F1800 X115.739 Y151.000 E194.07578
G0 F9000 X115.739 Y151.400
G1 F1800 X188.960 Y151.400 E197.36349
G0 F9000 X188.960 Y151.800
G1 F1800 X115.739 Y151.800 E200.65120
G0 F9000 X115.739 Y152.200
G1 F1800 X188.960 Y152.200 E203.93891
G0 F9000 X188.960 Y152.600
G1 F1800 X115.739 Y152.600 E207.22662
G0 F9000 X115.739 Y153.000
G1 F1800 X188.960 Y153.000 E210.51433
G0 F9000 X188.960 Y153.400
G1 F1800 X115.739 Y153.400 E213.80204
G0 F9000 X115.739 Y153.800
G1 F1800 X188.960 Y153.800 E217.08975
G0 F9000 X188.960 Y154.200
G1 F1800 X115.739 Y154.200 E220.37746
G0 F9000 X115.739 Y154.600
G1 F1800 X128.959 Y154.600 E220.97105
G0 F9000 X128.959 Y155.000
G1 F1800 X115.739 Y155.000 E221.56464
G0 F9000 X121.139 Y141.000
G1 F1800 X183.560 Y141.000 E224.36742
G0 F9000 X183.560 Y140.600
G1 F1800 X161.740 Y140.600 E225.34717
G0 F9000 X161.740 Y140.200
G1 F1800 X183.560 Y140.200 E226.32691
G0 F9000 X188.960 Y154.600
G1 F1800 X175.940 Y154.600 E226.91152
G0 F9000 X175.940 Y155.000
G1 F1800 X188.960 Y155.000 E227.49614
G0 F9000 X167.249 Y154.600
G1 F1800 X135.940 Y154.600 E228.90195
G0 F9000 X135.940 Y155.000
G1 F1800 X164.960 Y155.000 E230.20498
G0 F9000 X164.960 Y155.400
G1 F1800 X135.940 Y155.400 E231.50801
G0 F9000 X135.940 Y155.800
G1 F1800 X164.960 Y155.800 E232.81104
G0 F9000 X164.960 Y156.200
G1 F1800 X135.940 Y156.200 E234.11408
G0 F9000 X135.940 Y156.600
G1 F1800 X164.960 Y156.600 E235.41711
G0 F9000 X164.960 Y157.000
G1 F1800 X135.940 Y157.000 E236.72014
G0 F9000 X135.940 Y157.400
G1 F1800 X164.960 Y157.400 E238.02317
G0 F9000 X164.960 Y157.800
G1 F1800 X135.940 Y157.800 E239.32621
G0 F9000 X135.940 Y158.200
G1 F1800 X164.960 Y158.200 E240.62924
G0 F9000 X164.960 Y158.600
G1 F1800 X135.940 Y158.600 E241.93227
G0 F9000 X135.940 Y159.000
G1 F1800 X164.960 Y159.000 E243.23530
G0 F9000 X164.960 Y159.400
G1 F1800 X135.940 Y159.400 E244.53833
G0 F9000 X135.940 Y159.800
G1 F1800 X164.960 Y159.800 E245.84137
G0 F9000 X164.960 Y160.200
G1 F1800 X135.940 Y160.200 E247.14440
G0 F9000 X135.940 Y160.600
G1 F1800 X164.960 Y160.600 E248.44743
G0 F9000 X164.960 Y161.000
G1 F1800 X139.740 Y161.000 E249.57984
G0 F9000 X139.740 Y161.400
G1 F1800 X164.960 Y161.400 E250.71225
G0 F9000 X164.960 Y161.800
G1 F1800 X139.740 Y161.800 E251.84465
G0 F9000 X139.740 Y162.200
G1 F1800 X164.960 Y162.200 E252.97706
G0 F9000 X164.960 Y162.600
G1 F1800 X139.740 Y162.600 E254.10947
G0 F9000 X139.740 Y163.000
G1 F1800 X164.960 Y163.000 E255.24188
G0 F9000 X164.960 Y163.400
G1 F1800 X139.740 Y163.400 E256.37429
G0 F9000 X139.740 Y163.800
G1 F1800 X164.960 Y163.800 E257.50669
G0 F9000 X164.960 Y164.200
G1 F1800 X139.740 Y164.200 E258.63910
G0 F9000 X139.740 Y164.600
G1 F1800 X164.960 Y164.600 E259.77151
G0 F9000 X164.960 Y165.000
G1 F1800 X139.740 Y165.000 E260.90392
G0 F9000 X143.185 Y140.600
G1 F1800 X121.139 Y140.600 E261.89381
G0 F9000 X121.139 Y140.200
G1 F1800 X143.160 Y140.200 E262.88258
;LAYER:-1
;RAFT
G0 F9000 X142.999 Y140.039 Z1.040
;TYPE:SUPPORT
G1 F1800 X142.999 Y165.159 E264.01050
G0 F9000 X143.399 Y165.159
G1 F1800 X143.399 Y140.608 E265.11286
G0 F9000 X143.799 Y140.625
G1 F1800 X143.799 Y165.159 E266.21447
G0 F9000 X144.199 Y165.159
G1 F1800 X144.199 Y140.641 E267.31536
G0 F9000 X144.599 Y140.657
G1 F1800 X144.599 Y165.159 E268.41553
G0 F9000 X144.999 Y165.159
G1 F1800 X144.999 Y140.673 E269.51498
G0 F9000 X145.399 Y140.690
G1 F1800 X145.399 Y165.159 E270.61366
G0 F9000 X145.799 Y165.159
G1 F1800 X145.799 Y140.706 E271.71163
G0 F9000 X146.199 Y140.722
G1 F1800 X146.199 Y165.159 E272.80888
G0 F9000 X146.599 Y165.159
G1 F1800 X146.599 Y140.739 E273.90537
G0 F9000 X146.999 Y140.755
G1 F1800 X146.999 Y165.159 E275.00114
G0 F9000 X147.399 Y165.159
G1 F1800 X147.399 Y140.763 E276.09655
G0 F9000 X147.799 Y140.771
G1 F1800 X147.799 Y165.159 E277.19160
G0 F9000 X148.199 Y165.159
G1 F1800 X148.199 Y140.779 E278.28629
G0 F9000 X148.599 Y140.786
G1 F1800 X148.599 Y165.159 E279.38066
G0 F9000 X148.999 Y165.159
G1 F1800 X148.999 Y140.794 E280.47468
G0 F9000 X149.399 Y140.801
G1 F1800 X149.399 Y165.159 E281.56838
G0 F9000 X149.799 Y165.159
G1 F1800 X149.799 Y140.809 E282.66173
G0 F9000 X150.199 Y140.816
G1 F1800 X150.199 Y165.159 E283.75476
G0 F9000 X150.599 Y165.159
G1 F1800 X150.599 Y140.824 E284.84743
G0 F9000 X150.999 Y140.832
G1 F1800 X150.999 Y165.159 E285.93974
G0 F9000 X151.399 Y165.159
G1 F1800 X151.399 Y140.830 E287.03214
G0 F9000 X151.799 Y140.829
G1 F1800 X151.799 Y165.159 E288.12459
G0 F9000 X152.199 Y165.159
G1 F1800 X152.199 Y140.827 E289.21712
G0 F9000 X152.599 Y140.826
G1 F1800 X152.599 Y165.159 E290.30970
G0 F9000 X152.999 Y165.159
G1 F1800 X152.999 Y140.824 E291.40237
G0 F9000 X153.399 Y140.823
G1 F1800 X153.399 Y165.159 E292.49509
G0 F9000 X153.799 Y165.159
G1 F1800 X153.799 Y140.822 E293.58785
G0 F9000 X154.199 Y140.820
G1 F1800 X154.199 Y165.159 E294.68070
G0 F9000 X154.599 Y165.159
G1 F1800 X154.599 Y140.819 E295.77359
G0 F9000 X154.999 Y140.817
G1 F1800 X154.999 Y165.159 E296.86658
G0 F9000 X155.399 Y165.159
G1 F1800 X155.399 Y140.812 E297.95979
G0 F9000 X155.799 Y140.802
G1 F1800 X155.799 Y165.159 E299.05344
G0 F9000 X156.199 Y165.159
G1 F1800 X156.199 Y140.791 E300.14760
G0 F9000 X156.599 Y140.781
G1 F1800 X156.599 Y165.159 E301.24220
G0 F9000 X156.999 Y165.159
G1 F1800 X156.999 Y140.770 E302.33729
G0 F9000 X157.399 Y140.760
G1 F1800 X157.399 Y165.159 E303.43284
G0 F9000 X157.799 Y165.159
G1 F1800 X157.799 Y140.749 E304.52887
G0 F9000 X158.199 Y140.738
G1 F1800 X158.199 Y165.159 E305.62541
G0 F9000 X158.599 Y165.159
G1 F1800 X158.599 Y140.728 E306.72239
G0 F9000 X158.999 Y140.717
G1 F1800 X158.999 Y165.159 E307.81986
G0 F9000 X159.399 Y165.159
G1 F1800 X159.399 Y140.707 E308.91778
G0 F9000 X159.799 Y140.689
G1 F1800 X159.799 Y165.159 E310.01652
G0 F9000 X142.599 Y165.159
G1 F1800 X142.599 Y140.039 E311.14443
G0 F9000 X142.199 Y140.039
G1 F1800 X142.199 Y165.159 E312.27235
G0 F9000 X141.799 Y165.159
G1 F1800 X141.799 Y140.039 E313.40027
G0 F9000 X141.399 Y140.039
G1 F1800 X141.399 Y165.159 E314.52819
G0 F9000 X140.999 Y165.159
G1 F1800 X140.999 Y140.039 E315.65610
G0 F9000 X140.599 Y140.039
G1 F1800 X140.599 Y165.159 E316.78402
G0 F9000 X140.199 Y165.159
G1 F1800 X140.199 Y140.039 E317.91194
G0 F9000 X139.799 Y140.039
G1 F1800 X139.799 Y165.159 E319.03986
G0 F9000 X139.399 Y160.759
G1 F1800 X139.399 Y140.039 E319.97021
G0 F9000 X138.999 Y140.039
G1 F1800 X138.999 Y160.759 E320.90056
G0 F9000 X138.599 Y160.759
G1 F1800 X138.599 Y140.039 E321.83092
G0 F9000 X138.199 Y140.039
G1 F1800 X138.199 Y160.759 E322.76127
G0 F9000 X137.799 Y160.759
G1 F1800 X137.799 Y140.039 E323.69162
G0 F9000 X137.399 Y140.039
G1 F1800 X137.399 Y160.759 E324.62197
G0 F9000 X136.999 Y160.759
G1 F1800 X136.999 Y140.039 E325.55233
G0 F9000 X136.599 Y140.039
G1 F1800 X136.599 Y160.759 E326.48268
G0 F9000 X136.199 Y160.759
G1 F1800 X136.199 Y140.039 E327.41303
G0 F9000 X135.799 Y140.039
G1 F1800 X135.799 Y154.559 E328.06500
G0 F9000 X135.399 Y154.559
G1 F1800 X135.399 Y140.039 E328.71696
G0 F9000 X134.999 Y140.039
G1 F1800 X134.999 Y154.559 E329.36893
G0 F9000 X134.599 Y154.559
G1 F1800 X134.599 Y140.039 E330.02089
G0 F9000 X134.199 Y140.039
G1 F1800 X134.199 Y154.559 E330.67286
G0 F9000 X133.799 Y154.559
G1 F1800 X133.799 Y140.039 E331.32482
G0 F9000 X133.399 Y140.039
G1 F1800 X133.399 Y154.559 E331.97679
G0 F9000 X132.999 Y154.559
G1 F1800 X132.999 Y140.039 E332.62875
G0 F9000 X132.599 Y140.039
G1 F1800 X132.599 Y154.559 E333.28072
G0 F9000 X132.199 Y154.559
G1 F1800 X132.199 Y140.039 E333.93268
G0 F9000 X131.799 Y140.039
G1 F1800 X131.799 Y154.559 E334.58465
G0 F9000 X131.399 Y154.559
G1 F1800 X131.399 Y140.039 E335.23661
G0 F9000 X130.999 Y140.039
G1 F1800 X130.999 Y154.559 E335.88858
G0 F9000 X130.599 Y154.559
G1 F1800 X130.599 Y140.039 E336.54054
G0 F9000 X130.199 Y140.039
G1 F1800 X130.199 Y154.559 E337.19251
G0 F9000 X129.799 Y154.559
G1 F1800 X129.799 Y140.039 E337.84447
G0 F9000 X129.399 Y140.039
G1 F1800 X129.399 Y154.559 E338.49644
G0 F9000 X128.999 Y154.559
G1 F1800 X128.999 Y140.039 E339.14840
G0 F9000 X128.599 Y140.039
G1 F1800 X128.599 Y155.160 E339.82735
G0 F9000 X128.199 Y155.160
G1 F1800 X128.199 Y140.039 E340.50631
G0 F9000 X127.799 Y140.039
G1 F1800 X127.799 Y155.160 E341.18526
G0 F9000 X127.399 Y155.160
G1 F1800 X127.399 Y140.039 E341.86421
G0 F9000 X126.999 Y140.039
G1 F1800 X126.999 Y155.160 E342.54316
G0 F9000 X126.599 Y155.160
G1 F1800 X126.599 Y140.039 E343.22211
G0 F9000 X126.199 Y140.039
G1 F1800 X126.199 Y155.160 E343.90106
G0 F9000 X125.799 Y155.160
G1 F1800 X125.799 Y140.039 E344.58001
G0 F9000 X125.399 Y140.039
G1 F1800 X125.399 Y155.160 E345.25896
G0 F9000 X124.999 Y155.160
G1 F1800 X124.999 Y140.039 E345.93791
G0 F9000 X124.599 Y140.039
G1 F1800 X124.599 Y155.160 E346.61686
G0 F9000 X124.199 Y155.160
G1 F1800 X124.199 Y140.039 E347.29581
G0 F9000 X123.799 Y140.039
G1 F1800 X123.799 Y155.160 E347.97476
G0 F9000 X123.399 Y155.160
G1 F1800 X123.399 Y140.039 E348.65371
G0 F9000 X122.999 Y140.039
G1 F1800 X122.999 Y155.160 E349.33267
G0 F9000 X122.599 Y155.160
G1 F1800 X122.599 Y140.039 E350.01162
G0 F9000 X122.199 Y140.039
G1 F1800 X122.199 Y155.160 E350.69057
G0 F9000 X121.799 Y155.160
G1 F1800 X121.799 Y140.039 E351.36952
G0 F9000 X121.399 Y140.039
G1 F1800 X121.399 Y155.160 E352.04847
G0 F9000 X120.999 Y155.160
G1 F1800 X120.999 Y141.239 E352.67354
G0 F9000 X120.599 Y141.239
G1 F1800 X120.599 Y155.160 E353.29861
G0 F9000 X120.199 Y155.160
G1 F1800 X120.199 Y141.239 E353.92368
G0 F9000 X119.799 Y141.239
G1 F1800 X119.799 Y155.160 E354.54875
G0 F9000 X119.399 Y155.160
G1 F1800 X119.399 Y141.239 E355.17382
G0 F9000 X118.999 Y141.239
G1 F1800 X118.999 Y155.160 E355.79888
G0 F9000 X118.599 Y155.160
G1 F1800 X118.599 Y141.239 E356.42395
G0 F9000 X118.199 Y141.239
G1 F1800 X118.199 Y155.160 E357.04902
G0 F9000 X117.799 Y155.160
G1 F1800 X117.799 Y141.239 E357.67409
G0 F9000 X117.399 Y141.239
G1 F1800 X117.399 Y155.160 E358.29916
G0 F9000 X116.999 Y155.160
G1 F1800 X116.999 Y141.239 E358.92423
G0 F9000 X116.599 Y141.239
G1 F1800 X116.599 Y155.160 E359.54930
G0 F9000 X116.199 Y155.160
G1 F1800 X116.199 Y141.239 E360.17437
G0 F9000 X115.799 Y141.239
G1 F1800 X115.799 Y155.160 E360.79944
G0 F9000 X160.199 Y165.159
G1 F1800 X160.199 Y140.671 E361.89898
G0 F9000 X160.599 Y140.654
G1 F1800 X160.599 Y165.159 E362.99928
G0 F9000 X160.999 Y165.159
G1 F1800 X160.999 Y140.636 E364.10039
G0 F9000 X161.399 Y140.618
G1 F1800 X161.399 Y165.159 E365.20231
G0 F9000 X161.799 Y165.159
G1 F1800 X161.799 Y140.039 E366.33023
G0 F9000 X162.199 Y140.039
G1 F1800 X162.199 Y165.159 E367.45815
G0 F9000 X162.599 Y165.159
G1 F1800 X162.599 Y140.039 E368.58607
G0 F9000 X162.999 Y140.039
G1 F1800 X162.999 Y165.159 E369.71399
G0 F9000 X163.399 Y165.159
G1 F1800 X163.399 Y140.039 E370.84190
G0 F9000 X163.799 Y140.039
G1 F1800 X163.799 Y165.159 E371.96982
G0 F9000 X164.199 Y165.159
G1 F1800 X164.199 Y140.039 E373.09774
G0 F9000 X164.599 Y140.039
G1 F1800 X164.599 Y165.159 E374.22566
G0 F9000 X164.999 Y154.818
G1 F1800 X164.999 Y140.039 E374.88925
G0 F9000 X165.399 Y140.039
G1 F1800 X165.399 Y154.783 E375.55127
G0 F9000 X165.799 Y154.744
G1 F1800 X165.799 Y140.039 E376.21155
G0 F9000 X166.199 Y140.039
G1 F1800 X166.199 Y154.704 E376.87002
G0 F9000 X166.599 Y154.664
G1 F1800 X166.599 Y140.039 E377.52670
G0 F9000 X166.999 Y140.039
G1 F1800 X166.999 Y154.624 E378.18159
G0 F9000 X167.399 Y154.585
G1 F1800 X167.399 Y140.039 E378.83472
G0 F9000 X167.799 Y140.039
G1 F1800 X167.799 Y154.559 E379.48668
G0 F9000 X168.199 Y154.559
G1 F1800 X168.199 Y140.039 E380.13865
G0 F9000 X168.599 Y140.039
G1 F1800 X168.599 Y154.559 E380.79061
G0 F9000 X168.999 Y154.559
G1 F1800 X168.999 Y140.039 E381.44258
G0 F9000 X169.399 Y140.039
G1 F1800 X169.399 Y154.559 E382.09454
G0 F9000 X169.799 Y154.559
G1 F1800 X169.799 Y140.039 E382.74651
G0 F9000 X170.199 Y140.039
G1 F1800 X170.199 Y154.559 E383.39847
G0 F9000 X170.599 Y154.559
G1 F1800 X170.599 Y140.039 E384.05044
G0 F9000 X170.999 Y140.039
G1 F1800 X170.999 Y154.559 E384.70240
G0 F9000 X171.399 Y154.559
G1 F1800 X171.399 Y140.039 E385.35437
G0 F9000 X171.799 Y140.039
G1 F1800 X171.799 Y154.559 E386.00633
G0 F9000 X172.199 Y154.559
G1 F1800 X172.199 Y140.039 E386.65830
G0 F9000 X172.599 Y140.039
G1 F1800 X172.599 Y154.559 E387.31026
G0 F9000 X172.999 Y154.559
G1 F1800 X172.999 Y140.039 E387.96223
G0 F9000 X173.399 Y140.039
G1 F1800 X173.399 Y154.559 E388.61420
G0 F9000 X173.799 Y154.559
G1 F1800 X173.799 Y140.039 E389.26616
G0 F9000 X174.199 Y140.039
G1 F1800 X174.199 Y154.559 E389.91813
G0 F9000 X174.599 Y154.559
G1 F1800 X174.599 Y140.039 E390.57009
G0 F9000 X174.999 Y140.039
G1 F1800 X174.999 Y154.559 E391.22206
G0 F9000 X175.399 Y154.559
G1 F1800 X175.399 Y140.039 E391.87402
G0 F9000 X175.799 Y140.039
G1 F1800 X175.799 Y154.559 E392.52599
G0 F9000 X176.199 Y155.159
G1 F1800 X176.199 Y140.039 E393.20489
G0 F9000 X176.599 Y140.039
G1 F1800 X176.599 Y155.159 E393.88380
G0 F9000 X176.999 Y155.159
G1 F1800 X176.999 Y140.039 E394.56270
G0 F9000 X177.399 Y140.039
G1 F1800 X177.399 Y155.159 E395.24161
G0 F9000 X177.799 Y155.159
G1 F1800 X177.799 Y140.039 E395.92052
G0 F9000 X178.199 Y140.039
G1 F1800 X178.199 Y155.159 E396.59942
G0 F9000 X178.599 Y155.159
G1 F1800 X178.599 Y140.039 E397.27833
G0 F9000 X178.999 Y140.039
G1 F1800 X178.999 Y155.159 E397.95723
G0 F9000 X179.399 Y155.159
G1 F1800 X179.399 Y140.039 E398.63614
G0 F9000 X179.799 Y140.039
G1 F1800 X179.799 Y155.159 E399.31504
G0 F9000 X180.199 Y155.159
G1 F1800 X180.199 Y140.039 E399.99395
G0 F9000 X180.599 Y140.039
G1 F1800 X180.599 Y155.159 E400.67286
G0 F9000 X180.999 Y155.159
G1 F1800 X180.999 Y140.039 E401.35176
G0 F9000 X181.399 Y140.039
G1 F1800 X181.399 Y155.159 E402.03067
G0 F9000 X181.799 Y155.159
G1 F1800 X181.799 Y140.039 E402.70957
G0 F9000 X182.199 Y140.039
G1 F1800 X182.199 Y155.159 E403.38848
G0 F9000 X182.599 Y155.159
G1 F1800 X182.599 Y140.039 E404.06739
G0 F9000 X182.999 Y140.039
G1 F1800 X182.999 Y155.159 E404.74629
G0 F9000 X183.399 Y155.159
G1 F1800 X183.399 Y140.039 E405.42520
G0 F9000 X183.799 Y141.239
G1 F1800 X183.799 Y155.159 E406.05022
G0 F9000 X184.199 Y155.159
G1 F1800 X184.199 Y141.239 E406.67525
G0 F9000 X184.599 Y141.239
G1 F1800 X184.599 Y155.159 E407.30027
G0 F9000 X184.999 Y155.159
G1 F1800 X184.999 Y141.239 E407.92530
G0 F9000 X185.399 Y141.239
G1 F1800 X185.399 Y155.159 E408.55032
G0 F9000 X185.799 Y155.159
G1 F1800 X185.799 Y141.239 E409.17534
G0 F9000 X186.199 Y141.239
G1 F1800 X186.199 Y155.159 E409.80037
G0 F9000 X186.599 Y155.159
G1 F1800 X186.599 Y141.239 E410.42539
G0 F9000 X186.999 Y141.239
G1 F1800 X186.999 Y155.159 E411.05042
G0 F9000 X187.399 Y155.159
G1 F1800 X187.399 Y141.239 E411.67544
G0 F9000 X187.799 Y141.239
G1 F1800 X187.799 Y155.159 E412.30047
G0 F9000 X188.199 Y155.159
G1 F1800 X188.199 Y141.239 E412.92549
G0 F9000 X188.599 Y141.239
G1 F1800 X188.599 Y155.159 E413.55052
;LAYER:0
M107
G1 F2400 E412.95052
G1 Z1.540
G0 F9000 X180.640 Y148.750 Z1.440
;TYPE:WALL-INNER
G1 Z1.440
G1 F2400 E413.55052
G1 F1800 X167.329 Y148.750 E414.10392
G1 X166.405 Y148.848 E414.14255
G1 X164.819 Y149.003 E414.20881
G1 X163.251 Y149.139 E414.27424
G1 X161.696 Y149.258 E414.33908
G1 X160.250 Y149.354 E414.39933
G1 X157.369 Y149.496 E414.51925
G1 X155.963 Y149.543 E414.57774
G1 X153.194 Y149.589 E414.69288
G1 X150.438 Y149.574 E414.80746
G1 X149.042 Y149.543 E414.86551
G1 X146.219 Y149.434 E414.98297
G1 X144.774 Y149.355 E415.04313
G1 X141.761 Y149.141 E415.16872
G1 X140.229 Y149.007 E415.23265
G1 X137.967 Y148.783 E415.32715
G1 X137.671 Y148.750 E415.33954
G1 X124.363 Y148.750 E415.89282
G1 X124.362 Y147.750 E415.93439
G1 X138.386 Y147.750 E416.51744
G1 X138.385 Y146.250 E416.57981
G1 X140.167 Y146.250 E416.65389
G1 X140.832 Y146.293 E416.68160
G1 X142.352 Y146.377 E416.74489
G1 X143.866 Y146.451 E416.80791
G1 X145.365 Y146.513 E416.87028
G1 X146.843 Y146.564 E416.93177
G1 X148.262 Y146.601 E416.99078
G1 X149.718 Y146.629 E417.05133
G1 X149.732 Y146.628 E417.05191
G1 X151.121 Y146.644 E417.10966
G1 X151.132 Y146.643 E417.11012
G1 X152.489 Y146.649 E417.16654
G1 X153.892 Y146.644 E417.22487
G1 X155.301 Y146.628 E417.28346
G1 X156.718 Y146.601 E417.34238
G1 X158.135 Y146.564 E417.40131
G1 X159.615 Y146.514 E417.46288
G1 X161.114 Y146.452 E417.52525
G1 X162.628 Y146.378 E417.58827
G1 X164.157 Y146.293 E417.65194
G1 X164.846 Y146.250 E417.68064
G1 X166.615 Y146.250 E417.75418
G1 X166.616 Y147.750 E417.81655
G1 X180.639 Y147.750 E418.39956
G1 X180.640 Y148.750 E418.44113
G0 F9000 X181.140 Y149.250
;TYPE:WALL-OUTER
G1 F1800 X167.356 Y149.250 E419.01420
G1 X166.457 Y149.345 E419.05179
G1 X164.860 Y149.501 E419.11850
G1 X163.286 Y149.638 E419.18419
G1 X161.734 Y149.757 E419.24890
G1 X160.275 Y149.854 E419.30969
G1 X157.382 Y149.996 E419.43011
G1 X155.980 Y150.043 E419.48844
G1 X153.199 Y150.089 E419.60407
G1 X150.427 Y150.074 E419.71932
G1 X149.035 Y150.043 E419.77721
G1 X146.192 Y149.933 E419.89549
G1 X144.747 Y149.854 E419.95566
G1 X141.727 Y149.640 E420.08153
G1 X140.189 Y149.505 E420.14572
G1 X137.918 Y149.280 E420.24060
G1 X137.644 Y149.250 E420.25206
G1 X123.863 Y149.250 E420.82501
G1 X123.862 Y147.250 E420.90816
G1 X137.885 Y147.250 E421.49116
G1 X137.884 Y145.750 E421.55353
G1 X140.183 Y145.750 E421.64911
G1 X140.862 Y145.794 E421.67740
G1 X142.378 Y145.878 E421.74052
G1 X143.889 Y145.952 E421.80342
G1 X145.384 Y146.014 E421.86563
G1 X146.858 Y146.064 E421.92694
G1 X148.273 Y146.101 E421.98579
G1 X149.698 Y146.128 E422.04505
G1 X149.708 Y146.127 E422.04547
G1 X151.102 Y146.144 E422.10343
G1 X151.113 Y146.143 E422.10388
G1 X152.489 Y146.149 E422.16109
G1 X153.888 Y146.144 E422.21926
G1 X155.294 Y146.128 E422.27771
G1 X156.707 Y146.101 E422.33647
G1 X158.120 Y146.064 E422.39524
G1 X159.596 Y146.015 E422.45664
G1 X161.091 Y145.953 E422.51884
G1 X162.602 Y145.879 E422.58174
G1 X164.128 Y145.794 E422.64528
G1 X164.831 Y145.750 E422.67457
G1 X167.115 Y145.750 E422.76952
G1 X167.116 Y147.250 E422.83189
G1 X181.139 Y147.250 E423.41490
G1 X181.140 Y149.250 E423.49805
G0 F9000 X180.464 Y148.290
;TYPE:SKIN
G1 F1800 X180.069 Y148.250 E423.51947
G1 X179.362 Y148.250 E423.55762
G1 X178.655 Y148.250 E423.59578
G1 X177.948 Y148.250 E423.63393
G1 X177.241 Y148.250 E423.67208
G1 X176.534 Y148.250 E423.71024
G1 X175.827 Y148.250 E423.74839
G1 X175.119 Y148.250 E423.78660
G1 X174.412 Y148.250 E423.82475
G1 X173.705 Y148.250 E423.86290
G1 X172.998 Y148.250 E423.90105
G1 X172.291 Y148.250 E423.93921
G1 X171.584 Y148.250 E423.97736
G1 X170.877 Y148.250 E424.01551
G1 X170.170 Y148.250 E424.05367
G1 X169.463 Y148.250 E424.09182
G1 X168.755 Y148.250 E424.13003
G1 X168.048 Y148.250 E424.16818
G1 X167.342 Y148.250 E424.20634
G1 X166.663 Y147.925 E424.23763
G0 F9000 X166.440 Y147.701
G1 F1800 X165.163 Y146.424 E424.31272
G0 F9000 X164.478 Y146.447
G1 F1800 X166.671 Y148.640 E424.44166
G0 F9000 X166.029 Y148.705
G1 F1800 X163.809 Y146.485 E424.57218
G0 F9000 X163.140 Y146.523
G1 F1800 X165.386 Y148.769 E424.70424
G0 F9000 X164.743 Y148.833
G1 F1800 X162.470 Y146.560 E424.83788
G0 F9000 X161.793 Y146.591
G1 F1800 X164.089 Y148.886 E424.97285
G0 F9000 X163.435 Y148.940
G1 F1800 X161.117 Y146.621 E425.10917
G0 F9000 X160.440 Y146.651
G1 F1800 X162.782 Y148.993 E425.24687
G0 F9000 X162.128 Y149.047
G1 F1800 X159.763 Y146.682 E425.38592
G0 F9000 X159.079 Y146.705
G1 F1800 X161.472 Y149.097 E425.52659
G0 F9000 X160.809 Y149.142
G1 F1800 X158.393 Y146.726 E425.66864
G0 F9000 X157.706 Y146.746
G1 F1800 X160.143 Y149.183 E425.81193
G1 F2400 E425.21193
G1 Z1.940
G0 F9000 X165.870 Y146.424
G1 Z1.440
G1 F2400 E425.81193
G1 F1800 X166.439 Y146.994 E425.84541
G1 F2400 E425.24541
G1 Z1.940
G0 F9000 X159.469 Y149.216
G1 Z1.440
G1 F2400 E425.84541
G1 F1800 X157.020 Y146.767 E425.98941
G0 F9000 X156.328 Y146.782
G1 F1800 X158.795 Y149.249 E426.13446
G0 F9000 X158.121 Y149.282
G1 F1800 X155.632 Y146.793 E426.28080
G0 F9000 X154.934 Y146.803
G1 F1800 X157.447 Y149.316 E426.42855
G0 F9000 X156.764 Y149.340
G1 F1800 X154.238 Y146.813 E426.57710
G0 F9000 X153.536 Y146.818
G1 F1800 X156.081 Y149.363 E426.72674
G0 F9000 X155.387 Y149.377
G1 F1800 X152.829 Y146.818 E426.87717
G0 F9000 X152.122 Y146.818
G1 F1800 X154.692 Y149.389 E427.02830
G0 F9000 X153.996 Y149.400
G1 F1800 X151.414 Y146.818 E427.18012
G0 F9000 X150.704 Y146.815
G1 F1800 X153.301 Y149.412 E427.33281
G0 F9000 X152.592 Y149.410
G1 F1800 X149.988 Y146.806 E427.48592
G0 F9000 X149.270 Y146.796
G1 F1800 X151.881 Y149.406 E427.63940
G0 F9000 X151.170 Y149.402
G1 F1800 X148.549 Y146.781 E427.79351
G0 F9000 X147.824 Y146.763
G1 F1800 X150.459 Y149.398 E427.94844
G0 F9000 X149.736 Y149.382
G1 F1800 X147.094 Y146.740 E428.10377
G0 F9000 X146.365 Y146.719
G1 F1800 X149.011 Y149.364 E428.25932
G0 F9000 X148.276 Y149.336
G1 F1800 X145.635 Y146.696 E428.41457
G0 F9000 X144.899 Y146.667
G1 F1800 X147.540 Y149.308 E428.56985
G0 F9000 X146.805 Y149.280
G1 F1800 X144.159 Y146.634 E428.72543
G0 F9000 X143.418 Y146.600
G1 F1800 X146.067 Y149.249 E428.88118
G0 F9000 X145.318 Y149.208
G1 F1800 X142.677 Y146.566 E429.03649
G0 F9000 X141.931 Y146.527
G1 F1800 X144.568 Y149.164 E429.19153
G0 F9000 X143.807 Y149.111
G1 F1800 X141.180 Y146.483 E429.34602
G0 F9000 X140.429 Y146.439
G1 F1800 X143.046 Y149.056 E429.49989
G0 F9000 X142.285 Y149.002
G1 F1800 X139.706 Y146.424 E429.65150
G0 F9000 X138.999 Y146.424
G1 F1800 X141.517 Y148.942 E429.79954
G0 F9000 X140.736 Y148.867
G1 F1800 X138.559 Y146.691 E429.92751
G0 F9000 X138.560 Y147.399
G1 F1800 X139.955 Y148.794 E430.00954
G0 F9000 X139.174 Y148.720
G1 F1800 X138.378 Y147.924 E430.05634
G0 F9000 X137.671 Y147.924
G1 F1800 X138.393 Y148.646 E430.09879
G0 F9000 X137.614 Y148.574
G1 F1800 X136.935 Y148.249 E430.13703
G1 X136.228 Y148.249 E430.17519
G1 X135.521 Y148.249 E430.21334
G1 X134.814 Y148.249 E430.25149
G1 X134.107 Y148.249 E430.28964
G1 X133.399 Y148.249 E430.32785
G1 X132.692 Y148.249 E430.36600
G1 X131.985 Y148.249 E430.40416
G1 X131.278 Y148.249 E430.44231
G1 X130.571 Y148.249 E430.48046
G1 X129.864 Y148.249 E430.51862
G1 X129.157 Y148.249 E430.55677
G1 X128.450 Y148.249 E430.59492
G1 X127.743 Y148.249 E430.63307
G1 X127.035 Y148.249 E430.67128
G1 X126.328 Y148.249 E430.70943
G1 X125.621 Y148.249 E430.74759
G1 X124.740 Y148.074 E430.78575
G1 X124.886 Y148.574 E430.80741
G1 F2400 E430.20741
G1 Z1.940
G0 F9000 X143.975 Y156.250
;TYPE:SUPPORT
G1 Z1.440
G1 F2400 E430.80741
G1 F1800 X160.725 Y156.250 E431.50379
G1 F2400 E430.90379
G1 Z1.940
G0 F9000 X156.250 Y153.001
G1 Z1.440
G1 F2400 E431.50379
G1 F1800 X156.250 Y160.925 E431.83323
;LAYER:1
M106 S10
G1 F2400 E431.23323
G1 Z1.940
G0 F9000 X155.995 Y149.592
;TYPE:WALL-INNER
G1 Z1.440
G1 F2400 E431.83323
G1 F1980 X153.205 Y149.640 E431.94925
G1 X150.459 Y149.625 E432.06341
G1 X149.064 Y149.594 E432.12142
G1 X146.267 Y149.486 E432.23780
G1 X144.822 Y149.407 E432.29796
G1 X141.835 Y149.195 E432.42246
G1 X140.313 Y149.062 E432.48598
G1 X138.076 Y148.841 E432.57943
G1 X137.248 Y148.750 E432.61407
G1 X123.732 Y148.750 E433.17600
G1 X123.731 Y147.750 E433.21757
G1 X137.971 Y147.750 E433.80960
G1 X137.970 Y146.250 E433.87196
G1 X139.662 Y146.250 E433.94231
G1 X140.484 Y146.303 E433.97656
G1 X142.395 Y146.412 E434.05614
G1 X143.917 Y146.487 E434.11949
G1 X143.956 Y146.487 E434.12111
G1 X145.389 Y146.547 E434.18074
G1 X146.858 Y146.598 E434.24185
G1 X148.268 Y146.635 E434.30049
G1 X149.673 Y146.662 E434.35892
G1 X151.087 Y146.678 E434.41771
G1 X151.130 Y146.677 E434.41950
G1 X152.467 Y146.683 E434.47508
G1 X153.861 Y146.679 E434.53304
G1 X155.263 Y146.663 E434.59133
G1 X156.670 Y146.636 E434.64984
G1 X158.079 Y146.600 E434.70844
G1 X159.549 Y146.550 E434.76959
G1 X161.039 Y146.489 E434.83159
G1 X162.544 Y146.416 E434.89423
G1 X164.065 Y146.331 E434.95756
G1 X165.352 Y146.250 E435.01118
G1 X167.029 Y146.250 E435.08090
G1 X167.030 Y147.750 E435.14326
G1 X181.269 Y147.750 E435.73525
G1 X181.269 Y148.750 E435.77683
G1 X167.751 Y148.750 E436.33884
G1 X166.941 Y148.838 E436.37271
G1 X166.355 Y148.900 E436.39721
G1 X166.344 Y148.900 E436.39767
G1 X164.740 Y149.058 E436.46468
G1 X163.211 Y149.191 E436.52849
G1 X161.640 Y149.311 E436.59399
G1 X160.258 Y149.403 E436.65158
G1 X157.396 Y149.545 E436.77071
G1 X155.995 Y149.592 E436.82899
G0 F9000 X155.979 Y150.094
;TYPE:WALL-OUTER
G1 F1980 X153.211 Y150.140 E436.94409
G1 X150.448 Y150.125 E437.05896
G1 X149.057 Y150.094 E437.11680
G1 X146.240 Y149.985 E437.23401
G1 X144.795 Y149.906 E437.29418
G1 X141.801 Y149.694 E437.41896
G1 X140.273 Y149.560 E437.48273
G1 X138.022 Y149.337 E437.57678
G1 X137.221 Y149.250 E437.61028
G1 X123.232 Y149.250 E438.19187
G1 X123.231 Y147.250 E438.27502
G1 X137.471 Y147.250 E438.86705
G1 X137.470 Y145.750 E438.92941
G1 X139.677 Y145.750 E439.02117
G1 X140.514 Y145.804 E439.05604
G1 X142.422 Y145.913 E439.13550
G1 X143.929 Y145.987 E439.19823
G1 X143.953 Y145.987 E439.19922
G1 X145.408 Y146.048 E439.25977
G1 X146.873 Y146.098 E439.32071
G1 X148.279 Y146.135 E439.37919
G1 X149.681 Y146.162 E439.43749
G1 X151.082 Y146.178 E439.49574
G1 X151.119 Y146.177 E439.49727
G1 X152.468 Y146.183 E439.55336
G1 X153.858 Y146.179 E439.61115
G1 X155.255 Y146.163 E439.66923
G1 X156.659 Y146.136 E439.72762
G1 X158.064 Y146.100 E439.78605
G1 X159.530 Y146.051 E439.84703
G1 X161.016 Y145.990 E439.90886
G1 X162.518 Y145.917 E439.97138
G1 X164.035 Y145.832 E440.03455
G1 X165.337 Y145.750 E440.08879
G1 X167.529 Y145.750 E440.17992
G1 X167.530 Y147.250 E440.24229
G1 X181.769 Y147.250 E440.83428
G1 X181.769 Y149.250 E440.91743
G1 X167.778 Y149.250 E441.49910
G1 X166.378 Y149.400 E441.55764
G1 X164.781 Y149.556 E441.62435
G1 X163.231 Y149.691 E441.68904
G1 X161.679 Y149.810 E441.75375
G1 X160.253 Y149.904 E441.81317
G1 X160.239 Y149.903 E441.81375
G1 X157.381 Y150.046 E441.93272
G1 X155.979 Y150.094 E441.99104
G0 F9000 X155.694 Y149.422
;TYPE:SKIN
G1 F1980 X158.356 Y146.760 E442.14756
G0 F9000 X157.627 Y146.781
G1 F1980 X154.975 Y149.434 E442.30352
G0 F9000 X154.255 Y149.447
G1 F1980 X156.898 Y146.803 E442.45894
G0 F9000 X156.177 Y146.817
G1 F1980 X153.536 Y149.459 E442.61425
G0 F9000 X152.824 Y149.463
G1 F1980 X155.458 Y146.829 E442.76912
G0 F9000 X154.741 Y146.839
G1 F1980 X152.122 Y149.459 E442.92314
G0 F9000 X151.418 Y149.455
G1 F1980 X154.022 Y146.851 E443.07625
G0 F9000 X153.313 Y146.853
G1 F1980 X150.715 Y149.451 E443.22900
G0 F9000 X150.019 Y149.439
G1 F1980 X152.607 Y146.852 E443.38113
G0 F9000 X151.900 Y146.851
G1 F1980 X149.327 Y149.425 E443.53244
G0 F9000 X148.643 Y149.402
G1 F1980 X151.193 Y146.851 E443.68240
G0 F9000 X150.492 Y146.846
G1 F1980 X147.962 Y149.375 E443.83113
G0 F9000 X147.281 Y149.349
G1 F1980 X149.793 Y146.837 E443.97883
G0 F9000 X149.100 Y146.823
G1 F1980 X146.601 Y149.322 E444.12576
G0 F9000 X145.925 Y149.291
G1 F1980 X148.408 Y146.808 E444.27175
G0 F9000 X147.718 Y146.791
G1 F1980 X145.255 Y149.254 E444.41656
G0 F9000 X144.587 Y149.215
G1 F1980 X147.026 Y146.776 E444.55997
G0 F9000 X146.342 Y146.752
G1 F1980 X143.927 Y149.168 E444.70199
G0 F9000 X143.266 Y149.121
G1 F1980 X145.661 Y146.726 E444.84281
G0 F9000 X144.980 Y146.700
G1 F1980 X142.607 Y149.074 E444.98236
G0 F9000 X141.947 Y149.026
G1 F1980 X144.299 Y146.674 E445.12065
G0 F9000 X143.621 Y146.646
G1 F1980 X141.299 Y148.968 E445.25717
G0 F9000 X140.652 Y148.907
G1 F1980 X142.947 Y146.612 E445.39211
G0 F9000 X142.274 Y146.578
G1 F1980 X140.006 Y148.846 E445.52546
G0 F9000 X139.360 Y148.785
G1 F1980 X141.606 Y146.539 E445.65751
G0 F9000 X140.939 Y146.499
G1 F1980 X138.713 Y148.725 E445.78840
G0 F9000 X138.068 Y148.663
G1 F1980 X140.271 Y146.460 E445.91792
G1 F2400 E445.31792
G1 Z1.940
G0 F9000 X156.421 Y149.402
G1 Z1.440
G1 F2400 E445.91792
G1 F1980 X159.085 Y146.738 E446.07456
G0 F9000 X159.818 Y146.712
G1 F1980 X157.153 Y149.377 E446.23125
G0 F9000 X157.892 Y149.345
G1 F1980 X160.558 Y146.679 E446.38800
G0 F9000 X161.298 Y146.646
G1 F1980 X158.637 Y149.307 E446.54446
G0 F9000 X159.381 Y149.270
G1 F1980 X162.038 Y146.613 E446.70068
G0 F9000 X162.782 Y146.576
G1 F1980 X160.125 Y149.234 E446.85693
G0 F9000 X160.881 Y149.184
G1 F1980 X163.533 Y146.533 E447.01283
G0 F9000 X164.284 Y146.488
G1 F1980 X161.644 Y149.128 E447.16805
G0 F9000 X162.406 Y149.073
G1 F1980 X165.036 Y146.443 E447.32268
G0 F9000 X165.762 Y146.424
G1 F1980 X163.169 Y149.018 E447.47517
G0 F9000 X163.947 Y148.947
G1 F1980 X166.469 Y146.424 E447.62348
G0 F9000 X166.853 Y146.748
G1 F1980 X164.726 Y148.874 E447.74851
G0 F9000 X165.506 Y148.802
G1 F1980 X166.853 Y147.455 E447.82771
G0 F9000 X167.091 Y147.924
G1 F1980 X166.286 Y148.730 E447.87507
G0 F9000 X167.076 Y148.646
G1 F1980 X167.798 Y147.924 E447.91752
G0 F9000 X167.855 Y148.575
G1 F1980 X168.533 Y148.249 E447.95574
G1 X169.240 Y148.249 E447.99390
G1 X169.947 Y148.249 E448.03205
G1 X170.654 Y148.249 E448.07020
G1 X171.362 Y148.249 E448.10841
G1 X172.069 Y148.249 E448.14662
G1 X172.776 Y148.249 E448.18483
G1 X173.483 Y148.249 E448.22304
G1 X174.190 Y148.249 E448.26126
G1 X174.897 Y148.249 E448.29941
G1 X175.604 Y148.249 E448.33756
G1 X176.311 Y148.249 E448.37571
G1 X177.018 Y148.249 E448.41387
G1 X177.726 Y148.249 E448.45207
G1 X178.433 Y148.249 E448.49029
G1 X179.140 Y148.249 E448.52850
G1 X179.847 Y148.249 E448.56671
G1 X180.809 Y147.994 E448.60494
G1 X180.583 Y148.575 E448.63086
G1 F2400 E448.03086
G1 Z1.940
G0 F9000 X139.600 Y146.424
G1 Z1.440
G1 F2400 E448.63086
G1 F1980 X138.146 Y147.878 E448.71635
G0 F9000 X138.100 Y147.923
G1 F1980 X137.411 Y148.258 E448.75572
G1 X136.714 Y148.248 E448.79391
G1 X136.007 Y148.248 E448.83207
G1 X135.300 Y148.248 E448.87028
G1 X134.593 Y148.248 E448.90849
G1 X133.886 Y148.248 E448.94670
G1 X133.179 Y148.248 E448.98491
G1 X132.471 Y148.248 E449.02312
G1 X131.764 Y148.248 E449.06127
G1 X131.057 Y148.248 E449.09943
G1 X130.350 Y148.248 E449.13758
G1 X129.643 Y148.248 E449.17573
G1 X128.936 Y148.248 E449.21395
G1 X128.229 Y148.248 E449.25216
G1 X127.522 Y148.248 E449.29037
G1 X126.815 Y148.248 E449.32858
G1 X126.107 Y148.248 E449.36679
G1 X125.400 Y148.248 E449.40494
G1 X124.693 Y148.248 E449.44309
G1 X124.015 Y148.574 E449.47437
G1 F2400 E448.87437
G1 Z1.940
G0 F9000 X138.146 Y147.171
G1 Z1.440
G1 F2400 E449.47437
G1 F1980 X138.893 Y146.424 E449.51829
G1 F2400 E448.91829
G1 Z1.940
G0 F9000 X156.250 Y153.752
;TYPE:SUPPORT
G1 Z1.440
G1 F2400 E449.51829
G1 F1980 X156.250 Y160.175 E449.78533
;LAYER:2
M106 S20
G1 F2400 E449.18533
G1 Z1.940
G0 F9000 X155.935 Y149.645 Z1.640
;TYPE:WALL-INNER
G1 Z1.640
G1 F2400 E449.78533
G1 F2220 X153.218 Y149.690 E449.89830
G1 X150.480 Y149.676 E450.01214
G1 X149.086 Y149.646 E450.07011
G1 X146.315 Y149.538 E450.18540
G1 X144.869 Y149.459 E450.24561
G1 X141.908 Y149.249 E450.36902
G1 X140.396 Y149.117 E450.43212
G1 X138.178 Y148.898 E450.52478
G1 X137.137 Y148.784 E450.56832
G1 X136.848 Y148.750 E450.58042
G1 X123.314 Y148.750 E451.14310
G1 X123.314 Y147.750 E451.18467
G1 X137.557 Y147.750 E451.77683
G1 X137.557 Y146.250 E451.83919
G1 X139.178 Y146.250 E451.90658
G1 X140.546 Y146.340 E451.96358
G1 X142.440 Y146.448 E452.04245
G1 X143.935 Y146.521 E452.10468
G1 X145.415 Y146.582 E452.16627
G1 X146.873 Y146.633 E452.22692
G1 X148.274 Y146.669 E452.28519
G1 X149.670 Y146.696 E452.34324
G1 X151.070 Y146.713 E452.40144
G1 X151.131 Y146.712 E452.40398
G1 X152.447 Y146.718 E452.45869
G1 X153.831 Y146.713 E452.51623
G1 X155.223 Y146.698 E452.57411
G1 X156.622 Y146.672 E452.63228
G1 X158.023 Y146.636 E452.69055
G1 X159.483 Y146.586 E452.75129
G1 X160.964 Y146.525 E452.81291
G1 X162.460 Y146.453 E452.87518
G1 X163.970 Y146.369 E452.93806
G1 X165.583 Y146.268 E453.00525
G1 X167.065 Y146.250 E453.06687
G1 X167.443 Y146.250 E453.08258
G1 X167.446 Y147.750 E453.14494
G1 X181.685 Y147.750 E453.73693
G1 X181.686 Y148.750 E453.77851
G1 X168.152 Y148.750 E454.34119
G1 X166.848 Y148.895 E454.39573
G1 X166.232 Y148.959 E454.42148
G1 X164.662 Y149.112 E454.48707
G1 X163.120 Y149.246 E454.55142
G1 X161.613 Y149.361 E454.61425
G1 X160.206 Y149.455 E454.67288
G1 X157.338 Y149.597 E454.79226
G1 X155.935 Y149.645 E454.85063
G0 F9000 X155.952 Y150.145
;TYPE:WALL-OUTER
G1 F2220 X153.223 Y150.190 E454.96410
G1 X150.469 Y150.176 E455.07860
G1 X149.080 Y150.146 E455.13636
G1 X146.288 Y150.037 E455.25253
G1 X144.842 Y149.958 E455.31273
G1 X141.874 Y149.748 E455.43644
G1 X140.356 Y149.615 E455.49979
G1 X138.124 Y149.394 E455.59304
G1 X137.083 Y149.281 E455.63657
G1 X136.819 Y149.250 E455.64763
G1 X122.814 Y149.250 E456.22989
G1 X122.814 Y147.250 E456.31304
G1 X137.057 Y147.250 E456.90519
G1 X137.056 Y145.750 E456.96755
G1 X139.196 Y145.750 E457.05653
G1 X140.577 Y145.841 E457.11407
G1 X142.467 Y145.949 E457.19277
G1 X143.958 Y146.022 E457.25483
G1 X145.434 Y146.083 E457.31625
G1 X146.888 Y146.133 E457.37674
G1 X148.285 Y146.169 E457.43484
G1 X149.678 Y146.196 E457.49276
G1 X151.069 Y146.213 E457.55060
G1 X151.125 Y146.212 E457.55293
G1 X152.447 Y146.218 E457.60789
G1 X153.828 Y146.213 E457.66530
G1 X155.216 Y146.198 E457.72301
G1 X156.611 Y146.172 E457.78102
G1 X158.008 Y146.136 E457.83912
G1 X159.464 Y146.087 E457.89969
G1 X160.941 Y146.026 E457.96115
G1 X162.434 Y145.954 E458.02329
G1 X163.941 Y145.870 E458.08604
G1 X165.563 Y145.768 E458.15361
G1 X167.059 Y145.750 E458.21581
G1 X167.943 Y145.750 E458.25256
G1 X167.944 Y147.250 E458.31493
G1 X182.185 Y147.250 E458.90700
G1 X182.186 Y149.250 E458.99015
G1 X168.181 Y149.250 E459.57241
G1 X167.922 Y149.281 E459.58325
G1 X166.903 Y149.392 E459.62587
G1 X166.283 Y149.456 E459.65178
G1 X164.703 Y149.610 E459.71778
G1 X163.155 Y149.745 E459.78239
G1 X161.638 Y149.861 E459.84564
G1 X161.623 Y149.861 E459.84626
G1 X160.204 Y149.957 E459.90539
G1 X160.193 Y149.956 E459.90585
G1 X157.352 Y150.097 E460.02411
G1 X155.952 Y150.145 E460.08235
G0 F9000 X156.177 Y149.460
;TYPE:SKIN
G1 F2220 X153.605 Y146.887 E460.23361
G0 F9000 X154.306 Y146.881
G1 F2220 X156.861 Y149.437 E460.38386
G0 F9000 X157.542 Y149.410
G1 F2220 X155.002 Y146.871 E460.53317
G0 F9000 X155.699 Y146.861
G1 F2220 X158.215 Y149.377 E460.68110
G0 F9000 X158.889 Y149.343
G1 F2220 X156.396 Y146.850 E460.82768
G0 F9000 X157.086 Y146.833
G1 F2220 X159.563 Y149.310 E460.97332
G0 F9000 X160.237 Y149.277
G1 F2220 X157.773 Y146.813 E461.11819
G0 F9000 X158.459 Y146.791
G1 F2220 X160.900 Y149.233 E461.26174
G0 F9000 X161.563 Y149.188
G1 F2220 X159.145 Y146.771 E461.40388
G0 F9000 X159.827 Y146.745
G1 F2220 X162.217 Y149.135 E461.54441
G0 F9000 X162.870 Y149.082
G1 F2220 X160.504 Y146.715 E461.68355
G0 F9000 X161.181 Y146.685
G1 F2220 X163.524 Y149.029 E461.82134
G0 F9000 X164.178 Y148.975
G1 F2220 X161.858 Y146.655 E461.95774
G0 F9000 X162.534 Y146.624
G1 F2220 X164.829 Y148.919 E462.09268
G0 F9000 X165.472 Y148.855
G1 F2220 X163.201 Y146.584 E462.22621
G0 F9000 X163.869 Y146.545
G1 F2220 X166.115 Y148.791 E462.35826
G0 F9000 X166.759 Y148.728
G1 F2220 X164.536 Y146.505 E462.48897
G0 F9000 X165.204 Y146.465
G1 F2220 X167.396 Y148.657 E462.61785
G0 F9000 X168.032 Y148.587
G1 F2220 X167.370 Y147.925 E462.65677
G0 F9000 X167.270 Y147.824
G1 F2220 X165.885 Y146.439 E462.73820
G0 F9000 X166.584 Y146.431
G1 F2220 X167.268 Y147.116 E462.77845
G0 F9000 X168.077 Y147.925
G1 F2220 X168.755 Y148.250 E462.81665
G1 X169.463 Y148.250 E462.85486
G1 X170.170 Y148.250 E462.89301
G1 X170.877 Y148.250 E462.93116
G1 X171.584 Y148.250 E462.96932
G1 X172.291 Y148.250 E463.00747
G1 X172.998 Y148.250 E463.04562
G1 X173.705 Y148.250 E463.08377
G1 X174.412 Y148.250 E463.12193
G1 X175.119 Y148.250 E463.16008
G1 X175.827 Y148.250 E463.19829
G1 X176.534 Y148.250 E463.23644
G1 X177.241 Y148.250 E463.27459
G1 X177.948 Y148.250 E463.31275
G1 X178.655 Y148.250 E463.35090
G1 X179.362 Y148.250 E463.38905
G1 X180.069 Y148.250 E463.42720
G1 X180.776 Y148.250 E463.46536
G1 X181.455 Y148.575 E463.49665
G1 F2400 E462.89665
G1 Z2.140
G0 F9000 X155.487 Y149.476
G1 Z1.640
G1 F2400 E463.49665
G1 F2220 X152.898 Y146.887 E463.64888
G0 F9000 X152.190 Y146.887
G1 F2220 X154.791 Y149.488 E463.80181
G0 F9000 X154.096 Y149.500
G1 F2220 X151.483 Y146.887 E463.95544
G0 F9000 X150.772 Y146.883
G1 F2220 X153.400 Y149.511 E464.10996
G0 F9000 X152.694 Y149.512
G1 F2220 X150.054 Y146.872 E464.26518
G0 F9000 X149.335 Y146.860
G1 F2220 X151.982 Y149.507 E464.42081
G0 F9000 X151.272 Y149.504
G1 F2220 X148.616 Y146.849 E464.57695
G0 F9000 X147.892 Y146.832
G1 F2220 X150.561 Y149.500 E464.73384
G0 F9000 X149.840 Y149.486
G1 F2220 X147.163 Y146.810 E464.89121
G0 F9000 X146.434 Y146.788
G1 F2220 X149.116 Y149.470 E465.04890
G0 F9000 X148.381 Y149.442
G1 F2220 X145.705 Y146.765 E465.20627
G0 F9000 X144.968 Y146.736
G1 F2220 X147.646 Y149.413 E465.36370
G0 F9000 X146.909 Y149.384
G1 F2220 X144.228 Y146.703 E465.52133
G0 F9000 X143.488 Y146.670
G1 F2220 X146.171 Y149.353 E465.67908
G0 F9000 X145.423 Y149.312
G1 F2220 X142.747 Y146.636 E465.83642
G0 F9000 X141.999 Y146.595
G1 F2220 X144.673 Y149.269 E465.99364
G0 F9000 X143.911 Y149.215
G1 F2220 X141.246 Y146.550 E466.15033
G0 F9000 X140.494 Y146.504
G1 F2220 X143.150 Y149.161 E466.30652
G0 F9000 X142.389 Y149.106
G1 F2220 X139.741 Y146.458 E466.46222
G0 F9000 X138.999 Y146.424
G1 F2220 X141.620 Y149.045 E466.61632
G0 F9000 X140.840 Y148.971
G1 F2220 X138.292 Y146.424 E466.76610
G0 F9000 X137.732 Y146.571
G1 F2220 X140.059 Y148.898 E466.90292
G0 F9000 X139.279 Y148.825
G1 F2220 X137.732 Y147.278 E466.99388
G0 F9000 X137.671 Y147.924
G1 F2220 X138.498 Y148.751 E467.04250
G0 F9000 X137.709 Y148.669
G1 F2220 X136.964 Y147.924 E467.08631
G0 F9000 X136.912 Y148.580
G1 F2220 X136.228 Y148.249 E467.12485
G1 X135.521 Y148.249 E467.16300
G1 X134.814 Y148.249 E467.20116
G1 X134.107 Y148.249 E467.23931
G1 X133.399 Y148.249 E467.27752
G1 X132.692 Y148.249 E467.31567
G1 X131.985 Y148.249 E467.35382
G1 X131.278 Y148.249 E467.39197
G1 X130.571 Y148.249 E467.43013
G1 X129.864 Y148.249 E467.46828
G1 X129.157 Y148.249 E467.50643
G1 X128.450 Y148.249 E467.54459
G1 X127.743 Y148.249 E467.58274
G1 X127.035 Y148.249 E467.62095
G1 X126.328 Y148.249 E467.65910
G1 X125.621 Y148.249 E467.69725
G1 X124.914 Y148.249 E467.73540
G1 X124.207 Y148.249 E467.77356
G1 X123.529 Y147.924 E467.80482
G1 F2400 E467.20482
G1 Z2.140
G0 F9000 X156.250 Y153.752
;TYPE:SUPPORT
G1 Z1.640
G1 F2400 E467.80482
G1 F2220 X156.250 Y160.175 E468.07185
;LAYER:3
M106 S30
G1 F2400 E467.47185
G1 Z2.140
G0 F9000 X155.921 Y149.696 Z1.840
;TYPE:WALL-INNER
G1 Z1.840
G1 F2400 E468.07185
G1 X153.230 Y149.741 E468.18375
G1 X150.501 Y149.727 E468.29721
G1 X149.108 Y149.697 E468.35514
G1 X146.363 Y149.591 E468.46935
G1 X144.916 Y149.512 E468.52959
G1 X141.978 Y149.303 E468.65205
G1 X140.480 Y149.173 E468.71456
G1 X138.280 Y148.955 E468.80648
G1 X137.240 Y148.841 E468.84997
G1 X136.461 Y148.750 E468.88258
G1 X122.990 Y148.750 E469.44264
G1 X122.989 Y147.750 E469.48422
G1 X137.156 Y147.750 E470.07321
G1 X137.155 Y146.250 E470.13557
G1 X138.719 Y146.250 E470.20060
G1 X139.485 Y146.303 E470.23252
G1 X140.607 Y146.376 E470.27927
G1 X142.484 Y146.483 E470.35743
G1 X143.970 Y146.556 E470.41929
G1 X145.440 Y146.617 E470.48045
G1 X146.888 Y146.667 E470.54069
G1 X148.280 Y146.704 E470.59858
G1 X149.667 Y146.731 E470.65626
G1 X151.050 Y146.747 E470.71376
G1 X152.426 Y146.752 E470.77097
G1 X153.801 Y146.748 E470.82814
G1 X155.184 Y146.733 E470.88564
G1 X156.575 Y146.707 E470.94348
G1 X157.966 Y146.671 E471.00133
G1 X159.417 Y146.622 E471.06169
G1 X160.888 Y146.562 E471.12290
G1 X162.375 Y146.490 E471.18479
G1 X163.877 Y146.407 E471.24733
G1 X165.514 Y146.304 E471.31553
G1 X166.282 Y146.250 E471.34753
G1 X167.845 Y146.250 E471.41252
G1 X167.846 Y147.750 E471.47488
G1 X182.009 Y147.750 E472.06371
G1 X182.009 Y148.750 E472.10528
G1 X168.538 Y148.750 E472.66534
G1 X167.765 Y148.840 E472.69770
G1 X166.761 Y148.952 E472.73970
G1 X166.145 Y149.015 E472.76544
G1 X164.583 Y149.167 E472.83069
G1 X163.055 Y149.300 E472.89446
G1 X161.532 Y149.416 E472.95796
G1 X160.140 Y149.509 E473.01596
G1 X160.115 Y149.509 E473.01700
G1 X157.323 Y149.648 E473.13322
G1 X155.921 Y149.696 E473.19154
G0 F9000 X155.938 Y150.196
;TYPE:WALL-OUTER
G1 F2400 X153.235 Y150.241 E473.30394
G1 X150.490 Y150.227 E473.41806
G1 X149.102 Y150.197 E473.47578
G1 X146.336 Y150.090 E473.59086
G1 X144.889 Y150.011 E473.65111
G1 X141.947 Y149.802 E473.77374
G1 X140.440 Y149.671 E473.83663
G1 X138.226 Y149.451 E473.92913
G1 X137.186 Y149.338 E473.97262
G1 X136.432 Y149.250 E474.00418
G1 X122.490 Y149.250 E474.58382
G1 X122.489 Y147.250 E474.66697
G1 X136.655 Y147.250 E475.25592
G1 X136.654 Y145.750 E475.31829
G1 X138.739 Y145.750 E475.40497
G1 X139.518 Y145.804 E475.43744
G1 X140.638 Y145.877 E475.48410
G1 X142.511 Y145.984 E475.56210
G1 X143.993 Y146.057 E475.62379
G1 X145.459 Y146.118 E475.68479
G1 X146.903 Y146.167 E475.74486
G1 X148.291 Y146.204 E475.80258
G1 X149.675 Y146.231 E475.86013
G1 X151.054 Y146.247 E475.91747
G1 X152.426 Y146.252 E475.97451
G1 X153.798 Y146.248 E476.03155
G1 X155.177 Y146.233 E476.08889
G1 X156.564 Y146.207 E476.14656
G1 X157.951 Y146.171 E476.20425
G1 X159.398 Y146.123 E476.26444
G1 X160.865 Y146.063 E476.32548
G1 X162.349 Y145.991 E476.38725
G1 X163.848 Y145.908 E476.44967
G1 X165.481 Y145.805 E476.51770
G1 X166.261 Y145.750 E476.55021
G1 X168.345 Y145.750 E476.63685
G1 X168.346 Y147.250 E476.69921
G1 X182.509 Y147.250 E477.28804
G1 X182.510 Y149.250 E477.37119
G1 X168.567 Y149.250 E477.95087
G1 X167.823 Y149.337 E477.98202
G1 X166.813 Y149.449 E478.02426
G1 X166.197 Y149.512 E478.05001
G1 X164.624 Y149.665 E478.11571
G1 X163.090 Y149.799 E478.17973
G1 X161.570 Y149.915 E478.24311
G1 X160.158 Y150.009 E478.30195
G1 X160.128 Y150.009 E478.30319
G1 X157.337 Y150.148 E478.41937
G1 X155.938 Y150.196 E478.47757
G0 F9000 X155.589 Y149.526
;TYPE:SKIN
G1 F2400 X158.285 Y146.830 E478.63608
G0 F9000 X159.014 Y146.809
G1 F2400 X156.315 Y149.507 E478.79475
G0 F9000 X157.048 Y149.482
G1 F2400 X159.748 Y146.782 E478.95350
G0 F9000 X160.488 Y146.749
G1 F2400 X157.788 Y149.449 E479.11225
G0 F9000 X158.531 Y149.413
G1 F2400 X161.228 Y146.716 E479.27082
G0 F9000 X161.969 Y146.682
G1 F2400 X159.275 Y149.376 E479.42922
G1 F2400 E478.82922
G1 Z2.340
G0 F9000 X157.556 Y146.852
G1 Z1.840
G1 F2400 E479.42922
G1 X154.870 Y149.538 E479.58714
G0 F9000 X154.151 Y149.550
G1 F2400 X156.827 Y146.874 E479.74448
G0 F9000 X156.106 Y146.888
G1 F2400 X153.432 Y149.562 E479.90170
G0 F9000 X152.724 Y149.563
G1 F2400 X155.388 Y146.899 E480.05833
G0 F9000 X154.671 Y146.909
G1 F2400 X152.020 Y149.560 E480.21420
G0 F9000 X151.317 Y149.556
G1 F2400 X153.954 Y146.919 E480.36925
G0 F9000 X153.244 Y146.921
G1 F2400 X150.613 Y149.553 E480.52397
G0 F9000 X149.920 Y149.539
G1 F2400 X152.537 Y146.921 E480.67787
G0 F9000 X151.830 Y146.921
G1 F2400 X149.228 Y149.524 E480.83089
G0 F9000 X148.545 Y149.500
G1 F2400 X151.123 Y146.921 E480.98249
G0 F9000 X150.426 Y146.912
G1 F2400 X147.864 Y149.473 E481.13310
G0 F9000 X147.183 Y149.447
G1 F2400 X149.730 Y146.900 E481.28285
G0 F9000 X149.034 Y146.890
G1 F2400 X146.502 Y149.421 E481.43170
G0 F9000 X145.830 Y149.386
G1 F2400 X148.337 Y146.879 E481.57910
G0 F9000 X147.650 Y146.859
G1 F2400 X145.159 Y149.350 E481.72556
G0 F9000 X144.495 Y149.307
G1 F2400 X146.965 Y146.837 E481.87079
G0 F9000 X146.279 Y146.816
G1 F2400 X143.835 Y149.260 E482.01448
G0 F9000 X143.174 Y149.213
G1 F2400 X145.593 Y146.795 E482.15668
G0 F9000 X144.914 Y146.767
G1 F2400 X142.515 Y149.166 E482.29773
G0 F9000 X141.858 Y149.116
G1 F2400 X144.237 Y146.736 E482.43764
G0 F9000 X143.561 Y146.706
G1 F2400 X141.212 Y149.055 E482.57575
G0 F9000 X140.565 Y148.994
G1 F2400 X142.884 Y146.675 E482.71210
G0 F9000 X142.212 Y146.640
G1 F2400 X139.919 Y148.933 E482.84692
G0 F9000 X139.273 Y148.872
G1 F2400 X141.546 Y146.599 E482.98056
G0 F9000 X140.881 Y146.557
G1 F2400 X138.627 Y148.811 E483.11309
G0 F9000 X137.985 Y148.746
G1 F2400 X140.215 Y146.516 E483.24421
G0 F9000 X139.549 Y146.475
G1 F2400 X137.348 Y148.676 E483.37362
G0 F9000 X136.714 Y148.602
G1 F2400 X138.883 Y146.434 E483.50112
G0 F9000 X138.186 Y146.424
G1 F2400 X137.330 Y147.279 E483.55142
G0 F9000 X137.330 Y146.572
G1 F2400 X137.479 Y146.424 E483.56015
G1 F2400 E482.96015
G1 Z2.340
G0 F9000 X136.686 Y147.923
G1 Z1.840
G1 F2400 E483.56015
G1 X136.007 Y148.248 E483.59839
G1 X135.300 Y148.248 E483.63660
G1 X134.593 Y148.248 E483.67481
G1 X133.886 Y148.248 E483.71303
G1 X133.179 Y148.248 E483.75124
G1 X132.471 Y148.248 E483.78944
G1 X131.764 Y148.248 E483.82760
G1 X131.057 Y148.248 E483.86575
G1 X130.350 Y148.248 E483.90390
G1 X129.643 Y148.248 E483.94206
G1 X128.936 Y148.248 E483.98027
G1 X128.229 Y148.248 E484.01848
G1 X127.522 Y148.248 E484.05669
G1 X126.815 Y148.248 E484.09490
G1 X126.107 Y148.248 E484.13311
G1 X125.400 Y148.248 E484.17126
G1 X124.693 Y148.248 E484.20942
G1 X123.986 Y148.248 E484.24757
G1 X123.236 Y148.292 E484.28574
G1 X123.251 Y147.923 E484.30109
G1 F2400 E483.70109
G1 Z2.340
G0 F9000 X160.019 Y149.339
G1 Z1.840
G1 F2400 E484.30109
G1 X162.714 Y146.644 E484.45955
G0 F9000 X163.466 Y146.600
G1 F2400 X160.774 Y149.292 E484.61783
G0 F9000 X161.532 Y149.241
G1 F2400 X164.217 Y146.555 E484.77572
G0 F9000 X164.969 Y146.511
G1 F2400 X162.302 Y149.178 E484.93253
G0 F9000 X163.072 Y149.115
G1 F2400 X165.723 Y146.464 E485.08840
G0 F9000 X166.469 Y146.424
G1 F2400 X163.842 Y149.052 E485.24289
G0 F9000 X164.613 Y148.988
G1 F2400 X167.177 Y146.424 E485.39364
G0 F9000 X167.669 Y146.639
G1 F2400 X165.397 Y148.911 E485.52723
G0 F9000 X166.182 Y148.833
G1 F2400 X167.669 Y147.346 E485.61466
G0 F9000 X167.798 Y147.924
G1 F2400 X166.970 Y148.752 E485.66334
G0 F9000 X167.768 Y148.661
G1 F2400 X168.505 Y147.924 E485.70667
G0 F9000 X168.562 Y148.575
G1 F2400 X169.240 Y148.249 E485.74489
G1 X169.947 Y148.249 E485.78305
G1 X170.654 Y148.249 E485.82120
G1 X171.362 Y148.249 E485.85941
G1 X172.069 Y148.249 E485.89762
G1 X172.776 Y148.249 E485.93583
G1 X173.483 Y148.249 E485.97404
G1 X174.190 Y148.249 E486.01225
G1 X174.897 Y148.249 E486.05041
G1 X175.604 Y148.249 E486.08856
G1 X176.311 Y148.249 E486.12671
G1 X177.018 Y148.249 E486.16487
G1 X177.726 Y148.249 E486.20307
G1 X178.433 Y148.249 E486.24128
G1 X179.140 Y148.249 E486.27950
G1 X179.847 Y148.249 E486.31771
G1 X180.554 Y148.249 E486.35592
G1 X181.533 Y147.978 E486.39410
G1 X181.290 Y148.575 E486.42090
G1 F2400 E485.82090
G1 Z2.340
G0 F9000 X156.250 Y153.752
;TYPE:SUPPORT
G1 Z1.840
G1 F2400 E486.42090
G1 X156.250 Y160.175 E486.68793
;LAYER:4
M106 S40
G1 F2400 E486.08793
G1 Z2.340
G0 F9000 X155.908 Y149.747 Z2.040
;TYPE:WALL-INNER
G1 Z2.040
G1 F2400 E486.68793
G1 F2700 X153.254 Y149.792 E486.79829
G1 X153.217 Y149.791 E486.79983
G1 X153.133 Y149.792 E486.80332
G1 X150.523 Y149.779 E486.91183
G1 X149.132 Y149.748 E486.96968
G1 X146.411 Y149.643 E487.08289
G1 X144.964 Y149.564 E487.14314
G1 X142.052 Y149.357 E487.26451
G1 X140.564 Y149.228 E487.32661
G1 X138.381 Y149.012 E487.41781
G1 X137.342 Y148.899 E487.46126
G1 X136.075 Y148.750 E487.51430
G1 X122.723 Y148.750 E488.06941
G1 X122.722 Y147.750 E488.11098
G1 X136.782 Y147.750 E488.69553
G1 X136.781 Y146.250 E488.75789
G1 X138.265 Y146.250 E488.81959
G1 X139.568 Y146.340 E488.87389
G1 X140.668 Y146.412 E488.91972
G1 X142.529 Y146.518 E488.99722
G1 X144.005 Y146.591 E489.05866
G1 X145.463 Y146.651 E489.11933
G1 X146.903 Y146.702 E489.17923
G1 X148.286 Y146.738 E489.23675
G1 X149.664 Y146.765 E489.29405
G1 X151.038 Y146.781 E489.35118
G1 X152.404 Y146.787 E489.40797
G1 X153.771 Y146.783 E489.46481
G1 X155.145 Y146.768 E489.52194
G1 X156.527 Y146.742 E489.57940
G1 X157.910 Y146.707 E489.63692
G1 X159.352 Y146.658 E489.69691
G1 X160.812 Y146.599 E489.75765
G1 X162.291 Y146.528 E489.81922
G1 X163.784 Y146.445 E489.88138
G1 X165.430 Y146.341 E489.94995
G1 X166.734 Y146.250 E490.00430
G1 X168.218 Y146.250 E490.06600
G1 X168.219 Y147.750 E490.12836
G1 X182.277 Y147.750 E490.71282
G1 X182.278 Y148.750 E490.75440
G1 X168.925 Y148.750 E491.30955
G1 X167.667 Y148.897 E491.36221
G1 X166.670 Y149.007 E491.40391
G1 X166.059 Y149.070 E491.42945
G1 X164.504 Y149.222 E491.49440
G1 X162.989 Y149.354 E491.55763
G1 X161.477 Y149.469 E491.62067
G1 X160.131 Y149.559 E491.67676
G1 X157.308 Y149.699 E491.79427
G1 X155.908 Y149.747 E491.85251
G0 F9000 X155.925 Y150.247
;TYPE:WALL-OUTER
G1 F2700 X153.252 Y150.292 E491.96365
G1 X153.214 Y150.291 E491.96523
G1 X153.137 Y150.292 E491.96844
G1 X150.512 Y150.279 E492.07757
G1 X149.125 Y150.248 E492.13525
G1 X146.384 Y150.142 E492.24929
G1 X144.937 Y150.063 E492.30954
G1 X142.021 Y149.856 E492.43108
G1 X140.524 Y149.726 E492.49355
G1 X138.328 Y149.508 E492.58530
G1 X137.289 Y149.396 E492.62875
G1 X136.046 Y149.250 E492.68078
G1 X122.223 Y149.250 E493.25548
G1 X122.222 Y147.250 E493.33863
G1 X136.282 Y147.250 E493.92317
G1 X136.281 Y145.750 E493.98554
G1 X138.285 Y145.750 E494.06885
G1 X139.601 Y145.841 E494.12370
G1 X140.699 Y145.913 E494.16944
G1 X142.556 Y146.019 E494.24677
G1 X144.028 Y146.092 E494.30805
G1 X145.482 Y146.152 E494.36855
G1 X146.918 Y146.202 E494.42829
G1 X148.297 Y146.238 E494.48564
G1 X149.672 Y146.265 E494.54282
G1 X151.042 Y146.281 E494.59978
G1 X152.405 Y146.287 E494.65645
G1 X153.768 Y146.283 E494.71311
G1 X155.138 Y146.268 E494.77007
G1 X156.516 Y146.242 E494.82737
G1 X157.895 Y146.207 E494.88473
G1 X159.333 Y146.159 E494.94454
G1 X160.790 Y146.100 E495.00517
G1 X162.265 Y146.029 E495.06656
G1 X163.755 Y145.946 E495.12861
G1 X165.397 Y145.842 E495.19701
G1 X166.714 Y145.750 E495.25190
G1 X168.718 Y145.750 E495.33521
G1 X168.719 Y147.250 E495.39758
G1 X182.777 Y147.250 E495.98204
G1 X182.778 Y149.250 E496.06519
G1 X168.954 Y149.250 E496.63993
G1 X167.725 Y149.394 E496.69137
G1 X166.721 Y149.505 E496.73337
G1 X166.110 Y149.567 E496.75890
G1 X164.545 Y149.720 E496.82427
G1 X163.024 Y149.853 E496.88775
G1 X161.515 Y149.968 E496.95067
G1 X160.125 Y150.060 E497.00859
G1 X160.112 Y150.059 E497.00913
G1 X157.321 Y150.199 E497.12531
G1 X155.925 Y150.247 E497.18338
G1 F2400 E496.58338
G1 Z2.540
G0 F9000 X158.106 Y149.484
;TYPE:FILL
G1 Z2.040
G1 F2400 E497.18338
G1 F2700 X160.823 Y146.767 E497.34313
G1 F2400 E496.74313
G1 Z2.540
G0 F9000 X164.263 Y146.586
G1 Z2.040
G1 F2400 E497.34313
G1 F2700 X166.522 Y148.845 E497.47595
G0 F9000 X165.738 Y148.923
G1 F2700 X168.042 Y146.620 E497.61139
G1 F2400 E497.01139
G1 Z2.540
G0 F9000 X172.674 Y147.925
G1 Z2.040
G1 F2400 E497.61139
G1 F2700 X173.240 Y148.574 E497.64948
G1 X173.808 Y147.924 E497.68537
G1 F2400 E497.08537
G1 Z2.540
G0 F9000 X179.745 Y147.925
G1 Z2.040
G1 F2400 E497.68537
G1 F2700 X180.311 Y148.574 E497.72347
G1 X180.880 Y147.924 E497.75938
G1 F2400 E497.15938
G1 Z2.540
G0 F9000 X159.997 Y149.390
G1 Z2.040
G1 F2400 E497.75938
G1 F2700 X157.495 Y146.888 E497.90649
G1 F2400 E497.30649
G1 Z2.540
G0 F9000 X153.563 Y146.957
G1 Z2.040
G1 F2400 E497.90649
G1 F2700 X150.914 Y149.606 E498.06224
G1 F2400 E497.46224
G1 Z2.540
G0 F9000 X153.152 Y149.616
G1 Z2.040
G1 F2400 E498.06224
G1 F2700 X150.482 Y146.947 E498.21920
G1 F2400 E497.61920
G1 Z2.540
G0 F9000 X146.588 Y146.860
G1 Z2.040
G1 F2400 E498.21920
G1 F2700 X144.120 Y149.328 E498.36431
G1 F2400 E497.76431
G1 Z2.540
G0 F9000 X145.902 Y149.437
G1 Z2.040
G1 F2400 E498.36431
G1 F2700 X143.187 Y146.723 E498.52391
G1 F2400 E497.92391
G1 Z2.540
G0 F9000 X139.854 Y146.523
G1 Z2.040
G1 F2400 E498.52391
G1 F2700 X137.624 Y148.753 E498.65502
G0 F9000 X138.209 Y148.816
G1 F2700 X136.955 Y147.562 E498.72875
G1 F2400 E498.12875
G1 Z2.540
G0 F9000 X131.383 Y147.923
G1 Z2.040
G1 F2400 E498.72875
G1 F2700 X130.814 Y148.573 E498.76704
G1 X130.246 Y147.924 E498.80290
G1 F2400 E498.20290
G1 Z2.540
G0 F9000 X124.312 Y147.923
G1 Z2.040
G1 F2400 E498.80290
G1 F2700 X123.743 Y148.573 E498.84118
G1 X123.036 Y147.961 E498.87928
G1 X123.500 Y148.249 E498.91306
G1 X124.383 Y148.424 E498.95124
G1 X124.661 Y148.349 E498.96884
G1 X124.236 Y147.924 E498.99382
G1 F2400 E498.39382
G1 Z2.540
G0 F9000 X136.956 Y147.209
;TYPE:SKIN
G1 Z2.040
G1 F2400 E498.99382
G1 F2700 X137.571 Y147.824 E499.02998
G0 F9000 X138.278 Y147.824
G1 F2700 X136.955 Y146.501 E499.10777
G0 F9000 X137.585 Y146.424
G1 F2700 X138.460 Y147.299 E499.15922
G0 F9000 X138.460 Y146.592
G1 F2700 X138.294 Y146.426 E499.16898
G1 F2400 E498.56898
G1 Z2.540
G0 F9000 X166.539 Y147.093
G1 Z2.040
G1 F2400 E499.16898
G1 F2700 X167.270 Y147.824 E499.21196
G0 F9000 X167.977 Y147.824
G1 F2700 X166.587 Y146.434 E499.29368
G0 F9000 X167.284 Y146.424
G1 F2700 X168.043 Y147.183 E499.33831
G1 F2400 E498.73831
G1 Z2.540
G0 F9000 X179.817 Y148.351
G1 Z2.040
G1 F2400 E499.33831
G1 F2700 X180.244 Y148.425 E499.35143
G1 X180.776 Y148.250 E499.36903
G1 X181.778 Y148.544 E499.40723
G1 X181.512 Y147.925 E499.43525
G1 F2400 E498.83525
G1 Z2.540
G0 F9000 X156.250 Y153.752
;TYPE:SUPPORT
G1 Z2.040
G1 F2400 E499.43525
G1 F2700 X156.250 Y160.175 E499.70228
;LAYER:5
M106 S51
G1 F2400 E499.10228
G1 Z2.540
G0 F9000 X155.894 Y149.798 Z2.240
;TYPE:WALL-INNER
G1 Z2.240
G1 F2400 E499.70228
G1 F2700 X153.250 Y149.842 E499.81222
G1 X153.125 Y149.843 E499.81742
G1 X150.544 Y149.830 E499.92473
G1 X149.154 Y149.799 E499.98253
G1 X146.459 Y149.695 E500.09466
G1 X145.011 Y149.616 E500.15495
G1 X142.128 Y149.412 E500.27511
G1 X140.647 Y149.283 E500.33692
G1 X138.483 Y149.069 E500.42732
G1 X137.445 Y148.956 E500.47073
G1 X135.688 Y148.750 E500.54428
G1 X122.497 Y148.750 E501.09270
G1 X122.497 Y147.750 E501.13427
G1 X136.409 Y147.750 E501.71267
G1 X136.409 Y146.250 E501.77503
G1 X137.832 Y146.250 E501.83419
G1 X139.651 Y146.379 E501.91001
G1 X140.731 Y146.448 E501.95500
G1 X142.573 Y146.554 E502.03171
G1 X144.040 Y146.626 E502.09277
G1 X145.489 Y146.686 E502.15307
G1 X146.918 Y146.736 E502.21251
G1 X148.291 Y146.773 E502.26962
G1 X149.661 Y146.800 E502.32659
G1 X151.026 Y146.816 E502.38334
G1 X152.383 Y146.822 E502.43976
G1 X153.741 Y146.818 E502.49622
G1 X155.107 Y146.803 E502.55301
G1 X156.478 Y146.778 E502.61002
G1 X157.854 Y146.743 E502.66725
G1 X159.286 Y146.695 E502.72682
G1 X160.737 Y146.636 E502.78719
G1 X162.206 Y146.565 E502.84834
G1 X163.690 Y146.483 E502.91013
G1 X165.349 Y146.379 E502.97924
G1 X166.936 Y146.268 E503.04538
G1 X167.920 Y146.250 E503.08630
G1 X168.591 Y146.250 E503.11419
G1 X168.593 Y147.750 E503.17656
G1 X182.504 Y147.750 E503.75491
G1 X182.505 Y148.750 E503.79648
G1 X169.311 Y148.750 E504.34503
G1 X167.574 Y148.953 E504.41773
G1 X166.610 Y149.059 E504.45805
G1 X165.970 Y149.126 E504.48481
G1 X164.455 Y149.274 E504.54809
G1 X162.924 Y149.407 E504.61198
G1 X161.422 Y149.522 E504.67461
G1 X160.038 Y149.614 E504.73228
G1 X157.293 Y149.750 E504.84654
G1 X155.894 Y149.798 E504.90474
G0 F9000 X155.911 Y150.298
;TYPE:WALL-OUTER
G1 F2700 X153.258 Y150.342 E505.01506
G1 X153.126 Y150.343 E505.02054
G1 X150.533 Y150.330 E505.12835
G1 X149.147 Y150.299 E505.18599
G1 X146.432 Y150.194 E505.29895
G1 X144.984 Y150.115 E505.35924
G1 X142.094 Y149.911 E505.47969
G1 X140.607 Y149.781 E505.54175
G1 X138.430 Y149.565 E505.63270
G1 X137.392 Y149.453 E505.67611
G1 X135.659 Y149.250 E505.74865
G1 X121.997 Y149.250 E506.31665
G1 X121.996 Y147.250 E506.39980
G1 X135.909 Y147.250 E506.97824
G1 X135.908 Y145.750 E507.04060
G1 X137.853 Y145.750 E507.12146
G1 X139.684 Y145.880 E507.19778
G1 X140.761 Y145.949 E507.24265
G1 X142.600 Y146.055 E507.31923
G1 X144.063 Y146.127 E507.38013
G1 X145.508 Y146.187 E507.44026
G1 X146.933 Y146.236 E507.49954
G1 X148.303 Y146.273 E507.55651
G1 X149.669 Y146.300 E507.61332
G1 X151.030 Y146.316 E507.66990
G1 X152.384 Y146.322 E507.72620
G1 X153.738 Y146.318 E507.78249
G1 X155.100 Y146.303 E507.83912
G1 X156.467 Y146.278 E507.89596
G1 X157.839 Y146.243 E507.95302
G1 X159.267 Y146.196 E508.01242
G1 X160.715 Y146.137 E508.07267
G1 X162.180 Y146.066 E508.13365
G1 X163.661 Y145.984 E508.19532
G1 X165.316 Y145.880 E508.26426
G1 X166.913 Y145.768 E508.33082
G1 X167.911 Y145.750 E508.37232
G1 X169.091 Y145.750 E508.42138
G1 X169.092 Y147.250 E508.48374
G1 X183.004 Y147.250 E509.06214
G1 X183.005 Y149.250 E509.14529
G1 X169.340 Y149.250 E509.71341
G1 X167.629 Y149.451 E509.78503
G1 X166.638 Y149.559 E509.82648
G1 X166.023 Y149.623 E509.85219
G1 X164.475 Y149.774 E509.91685
G1 X164.447 Y149.775 E509.91802
G1 X162.959 Y149.906 E509.98012
G1 X161.460 Y150.021 E510.04262
G1 X160.063 Y150.114 E510.10083
G1 X157.307 Y150.250 E510.21555
G1 X155.911 Y150.298 E510.27363
G1 F2400 E509.67363
G1 Z2.740
G0 F9000 X158.054 Y149.536
;TYPE:FILL
G1 Z2.240
G1 F2400 E510.27363
G1 F2700 X160.782 Y146.808 E510.43402
G1 F2400 E509.83402
G1 Z2.740
G0 F9000 X160.045 Y149.438
G1 Z2.240
G1 F2400 E510.43402
G1 F2700 X157.532 Y146.925 E510.58178
G1 F2400 E509.98178
G1 Z2.740
G0 F9000 X153.531 Y146.988
G1 Z2.240
G1 F2400 E510.58178
G1 F2700 X150.863 Y149.657 E510.73867
G1 F2400 E510.13867
G1 Z2.740
G0 F9000 X153.202 Y149.666
G1 Z2.240
G1 F2400 E510.73867
G1 F2700 X150.517 Y146.982 E510.89651
G1 F2400 E510.29651
G1 Z2.740
G0 F9000 X146.552 Y146.896
G1 Z2.240
G1 F2400 E510.89651
G1 F2700 X144.074 Y149.374 E511.04221
G1 F2400 E510.44221
G1 Z2.740
G0 F9000 X145.955 Y149.490
G1 Z2.240
G1 F2400 E511.04221
G1 F2700 X143.221 Y146.757 E511.20293
G1 F2400 E510.60293
G1 Z2.740
G0 F9000 X139.818 Y146.559
G1 Z2.240
G1 F2400 E511.20293
G1 F2700 X137.583 Y148.794 E511.33434
G0 F9000 X138.261 Y148.867
G1 F2700 X136.584 Y147.190 E511.43294
G1 F2400 E510.83294
G1 Z2.740
G0 F9000 X131.383 Y147.923
G1 Z2.240
G1 F2400 E511.43294
G1 F2700 X130.814 Y148.574 E511.47119
G1 X130.246 Y147.924 E511.50707
G1 F2400 E510.90707
G1 Z2.740
G0 F9000 X124.312 Y147.923
G1 Z2.240
G1 F2400 E511.50707
G1 F2700 X123.743 Y148.574 E511.54532
G1 X123.175 Y147.924 E511.58121
G1 F2400 E510.98121
G1 Z2.740
G0 F9000 X164.296 Y146.618
G1 Z2.240
G1 F2400 E511.58121
G1 F2700 X166.559 Y148.881 E511.71427
G0 F9000 X165.691 Y148.971
G1 F2700 X168.237 Y146.424 E511.86399
G1 F2400 E511.26399
G1 Z2.740
G0 F9000 X172.674 Y147.925
G1 Z2.240
G1 F2400 E511.86399
G1 F2700 X173.240 Y148.575 E511.90219
G1 X173.808 Y147.924 E511.93811
G1 F2400 E511.33811
G1 Z2.740
G0 F9000 X179.745 Y147.925
G1 Z2.240
G1 F2400 E511.93811
G1 F2700 X180.311 Y148.575 E511.97631
G1 X180.956 Y148.025 E512.01458
G1 X180.475 Y148.328 E512.04095
G1 X179.686 Y148.410 E512.06991
G1 X179.168 Y148.575 E512.09251
G1 F2400 E511.49251
G1 Z2.740
G0 F9000 X168.415 Y147.307
;TYPE:SKIN
G1 Z2.240
G1 F2400 E512.09251
G1 F2700 X167.897 Y147.825 E512.12297
G0 F9000 X167.190 Y147.825
G1 F2700 X168.415 Y146.600 E512.19499
G0 F9000 X167.884 Y146.424
G1 F2700 X166.954 Y147.354 E512.24967
G0 F9000 X166.954 Y146.647
G1 F2700 X167.164 Y146.437 E512.26202
G1 F2400 E511.66202
G1 Z2.740
G0 F9000 X181.290 Y148.575
G1 Z2.240
G1 F2400 E512.26202
G1 F2700 X182.134 Y148.084 E512.30018
G1 X181.997 Y148.575 E512.32137
G1 F2400 E511.72137
G1 Z2.740
G0 F9000 X138.045 Y147.271
G1 Z2.240
G1 F2400 E512.32137
G1 F2700 X137.493 Y147.824 E512.35386
G0 F9000 X136.786 Y147.824
G1 F2700 X138.044 Y146.565 E512.42785
G0 F9000 X137.479 Y146.424
G1 F2700 X136.584 Y147.319 E512.48048
G0 F9000 X136.584 Y146.612
G1 F2700 X136.772 Y146.424 E512.49153
G1 F2400 E511.89153
G1 Z2.740
G0 F9000 X125.692 Y148.311
G1 Z2.240
G1 F2400 E512.49153
G1 F2700 X125.288 Y148.361 E512.50693
G1 X124.619 Y148.323 E512.53195
G1 X123.910 Y148.324 E512.56137
G1 X122.989 Y148.538 E512.59061
G1 X123.251 Y147.923 E512.61841
G1 F2400 E512.01841
G1 Z2.740
G0 F9000 X156.250 Y153.752
;TYPE:SUPPORT
G1 Z2.240
G1 F2400 E512.61841
G1 F2700 X156.250 Y160.175 E512.88544
;LAYER:6
M106 S63
G1 F2400 E512.28544
G1 Z2.740
G0 F9000 X155.881 Y149.849 Z2.440
;TYPE:WALL-INNER
G1 Z2.440
G1 F2400 E512.88544
G1 F2700 X153.261 Y149.893 E512.99439
G1 X153.113 Y149.894 E513.00054
G1 X150.565 Y149.881 E513.10647
G1 X149.175 Y149.851 E513.16428
G1 X146.506 Y149.747 E513.27532
G1 X145.058 Y149.669 E513.33561
G1 X142.201 Y149.466 E513.45469
G1 X140.731 Y149.338 E513.51604
G1 X138.586 Y149.127 E513.60565
G1 X137.549 Y149.013 E513.64902
G1 X135.847 Y148.814 E513.72026
G1 X135.343 Y148.750 E513.74139
G1 X122.301 Y148.750 E514.28361
G1 X122.300 Y147.750 E514.32519
G1 X136.036 Y147.750 E514.89626
G1 X136.036 Y146.250 E514.95862
G1 X137.420 Y146.250 E515.01616
G1 X138.130 Y146.304 E515.04577
G1 X139.734 Y146.416 E515.11262
G1 X140.792 Y146.484 E515.15669
G1 X142.618 Y146.589 E515.23274
G1 X144.075 Y146.661 E515.29339
G1 X145.513 Y146.721 E515.35322
G1 X146.933 Y146.771 E515.41230
G1 X148.298 Y146.807 E515.46907
G1 X149.658 Y146.834 E515.52562
G1 X151.014 Y146.850 E515.58200
G1 X152.362 Y146.856 E515.63804
G1 X153.711 Y146.852 E515.69413
G1 X155.068 Y146.838 E515.75055
G1 X156.430 Y146.813 E515.80718
G1 X157.798 Y146.779 E515.86408
G1 X159.220 Y146.731 E515.92323
G1 X160.662 Y146.672 E515.98323
G1 X162.122 Y146.602 E516.04400
G1 X163.597 Y146.521 E516.10542
G1 X165.265 Y146.416 E516.17490
G1 X166.869 Y146.305 E516.24175
G1 X167.580 Y146.250 E516.27139
G1 X168.964 Y146.250 E516.32893
G1 X168.964 Y146.925 E516.35700
G1 X168.974 Y147.750 E516.39130
G1 X182.697 Y147.750 E516.96184
G1 X182.700 Y148.750 E517.00341
G1 X169.656 Y148.750 E517.54572
G1 X169.158 Y148.813 E517.56659
G1 X167.475 Y149.010 E517.63704
G1 X166.518 Y149.115 E517.67706
G1 X165.883 Y149.181 E517.70360
G1 X164.347 Y149.331 E517.76777
G1 X162.858 Y149.461 E517.82991
G1 X161.383 Y149.574 E517.89141
G1 X159.996 Y149.666 E517.94920
G1 X157.278 Y149.800 E518.06234
G1 X155.881 Y149.849 E518.12046
G0 F9000 X155.898 Y150.349
;TYPE:WALL-OUTER
G1 F2700 X153.270 Y150.393 E518.22973
G1 X153.113 Y150.394 E518.23626
G1 X150.554 Y150.381 E518.34265
G1 X149.169 Y150.351 E518.40025
G1 X146.479 Y150.246 E518.51217
G1 X145.031 Y150.168 E518.57246
G1 X142.167 Y149.965 E518.69183
G1 X140.691 Y149.836 E518.75343
G1 X138.532 Y149.623 E518.84362
G1 X137.495 Y149.510 E518.88699
G1 X135.792 Y149.311 E518.95828
G1 X135.312 Y149.250 E518.97839
G1 X121.801 Y149.250 E519.54012
G1 X121.800 Y147.250 E519.62327
G1 X135.536 Y147.250 E520.19434
G1 X135.536 Y145.750 E520.25671
G1 X137.445 Y145.750 E520.33607
G1 X138.167 Y145.805 E520.36618
G1 X139.767 Y145.917 E520.43286
G1 X140.822 Y145.985 E520.47681
G1 X142.645 Y146.090 E520.55273
G1 X144.098 Y146.162 E520.61321
G1 X145.532 Y146.222 E520.67288
G1 X146.948 Y146.271 E520.73179
G1 X148.309 Y146.307 E520.78839
G1 X149.666 Y146.334 E520.84482
G1 X151.018 Y146.350 E520.90103
G1 X152.363 Y146.356 E520.95695
G1 X153.708 Y146.352 E521.01287
G1 X155.061 Y146.338 E521.06913
G1 X156.419 Y146.313 E521.12560
G1 X157.783 Y146.279 E521.18232
G1 X159.201 Y146.232 E521.24131
G1 X160.640 Y146.173 E521.30118
G1 X162.096 Y146.103 E521.36179
G1 X163.568 Y146.022 E521.42308
G1 X165.232 Y145.917 E521.49240
G1 X166.832 Y145.806 E521.55908
G1 X167.554 Y145.750 E521.58919
G1 X169.464 Y145.750 E521.66859
G1 X169.464 Y146.922 E521.71732
G1 X169.468 Y147.250 E521.73096
G1 X183.196 Y147.250 E522.30170
G1 X183.201 Y149.250 E522.38485
G1 X169.687 Y149.250 E522.94670
G1 X167.530 Y149.508 E523.03702
G1 X166.546 Y149.615 E523.07817
G1 X165.936 Y149.678 E523.10366
G1 X164.388 Y149.829 E523.16833
G1 X162.893 Y149.960 E523.23072
G1 X161.416 Y150.073 E523.29231
G1 X161.379 Y150.074 E523.29384
G1 X160.021 Y150.166 E523.35043
G1 X157.292 Y150.300 E523.46403
G1 X155.898 Y150.349 E523.52202
G1 F2400 E522.92202
G1 Z2.940
G0 F9000 X158.002 Y149.589
;TYPE:FILL
G1 Z2.440
G1 F2400 E523.52202
G1 F2700 X160.748 Y146.842 E523.68350
G1 F2400 E523.08350
G1 Z2.940
G0 F9000 X160.091 Y149.484
G1 Z2.440
G1 F2400 E523.68350
G1 F2700 X157.566 Y146.960 E523.83193
G1 F2400 E523.23193
G1 Z2.940
G0 F9000 X153.497 Y147.023
G1 Z2.440
G1 F2400 E523.83193
G1 F2700 X150.813 Y149.707 E523.98974
G1 F2400 E523.38974
G1 Z2.940
G0 F9000 X153.251 Y149.715
G1 Z2.440
G1 F2400 E523.98974
G1 F2700 X150.552 Y147.016 E524.14843
G1 F2400 E523.54843
G1 Z2.940
G0 F9000 X146.520 Y146.929
G1 Z2.440
G1 F2400 E524.14843
G1 F2700 X144.028 Y149.420 E524.29493
G1 F2400 E523.69493
G1 Z2.940
G0 F9000 X146.007 Y149.543
G1 Z2.440
G1 F2400 E524.29493
G1 F2700 X143.256 Y146.791 E524.45670
G1 F2400 E523.85670
G1 Z2.940
G0 F9000 X139.789 Y146.588
G1 Z2.440
G1 F2400 E524.45670
G1 F2700 X137.542 Y148.836 E524.58885
G0 F9000 X138.312 Y148.919
G1 F2700 X136.210 Y146.817 E524.71244
G1 F2400 E524.11244
G1 Z2.940
G0 F9000 X131.383 Y147.923
G1 Z2.440
G1 F2400 E524.71244
G1 F2700 X130.814 Y148.573 E524.75072
G1 X130.246 Y147.924 E524.78658
G1 F2400 E524.18658
G1 Z2.940
G0 F9000 X124.312 Y147.923
G1 Z2.440
G1 F2400 E524.78658
G1 F2700 X123.743 Y148.573 E524.82486
G1 X123.175 Y147.924 E524.86072
G1 F2400 E524.26072
G1 Z2.940
G0 F9000 X164.326 Y146.648
G1 Z2.440
G1 F2400 E524.86072
G1 F2700 X166.600 Y148.923 E524.99445
G0 F9000 X165.639 Y149.022
G1 F2700 X168.237 Y146.424 E525.14721
G1 F2400 E524.54721
G1 Z2.940
G0 F9000 X172.674 Y147.925
G1 Z2.440
G1 F2400 E525.14721
G1 F2700 X173.240 Y148.575 E525.18540
G1 X173.808 Y147.925 E525.22129
G1 F2400 E524.62129
G1 Z2.940
G0 F9000 X179.745 Y147.925
G1 Z2.440
G1 F2400 E525.22129
G1 F2700 X180.311 Y148.575 E525.25949
G1 X180.842 Y147.924 E525.29770
G1 X181.532 Y148.298 E525.33594
G1 X182.342 Y148.401 E525.36846
G1 X182.220 Y147.925 E525.38889
G1 F2400 E524.78889
G1 Z2.940
G0 F9000 X180.748 Y148.575
;TYPE:SKIN
G1 Z2.440
G1 F2400 E525.38889
G1 F2700 X179.808 Y147.989 E525.42712
G1 X179.687 Y148.575 E525.45772
G1 X179.026 Y148.267 E525.48803
G1 F2400 E524.88803
G1 Z2.940
G0 F9000 X168.794 Y147.227
G1 Z2.440
G1 F2400 E525.48803
G1 F2700 X167.992 Y146.425 E525.53519
G0 F9000 X167.367 Y146.508
G1 F2700 X168.684 Y147.824 E525.61259
G0 F9000 X167.977 Y147.824
G1 F2700 X167.369 Y147.216 E525.64834
G1 F2400 E525.04834
G1 Z2.940
G0 F9000 X168.699 Y146.425
G1 Z2.440
G1 F2400 E525.64834
G1 F2700 X168.788 Y146.514 E525.65357
G0 F9000 X137.631 Y147.177
G1 F2700 X136.878 Y146.424 E525.69785
G0 F9000 X136.210 Y146.463
G1 F2700 X137.571 Y147.824 E525.77787
G0 F9000 X136.864 Y147.824
G1 F2700 X136.210 Y147.170 E525.81632
G1 F2400 E525.21632
G1 Z2.940
G0 F9000 X126.300 Y148.574
G1 Z2.440
G1 F2400 E525.81632
G1 F2700 X125.801 Y148.428 E525.83340
G1 X124.914 Y148.248 E525.87163
G1 X123.931 Y147.972 E525.90983
G1 X123.825 Y148.574 E525.94226
G1 X122.648 Y148.104 E525.98051
G1 X122.765 Y148.574 E526.00065
G1 F2400 E525.40065
G1 Z2.940
G0 F9000 X156.250 Y153.752
;TYPE:SUPPORT
G1 Z2.440
G1 F2400 E526.00065
G1 F2700 X156.250 Y160.175 E526.26769
;LAYER:7
M106 S73
G1 F2400 E525.66769
G1 Z2.940
G0 F9000 X155.867 Y149.900 Z2.640
;TYPE:WALL-INNER
G1 Z2.640
G1 F2400 E526.26769
G1 F2700 X153.273 Y149.944 E526.37555
G1 X153.102 Y149.945 E526.38266
G1 X150.586 Y149.932 E526.48726
G1 X149.198 Y149.902 E526.54498
G1 X146.555 Y149.800 E526.65495
G1 X145.106 Y149.721 E526.71528
G1 X142.275 Y149.520 E526.83328
G1 X140.814 Y149.393 E526.89425
G1 X138.688 Y149.184 E526.98306
G1 X137.653 Y149.070 E527.02635
G1 X135.962 Y148.873 E527.09713
G1 X134.996 Y148.750 E527.13762
G1 X125.638 Y148.750 E527.52668
G1 X125.372 Y148.665 E527.53829
G1 X125.198 Y148.622 E527.54574
G1 X124.609 Y148.549 E527.57041
G1 X124.582 Y148.551 E527.57154
G1 X124.471 Y148.548 E527.57616
G1 X123.797 Y148.621 E527.60434
G1 X123.369 Y148.750 E527.62293
G1 X122.129 Y148.750 E527.67448
G1 X122.128 Y147.750 E527.71606
G1 X135.692 Y147.750 E528.27998
G1 X135.691 Y146.250 E528.34234
G1 X137.015 Y146.250 E528.39739
G1 X138.223 Y146.342 E528.44776
G1 X139.817 Y146.454 E528.51419
G1 X140.853 Y146.520 E528.55735
G1 X142.663 Y146.624 E528.63273
G1 X144.109 Y146.695 E528.69292
G1 X145.538 Y146.755 E528.75238
G1 X146.948 Y146.805 E528.81104
G1 X148.303 Y146.841 E528.86739
G1 X149.655 Y146.868 E528.92361
G1 X151.001 Y146.885 E528.97958
G1 X152.341 Y146.891 E529.03529
G1 X153.681 Y146.887 E529.09100
G1 X155.029 Y146.873 E529.14705
G1 X156.383 Y146.848 E529.20335
G1 X157.741 Y146.814 E529.25982
G1 X159.153 Y146.768 E529.31856
G1 X160.587 Y146.709 E529.37823
G1 X162.038 Y146.640 E529.43862
G1 X163.504 Y146.559 E529.49967
G1 X165.182 Y146.454 E529.56956
G1 X166.776 Y146.343 E529.63600
G1 X167.985 Y146.250 E529.68641
G1 X169.309 Y146.250 E529.74145
G1 X169.310 Y147.750 E529.80382
G1 X182.871 Y147.750 E530.36762
G1 X182.872 Y148.750 E530.40919
G1 X181.637 Y148.750 E530.46054
G1 X181.371 Y148.665 E530.47215
G1 X181.197 Y148.622 E530.47960
G1 X180.608 Y148.549 E530.50428
G1 X180.581 Y148.551 E530.50540
G1 X180.471 Y148.548 E530.50998
G1 X179.796 Y148.621 E530.53820
G1 X179.368 Y148.750 E530.55679
G1 X170.005 Y148.750 E530.94606
G1 X169.051 Y148.871 E530.98604
G1 X167.377 Y149.067 E531.05611
G1 X166.391 Y149.175 E531.09735
G1 X165.798 Y149.237 E531.12214
G1 X164.268 Y149.386 E531.18605
G1 X162.793 Y149.514 E531.24760
G1 X161.313 Y149.627 E531.30931
G1 X159.954 Y149.718 E531.36594
G1 X157.263 Y149.851 E531.47795
G1 X155.867 Y149.900 E531.53603
G0 F9000 X155.884 Y150.400
;TYPE:WALL-OUTER
G1 F2700 X153.282 Y150.444 E531.64422
G1 X153.102 Y150.445 E531.65171
G1 X150.575 Y150.432 E531.75677
G1 X149.192 Y150.402 E531.81428
G1 X146.528 Y150.299 E531.92512
G1 X145.079 Y150.220 E531.98545
G1 X142.241 Y150.019 E532.10374
G1 X140.774 Y149.891 E532.16496
G1 X138.634 Y149.680 E532.25436
G1 X137.599 Y149.567 E532.29765
G1 X135.907 Y149.370 E532.36847
G1 X134.964 Y149.250 E532.40799
G1 X125.561 Y149.250 E532.79892
G1 X125.102 Y149.113 E532.81883
G1 X124.609 Y149.050 E532.83950
G1 X124.591 Y149.052 E532.84025
G1 X124.490 Y149.049 E532.84445
G1 X123.897 Y149.113 E532.86925
G1 X123.444 Y149.250 E532.88893
G1 X121.629 Y149.250 E532.96438
G1 X121.628 Y147.250 E533.04753
G1 X135.191 Y147.250 E533.61142
G1 X135.190 Y145.750 E533.67378
G1 X137.040 Y145.750 E533.75070
G1 X138.260 Y145.843 E533.80156
G1 X139.850 Y145.955 E533.86783
G1 X140.883 Y146.021 E533.91087
G1 X142.690 Y146.125 E533.98612
G1 X144.132 Y146.196 E534.04614
G1 X145.557 Y146.256 E534.10544
G1 X146.963 Y146.305 E534.16393
G1 X148.315 Y146.341 E534.22016
G1 X149.663 Y146.368 E534.27621
G1 X151.005 Y146.385 E534.33201
G1 X152.342 Y146.391 E534.38760
G1 X153.678 Y146.387 E534.44314
G1 X155.022 Y146.373 E534.49902
G1 X156.372 Y146.348 E534.55516
G1 X157.726 Y146.314 E534.61147
G1 X159.135 Y146.268 E534.67008
G1 X160.565 Y146.210 E534.72958
G1 X162.012 Y146.141 E534.78981
G1 X163.475 Y146.060 E534.85073
G1 X165.149 Y145.955 E534.92046
G1 X166.739 Y145.844 E534.98673
G1 X167.959 Y145.750 E535.03760
G1 X169.809 Y145.750 E535.11451
G1 X169.810 Y147.250 E535.17687
G1 X183.371 Y147.250 E535.74068
G1 X183.372 Y149.250 E535.82383
G1 X181.560 Y149.250 E535.89916
G1 X181.101 Y149.113 E535.91908
G1 X180.608 Y149.050 E535.93974
G1 X180.590 Y149.052 E535.94049
G1 X180.490 Y149.049 E535.94465
G1 X179.896 Y149.113 E535.96949
G1 X179.443 Y149.250 E535.98917
G1 X170.036 Y149.250 E536.38026
G1 X169.107 Y149.368 E536.41920
G1 X167.432 Y149.565 E536.48931
G1 X166.446 Y149.672 E536.53055
G1 X165.849 Y149.734 E536.55550
G1 X164.309 Y149.884 E536.61983
G1 X162.828 Y150.013 E536.68164
G1 X161.351 Y150.126 E536.74322
G1 X159.979 Y150.218 E536.80039
G1 X157.277 Y150.351 E536.91286
G1 X155.884 Y150.400 E536.97081
G1 F2400 E536.37081
G1 Z3.140
G0 F9000 X157.949 Y149.642
;TYPE:FILL
G1 Z2.640
G1 F2400 E536.97081
G1 F2700 X160.714 Y146.877 E537.13339
G1 F2400 E536.53339
G1 Z3.140
G0 F9000 X160.137 Y149.531
G1 Z2.640
G1 F2400 E537.13339
G1 F2700 X157.599 Y146.992 E537.28264
G1 F2400 E536.68264
G1 Z3.140
G0 F9000 X153.461 Y147.058
G1 Z2.640
G1 F2400 E537.28264
G1 F2700 X150.762 Y149.758 E537.44136
G1 F2400 E536.84136
G1 Z3.140
G0 F9000 X153.301 Y149.765
G1 Z2.640
G1 F2400 E537.44136
G1 F2700 X150.586 Y147.051 E537.60096
G1 F2400 E537.00096
G1 Z3.140
G0 F9000 X146.487 Y146.961
G1 Z2.640
G1 F2400 E537.60096
G1 F2700 X143.983 Y149.466 E537.74822
G1 F2400 E537.14822
G1 Z3.140
G0 F9000 X146.061 Y149.596
G1 Z2.640
G1 F2400 E537.74822
G1 F2700 X143.290 Y146.826 E537.91111
G1 F2400 E537.31111
G1 Z3.140
G0 F9000 X139.761 Y146.617
G1 Z2.640
G1 F2400 E537.91111
G1 F2700 X137.505 Y148.872 E538.04373
G0 F9000 X138.363 Y148.970
G1 F2700 X135.865 Y146.472 E538.19060
G1 F2400 E537.59060
G1 Z3.140
G0 F9000 X131.382 Y147.924
G1 Z2.640
G1 F2400 E538.19060
G1 F2700 X130.814 Y148.573 E538.22882
G1 X130.246 Y147.924 E538.26468
G1 F2400 E537.66468
G1 Z3.140
G0 F9000 X124.311 Y147.924
G1 Z2.640
G1 F2400 E538.26468
G1 F2700 X123.751 Y148.453 E538.29523
G1 X123.175 Y147.924 E538.32775
G1 F2400 E537.72775
G1 Z3.140
G0 F9000 X164.356 Y146.678
G1 Z2.640
G1 F2400 E538.32775
G1 F2700 X166.643 Y148.966 E538.46224
G0 F9000 X165.587 Y149.075
G1 F2700 X168.237 Y146.424 E538.61808
G1 F2400 E538.01808
G1 Z3.140
G0 F9000 X172.674 Y147.925
G1 Z2.640
G1 F2400 E538.61808
G1 F2700 X173.240 Y148.575 E538.65628
G1 X173.808 Y147.925 E538.69217
G1 F2400 E538.09217
G1 Z3.140
G0 F9000 X179.745 Y147.925
G1 Z2.640
G1 F2400 E538.69217
G1 F2700 X180.322 Y148.388 E538.71997
G1 X181.055 Y147.925 E538.74650
G1 X180.645 Y148.158 E538.77391
G1 X180.031 Y148.419 E538.80165
G0 F9000 X181.377 Y148.487
;TYPE:SKIN
G1 F2700 X181.919 Y148.299 E538.82894
G1 X182.647 Y147.925 E538.86296
G1 F2400 E538.26296
G1 Z3.140
G0 F9000 X179.818 Y147.925
G1 Z2.640
G1 F2400 E538.86296
G1 F2700 X179.004 Y148.385 E538.90114
G1 X178.461 Y148.575 E538.92505
G1 F2400 E538.32505
G1 Z3.140
G0 F9000 X169.133 Y147.296
G1 Z2.640
G1 F2400 E538.92505
G1 F2700 X168.604 Y147.825 E538.95616
G0 F9000 X167.897 Y147.825
G1 F2700 X169.132 Y146.590 E539.02877
G0 F9000 X168.591 Y146.424
G1 F2700 X167.770 Y147.245 E539.07704
G0 F9000 X167.769 Y146.539
G1 F2700 X167.876 Y146.432 E539.08333
G1 F2400 E538.48333
G1 Z3.140
G0 F9000 X137.229 Y146.673
G1 Z2.640
G1 F2400 E539.08333
G1 F2700 X136.078 Y147.824 E539.15101
G0 F9000 X135.867 Y147.329
G1 F2700 X136.772 Y146.424 E539.20422
G0 F9000 X136.065 Y146.424
G1 F2700 X135.866 Y146.622 E539.21589
G1 F2400 E538.61589
G1 Z3.140
G0 F9000 X136.785 Y147.824
G1 Z2.640
G1 F2400 E539.21589
G1 F2700 X137.230 Y147.380 E539.24202
G1 F2400 E538.64202
G1 Z3.140
G0 F9000 X126.372 Y148.338
G1 Z2.640
G1 F2400 E539.24202
G1 F2700 X126.034 Y148.322 E539.25587
G1 X125.429 Y148.220 E539.28214
G1 X124.777 Y148.165 E539.31049
G1 X124.071 Y148.163 E539.33860
G1 X123.222 Y148.306 E539.37676
G1 X122.452 Y148.369 E539.40824
G1 X122.543 Y147.924 E539.42712
G1 F2400 E538.82712
G1 Z3.140
G0 F9000 X156.250 Y153.752
;TYPE:SUPPORT
G1 Z2.640
G1 F2400 E539.42712
G1 F2700 X156.250 Y160.175 E539.69416
;LAYER:8
M106 S84
G1 F2400 E539.09416
G1 Z3.140
G0 F9000 X155.854 Y149.951 Z2.840
;TYPE:WALL-INNER
G1 Z2.840
G1 F2400 E539.69416
G1 F2700 X153.287 Y149.994 E539.80090
G1 X153.086 Y149.996 E539.80926
G1 X150.607 Y149.983 E539.91232
G1 X149.220 Y149.953 E539.97000
G1 X146.604 Y149.852 E540.07884
G1 X145.154 Y149.773 E540.13921
G1 X142.348 Y149.574 E540.25617
G1 X140.898 Y149.448 E540.31668
G1 X138.790 Y149.241 E540.40474
G1 X137.756 Y149.128 E540.44799
G1 X136.077 Y148.932 E540.51826
G1 X134.648 Y148.750 E540.57816
G1 X126.079 Y148.750 E540.93441
G1 X125.712 Y148.582 E540.95119
G1 X125.056 Y148.398 E540.97952
G1 X124.613 Y148.350 E540.99805
G1 X124.568 Y148.351 E540.99992
G1 X124.479 Y148.347 E541.00362
G1 X123.950 Y148.399 E541.02572
G1 X123.648 Y148.466 E541.03858
G1 X123.006 Y148.702 E541.06702
G1 X122.910 Y148.750 E541.07148
G1 X121.979 Y148.750 E541.11019
G1 X121.978 Y147.750 E541.15176
G1 X135.354 Y147.750 E541.70787
G1 X135.353 Y146.250 E541.77023
G1 X136.615 Y146.250 E541.82270
G1 X138.317 Y146.381 E541.89367
G1 X139.900 Y146.491 E541.95964
G1 X140.913 Y146.557 E542.00185
G1 X141.417 Y146.588 E542.02284
G1 X142.708 Y146.659 E542.07660
G1 X144.144 Y146.730 E542.13637
G1 X145.563 Y146.790 E542.19542
G1 X146.963 Y146.840 E542.25366
G1 X148.309 Y146.876 E542.30964
G1 X149.651 Y146.903 E542.36545
G1 X150.989 Y146.919 E542.42108
G1 X152.319 Y146.925 E542.47638
G1 X153.651 Y146.922 E542.53175
G1 X154.990 Y146.908 E542.58743
G1 X156.335 Y146.884 E542.64335
G1 X157.685 Y146.850 E542.69950
G1 X159.088 Y146.804 E542.75786
G1 X160.511 Y146.746 E542.81707
G1 X161.953 Y146.677 E542.87709
G1 X163.410 Y146.597 E542.93776
G1 X163.923 Y146.567 E542.95912
G1 X165.100 Y146.491 E543.00816
G1 X166.683 Y146.381 E543.07413
G1 X168.306 Y146.257 E543.14180
G1 X169.168 Y146.250 E543.17764
G1 X169.646 Y146.250 E543.19751
G1 X169.647 Y147.750 E543.25988
G1 X183.022 Y147.750 E543.81594
G1 X183.022 Y148.750 E543.85752
G1 X182.078 Y148.750 E543.89677
G1 X181.711 Y148.582 E543.91355
G1 X181.055 Y148.398 E543.94187
G1 X180.612 Y148.350 E543.96040
G1 X180.568 Y148.351 E543.96223
G1 X180.480 Y148.347 E543.96589
G1 X179.949 Y148.399 E543.98807
G1 X179.647 Y148.466 E544.00093
G1 X179.005 Y148.702 E544.02937
G1 X178.909 Y148.750 E544.03383
G1 X170.353 Y148.750 E544.38955
G1 X168.940 Y148.929 E544.44877
G1 X167.280 Y149.124 E544.51826
G1 X166.300 Y149.231 E544.55924
G1 X165.711 Y149.293 E544.58386
G1 X164.189 Y149.441 E544.64744
G1 X162.727 Y149.568 E544.70845
G1 X161.258 Y149.680 E544.76970
G1 X159.911 Y149.770 E544.82583
G1 X157.248 Y149.902 E544.93668
G1 X155.854 Y149.951 E544.99467
G0 F9000 X155.871 Y150.451
;TYPE:WALL-OUTER
G1 F2700 X153.295 Y150.494 E545.10178
G1 X153.088 Y150.496 E545.11039
G1 X150.596 Y150.483 E545.21400
G1 X149.214 Y150.453 E545.27147
G1 X146.577 Y150.351 E545.38118
G1 X145.127 Y150.272 E545.44156
G1 X142.314 Y150.073 E545.55880
G1 X140.857 Y149.946 E545.61960
G1 X138.736 Y149.737 E545.70821
G1 X137.702 Y149.625 E545.75145
G1 X136.022 Y149.429 E545.82177
G1 X134.616 Y149.250 E545.88070
G1 X125.969 Y149.250 E546.24020
G1 X125.539 Y149.053 E546.25986
G1 X124.955 Y148.889 E546.28508
G1 X124.604 Y148.851 E546.29976
G1 X124.575 Y148.852 E546.30097
G1 X124.493 Y148.848 E546.30438
G1 X124.029 Y148.894 E546.32377
G1 X123.789 Y148.947 E546.33398
G1 X123.205 Y149.162 E546.35986
G1 X123.028 Y149.250 E546.36808
G1 X121.479 Y149.250 E546.43248
G1 X121.478 Y147.250 E546.51563
G1 X134.854 Y147.250 E547.07174
G1 X134.853 Y145.750 E547.13410
G1 X136.641 Y145.750 E547.20843
G1 X138.354 Y145.882 E547.27986
G1 X139.933 Y145.992 E547.34567
G1 X141.446 Y146.089 E547.40870
G1 X142.734 Y146.160 E547.46233
G1 X144.167 Y146.231 E547.52198
G1 X145.582 Y146.291 E547.58087
G1 X146.978 Y146.340 E547.63894
G1 X148.321 Y146.376 E547.69480
G1 X149.659 Y146.403 E547.75043
G1 X150.993 Y146.419 E547.80590
G1 X152.320 Y146.425 E547.86107
G1 X153.648 Y146.422 E547.91628
G1 X154.983 Y146.408 E547.97179
G1 X156.324 Y146.384 E548.02755
G1 X157.670 Y146.350 E548.08353
G1 X159.070 Y146.304 E548.14176
G1 X160.489 Y146.247 E548.20081
G1 X161.927 Y146.178 E548.26066
G1 X163.892 Y146.068 E548.34248
G1 X165.067 Y145.992 E548.39144
G1 X166.646 Y145.882 E548.45724
G1 X168.278 Y145.757 E548.52529
G1 X169.164 Y145.750 E548.56213
G1 X170.146 Y145.750 E548.60296
G1 X170.147 Y147.250 E548.66532
G1 X183.522 Y147.250 E549.22139
G1 X183.522 Y149.250 E549.30454
G1 X181.968 Y149.250 E549.36914
G1 X181.538 Y149.053 E549.38881
G1 X180.954 Y148.889 E549.41403
G1 X180.603 Y148.851 E549.42871
G1 X180.575 Y148.852 E549.42987
G1 X180.493 Y148.848 E549.43328
G1 X180.028 Y148.894 E549.45271
G1 X179.788 Y148.947 E549.46293
G1 X179.204 Y149.162 E549.48880
G1 X179.027 Y149.250 E549.49702
G1 X170.384 Y149.250 E549.85635
G1 X168.997 Y149.426 E549.91448
G1 X167.334 Y149.622 E549.98410
G1 X166.354 Y149.728 E550.02508
G1 X165.763 Y149.790 E550.04979
G1 X164.230 Y149.939 E550.11382
G1 X162.762 Y150.067 E550.17509
G1 X161.296 Y150.179 E550.23621
G1 X159.936 Y150.270 E550.29288
G1 X157.262 Y150.402 E550.40419
G1 X155.871 Y150.451 E550.46206
G1 F2400 E549.86206
G1 Z3.340
G0 F9000 X157.896 Y149.694
;TYPE:FILL
G1 Z2.840
G1 F2400 E550.46206
G1 F2700 X160.682 Y146.908 E550.62586
G1 F2400 E550.02586
G1 Z3.340
G0 F9000 X160.183 Y149.577
G1 Z2.840
G1 F2400 E550.62586
G1 F2700 X157.628 Y147.022 E550.77609
G1 F2400 E550.17609
G1 Z3.340
G0 F9000 X153.424 Y147.095
G1 Z2.840
G1 F2400 E550.77609
G1 F2700 X150.711 Y149.809 E550.93563
G1 F2400 E550.33563
G1 Z3.340
G0 F9000 X153.351 Y149.816
G1 Z2.840
G1 F2400 E550.93563
G1 F2700 X150.623 Y147.088 E551.09603
G1 F2400 E550.49603
G1 Z3.340
G0 F9000 X146.457 Y146.991
G1 Z2.840
G1 F2400 E551.09603
G1 F2700 X143.937 Y149.512 E551.24422
G1 F2400 E550.64422
G1 Z3.340
G0 F9000 X146.113 Y149.648
G1 Z2.840
G1 F2400 E551.24422
G1 F2700 X143.319 Y146.855 E551.40847
G1 F2400 E550.80847
G1 Z3.340
G0 F9000 X139.734 Y146.644
G1 Z2.840
G1 F2400 E551.40847
G1 F2700 X137.462 Y148.915 E551.54202
G0 F9000 X138.416 Y149.022
G1 F2700 X135.817 Y146.424 E551.69481
G1 F2400 E551.09481
G1 Z3.340
G0 F9000 X131.383 Y147.923
G1 Z2.840
G1 F2400 E551.69481
G1 F2700 X130.814 Y148.574 E551.73305
G1 X130.246 Y147.924 E551.76894
G1 F2400 E551.16894
G1 Z3.340
G0 F9000 X124.312 Y147.923
G1 Z2.840
G1 F2400 E551.76894
G1 F2700 X123.790 Y148.262 E551.78612
G1 X123.175 Y147.924 E551.81530
G1 F2400 E551.21530
G1 Z3.340
G0 F9000 X164.386 Y146.708
G1 Z2.840
G1 F2400 E551.81530
G1 F2700 X166.686 Y149.008 E551.95053
G0 F9000 X165.535 Y149.127
G1 F2700 X168.224 Y146.437 E552.10866
G1 F2400 E551.50866
G1 Z3.340
G0 F9000 X172.674 Y147.925
G1 Z2.840
G1 F2400 E552.10866
G1 F2700 X173.240 Y148.575 E552.14686
G1 X173.808 Y147.924 E552.18278
G1 F2400 E551.58278
G1 Z3.340
G0 F9000 X179.745 Y147.925
G1 Z2.840
G1 F2400 E552.18278
G1 F2700 X180.330 Y148.195 E552.19971
G1 X180.842 Y147.924 E552.21455
G1 X181.312 Y148.078 E552.23264
G1 X182.191 Y148.249 E552.27084
G1 X182.846 Y148.551 E552.30082
G1 F2400 E551.70082
G1 Z3.340
G0 F9000 X180.355 Y148.182
;TYPE:SKIN
G1 Z2.840
G1 F2400 E552.30082
G1 F2700 X179.915 Y148.095 E552.31597
G1 X179.296 Y148.183 E552.33609
G1 X178.606 Y148.200 E552.35864
G1 X178.627 Y148.575 E552.37426
G1 F2400 E551.77426
G1 Z3.340
G0 F9000 X169.470 Y147.197
G1 Z2.840
G1 F2400 E552.37426
G1 F2700 X168.703 Y146.429 E552.41938
G0 F9000 X168.142 Y146.575
G1 F2700 X169.391 Y147.824 E552.49282
G0 F9000 X168.684 Y147.824
G1 F2700 X168.142 Y147.282 E552.52469
G1 F2400 E551.92469
G1 Z3.340
G0 F9000 X136.856 Y147.109
G1 Z2.840
G1 F2400 E552.52469
G1 F2700 X136.171 Y146.424 E552.56496
G0 F9000 X135.527 Y146.487
G1 F2700 X136.856 Y147.817 E552.64313
G0 F9000 X136.156 Y147.824
G1 F2700 X135.528 Y147.195 E552.68008
G1 F2400 E552.08008
G1 Z3.340
G0 F9000 X126.300 Y148.574
G1 Z2.840
G1 F2400 E552.68008
G1 F2700 X125.477 Y148.104 E552.71830
G1 X124.712 Y148.046 E552.73948
G1 X124.041 Y148.083 E552.75384
G1 X123.415 Y148.164 E552.77248
G1 X122.819 Y148.275 E552.79763
G1 X122.152 Y147.962 E552.82826
G1 F2400 E552.22826
G1 Z3.340
G0 F9000 X156.250 Y153.752
;TYPE:SUPPORT
G1 Z2.840
G1 F2400 E552.82826
G1 F2700 X156.250 Y160.175 E553.09530
;LAYER:9
M106 S94
G1 F2400 E552.49530
G1 Z3.340
G0 F9000 X155.840 Y150.002 Z3.040
;TYPE:WALL-INNER
G1 Z3.040
G1 F2400 E553.09530
G1 F2700 X153.298 Y150.045 E553.20100
G1 X153.078 Y150.046 E553.21015
G1 X150.628 Y150.034 E553.31201
G1 X149.243 Y150.004 E553.36960
G1 X146.651 Y149.904 E553.47745
G1 X145.200 Y149.826 E553.53786
G1 X142.418 Y149.628 E553.65381
G1 X140.980 Y149.504 E553.71382
G1 X138.892 Y149.298 E553.80105
G1 X137.859 Y149.185 E553.84425
G1 X136.193 Y148.991 E553.91399
G1 X134.394 Y148.762 E553.98938
G1 X132.543 Y148.750 E554.06634
G1 X126.396 Y148.750 E554.32190
G1 X126.051 Y148.554 E554.33840
G1 X125.637 Y148.370 E554.35723
G1 X125.249 Y148.245 E554.37418
G1 X124.873 Y148.172 E554.39011
G1 X124.492 Y148.147 E554.40598
G1 X124.011 Y148.189 E554.42605
G1 X123.623 Y148.282 E554.44264
G1 X123.225 Y148.426 E554.46024
G1 X122.668 Y148.706 E554.48616
G1 X122.595 Y148.750 E554.48970
G1 X121.846 Y148.750 E554.52084
G1 X121.846 Y147.750 E554.56242
G1 X135.016 Y147.750 E555.10996
G1 X135.016 Y146.250 E555.17232
G1 X136.258 Y146.250 E555.22396
G1 X136.771 Y146.293 E555.24536
G1 X138.410 Y146.419 E555.31371
G1 X139.983 Y146.529 E555.37926
G1 X140.974 Y146.593 E555.42055
G1 X141.491 Y146.625 E555.44209
G1 X142.753 Y146.695 E555.49463
G1 X144.179 Y146.765 E555.55399
G1 X145.588 Y146.825 E555.61262
G1 X146.978 Y146.874 E555.67045
G1 X148.315 Y146.910 E555.72606
G1 X149.648 Y146.937 E555.78149
G1 X150.976 Y146.954 E555.83670
G1 X152.298 Y146.960 E555.89167
G1 X153.621 Y146.957 E555.94667
G1 X154.951 Y146.943 E556.00197
G1 X156.287 Y146.919 E556.05752
G1 X157.629 Y146.886 E556.11333
G1 X159.022 Y146.840 E556.17128
G1 X160.436 Y146.783 E556.23011
G1 X161.869 Y146.714 E556.28976
