;-- START GCODE --
;Sliced for Type A Machines Series 1
;Sliced at: Sun 18-10-2020 11:20:22
;Basic settings: Layer height: 0.2 Walls: 1 Fill: 20
;Print Speed: 45 Support: 0
;Retraction Speed: 40 Retraction Distance: 0.6
;Print time: 16 minutes
;Filament used: 0.52m 1.0g
;Settings based on: Type A Machines ProMatte
G21        ;metric values
G90        ;absolute positioning
G28     ;move to endstops
G29		;allows for auto-levelling
G1 Z15.0 F12000 ;move the platform down 15mm
G1 X150 Y5 F9000 ;center
M140 S50 ;Prep Heat Bed
M109 S210 ;Heat To temp
M190 S50 ;Heat Bed to temp
G1 X150 Y5 Z0.3 ;move the platform to purge extrusion
G92 E0 ;zero the extruded length
G1 F200 X250 E30 ;extrude 30mm of feed stock
G92 E0 ;zero the extruded length again
G1 X150 Y150  Z25 F12000 ;recenter and begin
G1 F9000

;Layer count: 87
;LAYER:-2
;RAFT
G0 F9000 X144.125 Y142.685 Z0.300
;TYPE:SUPPORT
G1 F1800 X145.651 Y141.923 E0.14892
G1 X146.113 Y141.461 E0.20596
G1 X147.036 Y141.231 E0.28901
G1 X148.881 Y140.310 E0.46905
G1 X150.525 Y140.310 E0.61258
G1 X150.525 Y139.710 E0.66497
G1 X159.686 Y139.710 E1.46480
G1 X163.225 Y143.249 E1.90176
G1 X163.225 Y143.449 E1.91922
G1 X164.273 Y144.497 E2.04862
G1 X163.718 Y146.110 E2.19755
G1 X166.225 Y146.110 E2.41643
G1 X166.225 Y149.649 E2.72542
G1 X166.425 Y149.849 E2.75011
G1 X166.425 Y150.049 E2.76757
G1 X166.625 Y150.249 E2.79227
G1 X166.625 Y156.935 E3.37601
G1 X162.711 Y158.889 E3.75795
G1 X159.651 Y159.910 E4.03959
G1 X159.286 Y159.910 E4.07146
G1 X158.902 Y160.294 E4.11887
G1 X158.503 Y160.494 E4.15784
G1 X158.302 Y160.694 E4.18259
G1 X156.713 Y161.489 E4.33772
G1 X156.225 Y161.652 E4.38264
G1 X156.225 Y161.735 E4.38989
G1 X153.502 Y163.094 E4.65559
G1 X153.302 Y163.294 E4.68028
G1 X152.903 Y163.494 E4.71925
G1 X152.702 Y163.694 E4.74401
G1 X152.303 Y163.893 E4.78294
G1 X151.086 Y165.110 E4.93320
G1 X142.525 Y165.110 E5.68064
G1 X142.525 Y161.933 E5.95802
G1 X141.725 Y161.533 E6.03611
G1 X141.725 Y158.710 E6.28258
G1 X140.525 Y158.710 E6.38735
G1 X140.525 Y157.910 E6.45720
G1 X138.725 Y157.910 E6.61435
G1 X138.725 Y154.371 E6.92333
G1 X138.525 Y154.171 E6.94803
G1 X138.525 Y149.049 E7.39522
G1 X141.248 Y146.326 E7.73143
G1 X142.725 Y145.587 E7.87563
G1 X142.725 Y144.849 E7.94006
G1 X144.125 Y143.449 E8.11292
G1 X144.125 Y142.685 E8.17962
G0 F9000 X145.500 Y141.880
G1 F1800 X145.500 Y165.215 E10.21695
G0 F9000 X142.500 Y165.215
G1 F1800 X142.500 Y145.582 E11.93107
G0 F9000 X148.500 Y140.382
G1 F1800 X148.500 Y165.215 E14.09918
G0 F9000 X151.500 Y164.844
G1 F1800 X151.500 Y139.605 E16.30275
G0 F9000 X154.500 Y139.605
G1 F1800 X154.500 Y162.714 E18.32034
G0 F9000 X157.500 Y161.213
G1 F1800 X157.500 Y139.605 E20.20689
G0 F9000 X160.500 Y140.376
G1 F1800 X160.500 Y159.738 E21.89735
G0 F9000 X163.500 Y158.613
G1 F1800 X163.500 Y143.576 E23.21020
G0 F9000 X166.500 Y149.776
G1 F1800 X166.500 Y157.115 E23.85095
G0 F9000 X139.500 Y158.015
G1 F1800 X139.500 Y147.926 E24.73180
;LAYER:-1
;RAFT
G0 F9000 X139.664 Y147.866 Z0.500
;TYPE:SUPPORT
G1 F1800 X154.450 Y162.652 E25.07954
G0 F9000 X154.828 Y162.464
G1 F1800 X139.947 Y147.583 E25.42952
G0 F9000 X139.381 Y148.149
G1 F1800 X154.072 Y162.841 E25.77504
G0 F9000 X153.695 Y163.029
G1 F1800 X139.098 Y148.432 E26.11834
G0 F9000 X138.815 Y148.715
G1 F1800 X153.369 Y163.268 E26.46062
G0 F9000 X153.008 Y163.473
G1 F1800 X138.532 Y148.998 E26.80106
G0 F9000 X138.494 Y149.525
G1 F1800 X152.698 Y163.729 E27.13511
G0 F9000 X152.320 Y163.917
G1 F1800 X138.494 Y150.091 E27.46028
G0 F9000 X138.494 Y150.656
G1 F1800 X152.037 Y164.200 E27.77880
G0 F9000 X151.755 Y164.482
G1 F1800 X138.494 Y151.222 E28.09067
G0 F9000 X138.494 Y151.788
G1 F1800 X151.472 Y164.765 E28.39588
G0 F9000 X151.189 Y165.048
G1 F1800 X138.494 Y152.353 E28.69445
G0 F9000 X138.494 Y152.919
G1 F1800 X150.714 Y165.139 E28.98184
G0 F9000 X150.148 Y165.139
G1 F1800 X138.494 Y153.485 E29.25593
G0 F9000 X138.494 Y154.050
G1 F1800 X149.582 Y165.139 E29.51671
G0 F9000 X149.017 Y165.139
G1 F1800 X138.694 Y154.816 E29.75949
G0 F9000 X138.694 Y155.382
G1 F1800 X148.451 Y165.139 E29.98896
G0 F9000 X147.885 Y165.139
G1 F1800 X141.695 Y158.948 E30.13455
G0 F9000 X141.485 Y158.739
G1 F1800 X138.694 Y155.948 E30.20019
G0 F9000 X138.694 Y156.513
G1 F1800 X140.120 Y157.939 E30.23373
G0 F9000 X140.495 Y158.314
G1 F1800 X140.920 Y158.739 E30.24373
G0 F9000 X141.695 Y159.514
G1 F1800 X147.320 Y165.139 E30.37602
G0 F9000 X146.754 Y165.139
G1 F1800 X141.695 Y160.079 E30.49501
G0 F9000 X141.695 Y160.645
G1 F1800 X146.188 Y165.139 E30.60069
G0 F9000 X145.622 Y165.139
G1 F1800 X142.494 Y162.010 E30.67427
G0 F9000 X142.375 Y161.892
G1 F1800 X141.695 Y161.211 E30.69027
G0 F9000 X142.494 Y162.576
G1 F1800 X145.057 Y165.139 E30.75055
G0 F9000 X144.491 Y165.139
G1 F1800 X142.494 Y163.142 E30.79752
G0 F9000 X142.494 Y163.707
G1 F1800 X143.925 Y165.139 E30.83118
G0 F9000 X143.360 Y165.139
G1 F1800 X142.494 Y164.273 E30.85155
G0 F9000 X142.494 Y164.839
G1 F1800 X142.794 Y165.139 E30.85860
G0 F9000 X155.205 Y162.276
G1 F1800 X140.229 Y147.300 E31.21082
G0 F9000 X140.512 Y147.018
G1 F1800 X155.582 Y162.087 E31.56523
G0 F9000 X155.960 Y161.899
G1 F1800 X140.795 Y146.735 E31.92187
G0 F9000 X141.078 Y146.452
G1 F1800 X156.287 Y161.661 E32.27957
G0 F9000 X156.711 Y161.520
G1 F1800 X141.405 Y146.213 E32.63955
G0 F9000 X141.782 Y146.025
G1 F1800 X157.090 Y161.333 E32.99957
G0 F9000 X157.467 Y161.144
G1 F1800 X142.159 Y145.836 E33.35959
G0 F9000 X142.536 Y145.647
G1 F1800 X157.844 Y160.955 E33.71961
G0 F9000 X158.221 Y160.767
G1 F1800 X142.694 Y145.240 E34.08479
G0 F9000 X142.775 Y144.755
G1 F1800 X158.531 Y160.511 E34.45534
G0 F9000 X158.909 Y160.323
G1 F1800 X143.058 Y144.472 E34.82813
G0 F9000 X143.341 Y144.189
G1 F1800 X159.195 Y160.043 E35.20100
G0 F9000 X159.656 Y159.939
G1 F1800 X143.623 Y143.906 E35.57807
G0 F9000 X143.906 Y143.623
G1 F1800 X160.079 Y159.796 E35.95843
G0 F9000 X160.504 Y159.655
G1 F1800 X144.094 Y143.245 E36.34437
G0 F9000 X144.094 Y142.680
G1 F1800 X160.928 Y159.514 E36.74028
G0 F9000 X161.352 Y159.372
G1 F1800 X144.462 Y142.482 E37.13751
G0 F9000 X144.839 Y142.293
G1 F1800 X161.776 Y159.231 E37.53585
G0 F9000 X162.201 Y159.089
G1 F1800 X145.217 Y142.105 E37.93529
G0 F9000 X145.594 Y141.917
G1 F1800 X162.625 Y158.948 E38.33583
G0 F9000 X163.013 Y158.770
G1 F1800 X145.886 Y141.644 E38.73862
G0 F9000 X146.213 Y141.405
G1 F1800 X163.390 Y158.582 E39.14260
G0 F9000 X163.768 Y158.394
G1 F1800 X146.666 Y141.292 E39.54481
G0 F9000 X147.103 Y141.163
G1 F1800 X164.145 Y158.205 E39.94561
G0 F9000 X164.523 Y158.017
G1 F1800 X147.480 Y140.975 E40.34642
G0 F9000 X147.858 Y140.787
G1 F1800 X164.900 Y157.829 E40.74723
G0 F9000 X165.277 Y157.640
G1 F1800 X148.235 Y140.598 E41.14803
G0 F9000 X148.612 Y140.410
G1 F1800 X165.655 Y157.452 E41.54884
G0 F9000 X166.032 Y157.264
G1 F1800 X149.048 Y140.280 E41.94828
G0 F9000 X149.613 Y140.280
G1 F1800 X166.409 Y157.075 E42.34328
G0 F9000 X166.654 Y156.754
G1 F1800 X150.179 Y140.280 E42.73074
G0 F9000 X150.494 Y140.029
G1 F1800 X166.654 Y156.189 E43.11080
G0 F9000 X166.654 Y155.623
G1 F1800 X150.711 Y139.680 E43.48575
G0 F9000 X151.277 Y139.680
G1 F1800 X166.654 Y155.057 E43.84740
G0 F9000 X166.654 Y154.492
G1 F1800 X151.842 Y139.680 E44.19575
G0 F9000 X152.408 Y139.680
G1 F1800 X166.654 Y153.926 E44.53080
G0 F9000 X166.654 Y153.360
G1 F1800 X152.974 Y139.680 E44.85253
G0 F9000 X153.539 Y139.680
G1 F1800 X166.654 Y152.795 E45.16097
G0 F9000 X166.654 Y152.229
G1 F1800 X154.105 Y139.680 E45.45611
G0 F9000 X154.671 Y139.680
G1 F1800 X166.654 Y151.663 E45.73793
G0 F9000 X166.654 Y151.098
G1 F1800 X155.236 Y139.680 E46.00646
G0 F9000 X155.802 Y139.680
G1 F1800 X166.654 Y150.532 E46.26168
G0 F9000 X166.254 Y149.566
G1 F1800 X156.368 Y139.680 E46.49419
G0 F9000 X156.933 Y139.680
G1 F1800 X166.254 Y149.000 E46.71339
G0 F9000 X166.254 Y148.435
G1 F1800 X163.899 Y146.080 E46.76878
G0 F9000 X163.794 Y145.975
G1 F1800 X157.499 Y139.680 E46.91683
G0 F9000 X158.065 Y139.680
G1 F1800 X163.939 Y145.555 E47.05499
G0 F9000 X164.084 Y145.134
G1 F1800 X158.630 Y139.680 E47.18325
G0 F9000 X159.196 Y139.680
G1 F1800 X164.229 Y144.712 E47.30161
G0 F9000 X164.465 Y146.080
G1 F1800 X166.254 Y147.869 E47.34369
G0 F9000 X166.254 Y147.303
G1 F1800 X165.030 Y146.080 E47.37246
G0 F9000 X165.596 Y146.080
G1 F1800 X166.254 Y146.738 E47.38794
G0 F9000 X166.254 Y146.172
G1 F1800 X166.162 Y146.080 E47.39010
G0 F9000 X139.554 Y157.939
G1 F1800 X138.694 Y157.079 E47.41033
G0 F9000 X138.694 Y157.645
G1 F1800 X138.988 Y157.939 E47.41724
;LAYER:-1
;RAFT
G0 F9000 X138.665 Y157.800 Z0.770
;TYPE:SUPPORT
G1 F1800 X165.026 Y157.800 E48.60088
G0 F9000 X164.225 Y158.200
G1 F1800 X140.465 Y158.200 E49.66773
G0 F9000 X140.465 Y158.600
G1 F1800 X163.424 Y158.600 E50.69862
G0 F9000 X162.569 Y159.000
G1 F1800 X141.665 Y159.000 E51.63723
G0 F9000 X141.665 Y159.400
G1 F1800 X161.369 Y159.400 E52.52197
G0 F9000 X160.170 Y159.800
G1 F1800 X141.665 Y159.800 E53.35286
G0 F9000 X140.089 Y147.400
G1 F1800 X166.285 Y147.400 E54.52909
G0 F9000 X166.285 Y147.800
G1 F1800 X139.689 Y147.800 E55.72329
G0 F9000 X139.289 Y148.200
G1 F1800 X166.285 Y148.200 E56.93544
G0 F9000 X166.285 Y148.600
G1 F1800 X138.889 Y148.600 E58.16555
G0 F9000 X138.489 Y149.000
G1 F1800 X166.285 Y149.000 E59.41362
G0 F9000 X166.285 Y149.400
G1 F1800 X138.465 Y149.400 E60.66277
G0 F9000 X138.465 Y149.800
G1 F1800 X166.461 Y149.800 E61.91983
G0 F9000 X166.661 Y150.200
G1 F1800 X138.465 Y150.200 E63.18586
G0 F9000 X138.465 Y150.600
G1 F1800 X166.685 Y150.600 E64.45297
G0 F9000 X166.685 Y151.000
G1 F1800 X138.465 Y151.000 E65.72008
G0 F9000 X138.465 Y151.400
G1 F1800 X166.685 Y151.400 E66.98720
G0 F9000 X166.685 Y151.800
G1 F1800 X138.465 Y151.800 E68.25431
G0 F9000 X138.465 Y152.200
G1 F1800 X166.685 Y152.200 E69.52142
G0 F9000 X166.685 Y152.600
G1 F1800 X138.465 Y152.600 E70.78853
G0 F9000 X138.465 Y153.000
G1 F1800 X166.685 Y153.000 E72.05564
G0 F9000 X166.685 Y153.400
G1 F1800 X138.465 Y153.400 E73.32275
G0 F9000 X138.465 Y153.800
G1 F1800 X166.685 Y153.800 E74.58986
G0 F9000 X166.685 Y154.200
G1 F1800 X138.469 Y154.200 E75.85680
G0 F9000 X138.665 Y154.600
G1 F1800 X166.685 Y154.600 E77.11493
G0 F9000 X166.685 Y155.000
G1 F1800 X138.665 Y155.000 E78.37306
G0 F9000 X138.665 Y155.400
G1 F1800 X166.685 Y155.400 E79.63119
G0 F9000 X166.685 Y155.800
G1 F1800 X138.665 Y155.800 E80.88932
G0 F9000 X138.665 Y156.200
G1 F1800 X166.685 Y156.200 E82.14745
G0 F9000 X166.685 Y156.600
G1 F1800 X138.665 Y156.600 E83.40558
G0 F9000 X138.665 Y157.000
G1 F1800 X166.628 Y157.000 E84.66115
G0 F9000 X165.827 Y157.400
G1 F1800 X138.665 Y157.400 E85.88076
G0 F9000 X141.665 Y160.200
G1 F1800 X159.080 Y160.200 E86.66271
G0 F9000 X158.481 Y160.600
G1 F1800 X141.665 Y160.600 E87.41777
G0 F9000 X141.665 Y161.000
G1 F1800 X157.823 Y161.000 E88.14329
G0 F9000 X157.025 Y161.400
G1 F1800 X141.665 Y161.400 E88.83297
G0 F9000 X142.125 Y161.800
G1 F1800 X156.228 Y161.800 E89.46621
G0 F9000 X155.427 Y162.200
G1 F1800 X142.465 Y162.200 E90.04822
G0 F9000 X142.465 Y162.600
G1 F1800 X154.626 Y162.600 E90.59426
G0 F9000 X153.825 Y163.000
G1 F1800 X142.465 Y163.000 E91.10434
G0 F9000 X142.465 Y163.400
G1 F1800 X153.224 Y163.400 E91.58743
G0 F9000 X152.623 Y163.800
G1 F1800 X142.465 Y163.800 E92.04354
G0 F9000 X142.465 Y164.200
G1 F1800 X152.080 Y164.200 E92.47526
G0 F9000 X151.680 Y164.600
G1 F1800 X142.465 Y164.600 E92.88903
G0 F9000 X142.465 Y165.000
G1 F1800 X151.280 Y165.000 E93.28483
G0 F9000 X140.489 Y147.000
G1 F1800 X166.285 Y147.000 E94.44310
G0 F9000 X166.285 Y146.600
G1 F1800 X140.889 Y146.600 E95.58341
G0 F9000 X141.366 Y146.200
G1 F1800 X166.285 Y146.200 E96.70230
G0 F9000 X164.026 Y145.400
G1 F1800 X142.665 Y145.400 E97.66144
G0 F9000 X142.665 Y145.000
G1 F1800 X164.163 Y145.000 E98.62672
G0 F9000 X164.301 Y144.600
G1 F1800 X142.890 Y144.600 E99.58810
G0 F9000 X143.290 Y144.200
G1 F1800 X164.061 Y144.200 E100.52075
G0 F9000 X163.661 Y143.800
G1 F1800 X143.690 Y143.800 E101.41747
G0 F9000 X144.065 Y143.400
G1 F1800 X163.285 Y143.400 E102.28047
G0 F9000 X163.061 Y143.000
G1 F1800 X144.065 Y143.000 E103.13341
G0 F9000 X144.162 Y142.600
G1 F1800 X162.661 Y142.600 E103.96404
G0 F9000 X162.261 Y142.200
G1 F1800 X144.962 Y142.200 E104.74078
G0 F9000 X145.690 Y141.800
G1 F1800 X161.861 Y141.800 E105.46688
G0 F9000 X161.461 Y141.400
G1 F1800 X146.111 Y141.400 E106.15611
G0 F9000 X147.364 Y141.000
G1 F1800 X161.061 Y141.000 E106.77113
G0 F9000 X160.661 Y140.600
G1 F1800 X148.166 Y140.600 E107.33217
G0 F9000 X150.465 Y140.200
G1 F1800 X160.261 Y140.200 E107.77202
G0 F9000 X163.888 Y145.800
G1 F1800 X142.166 Y145.800 E108.74736
G0 F9000 X150.465 Y139.800
G1 F1800 X159.861 Y139.800 E109.16925
;LAYER:-1
;RAFT
G0 F9000 X159.799 Y139.738 Z1.040
;TYPE:SUPPORT
G1 F1800 X159.799 Y159.923 E110.07558
G0 F9000 X159.399 Y159.969
G1 F1800 X159.399 Y139.649 E110.98797
G0 F9000 X158.999 Y139.649
G1 F1800 X158.999 Y160.280 E111.91433
G0 F9000 X158.599 Y160.512
G1 F1800 X158.599 Y139.649 E112.85110
G0 F9000 X158.199 Y139.649
G1 F1800 X158.199 Y160.811 E113.80130
G0 F9000 X157.799 Y161.012
G1 F1800 X157.799 Y139.649 E114.76053
G0 F9000 X157.399 Y139.649
G1 F1800 X157.399 Y161.212 E115.72873
G0 F9000 X156.999 Y161.412
G1 F1800 X156.999 Y139.649 E116.70592
G0 F9000 X156.599 Y139.649
G1 F1800 X156.599 Y161.590 E117.69109
G0 F9000 X156.199 Y161.814
G1 F1800 X156.199 Y139.649 E118.68633
G0 F9000 X155.799 Y139.649
G1 F1800 X155.799 Y162.014 E119.69054
G0 F9000 X155.399 Y162.213
G1 F1800 X155.399 Y139.649 E120.70369
G0 F9000 X154.999 Y139.649
G1 F1800 X154.999 Y162.413 E121.72582
G0 F9000 X154.599 Y162.613
G1 F1800 X154.599 Y139.649 E122.75693
G0 F9000 X154.199 Y139.649
G1 F1800 X154.199 Y162.812 E123.79698
G0 F9000 X153.799 Y163.012
G1 F1800 X153.799 Y139.649 E124.84601
G0 F9000 X153.399 Y139.649
G1 F1800 X153.399 Y163.280 E125.90707
G0 F9000 X152.999 Y163.512
G1 F1800 X152.999 Y139.649 E126.97854
G0 F9000 X152.599 Y139.649
G1 F1800 X152.599 Y163.811 E128.06345
G0 F9000 X152.199 Y164.080
G1 F1800 X152.199 Y139.649 E129.16043
G0 F9000 X151.799 Y139.649
G1 F1800 X151.799 Y164.480 E130.27537
G0 F9000 X151.399 Y164.880
G1 F1800 X151.399 Y139.649 E131.40827
G0 F9000 X150.999 Y139.649
G1 F1800 X150.999 Y165.169 E132.55415
G0 F9000 X150.599 Y165.169
G1 F1800 X150.599 Y139.649 E133.70003
G0 F9000 X150.199 Y140.249
G1 F1800 X150.199 Y165.169 E134.81896
G0 F9000 X149.799 Y165.169
G1 F1800 X149.799 Y140.249 E135.93790
G0 F9000 X149.399 Y140.249
G1 F1800 X149.399 Y165.169 E137.05684
G0 F9000 X148.999 Y165.169
G1 F1800 X148.999 Y140.249 E138.17578
G0 F9000 X148.599 Y140.382
G1 F1800 X148.599 Y165.169 E139.28874
G0 F9000 X148.199 Y165.169
G1 F1800 X148.199 Y140.581 E140.39277
G0 F9000 X147.799 Y140.781
G1 F1800 X147.799 Y165.169 E141.48782
G0 F9000 X147.399 Y165.169
G1 F1800 X147.399 Y140.980 E142.57394
G0 F9000 X146.999 Y141.177
G1 F1800 X146.999 Y165.169 E143.65121
G0 F9000 X146.599 Y165.169
G1 F1800 X146.599 Y141.276 E144.72403
G0 F9000 X146.199 Y141.376
G1 F1800 X146.199 Y165.169 E145.79236
G0 F9000 X145.799 Y165.169
G1 F1800 X145.799 Y141.688 E146.84669
G0 F9000 X145.399 Y141.979
G1 F1800 X145.399 Y165.169 E147.88795
G0 F9000 X144.999 Y165.169
G1 F1800 X144.999 Y142.179 E148.92022
G0 F9000 X144.599 Y142.379
G1 F1800 X144.599 Y165.169 E149.94352
G0 F9000 X144.199 Y165.169
G1 F1800 X144.199 Y142.579 E150.95784
G0 F9000 X143.799 Y143.688
G1 F1800 X143.799 Y165.169 E151.92236
G0 F9000 X143.399 Y165.169
G1 F1800 X143.399 Y144.088 E152.86892
G0 F9000 X142.999 Y144.488
G1 F1800 X142.999 Y165.169 E153.79753
G0 F9000 X142.599 Y165.169
G1 F1800 X142.599 Y145.581 E154.67705
G0 F9000 X142.199 Y145.781
G1 F1800 X142.199 Y161.836 E155.39794
G0 F9000 X141.799 Y161.636
G1 F1800 X141.799 Y145.981 E156.10087
G0 F9000 X141.399 Y146.181
G1 F1800 X141.399 Y158.769 E156.66608
G0 F9000 X140.999 Y158.769
G1 F1800 X140.999 Y146.488 E157.21751
G0 F9000 X140.599 Y146.888
G1 F1800 X140.599 Y158.769 E157.75098
G0 F9000 X140.199 Y157.969
G1 F1800 X140.199 Y147.288 E158.23057
G0 F9000 X139.799 Y147.688
G1 F1800 X139.799 Y157.969 E158.69220
G0 F9000 X139.399 Y157.969
G1 F1800 X139.399 Y148.088 E159.13587
G0 F9000 X138.999 Y148.488
G1 F1800 X138.999 Y157.969 E159.56158
G0 F9000 X138.599 Y154.329
G1 F1800 X138.599 Y148.888 E159.80589
G0 F9000 X160.199 Y140.138
G1 F1800 X160.199 Y159.790 E160.68829
G0 F9000 X160.599 Y159.656
G1 F1800 X160.599 Y140.538 E161.54671
G0 F9000 X160.999 Y140.938
G1 F1800 X160.999 Y159.523 E162.38119
G0 F9000 X161.399 Y159.389
G1 F1800 X161.399 Y141.338 E163.19171
G0 F9000 X161.799 Y141.738
G1 F1800 X161.799 Y159.256 E163.97828
G0 F9000 X162.199 Y159.123
G1 F1800 X162.199 Y142.138 E164.74093
G0 F9000 X162.599 Y142.538
G1 F1800 X162.599 Y158.989 E165.47960
G0 F9000 X162.999 Y158.812
G1 F1800 X162.999 Y142.938 E166.19236
G0 F9000 X163.399 Y143.539
G1 F1800 X163.399 Y158.612 E166.86916
G0 F9000 X163.799 Y158.412
G1 F1800 X163.799 Y143.939 E167.51901
G0 F9000 X164.199 Y144.339
G1 F1800 X164.199 Y144.894 E167.54393
G0 F9000 X164.199 Y146.049
G1 F1800 X164.199 Y158.212 E168.09007
G0 F9000 X164.599 Y158.013
G1 F1800 X164.599 Y146.049 E168.62726
G0 F9000 X164.999 Y146.049
G1 F1800 X164.999 Y157.813 E169.15548
G0 F9000 X165.399 Y157.613
G1 F1800 X165.399 Y146.049 E169.67472
G0 F9000 X165.799 Y146.049
G1 F1800 X165.799 Y157.413 E170.18498
G0 F9000 X166.199 Y157.214
G1 F1800 X166.199 Y146.049 E170.68630
G0 F9000 X166.599 Y150.139
G1 F1800 X166.599 Y157.014 E170.99499
;LAYER:0
M107
G1 F2400 E170.39499
G1 Z1.540
G0 F9000 X157.430 Y156.250 Z1.440
;TYPE:SUPPORT
G1 Z1.440
G1 F2400 E170.99499
G1 F540 X156.700 Y156.250 E171.02534
G0 F9000 X156.250 Y154.252
G1 F540 X156.250 Y144.030 E171.45032
G0 F9000 X157.360 Y143.750
G1 F540 X158.250 Y143.750 E171.48733
G0 F9000 X152.450 Y156.250
G1 F540 X146.500 Y156.250 E171.73470
G0 F9000 X143.750 Y152.092
G1 F540 X143.750 Y150.944 E171.78243
;LAYER:1
M106 S10
G1 F2400 E171.18243
G1 Z1.940
G0 F9000 X150.302 Y150.068
;TYPE:WALL-OUTER
G1 Z1.440
G1 F2400 E171.78243
G1 F540 X150.576 Y149.801 E171.79833
G1 X150.869 Y149.574 E171.81374
G1 X151.173 Y149.395 E171.82841
G1 X151.500 Y149.253 E171.84323
G1 X151.855 Y149.148 E171.85862
G1 X152.209 Y149.088 E171.87355
G1 X152.602 Y149.067 E171.88991
G1 X152.637 Y149.068 E171.89137
G1 X150.173 Y150.225 E172.00454
G1 X150.302 Y150.068 E172.01299
G1 F2400 E171.41299
G1 Z1.940
G0 F9000 X152.515 Y153.250
G1 Z1.440
G1 F2400 E172.01299
G1 F540 X152.894 Y153.008 E172.03168
G1 X153.153 Y152.895 E172.04343
G1 X153.652 Y152.770 E172.06482
G1 X154.075 Y152.737 E172.08246
G1 X154.208 Y152.743 E172.08799
G1 X154.251 Y152.775 E172.09022
G1 X154.383 Y152.964 E172.09981
G1 X152.203 Y153.988 E172.19994
G1 X151.705 Y154.220 E172.22278
G1 X151.761 Y154.115 E172.22773
G1 X152.081 Y153.667 E172.25062
G1 X152.391 Y153.348 E172.26911
G1 X152.515 Y153.250 E172.27568
G1 F2400 E171.67568
G1 Z1.940
G0 F9000 X156.250 Y153.614
;TYPE:SUPPORT
G1 Z1.440
G1 F2400 E172.27568
G1 F540 X156.250 Y144.803 E172.64200
;LAYER:2
M106 S20
G1 F2400 E172.04200
G1 Z1.940
G0 F9000 X153.205 Y148.664 Z1.640
;TYPE:WALL-OUTER
G1 Z1.640
G1 F2400 E172.64200
G1 F540 X153.513 Y148.737 E172.65516
G1 X149.346 Y150.697 E172.84661
G1 X149.587 Y150.243 E172.86798
G1 X149.821 Y149.893 E172.88549
G1 X150.202 Y149.455 E172.90962
G1 X150.343 Y149.319 E172.91777
G1 X150.641 Y149.089 E172.93342
G1 X150.941 Y148.912 E172.94790
G1 X151.398 Y148.729 E172.96836
G1 X151.625 Y148.663 E172.97819
G1 X151.981 Y148.602 E172.99321
G1 X152.375 Y148.582 E173.00961
G1 X152.790 Y148.603 E173.02689
G1 X153.205 Y148.664 E173.04433
G0 F9000 X152.537 Y149.002
;TYPE:FILL
G1 F540 X152.298 Y148.762 E173.05841
G0 F9000 X151.691 Y148.829
G1 F540 X150.612 Y149.908 E173.12185
G0 F9000 X150.373 Y150.019
;TYPE:SKIN
G1 F540 X150.315 Y149.608 E173.13534
G1 X151.094 Y149.680 E173.15681
G1 X151.148 Y149.027 E173.18209
G1 X152.056 Y149.228 E173.20691
G1 X152.313 Y148.777 E173.22638
G1 X152.771 Y148.882 E173.24591
G1 F2400 E172.64591
G1 Z2.140
G0 F9000 X153.695 Y152.759
;TYPE:WALL-INNER
G1 Z1.640
G1 F2400 E173.24591
G1 F540 X153.732 Y152.758 E173.24745
G1 X153.746 Y152.793 E173.24902
G1 X153.137 Y153.080 E173.27701
G1 X152.245 Y153.499 E173.31798
G1 X152.499 Y153.235 E173.33321
G1 X152.686 Y153.092 E173.34300
G1 X152.890 Y152.971 E173.35286
G1 X153.096 Y152.881 E173.36221
G1 X153.425 Y152.792 E173.37638
G1 X153.695 Y152.759 E173.38769
G0 F9000 X153.640 Y152.262
;TYPE:WALL-OUTER
G1 F540 X153.843 Y152.253 E173.39613
G1 X153.984 Y152.262 E173.40201
G1 X154.085 Y152.368 E173.40810
G1 X154.172 Y152.511 E173.41505
G1 X154.384 Y153.046 E173.43898
G1 X151.446 Y154.426 E173.57393
G1 X151.336 Y154.131 E173.58702
G1 X151.325 Y154.048 E173.59050
G1 X151.327 Y154.021 E173.59163
G1 X151.533 Y153.631 E173.60996
G1 X151.733 Y153.335 E173.62482
G1 X151.934 Y153.089 E173.63802
G1 X152.170 Y152.858 E173.65175
G1 X152.406 Y152.677 E173.66412
G1 X152.661 Y152.525 E173.67646
G1 X152.933 Y152.407 E173.68879
G1 X153.332 Y152.299 E173.70597
G1 X153.640 Y152.262 E173.71887
G1 F2400 E173.11887
G1 Z2.140
G0 F9000 X156.250 Y153.611
;TYPE:SUPPORT
G1 Z1.640
G1 F2400 E173.71887
G1 F540 X156.250 Y144.803 E174.08506
;LAYER:3
M106 S30
G1 F2400 E173.48506
G1 Z2.140
G0 F9000 X152.500 Y148.614 Z1.840
;TYPE:WALL-INNER
G1 Z1.840
G1 F2400 E174.08506
G1 F600 X152.710 Y148.646 E174.09390
G1 X152.139 Y148.916 E174.12016
G1 X151.663 Y149.138 E174.14199
G1 X151.166 Y149.373 E174.16485
G1 X150.695 Y149.593 E174.18646
G1 X150.189 Y149.832 E174.20973
G1 X149.798 Y150.016 E174.22769
G1 X150.050 Y149.636 E174.24665
G1 X150.254 Y149.395 E174.25978
G1 X150.469 Y149.190 E174.27213
G1 X150.703 Y149.012 E174.28435
G1 X150.954 Y148.865 E174.29644
G1 X151.219 Y148.752 E174.30842
G1 X151.532 Y148.661 E174.32197
G1 X151.816 Y148.614 E174.33394
G1 X152.148 Y148.598 E174.34776
G1 X152.500 Y148.614 E174.36241
G0 F9000 X152.560 Y148.117
;TYPE:WALL-OUTER
G1 F600 X152.978 Y148.180 E174.37998
G1 X153.723 Y148.382 E174.41208
G1 X154.125 Y148.535 E174.42996
G1 X148.795 Y151.038 E174.67477
G1 X149.150 Y150.142 E174.71484
G1 X149.433 Y149.644 E174.73866
G1 X149.653 Y149.332 E174.75453
G1 X149.889 Y149.053 E174.76972
G1 X150.149 Y148.804 E174.78469
G1 X150.424 Y148.595 E174.79905
G1 X150.731 Y148.417 E174.81380
G1 X151.046 Y148.282 E174.82805
G1 X151.420 Y148.173 E174.84425
G1 X151.760 Y148.116 E174.85858
G1 X152.147 Y148.098 E174.87469
G1 X152.560 Y148.117 E174.89187
G0 F9000 X151.619 Y148.901
;TYPE:FILL
G1 F600 X151.498 Y149.022 E174.89899
G1 F2400 E174.29899
G1 Z2.340
G0 F9000 X152.950 Y152.369
;TYPE:WALL-INNER
G1 Z1.840
G1 F2400 E174.89899
G1 F600 X153.163 Y152.314 E174.90813
G1 X153.508 Y152.278 E174.92256
G1 X153.743 Y152.878 E174.94935
G1 X153.172 Y153.146 E174.97557
G1 X152.660 Y153.386 E174.99908
G1 X152.103 Y153.648 E175.02467
G1 X151.728 Y153.824 E175.04189
G1 X151.628 Y153.614 E175.05156
G1 X151.810 Y153.291 E175.06698
G1 X152.060 Y152.962 E175.08416
G1 X152.270 Y152.751 E175.09653
G1 X152.458 Y152.607 E175.10638
G1 X152.652 Y152.491 E175.11578
G1 X152.950 Y152.369 E175.12916
G0 F9000 X152.791 Y151.894
;TYPE:WALL-OUTER
G1 F600 X153.073 Y151.821 E175.14127
G1 X153.618 Y151.768 E175.16404
G1 X153.762 Y151.775 E175.17003
G1 X153.813 Y151.824 E175.17297
G1 X153.932 Y152.002 E175.18188
G1 X154.375 Y153.132 E175.23234
G1 X152.871 Y153.839 E175.30143
G1 X151.544 Y154.463 E175.36240
G1 X151.271 Y154.037 E175.38343
G1 X151.128 Y153.724 E175.39774
G1 X151.101 Y153.606 E175.40277
G1 X151.097 Y153.557 E175.40481
G1 X151.104 Y153.525 E175.40618
G1 X151.393 Y153.013 E175.43062
G1 X151.681 Y152.634 E175.45041
G1 X151.938 Y152.376 E175.46555
G1 X152.174 Y152.194 E175.47794
G1 X152.431 Y152.041 E175.49038
G1 X152.791 Y151.894 E175.50654
G1 F2400 E174.90654
G1 Z2.340
G0 F9000 X156.250 Y153.612
;TYPE:SUPPORT
G1 Z1.840
G1 F2400 E175.50654
G1 F600 X156.250 Y144.803 E175.87278
;LAYER:4
M106 S40
G1 F2400 E175.27278
G1 Z2.340
G0 F9000 X153.200 Y148.327 Z2.040
;TYPE:WALL-INNER
G1 Z2.040
G1 F2400 E175.87278
G1 F540 X153.407 Y148.401 E175.88192
G1 X152.622 Y148.769 E175.91796
G1 X152.144 Y148.995 E175.93994
G1 X150.382 Y149.822 E176.02087
G1 X149.927 Y150.037 E176.04179
G1 X149.448 Y150.260 E176.06376
G1 X149.152 Y150.399 E176.07735
G1 X149.408 Y149.808 E176.10413
G1 X149.580 Y149.498 E176.11887
G1 X150.257 Y149.178 E176.15000
G1 X150.896 Y148.880 E176.17931
G1 X152.440 Y148.155 E176.25023
G1 X152.707 Y148.198 E176.26147
G1 X153.200 Y148.327 E176.28266
G0 F9000 X153.347 Y147.849
;TYPE:WALL-OUTER
G1 F540 X153.907 Y148.049 E176.30738
G1 X154.519 Y148.322 E176.33524
G1 X154.629 Y148.381 E176.34043
G1 X148.364 Y151.323 E176.62819
G1 X148.560 Y150.574 E176.66038
G1 X148.732 Y150.090 E176.68173
G1 X148.963 Y149.580 E176.70501
G1 X149.243 Y149.104 E176.72797
G1 X150.046 Y148.726 E176.76487
G1 X152.367 Y147.638 E176.87144
G1 X152.817 Y147.710 E176.89039
G1 X153.347 Y147.849 E176.91317
G0 F9000 X152.274 Y148.739
;TYPE:FILL
G1 F540 X151.998 Y148.555 E176.92569
G1 X151.343 Y149.176 E176.96322
G1 F2400 E176.36322
G1 Z2.540
G0 F9000 X152.650 Y151.907
;TYPE:WALL-INNER
G1 Z2.040
G1 F2400 E176.96322
G1 F540 X152.924 Y151.832 E176.97503
G1 X153.189 Y151.794 E176.98616
G1 X153.284 Y151.789 E176.99011
G1 X153.733 Y152.964 E177.04241
G1 X153.206 Y153.212 E177.06662
G1 X152.110 Y153.725 E177.11693
G1 X151.821 Y153.861 E177.13021
G1 X151.487 Y153.319 E177.15668
G1 X151.399 Y153.129 E177.16539
G1 X151.502 Y152.931 E177.17467
G1 X151.839 Y152.471 E177.19837
G1 X152.080 Y152.240 E177.21225
G1 X152.423 Y152.009 E177.22945
G1 X152.650 Y151.907 E177.23979
G0 F9000 X153.751 Y151.612
;TYPE:WALL-OUTER
G1 F540 X154.247 Y152.909 E177.29752
G1 X154.362 Y153.221 E177.31135
G1 X153.425 Y153.662 E177.35440
G1 X151.832 Y154.409 E177.42755
G1 X151.631 Y154.504 E177.43680
G1 X151.045 Y153.555 E177.48317
G1 X150.905 Y153.253 E177.49701
G1 X150.868 Y153.070 E177.50477
G1 X151.077 Y152.664 E177.52375
G1 X151.462 Y152.140 E177.55079
G1 X151.766 Y151.849 E177.56828
G1 X152.179 Y151.571 E177.58898
G1 X152.480 Y151.435 E177.60271
G1 X152.821 Y151.341 E177.61742
G1 X153.138 Y151.296 E177.63073
G1 X153.397 Y151.283 E177.64151
G1 X153.507 Y151.287 E177.64609
G1 X153.739 Y151.310 E177.65578
G1 X153.727 Y151.374 E177.65849
G1 X153.724 Y151.418 E177.66032
G1 X153.727 Y151.493 E177.66344
G1 X153.751 Y151.612 E177.66849
G0 F9000 X153.248 Y152.187
;TYPE:SKIN
G1 F540 X153.050 Y151.989 E177.68013
G0 F9000 X152.513 Y152.160
G1 F540 X153.318 Y152.964 E177.72743
G0 F9000 X152.836 Y153.190
G1 F540 X152.104 Y152.457 E177.77050
G0 F9000 X151.782 Y152.843
G1 F540 X152.355 Y153.416 E177.80419
G1 F2400 E177.20419
G1 Z2.540
G0 F9000 X156.250 Y153.614
;TYPE:SUPPORT
G1 Z2.040
G1 F2400 E177.80419
G1 F540 X156.250 Y149.435 E177.97793
;LAYER:5
M106 S51
G1 F2400 E177.37793
G1 Z2.540
G0 F9000 X153.892 Y148.203 Z2.240
;TYPE:WALL-INNER
G1 Z2.240
G1 F2400 E177.97793
G1 F540 X153.946 Y148.231 E177.98046
G1 X153.108 Y148.625 E178.01896
G1 X152.565 Y148.879 E178.04388
G1 X150.690 Y149.760 E178.13001
G1 X150.088 Y150.042 E178.15765
G1 X148.676 Y150.706 E178.22252
G1 X148.936 Y149.883 E178.25841
G1 X153.152 Y147.903 E178.45205
G1 X153.332 Y147.964 E178.45996
G1 X153.892 Y148.203 E178.48527
G0 F9000 X154.110 Y147.752
;TYPE:WALL-OUTER
G1 F540 X154.758 Y148.086 E178.51558
G1 X155.055 Y148.263 E178.52995
G1 X148.000 Y151.576 E178.85400
G1 X148.191 Y150.583 E178.89604
G1 X148.331 Y150.089 E178.91738
G1 X148.506 Y149.599 E178.93902
G1 X148.543 Y149.514 E178.94287
G1 X153.119 Y147.366 E179.15304
G1 X153.510 Y147.496 E179.17017
G1 X154.110 Y147.752 E179.19729
G1 F2400 E178.59729
G1 Z2.740
G0 F9000 X152.331 Y148.795
;TYPE:FILL
G1 Z2.240
G1 F2400 E179.19729
G1 F540 X151.949 Y148.659 E179.20983
G1 X151.150 Y149.192 E179.24481
G1 X150.149 Y149.662 E179.27984
G1 X149.185 Y150.274 E179.32732
G1 F2400 E178.72732
G1 Z2.740
G0 F9000 X151.852 Y149.021
;TYPE:SKIN
G1 Z2.240
G1 F2400 E179.32732
G1 F540 X152.817 Y148.409 E179.36228
G1 X153.398 Y148.182 E179.38822
G1 F2400 E178.78822
G1 Z2.740
G0 F9000 X153.224 Y151.441
;TYPE:WALL-INNER
G1 Z2.240
G1 F2400 E179.38822
G1 F540 X153.219 Y151.620 E179.39566
G1 X153.263 Y151.847 E179.40527
G1 X153.721 Y153.051 E179.45883
G1 X152.709 Y153.527 E179.50533
G1 X152.151 Y153.789 E179.53095
G1 X151.914 Y153.900 E179.54183
G1 X151.257 Y152.830 E179.59404
G1 X151.181 Y152.717 E179.59970
G1 X151.148 Y152.684 E179.60164
G1 X151.324 Y152.365 E179.61679
G1 X151.439 Y152.195 E179.62532
G1 X151.661 Y151.930 E179.63969
G1 X151.835 Y151.765 E179.64966
G1 X152.234 Y151.502 E179.66953
G1 X152.444 Y151.414 E179.67900
G1 X152.896 Y151.314 E179.69824
G1 X153.168 Y151.299 E179.70957
G1 X153.252 Y151.303 E179.71306
G1 X153.224 Y151.441 E179.71892
G0 F9000 X153.720 Y151.582
;TYPE:WALL-OUTER
G1 F540 X153.744 Y151.706 E179.72417
G1 X154.191 Y152.879 E179.77636
G1 X154.352 Y153.308 E179.79541
G1 X152.909 Y153.985 E179.86168
G1 X151.898 Y154.460 E179.90812
G1 X151.726 Y154.543 E179.91606
G1 X150.833 Y153.095 E179.98678
G1 X150.794 Y153.038 E179.98966
G1 X150.715 Y152.959 E179.99430
G1 X150.613 Y152.889 E179.99944
G1 X150.527 Y152.852 E180.00334
G1 X150.558 Y152.773 E180.00686
G1 X150.582 Y152.780 E180.00790
G1 X150.653 Y152.546 E180.01807
G1 X150.898 Y152.103 E180.03912
G1 X151.046 Y151.886 E180.05004
G1 X151.290 Y151.594 E180.06586
G1 X151.515 Y151.381 E180.07874
G1 X151.755 Y151.202 E180.09119
G1 X152.008 Y151.055 E180.10335
G1 X152.283 Y150.940 E180.11574
G1 X152.568 Y150.862 E180.12803
G1 X152.843 Y150.816 E180.13962
G1 X153.170 Y150.798 E180.15324
G1 X153.452 Y150.813 E180.16498
G1 X154.097 Y150.924 E180.19219
G1 X154.285 Y150.980 E180.20034
G1 X153.938 Y151.147 E180.21635
G1 X153.841 Y151.231 E180.22169
G1 X153.795 Y151.290 E180.22480
G1 X153.760 Y151.360 E180.22805
G1 X153.736 Y151.429 E180.23109
G1 X153.723 Y151.497 E180.23397
G1 X153.720 Y151.582 E180.23750
G0 F9000 X153.128 Y151.988
;TYPE:SKIN
G1 F540 X151.776 Y153.340 E180.31700
G0 F9000 X151.506 Y152.902
G1 F540 X152.922 Y151.487 E180.40022
G0 F9000 X153.322 Y152.501
G1 F540 X152.296 Y153.527 E180.46055
G1 F2400 E179.86055
G1 Z2.740
G0 F9000 X156.250 Y153.022
;TYPE:SUPPORT
G1 Z2.240
G1 F2400 E180.46055
G1 F540 X156.250 Y149.574 E180.60390
;LAYER:6
M106 S63
G1 F2400 E180.00390
G1 Z2.740
G0 F9000 X153.887 Y148.340 Z2.440
;TYPE:WALL-INNER
G1 Z2.440
G1 F2400 E180.60390
G1 F540 X153.411 Y148.565 E180.62579
G1 X152.189 Y149.138 E180.68190
G1 X151.577 Y149.426 E180.71002
G1 X148.596 Y150.825 E180.84693
G1 X148.298 Y150.966 E180.86063
G1 X148.448 Y150.222 E180.89219
G1 X148.457 Y150.190 E180.89357
G1 X149.428 Y149.735 E180.93815
G1 X149.880 Y149.521 E180.95894
G1 X150.908 Y149.040 E181.00613
G1 X153.689 Y147.733 E181.13388
G1 X154.401 Y148.099 E181.16717
G1 X153.887 Y148.340 E181.19077
G0 F9000 X154.189 Y147.414
;TYPE:WALL-OUTER
G1 F540 X154.683 Y147.684 E181.21417
G1 X155.216 Y148.013 E181.24021
G1 X155.440 Y148.165 E181.25147
G1 X147.683 Y151.808 E181.60776
G1 X147.786 Y150.975 E181.64266
G1 X147.963 Y150.096 E181.67994
G1 X148.038 Y149.835 E181.69123
G1 X148.500 Y149.617 E181.71247
G1 X149.215 Y149.282 E181.74529
G1 X149.669 Y149.068 E181.76616
G1 X153.687 Y147.181 E181.95071
G1 X154.189 Y147.414 E181.97372
G1 F2400 E181.37372
G1 Z2.940
G0 F9000 X152.386 Y148.850
;TYPE:FILL
G1 Z2.440
G1 F2400 E181.97372
G1 F540 X151.899 Y148.765 E181.98622
G1 X151.031 Y149.488 E182.03319
G1 F2400 E181.43319
G1 Z2.940
G0 F9000 X151.791 Y151.143
;TYPE:WALL-INNER
G1 Z2.440
G1 F2400 E182.03319
G1 F540 X151.983 Y151.028 E182.04249
G1 X152.198 Y150.935 E182.05223
G1 X152.425 Y150.870 E182.06205
G1 X152.683 Y150.829 E182.07291
G1 X152.946 Y150.814 E182.08386
G1 X153.187 Y150.827 E182.09389
G1 X153.556 Y150.886 E182.10943
G1 X153.447 Y150.999 E182.11596
G1 X153.367 Y151.102 E182.12138
G1 X153.294 Y151.239 E182.12783
G1 X153.231 Y151.414 E182.13557
G1 X153.204 Y151.682 E182.14676
G1 X153.252 Y151.930 E182.15727
G1 X153.669 Y153.026 E182.20602
G1 X153.712 Y153.139 E182.21105
G1 X152.273 Y153.815 E182.27714
G1 X152.012 Y153.937 E182.28912
G1 X151.472 Y153.067 E182.33169
G1 X151.308 Y152.800 E182.34472
G1 X151.109 Y152.584 E182.35693
G1 X150.854 Y152.450 E182.36891
G1 X150.807 Y152.438 E182.37093
G1 X151.054 Y151.947 E182.39378
G1 X151.236 Y151.680 E182.40721
G1 X151.413 Y151.464 E182.41882
G1 X151.586 Y151.297 E182.42882
G1 X151.791 Y151.143 E182.43948
G0 F9000 X151.511 Y150.728
;TYPE:WALL-OUTER
G1 F540 X151.753 Y150.583 E182.45121
G1 X152.032 Y150.462 E182.46385
G1 X152.315 Y150.381 E182.47609
G1 X152.625 Y150.331 E182.48914
G1 X152.944 Y150.313 E182.50243
G1 X153.237 Y150.329 E182.51463
G1 X153.768 Y150.415 E182.53699
G1 X153.999 Y150.471 E182.54687
G1 X154.629 Y150.691 E182.57462
G1 X154.849 Y150.790 E182.58465
G1 X154.524 Y150.953 E182.59976
G1 X153.962 Y151.217 E182.62558
G1 X153.869 Y151.279 E182.63022
G1 X153.788 Y151.375 E182.63545
G1 X153.722 Y151.526 E182.64230
G1 X153.709 Y151.661 E182.64794
G1 X153.734 Y151.791 E182.65344
G1 X154.343 Y153.390 E182.72458
G1 X151.965 Y154.511 E182.83388
G1 X151.822 Y154.579 E182.84046
G1 X151.046 Y153.328 E182.90166
G1 X150.908 Y153.103 E182.91264
G1 X150.800 Y152.987 E182.91923
G1 X150.673 Y152.920 E182.92520
G1 X150.581 Y152.896 E182.92915
G1 X150.497 Y152.890 E182.93265
G1 X150.415 Y152.898 E182.93608
G1 X150.345 Y152.917 E182.93909
G1 X150.075 Y153.042 E182.95146
G1 X150.146 Y152.772 E182.96307
G1 X150.412 Y152.089 E182.99354
G1 X150.625 Y151.690 E183.01235
G1 X150.840 Y151.373 E183.02827
G1 X151.040 Y151.131 E183.04132
G1 X151.264 Y150.914 E183.05429
G1 X151.511 Y150.728 E183.06714
G0 F9000 X151.747 Y151.394
;TYPE:SKIN
G1 F540 X153.266 Y152.912 E183.15643
G0 F9000 X153.281 Y152.928
G1 F540 X153.190 Y153.190 E183.16524
G1 X152.800 Y153.154 E183.18152
G0 F9000 X152.772 Y153.126
G1 F540 X151.400 Y151.753 E183.26222
G0 F9000 X151.127 Y152.187
G1 F540 X152.468 Y153.529 E183.34109
G1 F2400 E182.74109
G1 Z2.940
G0 F9000 X153.109 Y152.048
G1 Z2.440
G1 F2400 E183.34109
G1 F540 X152.189 Y151.129 E183.39516
G0 F9000 X152.767 Y150.999
G1 F540 X153.081 Y151.313 E183.41362
;LAYER:7
M106 S73
G0 F9000 X153.221 Y151.500 Z2.640
;TYPE:WALL-INNER
G1 F540 X153.194 Y151.766 E183.42473
G1 X153.246 Y152.028 E183.43584
G1 X153.702 Y153.225 E183.48909
G1 X153.093 Y153.512 E183.51708
G1 X152.103 Y153.978 E183.56257
G1 X151.412 Y152.854 E183.61743
G1 X151.281 Y152.698 E183.62590
G1 X151.109 Y152.569 E183.63484
G1 X150.933 Y152.486 E183.64293
G1 X150.771 Y152.442 E183.64991
G1 X150.633 Y152.429 E183.65567
G1 X150.456 Y152.438 E183.66304
G1 X150.401 Y152.450 E183.66538
G1 X150.661 Y151.766 E183.69580
G1 X150.824 Y151.469 E183.70989
G1 X151.204 Y150.895 E183.73851
G1 X150.463 Y150.034 E183.78573
G1 X149.252 Y150.599 E183.84129
G1 X148.191 Y151.100 E183.89007
G1 X147.964 Y151.206 E183.90049
G1 X148.031 Y150.703 E183.92158
G1 X148.072 Y150.454 E183.93208
G1 X149.016 Y150.010 E183.97545
G1 X149.566 Y149.753 E184.00069
G1 X150.053 Y149.522 E184.02310
G1 X150.544 Y149.292 E184.04564
G1 X153.360 Y147.970 E184.17497
G1 X153.849 Y147.741 E184.19742
G1 X154.142 Y147.603 E184.21089
G1 X154.313 Y147.699 E184.21904
G1 X154.784 Y148.002 E184.24233
G1 X153.783 Y148.471 E184.28828
G1 X153.090 Y148.798 E184.32014
G1 X152.312 Y149.163 E184.35587
G1 X152.471 Y150.263 E184.40208
G1 X153.319 Y150.392 E184.43774
G1 X153.966 Y150.575 E184.46569
G1 X154.158 Y150.655 E184.47434
G1 X153.574 Y150.945 E184.50145
G1 X153.442 Y151.077 E184.50921
G1 X153.354 Y151.194 E184.51530
G1 X153.287 Y151.321 E184.52127
G1 X153.221 Y151.500 E184.52920
G0 F9000 X153.712 Y151.613
;TYPE:WALL-OUTER
G1 F540 X153.699 Y151.747 E184.53480
G1 X153.725 Y151.882 E184.54051
G1 X154.335 Y153.481 E184.61166
G1 X152.891 Y154.158 E184.67797
G1 X151.918 Y154.618 E184.72271
G1 X151.895 Y154.596 E184.72404
G1 X151.005 Y153.147 E184.79474
G1 X150.934 Y153.063 E184.79931
G1 X150.850 Y153.000 E184.80367
G1 X150.682 Y152.936 E184.81115
G1 X150.622 Y152.930 E184.81366
G1 X150.523 Y152.935 E184.81778
G1 X150.443 Y152.953 E184.82119
G1 X149.760 Y153.271 E184.85251
G1 X149.673 Y153.309 E184.85646
G1 X149.828 Y152.597 E184.88675
G1 X150.013 Y152.028 E184.91163
G1 X150.206 Y151.557 E184.93279
G1 X150.396 Y151.207 E184.94935
G1 X150.578 Y150.934 E184.96299
G1 X150.331 Y150.647 E184.97873
G1 X148.867 Y151.334 E185.04596
G1 X147.394 Y152.026 E185.11362
G1 X147.440 Y151.396 E185.13989
G1 X147.471 Y151.114 E185.15168
G1 X147.613 Y150.170 E185.19137
G1 X147.625 Y150.111 E185.19387
G1 X153.146 Y147.518 E185.44746
G1 X153.212 Y147.487 E185.45050
G1 X154.161 Y147.041 E185.49409
G1 X154.586 Y147.279 E185.51434
G1 X155.284 Y147.729 E185.54887
G1 X155.780 Y148.088 E185.57433
G1 X152.860 Y149.458 E185.70842
G1 X152.913 Y149.825 E185.72384
G1 X153.424 Y149.903 E185.74533
G1 X154.133 Y150.102 E185.77595
G1 X154.770 Y150.369 E185.80466
G1 X155.248 Y150.614 E185.82699
G1 X155.323 Y150.661 E185.83067
G1 X154.201 Y151.187 E185.88219
G1 X153.871 Y151.355 E185.89759
G1 X153.821 Y151.406 E185.90056
G1 X153.777 Y151.463 E185.90355
G1 X153.712 Y151.613 E185.91035
G1 F2400 E185.31035
G1 Z3.140
G0 F9000 X152.443 Y148.907
;TYPE:FILL
G1 Z2.640
G1 F2400 E185.91035
G1 F540 X152.230 Y148.694 E185.92287
G0 F9000 X151.469 Y149.051
G1 F540 X150.597 Y149.922 E185.97411
G0 F9000 X150.251 Y149.939
;TYPE:SKIN
G1 F540 X149.943 Y149.814 E185.98251
G1 X149.568 Y150.259 E185.99442
G1 X149.019 Y150.201 E186.00631
G1 X148.657 Y150.686 E186.01818
G1 X148.336 Y150.521 E186.03319
G1 F2400 E185.43319
G1 Z3.140
G0 F9000 X150.640 Y149.534
G1 Z2.640
G1 F2400 E186.03319
G1 F540 X150.891 Y150.263 E186.06524
G0 F9000 X151.096 Y149.321
G1 F540 X152.302 Y152.824 E186.21927
G0 F9000 X152.732 Y152.538
G1 F540 X151.551 Y149.107 E186.37013
G0 F9000 X151.978 Y148.812
G1 F540 X152.343 Y149.102 E186.39315
G1 X152.660 Y148.491 E186.40500
G1 X153.209 Y148.548 E186.41689
G1 X153.571 Y148.063 E186.42876
G1 X153.892 Y148.228 E186.44377
G1 F2400 E185.84377
G1 Z3.140
G0 F9000 X153.101 Y150.536
G1 Z2.640
G1 F2400 E186.44377
G1 F540 X153.267 Y151.018 E186.46496
G0 F9000 X153.043 Y151.903
G1 F540 X152.542 Y150.450 E186.52886
G1 F2400 E185.92886
G1 Z3.140
G0 F9000 X151.212 Y151.196
G1 Z2.640
G1 F2400 E186.52886
G1 F540 X151.924 Y153.263 E186.61975
G0 F9000 X151.086 Y152.365
G1 F540 X150.872 Y151.741 E186.64718
;LAYER:8
M106 S84
G0 F9000 X150.451 Y151.116 Z2.840
;TYPE:WALL-INNER
G1 F600 X149.713 Y150.466 E186.68807
G1 X148.101 Y151.223 E186.76211
G1 X147.677 Y151.423 E186.78160
G1 X147.742 Y150.691 E186.81215
G1 X148.396 Y150.384 E186.84219
G1 X148.863 Y150.165 E186.86363
G1 X149.453 Y149.887 E186.89075
G1 X150.610 Y149.344 E186.94389
G1 X150.744 Y149.069 E186.95660
G1 X150.785 Y149.019 E186.95929
G1 X151.142 Y149.094 E186.97446
G1 X151.847 Y148.764 E187.00682
G1 X152.434 Y148.488 E187.03379
G1 X153.115 Y148.168 E187.06507
G1 X154.069 Y147.718 E187.10892
G1 X154.531 Y147.502 E187.13013
G1 X154.999 Y147.809 E187.15340
G1 X155.143 Y147.916 E187.16086
G1 X153.099 Y148.876 E187.25474
G1 X153.138 Y149.869 E187.29606
G1 X154.116 Y150.238 E187.33952
G1 X154.656 Y150.503 E187.36453
G1 X153.948 Y150.835 E187.39704
G1 X153.626 Y150.993 E187.41195
G1 X153.453 Y151.137 E187.42131
G1 X153.348 Y151.277 E187.42858
G1 X153.278 Y151.402 E187.43454
G1 X153.211 Y151.586 E187.44268
G1 X153.184 Y151.857 E187.45400
G1 X153.233 Y152.108 E187.46463
G1 X153.692 Y153.312 E187.51820
G1 X153.135 Y153.575 E187.54381
G1 X152.600 Y153.826 E187.56838
G1 X152.196 Y154.016 E187.58694
G1 X151.507 Y152.896 E187.64161
G1 X151.359 Y152.715 E187.65133
G1 X151.102 Y152.550 E187.66403
G1 X150.862 Y152.479 E187.67444
G1 X150.675 Y152.465 E187.68223
G1 X150.490 Y152.485 E187.68997
G1 X150.349 Y152.528 E187.69610
G1 X149.978 Y152.701 E187.71312
G1 X150.069 Y152.300 E187.73021
G1 X150.451 Y151.116 E187.78194
G0 F9000 X149.874 Y151.275
;TYPE:WALL-OUTER
G1 F600 X149.628 Y151.058 E187.79557
G1 X147.143 Y152.224 E187.90970
G1 X147.166 Y151.564 E187.93715
G1 X147.212 Y150.912 E187.96433
G1 X147.277 Y150.357 E187.98756
G1 X150.237 Y148.967 E188.12351
G1 X150.325 Y148.792 E188.13166
G1 X150.458 Y148.629 E188.14040
G1 X150.588 Y148.547 E188.14680
G1 X150.708 Y148.519 E188.15192
G1 X150.768 Y148.515 E188.15442
G1 X150.926 Y148.531 E188.16102
G1 X151.086 Y148.568 E188.16785
G1 X154.403 Y147.010 E188.32021
G1 X154.571 Y146.931 E188.32793
G1 X155.285 Y147.399 E188.36342
G1 X155.829 Y147.803 E188.39159
G1 X156.099 Y148.020 E188.40599
G1 X153.612 Y149.187 E188.52021
G1 X153.624 Y149.518 E188.53398
G1 X154.320 Y149.781 E188.56491
G1 X154.900 Y150.066 E188.59178
G1 X155.424 Y150.368 E188.61692
G1 X155.714 Y150.558 E188.63134
G1 X154.164 Y151.287 E188.70255
G1 X153.899 Y151.416 E188.71480
G1 X153.818 Y151.484 E188.71920
G1 X153.735 Y151.610 E188.72547
G1 X153.702 Y151.699 E188.72942
G1 X153.689 Y151.836 E188.73514
G1 X153.714 Y151.967 E188.74069
G1 X154.325 Y153.568 E188.81193
G1 X152.266 Y154.536 E188.90652
G1 X152.006 Y154.656 E188.91843
G1 X151.996 Y154.646 E188.91901
G1 X151.099 Y153.187 E188.99022
G1 X151.022 Y153.093 E188.99527
G1 X150.892 Y153.009 E189.00171
G1 X150.771 Y152.974 E189.00694
G1 X150.683 Y152.967 E189.01061
G1 X150.528 Y152.996 E189.01717
G1 X149.533 Y153.461 E189.06283
G1 X149.343 Y153.545 E189.07147
G1 X149.467 Y152.692 E189.10730
G1 X149.585 Y152.169 E189.12960
G1 X149.874 Y151.275 E189.16866
G0 F9000 X150.018 Y150.502
;TYPE:FILL
G1 F600 X151.314 Y149.205 E189.24489
G0 F9000 X152.286 Y148.750
G1 F600 X152.884 Y149.172 E189.27738
G1 X152.525 Y148.636 E189.30421
G0 F9000 X152.044 Y148.862
;TYPE:SKIN
G1 F600 X152.959 Y149.777 E189.35800
G0 F9000 X153.299 Y150.117
G1 F600 X153.863 Y150.681 E189.39117
G0 F9000 X153.415 Y150.940
G1 F600 X151.628 Y149.153 E189.49623
G0 F9000 X151.147 Y149.379
G1 F600 X153.111 Y151.344 E189.61174
G0 F9000 X152.962 Y151.901
G1 F600 X150.666 Y149.605 E189.74673
G0 F9000 X150.185 Y149.831
G1 F600 X152.440 Y152.086 E189.87932
G0 F9000 X152.033 Y152.387
G1 F600 X149.639 Y149.992 E190.02011
G0 F9000 X149.371 Y150.432
G1 F600 X149.023 Y150.437 E190.03264
G1 X148.542 Y150.663 E190.04514
G1 X148.195 Y150.670 E190.05957
G1 F2400 E189.45957
G1 Z3.340
G0 F9000 X150.493 Y151.554
G1 Z2.840
G1 F2400 E190.05957
G1 F600 X151.711 Y152.771 E190.13116
G0 F9000 X150.535 Y152.303
G1 F600 X150.321 Y152.088 E190.14377
G1 F2400 E189.54377
G1 Z3.340
G0 F9000 X153.220 Y148.624
G1 Z2.840
G1 F2400 E190.14377
G1 F600 X153.247 Y148.297 E190.15632
G1 X153.835 Y148.178 E190.16889
G1 X154.316 Y147.952 E190.18148
G1 X154.664 Y147.947 E190.19595
;LAYER:9
M106 S94
G0 F9000 X154.951 Y148.089 Z3.040
;TYPE:WALL-INNER
G1 F660 X154.289 Y148.399 E190.22635
G1 X153.673 Y148.690 E190.25467
G1 X153.654 Y149.620 E190.29334
G1 X154.675 Y150.153 E190.34123
G1 X155.066 Y150.392 E190.36028
G1 X154.107 Y150.844 E190.40436
G1 X153.621 Y151.076 E190.42675
G1 X153.449 Y151.216 E190.43597
G1 X153.284 Y151.452 E190.44794
G1 X153.202 Y151.669 E190.45758
G1 X153.174 Y151.948 E190.46924
G1 X153.221 Y152.189 E190.47945
G1 X153.683 Y153.400 E190.53334
G1 X153.180 Y153.637 E190.55645
G1 X152.290 Y154.055 E190.59733
G1 X151.594 Y152.922 E190.65262
G1 X151.419 Y152.724 E190.66360
G1 X151.178 Y152.582 E190.67523
G1 X150.962 Y152.519 E190.68459
G1 X150.810 Y152.505 E190.69093
G1 X150.495 Y152.540 E190.70411
G1 X149.928 Y152.805 E190.73013
G1 X149.632 Y152.944 E190.74372
G1 X149.723 Y152.354 E190.76854
G1 X149.828 Y151.863 E190.78942
G1 X149.945 Y151.363 E190.81077
G1 X149.181 Y150.774 E190.85088
G1 X148.177 Y151.269 E190.89741
G1 X147.420 Y151.625 E190.93219
G1 X147.438 Y151.097 E190.95416
G1 X147.451 Y150.909 E190.96199
G1 X148.780 Y150.286 E191.02302
G1 X150.334 Y149.556 E191.09440
G1 X150.456 Y148.766 E191.12763
G1 X150.522 Y148.581 E191.13580
G1 X150.545 Y148.543 E191.13764
G1 X150.708 Y148.575 E191.14455
G1 X150.919 Y148.675 E191.15426
G1 X151.447 Y149.035 E191.18083
G1 X152.353 Y148.607 E191.22248
G1 X152.871 Y148.365 E191.24625
G1 X154.192 Y147.744 E191.30694
G1 X154.852 Y147.434 E191.33726
G1 X154.886 Y147.417 E191.33884
G1 X155.463 Y147.847 E191.36876
G1 X154.951 Y148.089 E191.39230
G0 F9000 X154.166 Y149.010
;TYPE:WALL-OUTER
G1 F660 X154.160 Y149.320 E191.40519
G1 X154.927 Y149.721 E191.44117
G1 X155.385 Y150.000 E191.46347
G1 X155.835 Y150.307 E191.48612
G1 X156.066 Y150.477 E191.49804
G1 X154.321 Y151.296 E191.57818
G1 X153.890 Y151.502 E191.59804
G1 X153.818 Y151.560 E191.60189
G1 X153.729 Y151.687 E191.60834
G1 X153.693 Y151.784 E191.61264
G1 X153.679 Y151.924 E191.61849
G1 X153.696 Y152.010 E191.62213
G1 X154.315 Y153.655 E191.69520
G1 X152.111 Y154.693 E191.79649
G1 X152.089 Y154.683 E191.79749
G1 X151.191 Y153.221 E191.86883
G1 X151.097 Y153.115 E191.87472
G1 X150.978 Y153.045 E191.88046
G1 X150.867 Y153.012 E191.88527
G1 X150.803 Y153.006 E191.88794
G1 X150.637 Y153.025 E191.89489
G1 X149.088 Y153.754 E191.96607
G1 X149.060 Y153.766 E191.96733
G1 X149.143 Y152.817 E192.00694
G1 X149.231 Y152.261 E192.03034
G1 X149.341 Y151.750 E192.05207
G1 X149.385 Y151.563 E192.06006
G1 X149.130 Y151.367 E192.07343
G1 X148.389 Y151.722 E192.10759
G1 X146.922 Y152.411 E192.17497
G1 X146.914 Y151.782 E192.20113
G1 X146.938 Y151.080 E192.23033
G1 X146.972 Y150.583 E192.25104
G1 X149.881 Y149.216 E192.38467
G1 X149.969 Y148.645 E192.40869
G1 X150.067 Y148.368 E192.42091
G1 X150.146 Y148.237 E192.42727
G1 X150.261 Y148.118 E192.43415
G1 X150.317 Y148.083 E192.43689
G1 X150.427 Y148.044 E192.44175
G1 X150.531 Y148.030 E192.44611
G1 X150.864 Y148.095 E192.46021
G1 X151.262 Y148.298 E192.47879
G1 X151.494 Y148.460 E192.49055
G1 X152.142 Y148.154 E192.52035
G1 X152.659 Y147.912 E192.54408
G1 X154.940 Y146.841 E192.64885
G1 X155.601 Y147.317 E192.68271
G1 X156.155 Y147.763 E192.71228
G1 X156.389 Y147.966 E192.72516
G1 X154.166 Y149.010 E192.82727
G0 F9000 X152.895 Y149.360
;TYPE:FILL
G1 F660 X152.342 Y148.807 E192.85978
G0 F9000 X151.344 Y149.176
G1 F660 X149.660 Y150.859 E192.95876
G1 F2400 E192.35876
G1 Z3.540
G0 F9000 X147.742 Y151.278
G1 Z3.040
G1 F2400 E192.95876
G1 F660 X147.611 Y151.143 E192.96649
G1 X148.208 Y150.897 E192.97916
G1 X149.160 Y150.299 E193.02590
G0 F9000 X149.425 Y150.741
;TYPE:SKIN
G1 F660 X150.313 Y149.852 E193.07814
G0 F9000 X149.824 Y151.049
G1 F660 X151.648 Y149.225 E193.18539
G1 F2400 E192.58539
G1 Z3.540
G0 F9000 X153.158 Y148.422
G1 Z3.040
G1 F2400 E193.18539
G1 F660 X150.096 Y151.484 E193.36542
G0 F9000 X149.892 Y152.395
G1 F660 X153.495 Y148.792 E193.57726
G0 F9000 X153.897 Y148.390
G1 F660 X154.492 Y147.795 E193.61225
G1 F2400 E193.01225
G1 Z3.540
G0 F9000 X153.480 Y149.514
G1 Z3.040
G1 F2400 E193.61225
G1 F660 X150.647 Y152.347 E193.77882
G0 F9000 X151.269 Y152.433
G1 F660 X151.683 Y152.018 E193.80319
G0 F9000 X151.824 Y151.878
G1 F660 X153.806 Y149.896 E193.91972
G0 F9000 X154.270 Y150.139
G1 F660 X153.027 Y151.382 E193.99280
;LAYER:10
M106 S104
G0 F9000 X153.194 Y151.737 Z3.240
;TYPE:WALL-INNER
G1 F720 X153.166 Y152.024 E194.00479
G1 X153.195 Y152.227 E194.01332
G1 X153.673 Y153.487 E194.06935
G1 X153.085 Y153.763 E194.09635
G1 X152.560 Y154.008 E194.12044
G1 X152.384 Y154.091 E194.12853
G1 X151.692 Y152.968 E194.18337
G1 X151.557 Y152.808 E194.19207
G1 X151.370 Y152.668 E194.20178
G1 X151.097 Y152.566 E194.21390
G1 X150.913 Y152.541 E194.22162
G1 X150.572 Y152.584 E194.23591
G1 X149.337 Y153.165 E194.29265
G1 X149.421 Y152.324 E194.32779
G1 X149.536 Y151.596 E194.35843
G1 X148.815 Y151.054 E194.39594
G1 X147.316 Y151.755 E194.46473
G1 X147.190 Y151.814 E194.47052
G1 X147.186 Y151.313 E194.49135
G1 X147.193 Y151.114 E194.49963
G1 X148.633 Y150.437 E194.56578
G1 X149.125 Y150.207 E194.58836
G1 X149.604 Y149.981 E194.61038
G1 X150.204 Y149.698 E194.63796
G1 X150.168 Y148.969 E194.66831
G1 X150.166 Y148.835 E194.67388
G1 X150.193 Y148.457 E194.68963
G1 X150.250 Y148.201 E194.70054
G1 X150.317 Y148.059 E194.70707
G1 X150.327 Y148.049 E194.70765
G1 X150.341 Y148.050 E194.70824
G1 X150.621 Y148.151 E194.72061
G1 X150.758 Y148.231 E194.72721
G1 X151.039 Y148.440 E194.74177
G1 X151.674 Y149.009 E194.77722
G1 X152.629 Y148.561 E194.82107
G1 X153.154 Y148.313 E194.84521
G1 X153.777 Y148.022 E194.87380
G1 X155.209 Y147.350 E194.93957
G1 X155.611 Y147.666 E194.96082
G1 X155.758 Y147.792 E194.96887
G1 X154.873 Y148.208 E195.00953
G1 X154.140 Y148.548 E195.04312
G1 X154.087 Y149.444 E195.08044
G1 X154.898 Y149.943 E195.12003
G1 X155.424 Y150.309 E195.14667
G1 X154.664 Y150.664 E195.18154
G1 X153.636 Y151.148 E195.22878
G1 X153.448 Y151.296 E195.23873
G1 X153.309 Y151.471 E195.24802
G1 X153.194 Y151.737 E195.26007
G0 F9000 X153.684 Y151.864
;TYPE:WALL-OUTER
G1 F720 X153.669 Y152.013 E195.26630
G1 X153.693 Y152.138 E195.27159
G1 X154.303 Y153.735 E195.34266
G1 X152.246 Y154.710 E195.43730
G1 X152.195 Y154.730 E195.43958
G1 X151.897 Y154.258 E195.46279
G1 X151.286 Y153.262 E195.51137
G1 X151.212 Y153.174 E195.51615
G1 X151.128 Y153.111 E195.52051
G1 X150.974 Y153.054 E195.52734
G1 X150.898 Y153.044 E195.53053
G1 X150.719 Y153.067 E195.53803
G1 X148.881 Y153.933 E195.62250
G1 X148.810 Y153.963 E195.62571
G1 X148.837 Y153.147 E195.65965
G1 X148.927 Y152.246 E195.69730
G1 X148.995 Y151.815 E195.71544
G1 X148.755 Y151.634 E195.72793
G1 X146.714 Y152.591 E195.82165
G1 X146.687 Y151.689 E195.85917
G1 X146.686 Y151.296 E195.87551
G1 X146.703 Y150.791 E195.89652
G1 X149.688 Y149.389 E196.03363
G1 X149.667 Y148.967 E196.05119
G1 X149.666 Y148.815 E196.05751
G1 X149.697 Y148.390 E196.07523
G1 X149.770 Y148.055 E196.08948
G1 X149.838 Y147.883 E196.09717
G1 X149.931 Y147.734 E196.10448
G1 X150.054 Y147.621 E196.11142
G1 X150.110 Y147.589 E196.11410
G1 X150.266 Y147.548 E196.12081
G1 X150.312 Y147.545 E196.12272
G1 X150.457 Y147.560 E196.12878
G1 X150.834 Y147.696 E196.14545
G1 X151.027 Y147.808 E196.15472
G1 X151.358 Y148.054 E196.17187
G1 X151.761 Y148.416 E196.19439
G1 X155.274 Y146.766 E196.35575
G1 X155.937 Y147.286 E196.39078
G1 X156.488 Y147.761 E196.42103
G1 X156.661 Y147.922 E196.43085
G1 X155.087 Y148.660 E196.50313
G1 X154.621 Y148.876 E196.52448
G1 X154.604 Y149.175 E196.53694
G1 X155.167 Y149.521 E196.56441
G1 X155.606 Y149.821 E196.58652
G1 X156.071 Y150.167 E196.61061
G1 X156.374 Y150.410 E196.62676
G1 X153.901 Y151.576 E196.74043
G1 X153.803 Y151.653 E196.74561
G1 X153.742 Y151.730 E196.74970
G1 X153.684 Y151.864 E196.75577
G0 F9000 X154.216 Y150.680
;TYPE:FILL
G1 F720 X153.907 Y150.371 E196.77394
G0 F9000 X152.951 Y149.415
G1 F720 X152.398 Y148.862 E196.80645
G0 F9000 X151.464 Y149.055
G1 F720 X149.467 Y151.052 E196.92387
G1 F2400 E196.32387
G1 Z3.740
G0 F9000 X147.799 Y151.334
G1 Z3.240
G1 F2400 E196.92387
G1 F720 X147.474 Y151.186 E196.93637
G1 X147.692 Y151.228 E196.94779
G1 X148.173 Y151.001 E196.96022
G1 X148.521 Y150.996 E196.97469
G0 F9000 X148.788 Y150.556
;TYPE:SKIN
G1 F720 X150.630 Y152.398 E197.08299
G0 F9000 X151.053 Y152.114
G1 F720 X149.269 Y150.330 E197.18789
G0 F9000 X149.750 Y150.103
G1 F720 X151.330 Y151.683 E197.28078
G0 F9000 X151.675 Y151.322
G1 F720 X150.296 Y149.943 E197.36186
G0 F9000 X150.777 Y149.717
G1 F720 X152.112 Y151.052 E197.44036
G0 F9000 X152.674 Y150.906
G1 F720 X151.259 Y149.491 E197.52355
G0 F9000 X151.740 Y149.265
G1 F720 X153.413 Y150.939 E197.62195
G0 F9000 X153.976 Y150.794
G1 F720 X152.158 Y148.976 E197.72884
G0 F9000 X152.638 Y148.749
G1 F720 X154.457 Y150.568 E197.83579
G0 F9000 X154.938 Y150.342
G1 F720 X154.500 Y149.903 E197.86157
G0 F9000 X153.918 Y149.322
G1 F720 X153.120 Y148.524 E197.90849
G0 F9000 X153.601 Y148.297
G1 F720 X154.124 Y148.468 E197.92945
G1 X154.323 Y147.959 E197.94176
G1 X154.910 Y147.838 E197.95412
G1 X155.257 Y147.832 E197.96855
G1 F2400 E197.36855
G1 Z3.740
G0 F9000 X150.124 Y152.599
G1 Z3.240
G1 F2400 E197.96855
G1 F720 X149.593 Y152.422 E197.99745
G1 X149.643 Y152.825 E198.01433
;LAYER:11
M106 S114
G0 F9000 X149.187 Y151.798 Z3.440
;TYPE:WALL-INNER
G1 F720 X148.476 Y151.295 E198.05054
G1 X147.419 Y151.789 E198.09905
G1 X146.979 Y151.997 E198.11929
G1 X146.960 Y151.349 E198.14624
G1 X146.960 Y151.306 E198.14803
G1 X150.092 Y149.835 E198.29189
G1 X149.957 Y148.778 E198.33619
G1 X149.939 Y148.379 E198.35279
G1 X149.981 Y147.867 E198.37415
G1 X150.080 Y147.585 E198.38658
G1 X150.090 Y147.572 E198.38726
G1 X150.286 Y147.615 E198.39560
G1 X150.387 Y147.663 E198.40025
G1 X150.725 Y147.886 E198.41709
G1 X151.132 Y148.248 E198.43973
G1 X151.845 Y149.013 E198.48321
G1 X152.806 Y148.559 E198.52740
G1 X153.362 Y148.299 E198.55291
G1 X155.505 Y147.293 E198.65134
G1 X155.932 Y147.654 E198.67459
G1 X156.032 Y147.746 E198.68023
G1 X153.771 Y148.807 E198.78407
G1 X155.483 Y150.035 E198.87167
G1 X155.742 Y150.241 E198.88542
G1 X154.707 Y150.726 E198.93294
G1 X154.113 Y151.006 E198.96025
G1 X153.586 Y151.259 E198.98455
G1 X153.397 Y151.423 E198.99495
G1 X153.257 Y151.643 E199.00580
G1 X153.182 Y151.843 E199.01468
G1 X153.152 Y152.142 E199.02717
G1 X153.194 Y152.347 E199.03587
G1 X153.662 Y153.573 E199.09043
G1 X152.776 Y153.990 E199.13114
G1 X152.479 Y154.130 E199.14479
G1 X151.777 Y152.991 E199.20042
G1 X151.568 Y152.766 E199.21318
G1 X151.263 Y152.619 E199.22726
G1 X150.957 Y152.573 E199.24012
G1 X150.666 Y152.625 E199.25241
G1 X150.068 Y152.903 E199.27983
G1 X149.083 Y153.368 E199.32512
G1 X149.102 Y152.782 E199.34949
G1 X149.187 Y151.798 E199.39056
G0 F9000 X148.662 Y152.039
;TYPE:WALL-OUTER
G1 F720 X148.425 Y151.871 E199.40263
G1 X146.597 Y152.728 E199.48657
G1 X146.522 Y152.763 E199.49001
G1 X146.503 Y152.510 E199.50056
G1 X146.476 Y151.929 E199.52474
G1 X146.460 Y151.363 E199.54828
G1 X146.459 Y150.988 E199.56387
G1 X149.550 Y149.537 E199.70584
G1 X149.460 Y148.827 E199.73559
G1 X149.438 Y148.364 E199.75486
G1 X149.478 Y147.843 E199.77659
G1 X149.588 Y147.447 E199.79367
G1 X149.655 Y147.316 E199.79979
G1 X149.743 Y147.204 E199.80571
G1 X149.831 Y147.132 E199.81044
G1 X149.929 Y147.084 E199.81498
G1 X150.046 Y147.061 E199.81993
G1 X150.091 Y147.060 E199.82180
G1 X150.448 Y147.139 E199.83701
G1 X150.632 Y147.225 E199.84545
G1 X151.030 Y147.489 E199.86531
G1 X151.483 Y147.891 E199.89049
G1 X151.962 Y148.405 E199.91970
G1 X155.582 Y146.704 E200.08599
G1 X156.261 Y147.277 E200.12292
G1 X156.648 Y147.633 E200.14479
G1 X156.912 Y147.886 E200.15999
G1 X154.755 Y148.898 E200.25905
G1 X155.795 Y149.644 E200.31226
G1 X156.214 Y149.978 E200.33453
G1 X156.661 Y150.359 E200.35895
G1 X155.575 Y150.872 E200.40889
G1 X154.328 Y151.457 E200.46615
G1 X153.863 Y151.680 E200.48759
G1 X153.780 Y151.753 E200.49219
G1 X153.707 Y151.867 E200.49782
G1 X153.673 Y151.957 E200.50182
G1 X153.658 Y152.109 E200.50817
G1 X153.681 Y152.221 E200.51292
G1 X154.295 Y153.829 E200.58448
G1 X152.537 Y154.656 E200.66525
G1 X152.288 Y154.770 E200.67664
G1 X151.377 Y153.295 E200.74872
G1 X151.266 Y153.175 E200.75551
G1 X151.114 Y153.102 E200.76252
G1 X150.964 Y153.080 E200.76883
G1 X150.818 Y153.106 E200.77499
G1 X150.280 Y153.356 E200.79966
G1 X148.589 Y154.151 E200.87734
G1 X148.579 Y153.760 E200.89360
G1 X148.584 Y153.245 E200.91502
G1 X148.604 Y152.735 E200.93624
G1 X148.662 Y152.039 E200.96527
G0 F9000 X149.040 Y151.479
;TYPE:FILL
G1 F720 X151.557 Y148.963 E201.11323
G0 F9000 X152.455 Y148.920
G1 F720 X154.275 Y150.739 E201.22021
G1 F2400 E200.62021
G1 Z3.940
G0 F9000 X149.459 Y152.994
G1 Z3.440
G1 F2400 E201.22021
G1 F720 X149.275 Y152.810 E201.23103
G0 F9000 X147.855 Y151.390
G1 F720 X147.578 Y151.208 E201.24346
G1 X147.143 Y151.609 E201.26806
G0 F9000 X148.254 Y151.204
;TYPE:SKIN
G1 F720 X148.847 Y150.612 E201.30289
G0 F9000 X148.833 Y151.333
G1 F720 X150.034 Y150.132 E201.37351
G0 F9000 X150.690 Y150.183
G1 F720 X149.246 Y151.627 E201.45841
G0 F9000 X149.322 Y152.258
G1 F720 X151.016 Y150.564 E201.55801
G0 F9000 X151.097 Y151.190
G1 F720 X149.269 Y153.018 E201.66549
G0 F9000 X150.473 Y152.522
G1 F720 X150.555 Y152.439 E201.67034
G1 F2400 E201.07034
G1 Z3.940
G0 F9000 X152.631 Y150.364
G1 Z3.440
G1 F2400 E201.67034
G1 F720 X153.888 Y149.106 E201.74428
G0 F9000 X153.587 Y148.700
G1 F720 X154.549 Y148.091 E201.77893
G1 X155.488 Y147.506 E201.82492
G1 F2400 E201.22492
G1 Z3.940
G0 F9000 X154.299 Y149.402
G1 Z3.440
G1 F2400 E201.82492
G1 F720 X153.245 Y150.456 E201.88689
G0 F9000 X153.802 Y150.607
G1 F720 X154.712 Y149.697 E201.94040
G0 F9000 X155.123 Y149.992
G1 F720 X154.468 Y150.648 E201.97894
G1 F2400 E201.37894
G1 Z3.940
G0 F9000 X153.476 Y148.811
G1 Z3.440
G1 F2400 E201.97894
G1 F720 X152.348 Y149.939 E202.04526
G0 F9000 X152.259 Y149.321
G1 F720 X152.843 Y148.737 E202.07960
G0 F9000 X151.386 Y148.780
G1 F720 X151.011 Y149.154 E202.10162
G0 F9000 X151.045 Y148.413
G1 F720 X150.195 Y149.263 E202.15159
G0 F9000 X150.125 Y148.626
G1 F720 X150.463 Y147.934 E202.18387
G1 X150.158 Y147.887 E202.19670
;LAYER:12
M106 S127
G0 F9000 X149.733 Y148.326 Z3.640
;TYPE:WALL-INNER
G1 F780 X149.712 Y147.846 E202.21667
G1 X149.756 Y147.388 E202.23580
G1 X149.821 Y147.160 E202.24566
G1 X149.848 Y147.104 E202.24824
G1 X149.871 Y147.075 E202.24978
G1 X149.987 Y147.103 E202.25474
G1 X150.315 Y147.271 E202.27007
G1 X150.646 Y147.522 E202.28734
G1 X150.989 Y147.849 E202.30704
G1 X151.375 Y148.285 E202.33125
G1 X151.969 Y149.033 E202.37096
G1 X153.568 Y148.285 E202.44435
G1 X155.784 Y147.244 E202.54614
G1 X156.253 Y147.674 E202.57260
G1 X156.288 Y147.708 E202.57462
G1 X154.172 Y148.702 E202.67182
G1 X155.701 Y149.906 E202.75273
G1 X156.030 Y150.187 E202.77072
G1 X154.685 Y150.820 E202.83252
G1 X154.137 Y151.076 E202.85767
G1 X153.547 Y151.359 E202.88487
G1 X153.304 Y151.611 E202.89943
G1 X153.175 Y151.909 E202.91293
G1 X153.142 Y152.224 E202.92610
G1 X153.179 Y152.419 E202.93435
G1 X153.648 Y153.650 E202.98912
G1 X153.346 Y153.781 E203.00280
G1 X153.354 Y153.801 E203.00370
G1 X152.761 Y154.078 E203.03091
G1 X152.573 Y154.169 E203.03959
G1 X151.877 Y153.040 E203.09473
G1 X151.705 Y152.842 E203.10564
G1 X151.427 Y152.687 E203.11887
G1 X151.232 Y152.632 E203.12729
G1 X151.038 Y152.618 E203.13538
G1 X150.828 Y152.648 E203.14420
G1 X150.702 Y152.689 E203.14971
G1 X150.071 Y152.984 E203.17867
G1 X149.151 Y153.418 E203.22096
G1 X148.857 Y153.555 E203.23444
G1 X148.852 Y153.351 E203.24293
G1 X148.853 Y152.989 E203.25798
G1 X148.852 Y152.940 E203.26002
G1 X148.910 Y151.178 E203.33331
G1 X147.203 Y151.973 E203.41160
G1 X146.788 Y152.169 E203.43068
G1 X146.753 Y151.577 E203.45534
G1 X146.750 Y151.487 E203.45908
G1 X148.073 Y150.866 E203.51984
G1 X148.680 Y150.579 E203.54776
G1 X150.027 Y149.950 E203.60956
G1 X149.797 Y148.811 E203.65787
G1 X149.733 Y148.326 E203.67821
G0 F9000 X149.236 Y148.378
;TYPE:WALL-OUTER
G1 F780 X149.212 Y147.828 E203.70110
G1 X149.262 Y147.296 E203.72332
G1 X149.351 Y146.984 E203.73680
G1 X149.422 Y146.838 E203.74355
G1 X149.544 Y146.690 E203.75153
G1 X149.709 Y146.597 E203.75940
G1 X149.802 Y146.577 E203.76336
G1 X149.857 Y146.573 E203.76565
G1 X150.005 Y146.589 E203.77184
G1 X150.169 Y146.634 E203.77891
G1 X150.583 Y146.846 E203.79825
G1 X150.966 Y147.137 E203.81825
G1 X151.350 Y147.503 E203.84030
G1 X151.752 Y147.957 E203.86551
G1 X152.115 Y148.413 E203.88974
G1 X155.868 Y146.652 E204.06210
G1 X156.602 Y147.316 E204.10325
G1 X157.053 Y147.756 E204.12944
G1 X157.152 Y147.856 E204.13529
G1 X155.117 Y148.810 E204.22873
G1 X156.026 Y149.526 E204.27684
G1 X156.457 Y149.895 E204.30043
G1 X156.839 Y150.240 E204.32183
G1 X156.920 Y150.319 E204.32654
G1 X154.896 Y151.273 E204.41956
G1 X154.351 Y151.528 E204.44458
G1 X153.844 Y151.771 E204.46795
G1 X153.727 Y151.893 E204.47498
G1 X153.664 Y152.037 E204.48152
G1 X153.648 Y152.193 E204.48804
G1 X153.670 Y152.303 E204.49270
G1 X154.273 Y153.885 E204.56309
G1 X154.284 Y153.911 E204.56426
G1 X153.995 Y154.044 E204.57749
G1 X153.181 Y154.435 E204.61503
G1 X152.415 Y154.796 E204.65024
G1 X152.381 Y154.810 E204.65177
G1 X151.473 Y153.337 E204.72371
G1 X151.385 Y153.236 E204.72928
G1 X151.235 Y153.152 E204.73642
G1 X151.144 Y153.127 E204.74035
G1 X151.053 Y153.120 E204.74414
G1 X150.946 Y153.135 E204.74863
G1 X150.885 Y153.155 E204.75130
G1 X148.389 Y154.328 E204.86596
G1 X148.352 Y153.371 E204.90578
G1 X148.353 Y152.992 E204.92154
G1 X148.352 Y152.923 E204.92441
G1 X148.383 Y151.975 E204.96384
G1 X147.415 Y152.426 E205.00824
G1 X146.348 Y152.927 E205.05725
G1 X146.287 Y152.190 E205.08799
G1 X146.254 Y151.606 E205.11231
G1 X146.239 Y151.174 E205.13028
G1 X149.459 Y149.663 E205.27816
G1 X149.303 Y148.889 E205.31099
G1 X149.236 Y148.378 E205.33241
G1 F2400 E204.73241
G1 Z4.140
G0 F9000 X151.630 Y148.889
;TYPE:FILL
G1 Z3.640
G1 F2400 E205.33241
G1 F780 X149.075 Y151.444 E205.48264
G0 F9000 X149.039 Y152.574
G1 F780 X149.516 Y153.051 E205.51068
G1 F2400 E204.91068
G1 Z4.140
G0 F9000 X147.913 Y151.448
G1 Z3.640
G1 F2400 E205.51068
G1 F780 X147.699 Y151.234 E205.52327
G0 F9000 X152.508 Y148.973
G1 F780 X154.330 Y150.794 E205.63036
G0 F9000 X154.570 Y150.680
;TYPE:SKIN
G1 F780 X154.420 Y150.531 E205.63915
G0 F9000 X154.302 Y150.412
G1 F780 X153.033 Y149.144 E205.71374
G0 F9000 X152.897 Y149.008
G1 F780 X152.582 Y149.047 E205.72242
G1 X152.267 Y149.085 E205.73561
G0 F9000 X151.488 Y149.013
G1 F780 X149.925 Y147.450 E205.82751
G0 F9000 X149.899 Y148.131
G1 F780 X150.884 Y149.116 E205.88542
G0 F9000 X150.526 Y149.465
G1 F780 X150.000 Y148.940 E205.91632
G0 F9000 X149.864 Y150.218
G1 F780 X150.015 Y150.369 E205.92520
G0 F9000 X149.383 Y150.444
G1 F780 X150.413 Y151.474 E205.98576
G0 F9000 X150.241 Y152.008
G1 F780 X148.902 Y150.670 E206.06446
G0 F9000 X148.636 Y151.111
G1 F780 X148.287 Y151.115 E206.07708
G1 X147.806 Y151.341 E206.08963
G1 X147.323 Y151.566 E206.10217
G1 X146.977 Y151.573 E206.11656
G1 F2400 E205.51656
G1 Z4.140
G0 F9000 X149.072 Y151.547
G1 Z3.640
G1 F2400 E206.11656
G1 F780 X150.086 Y152.561 E206.17618
G0 F9000 X150.089 Y152.564
G1 F780 X149.996 Y152.825 E206.18486
G1 X149.038 Y152.573 E206.22638
G1 X149.275 Y153.164 E206.25285
G1 F2400 E205.65285
G1 Z4.140
G0 F9000 X152.249 Y153.309
G1 Z3.640
G1 F2400 E206.25285
G1 F780 X152.802 Y153.863 E206.28539
G0 F9000 X153.268 Y153.622
G1 F780 X152.358 Y152.711 E206.33893
G0 F9000 X152.810 Y152.457
G1 F780 X153.127 Y152.773 E206.35754
G1 F2400 E205.75754
G1 Z4.140
G0 F9000 X153.609 Y151.134
G1 Z3.640
G1 F2400 E206.35754
G1 F780 X153.712 Y150.883 E206.36473
G1 X154.089 Y150.907 E206.38044
G0 F9000 X155.050 Y150.454
G1 F780 X153.230 Y148.634 E206.48745
G0 F9000 X153.711 Y148.408
G1 F780 X154.059 Y148.402 E206.50006
G1 X154.540 Y148.176 E206.51261
G1 X155.021 Y147.950 E206.52516
G1 X155.503 Y147.725 E206.53777
G1 X155.851 Y147.719 E206.55224
G1 F2400 E205.95224
G1 Z4.140
G0 F9000 X154.439 Y149.136
G1 Z3.640
G1 F2400 E206.55224
G1 F780 X155.530 Y150.227 E206.61639
;LAYER:13
M106 S137
G0 F9000 X155.934 Y149.815 Z3.840
;TYPE:WALL-INNER
G1 F780 X156.295 Y150.145 E206.63672
G1 X154.095 Y151.178 E206.73777
G1 X153.562 Y151.434 E206.76235
G1 X153.417 Y151.562 E206.77039
G1 X153.294 Y151.708 E206.77833
G1 X153.166 Y151.987 E206.79109
G1 X153.134 Y152.289 E206.80372
G1 X153.192 Y152.560 E206.81524
G1 X153.563 Y153.538 E206.85873
G1 X153.616 Y153.716 E206.86645
G1 X153.322 Y153.846 E206.87981
G1 X152.818 Y154.106 E206.90339
G1 X152.657 Y154.194 E206.91102
G1 X151.972 Y153.079 E206.96542
G1 X151.815 Y152.899 E206.97535
G1 X151.625 Y152.774 E206.98481
G1 X151.478 Y152.710 E206.99148
G1 X151.399 Y152.687 E206.99490
G1 X151.188 Y152.658 E207.00375
G1 X151.034 Y152.666 E207.01016
G1 X150.977 Y152.678 E207.01258
G1 X150.899 Y152.692 E207.01588
G1 X150.782 Y152.734 E207.02105
G1 X150.075 Y153.064 E207.05349
G1 X149.583 Y153.297 E207.07612
G1 X149.121 Y153.513 E207.09732
G1 X148.656 Y153.733 E207.11871
G1 X148.626 Y152.958 E207.15095
G1 X148.622 Y151.391 E207.21610
G1 X146.990 Y152.155 E207.29102
G1 X146.612 Y152.334 E207.30841
G1 X146.568 Y151.824 E207.32969
G1 X146.557 Y151.660 E207.33652
G1 X148.172 Y150.901 E207.41071
G1 X148.887 Y150.566 E207.44354
G1 X149.988 Y150.050 E207.49409
G1 X149.682 Y148.885 E207.54417
G1 X149.573 Y148.351 E207.56683
G1 X149.509 Y147.884 E207.58643
G1 X149.484 Y147.338 E207.60915
G1 X150.087 Y147.056 E207.63683
G1 X150.307 Y146.952 E207.64694
G1 X150.373 Y146.999 E207.65031
G1 X150.695 Y147.295 E207.66850
G1 X151.048 Y147.680 E207.69021
G1 X151.366 Y148.075 E207.71129
G1 X152.072 Y149.067 E207.76192
G1 X152.886 Y148.688 E207.79925
G1 X153.475 Y148.410 E207.82632
G1 X153.961 Y148.183 E207.84863
G1 X156.043 Y147.205 E207.94426
G1 X156.527 Y147.678 E207.97239
G1 X155.690 Y148.071 E208.01084
G1 X154.521 Y148.613 E208.06441
G1 X155.934 Y149.815 E208.14154
G0 F9000 X156.271 Y149.445
;TYPE:WALL-OUTER
G1 F780 X156.710 Y149.847 E208.16628
G1 X157.089 Y150.210 E208.18810
G1 X157.164 Y150.285 E208.19251
G1 X154.310 Y151.630 E208.32368
G1 X153.841 Y151.855 E208.34531
G1 X153.776 Y151.913 E208.34893
G1 X153.720 Y151.979 E208.35253
G1 X153.655 Y152.121 E208.35902
G1 X153.639 Y152.272 E208.36534
G1 X153.652 Y152.348 E208.36854
G1 X153.667 Y152.403 E208.37091
G1 X154.037 Y153.379 E208.41431
G1 X154.195 Y153.930 E208.43814
G1 X154.201 Y153.969 E208.43978
G1 X154.190 Y153.990 E208.44076
G1 X154.115 Y154.043 E208.44458
G1 X153.537 Y154.297 E208.47083
G1 X153.052 Y154.548 E208.49353
G1 X152.568 Y154.799 E208.51620
G1 X152.486 Y154.819 E208.51971
G1 X152.468 Y154.817 E208.52046
G1 X152.319 Y154.599 E208.53144
G1 X151.568 Y153.376 E208.59111
G1 X151.484 Y153.280 E208.59641
G1 X151.386 Y153.215 E208.60130
G1 X151.227 Y153.165 E208.60823
G1 X151.173 Y153.159 E208.61049
G1 X151.070 Y153.169 E208.61479
G1 X150.973 Y153.197 E208.61899
G1 X150.288 Y153.517 E208.65042
G1 X148.781 Y154.226 E208.71967
G1 X148.318 Y154.442 E208.74091
G1 X148.209 Y154.493 E208.74591
G1 X148.174 Y154.067 E208.76368
G1 X148.143 Y153.512 E208.78679
G1 X148.126 Y152.973 E208.80921
G1 X148.124 Y152.176 E208.84235
G1 X146.187 Y153.085 E208.93130
G1 X146.122 Y152.460 E208.95743
G1 X146.070 Y151.867 E208.98218
G1 X146.035 Y151.352 E209.00364
G1 X149.399 Y149.773 E209.15814
G1 X149.191 Y148.981 E209.19218
G1 X149.081 Y148.444 E209.21497
G1 X149.011 Y147.930 E209.23654
G1 X148.984 Y147.338 E209.26118
G1 X149.003 Y147.010 E209.27484
G1 X150.358 Y146.374 E209.33707
G1 X150.689 Y146.610 E209.35397
G1 X151.049 Y146.941 E209.37430
G1 X151.416 Y147.341 E209.39687
G1 X151.773 Y147.785 E209.42055
G1 X152.238 Y148.438 E209.45388
G1 X156.135 Y146.610 E209.63284
G1 X156.948 Y147.391 E209.67971
G1 X157.376 Y147.833 E209.70529
G1 X155.904 Y148.523 E209.77288
G1 X155.440 Y148.738 E209.79414
G1 X156.271 Y149.445 E209.83950
G1 F2400 E209.23950
G1 Z4.340
G0 F9000 X154.386 Y150.851
;TYPE:FILL
G1 Z3.840
G1 F2400 E209.83950
G1 F780 X152.564 Y149.029 E209.94663
G0 F9000 X151.688 Y148.831
G1 F780 X148.797 Y151.722 E210.11661
G0 F9000 X148.799 Y152.334
G1 F780 X149.571 Y153.107 E210.16203
G1 F2400 E209.56203
G1 Z4.340
G0 F9000 X147.967 Y151.503
G1 Z3.840
G1 F2400 E210.16203
G1 F780 X147.849 Y151.401 E210.17461
G1 X148.666 Y151.146 E210.20934
G1 X149.408 Y150.758 E210.24213
G1 X149.867 Y150.299 E210.26912
G0 F9000 X149.753 Y151.120
;TYPE:SKIN
G1 F780 X148.799 Y152.074 E210.32521
G0 F9000 X148.801 Y152.779
G1 F780 X149.961 Y151.619 E210.39341
G0 F9000 X149.772 Y152.515
G1 F780 X148.835 Y153.452 E210.44850
G0 F9000 X150.164 Y152.830
G1 F780 X150.535 Y152.459 E210.47032
G1 F2400 E209.87032
G1 Z4.340
G0 F9000 X152.124 Y152.992
G1 Z3.840
G1 F2400 E210.47032
G1 F780 X152.971 Y152.144 E210.52015
G0 F9000 X153.075 Y152.748
G1 F780 X152.527 Y153.648 E210.56019
G1 X153.270 Y153.260 E210.59504
G1 F2400 E209.99504
G1 Z4.340
G0 F9000 X154.157 Y150.959
G1 Z3.840
G1 F2400 E210.59504
G1 F780 X154.688 Y150.428 E210.61970
G1 X155.658 Y149.811 E210.65899
G1 X155.497 Y150.326 E210.68142
G0 F9000 X155.086 Y149.323
G1 F780 X154.343 Y150.065 E210.72508
G0 F9000 X153.879 Y149.823
G1 F780 X154.704 Y148.998 E210.77358
G0 F9000 X154.321 Y148.673
G1 F780 X153.582 Y149.412 E210.81704
G0 F9000 X153.459 Y148.829
G1 F780 X154.247 Y148.393 E210.84130
G1 X155.573 Y147.774 E210.87537
G1 X156.148 Y147.554 E210.90096
G1 F2400 E210.30096
G1 Z4.340
G0 F9000 X152.542 Y149.038
G1 Z3.840
G1 F2400 E210.90096
G1 F780 X152.197 Y149.383 E210.92125
G0 F9000 X151.542 Y148.624
G1 F780 X150.987 Y148.824 E210.94107
G1 X151.247 Y148.212 E210.96871
G0 F9000 X150.933 Y147.819
G1 F780 X149.864 Y148.888 E211.03156
G0 F9000 X150.011 Y149.448
G1 F780 X150.500 Y148.959 E211.06031
G0 F9000 X149.742 Y148.302
G1 F780 X150.596 Y147.448 E211.11053
G0 F9000 X150.092 Y147.245
G1 F780 X149.674 Y147.663 E211.13510
G1 F2400 E210.53510
G1 Z4.340
G0 F9000 X147.204 Y151.547
G1 Z3.840
G1 F2400 E211.13510
G1 F780 X146.758 Y151.994 E211.16136
;LAYER:14
M106 S147
G0 F9000 X146.783 Y152.335 Z4.040
;TYPE:WALL-INNER
G1 F780 X146.451 Y152.491 E211.17661
G1 X146.407 Y152.101 E211.19292
G1 X146.381 Y151.825 E211.20445
G1 X147.615 Y151.246 E211.26112
G1 X149.299 Y150.454 E211.33849
G1 X149.979 Y150.148 E211.36949
G1 X149.610 Y148.984 E211.42026
G1 X149.462 Y148.427 E211.44422
G1 X149.366 Y147.975 E211.46343
G1 X149.296 Y147.509 E211.48302
G1 X149.794 Y147.276 E211.50588
G1 X150.565 Y146.912 E211.54133
G1 X150.930 Y147.327 E211.56430
G1 X151.253 Y147.746 E211.58630
G1 X152.148 Y149.114 E211.65427
G1 X152.930 Y148.749 E211.69014
G1 X153.500 Y148.481 E211.71633
G1 X154.640 Y147.946 E211.76869
G1 X156.281 Y147.176 E211.84405
G1 X156.750 Y147.655 E211.87192
G1 X156.474 Y147.785 E211.88460
G1 X154.845 Y148.550 E211.95943
G1 X156.172 Y149.755 E212.03395
G1 X156.540 Y150.113 E212.05529
G1 X154.842 Y150.909 E212.13326
G1 X154.321 Y151.156 E212.15723
G1 X153.848 Y151.378 E212.17895
G1 X153.550 Y151.524 E212.19275
G1 X153.399 Y151.656 E212.20109
G1 X153.279 Y151.807 E212.20911
G1 X153.157 Y152.071 E212.22120
G1 X153.125 Y152.365 E212.23349
G1 X153.152 Y152.545 E212.24106
G1 X153.362 Y153.125 E212.26671
G1 X153.447 Y153.437 E212.28015
G1 X153.145 Y153.568 E212.29384
G1 X152.929 Y153.691 E212.30417
G1 X152.708 Y153.855 E212.31561
G1 X152.598 Y153.961 E212.32196
G1 X152.080 Y153.142 E212.36225
G1 X151.956 Y152.987 E212.37051
G1 X151.859 Y152.904 E212.37581
G1 X151.588 Y152.754 E212.38869
G1 X151.395 Y152.707 E212.39695
G1 X151.229 Y152.692 E212.40388
G1 X150.994 Y152.727 E212.41376
G1 X150.078 Y153.145 E212.45562
G1 X149.612 Y153.366 E212.47706
G1 X149.128 Y153.592 E212.49927
G1 X148.475 Y153.901 E212.52930
G1 X148.453 Y153.653 E212.53965
G1 X148.419 Y153.095 E212.56290
G1 X148.365 Y151.597 E212.62522
G1 X146.783 Y152.335 E212.69779
G0 F9000 X146.406 Y153.065
;TYPE:WALL-OUTER
G1 F780 X146.039 Y153.238 E212.71466
G1 X145.909 Y152.149 E212.76026
G1 X145.859 Y151.621 E212.78231
G1 X145.852 Y151.520 E212.78652
G1 X149.094 Y149.998 E212.93542
G1 X149.368 Y149.875 E212.94790
G1 X149.131 Y149.128 E212.98049
G1 X148.974 Y148.539 E213.00583
G1 X148.872 Y148.055 E213.02639
G1 X148.790 Y147.504 E213.04955
G1 X148.768 Y147.203 E213.06210
G1 X150.664 Y146.312 E213.14920
G1 X150.952 Y146.591 E213.16587
G1 X151.314 Y147.007 E213.18880
G1 X151.649 Y147.441 E213.21159
G1 X151.939 Y147.855 E213.23260
G1 X152.334 Y148.475 E213.26317
G1 X156.382 Y146.576 E213.44906
G1 X157.303 Y147.509 E213.50357
G1 X157.586 Y147.816 E213.52093
G1 X155.736 Y148.684 E213.60589
G1 X156.527 Y149.402 E213.65030
G1 X156.957 Y149.820 E213.67523
G1 X157.354 Y150.222 E213.69872
G1 X157.394 Y150.266 E213.70119
G1 X154.064 Y151.828 E213.85411
G1 X153.830 Y151.943 E213.86495
G1 X153.763 Y152.002 E213.86866
G1 X153.708 Y152.072 E213.87237
G1 X153.645 Y152.207 E213.87856
G1 X153.629 Y152.354 E213.88471
G1 X153.659 Y152.496 E213.89074
G1 X153.839 Y152.974 E213.91198
G1 X153.964 Y153.430 E213.93163
G1 X153.987 Y153.614 E213.93934
G1 X153.986 Y153.647 E213.94072
G1 X153.987 Y153.664 E213.94142
G1 X153.979 Y153.776 E213.94609
G1 X153.964 Y153.824 E213.94818
G1 X153.782 Y153.859 E213.95589
G1 X153.538 Y153.940 E213.96658
G1 X153.371 Y154.015 E213.97419
G1 X153.182 Y154.129 E213.98336
G1 X153.013 Y154.257 E213.99218
G1 X152.735 Y154.543 E214.00876
G1 X152.613 Y154.694 E214.01683
G1 X152.563 Y154.665 E214.01924
G1 X152.328 Y154.444 E214.03265
G1 X151.666 Y153.423 E214.08324
G1 X151.560 Y153.307 E214.08977
G1 X151.417 Y153.226 E214.09660
G1 X151.322 Y153.203 E214.10067
G1 X151.241 Y153.196 E214.10405
G1 X151.122 Y153.214 E214.10905
G1 X148.172 Y154.595 E214.24447
G1 X148.047 Y154.649 E214.25013
G1 X147.954 Y153.684 E214.29044
G1 X147.920 Y153.126 E214.31368
G1 X147.892 Y152.369 E214.34517
G1 X146.406 Y153.065 E214.41340
G1 F2400 E213.81340
G1 Z4.540
G0 F9000 X148.025 Y151.560
;TYPE:FILL
G1 Z4.040
G1 F2400 E214.41340
G1 F780 X147.810 Y151.346 E214.42601
G0 F9000 X148.553 Y151.966
G1 F780 X151.727 Y148.792 E214.61263
G0 F9000 X152.620 Y149.084
G1 F780 X154.440 Y150.905 E214.71966
G1 F2400 E214.11966
G1 Z4.540
G0 F9000 X149.627 Y153.162
G1 Z4.040
G1 F2400 E214.71966
G1 F780 X148.557 Y152.093 E214.78255
G0 F9000 X148.570 Y152.460
;TYPE:SKIN
G1 F780 X149.386 Y153.276 E214.83052
G0 F9000 X149.719 Y152.901
G1 F780 X150.033 Y152.862 E214.83921
G1 X150.536 Y152.657 E214.84806
G1 X150.837 Y152.605 E214.86076
G0 F9000 X152.094 Y152.447
G1 F780 X153.060 Y153.413 E214.91756
G0 F9000 X153.002 Y152.648
G1 F780 X152.574 Y152.220 E214.94272
G1 F2400 E214.34272
G1 Z4.540
G0 F9000 X153.575 Y151.100
G1 Z4.040
G1 F2400 E214.94272
G1 F780 X153.885 Y151.057 E214.95118
G1 X154.366 Y150.831 E214.95984
G1 X154.847 Y150.604 E214.96846
G1 X155.162 Y150.566 E214.98165
G0 F9000 X155.643 Y150.340
G1 F780 X154.051 Y148.748 E215.07526
G0 F9000 X153.972 Y148.669
G1 F780 X153.657 Y148.707 E215.08394
G1 X153.176 Y148.933 E215.09256
G1 X152.694 Y149.158 E215.10122
G1 X152.380 Y149.198 E215.11438
G1 F2400 E214.51438
G1 Z4.540
G0 F9000 X151.258 Y148.076
G1 Z4.040
G1 F2400 E215.11438
G1 F780 X150.376 Y147.194 E215.16624
G0 F9000 X149.895 Y147.420
G1 F780 X150.920 Y148.445 E215.22651
G0 F9000 X150.265 Y148.498
G1 F780 X149.507 Y147.739 E215.27111
G0 F9000 X149.698 Y148.638
G1 F780 X150.128 Y149.421 E215.30364
G1 X150.070 Y150.069 E215.31262
G1 X149.877 Y150.584 E215.32026
G1 X149.329 Y150.743 E215.32870
G1 X149.013 Y150.781 E215.34193
G0 F9000 X148.532 Y151.007
G1 F780 X149.545 Y152.020 E215.40149
G0 F9000 X149.464 Y152.646
G1 F780 X148.544 Y151.726 E215.45559
G0 F9000 X148.266 Y151.448
G1 F780 X147.917 Y151.453 E215.46821
G1 X147.436 Y151.678 E215.48075
G1 X146.954 Y151.904 E215.49323
G1 X146.607 Y151.911 E215.50766
G1 F2400 E214.90766
G1 Z4.540
G0 F9000 X148.600 Y153.196
G1 Z4.040
G1 F2400 E215.50766
G1 F780 X148.906 Y153.502 E215.52566
G0 F9000 X154.011 Y149.415
G1 F780 X154.195 Y149.599 E215.53647
G0 F9000 X154.306 Y148.295
G1 F780 X156.124 Y150.114 E215.64340
G1 F2400 E215.04340
G1 Z4.540
G0 F9000 X155.000 Y148.283
G1 Z4.040
G1 F2400 E215.64340
G1 F780 X155.027 Y147.957 E215.65591
G1 X155.615 Y147.837 E215.66838
G1 X156.097 Y147.611 E215.68087
G1 X156.443 Y147.605 E215.69525
;LAYER:15
M106 S158
G1 F2400 E215.09525
G1 Z4.540
G0 F9000 X155.143 Y148.493 Z4.240
;TYPE:WALL-INNER
G1 Z4.240
G1 F2400 E215.69525
G1 F780 X156.416 Y149.728 E215.76899
G1 X156.769 Y150.089 E215.78998
G1 X155.851 Y150.518 E215.83211
G1 X153.682 Y151.538 E215.93176
G1 X153.425 Y151.698 E215.94435
G1 X153.263 Y151.903 E215.95521
G1 X153.145 Y152.166 E215.96719
G1 X153.118 Y152.442 E215.97872
G1 X153.128 Y152.582 E215.98456
G1 X153.225 Y152.949 E216.00034
G1 X153.184 Y152.960 E216.00211
G1 X152.941 Y153.067 E216.01314
G1 X152.487 Y153.363 E216.03568
G1 X152.364 Y153.482 E216.04279
G1 X152.101 Y153.084 E216.06263
G1 X151.967 Y152.951 E216.07048
G1 X151.813 Y152.851 E216.07811
G1 X151.659 Y152.783 E216.08511
G1 X151.488 Y152.745 E216.09239
G1 X151.322 Y152.734 E216.09931
G1 X151.083 Y152.767 E216.10934
G1 X150.083 Y153.225 E216.15507
G1 X149.584 Y153.461 E216.17802
G1 X148.613 Y153.916 E216.22260
G1 X148.312 Y154.059 E216.23645
G1 X148.244 Y153.392 E216.26433
G1 X148.128 Y151.789 E216.33115
G1 X146.576 Y152.515 E216.40238
G1 X146.302 Y152.644 E216.41497
G1 X146.267 Y152.383 E216.42592
G1 X146.220 Y151.982 E216.44271
G1 X148.461 Y150.930 E216.54563
G1 X148.921 Y150.715 E216.56674
G1 X149.985 Y150.214 E216.61564
G1 X149.575 Y149.098 E216.66507
G1 X149.288 Y148.160 E216.70585
G1 X149.170 Y147.650 E216.72761
G1 X150.752 Y146.907 E216.80028
G1 X151.060 Y147.310 E216.82136
G1 X151.380 Y147.779 E216.84497
G1 X152.199 Y149.171 E216.91212
G1 X153.413 Y148.605 E216.96780
G1 X156.506 Y147.153 E217.10986
G1 X156.962 Y147.639 E217.13757
G1 X155.143 Y148.493 E217.22111
G0 F9000 X156.010 Y148.638
;TYPE:WALL-OUTER
G1 F780 X156.773 Y149.379 E217.26533
G1 X157.209 Y149.825 E217.29126
G1 X157.604 Y150.248 E217.31532
G1 X153.921 Y151.978 E217.48450
G1 X153.763 Y152.077 E217.49225
G1 X153.694 Y152.164 E217.49687
G1 X153.635 Y152.295 E217.50284
G1 X153.620 Y152.449 E217.50927
G1 X153.624 Y152.505 E217.51161
G1 X153.733 Y152.925 E217.52965
G1 X153.759 Y153.149 E217.53902
G1 X153.760 Y153.181 E217.54035
G1 X153.748 Y153.309 E217.54570
G1 X153.735 Y153.341 E217.54713
G1 X153.562 Y153.371 E217.55443
G1 X153.357 Y153.431 E217.56331
G1 X153.165 Y153.516 E217.57204
G1 X152.809 Y153.748 E217.58971
G1 X152.653 Y153.895 E217.59862
G1 X152.395 Y154.213 E217.61565
G1 X152.293 Y154.151 E217.62061
G1 X152.083 Y153.941 E217.63296
G1 X151.747 Y153.442 E217.65797
G1 X151.693 Y153.380 E217.66138
G1 X151.658 Y153.347 E217.66338
G1 X151.502 Y153.260 E217.67081
G1 X151.415 Y153.241 E217.67451
G1 X151.340 Y153.236 E217.67764
G1 X151.212 Y153.254 E217.68301
G1 X150.296 Y153.678 E217.72498
G1 X148.266 Y154.633 E217.81825
G1 X147.902 Y154.802 E217.83493
G1 X147.828 Y154.244 E217.85833
G1 X147.747 Y153.443 E217.89181
G1 X147.682 Y152.550 E217.92903
G1 X145.903 Y153.384 E218.01072
G1 X145.771 Y152.439 E218.05039
G1 X145.698 Y151.830 E218.07589
G1 X145.684 Y151.681 E218.08211
G1 X149.358 Y149.957 E218.25084
G1 X149.106 Y149.271 E218.28122
G1 X148.804 Y148.288 E218.32398
G1 X148.683 Y147.774 E218.34593
G1 X148.611 Y147.359 E218.36344
G1 X150.886 Y146.291 E218.46793
G1 X151.463 Y147.013 E218.50635
G1 X151.788 Y147.489 E218.53032
G1 X152.058 Y147.920 E218.55146
G1 X152.404 Y148.524 E218.58040
G1 X156.617 Y146.549 E218.77385
G1 X157.076 Y147.023 E218.80128
G1 X157.658 Y147.657 E218.83706
G1 X157.787 Y147.805 E218.84522
G1 X156.010 Y148.638 E218.92682
G1 F2400 E218.32682
G1 Z4.740
G0 F9000 X154.497 Y150.961
;TYPE:FILL
G1 Z4.240
G1 F2400 E218.92682
G1 F780 X152.676 Y149.140 E219.03388
G0 F9000 X151.755 Y148.764
G1 F780 X148.332 Y152.187 E219.23514
G0 F9000 X148.306 Y151.841
G1 F780 X149.686 Y153.222 E219.31631
G1 F2400 E218.71631
G1 Z4.740
G0 F9000 X148.081 Y151.617
G1 Z4.240
G1 F2400 E219.31631
G1 F780 X147.865 Y151.401 E219.32901
G0 F9000 X150.816 Y147.281
G1 F780 X150.732 Y147.194 E219.33756
G1 X150.184 Y147.859 E219.36493
G1 X149.797 Y148.600 E219.39287
G1 X149.918 Y149.187 E219.41022
G1 X149.922 Y149.536 E219.42473
G0 F9000 X149.562 Y150.604
;TYPE:SKIN
G1 F780 X148.953 Y151.212 E219.44920
G1 X148.268 Y151.544 E219.47585
G1 X147.263 Y151.842 E219.51097
G1 X146.436 Y152.315 E219.55058
G1 F2400 E218.95058
G1 Z4.740
G0 F9000 X148.355 Y152.517
G1 Z4.240
G1 F2400 E219.55058
G1 F780 X149.176 Y151.697 E219.59882
G0 F9000 X149.212 Y152.368
G1 F780 X148.404 Y153.177 E219.64636
G0 F9000 X148.523 Y153.764
G1 F780 X149.506 Y153.135 E219.68401
G1 X150.267 Y152.727 E219.71991
G1 F2400 E219.11991
G1 Z4.740
G0 F9000 X152.112 Y149.468
G1 Z4.240
G1 F2400 E219.71991
G1 F780 X152.690 Y149.243 E219.72692
G1 X153.563 Y148.725 E219.76913
G0 F9000 X153.959 Y149.035
G1 F780 X154.893 Y148.101 E219.82404
G0 F9000 X155.052 Y148.649
G1 F780 X154.576 Y149.478 E219.86410
G1 X155.411 Y148.998 E219.90415
G0 F9000 X155.770 Y149.345
G1 F780 X154.798 Y150.318 E219.96133
G0 F9000 X155.183 Y150.640
G1 F780 X156.129 Y149.694 E220.01695
G1 F2400 E219.41695
G1 Z4.740
G0 F9000 X155.632 Y148.070
G1 Z4.240
G1 F2400 E220.01695
G1 F780 X156.224 Y147.477 E220.05178
G1 F2400 E219.45178
G1 Z4.740
G0 F9000 X154.263 Y150.853
G1 Z4.240
G1 F2400 E220.05178
G1 F780 X153.850 Y151.265 E220.07604
G1 F2400 E219.47604
G1 Z4.740
G0 F9000 X151.458 Y148.708
G1 Z4.240
G1 F2400 E220.07604
G1 F780 X151.493 Y148.319 E220.08578
G1 X150.931 Y148.173 E220.10012
G1 X151.088 Y147.664 E220.12227
G0 F9000 X149.785 Y147.553
G1 F780 X149.413 Y147.925 E220.14414
;LAYER:16
M106 S168
G0 F9000 X149.175 Y148.082 Z4.440
;TYPE:WALL-INNER
G1 F780 X149.089 Y147.771 E220.15755
G1 X149.981 Y147.351 E220.19854
G1 X150.441 Y147.136 E220.21965
G1 X150.898 Y146.921 E220.24065
G1 X151.378 Y147.652 E220.27701
G1 X151.860 Y148.522 E220.31836
G1 X152.224 Y149.243 E220.35194
G1 X156.715 Y147.136 E220.55818
G1 X157.064 Y147.513 E220.57954
G1 X157.163 Y147.626 E220.58578
G1 X155.404 Y148.453 E220.66660
G1 X156.271 Y149.328 E220.71781
G1 X156.660 Y149.727 E220.74097
G1 X156.980 Y150.072 E220.76054
G1 X156.176 Y150.448 E220.79744
G1 X154.469 Y151.250 E220.87585
G1 X153.634 Y151.643 E220.91422
G1 X153.552 Y151.684 E220.91803
G1 X153.402 Y151.798 E220.92586
G1 X153.195 Y152.047 E220.93933
G1 X153.087 Y152.264 E220.94940
G1 X153.051 Y152.402 E220.95533
G1 X153.046 Y152.451 E220.95738
G1 X152.966 Y152.471 E220.96081
G1 X152.733 Y152.573 E220.97138
G1 X152.493 Y152.708 E220.98283
G1 X152.272 Y152.867 E220.99415
G1 X152.116 Y153.015 E221.00309
G1 X152.044 Y152.957 E221.00693
G1 X151.876 Y152.865 E221.01490
G1 X151.622 Y152.787 E221.02594
G1 X151.417 Y152.770 E221.03450
G1 X151.161 Y152.805 E221.04524
G1 X149.144 Y153.749 E221.13783
G1 X148.164 Y154.210 E221.18285
G1 X148.084 Y153.590 E221.20884
G1 X147.919 Y151.969 E221.27658
G1 X146.370 Y152.694 E221.34769
G1 X146.164 Y152.791 E221.35716
G1 X146.082 Y152.234 E221.38056
G1 X146.070 Y152.136 E221.38467
G1 X148.660 Y150.920 E221.50362
G1 X149.216 Y150.657 E221.52920
G1 X150.018 Y150.286 E221.56593
G1 X149.510 Y149.059 E221.62115
G1 X149.175 Y148.082 E221.66409
G0 F9000 X148.699 Y148.236
;TYPE:WALL-OUTER
G1 F780 X148.547 Y147.685 E221.68785
G1 X148.502 Y147.493 E221.69605
G1 X151.057 Y146.292 E221.81342
G1 X151.530 Y146.957 E221.84735
G1 X152.054 Y147.826 E221.88954
G1 X152.298 Y148.281 E221.91100
G1 X152.451 Y148.584 E221.92512
G1 X156.833 Y146.528 E222.12636
G1 X157.426 Y147.168 E222.16263
G1 X157.888 Y147.696 E222.19180
G1 X157.975 Y147.798 E222.19737
G1 X156.258 Y148.604 E222.27623
G1 X156.626 Y148.976 E222.29799
G1 X157.027 Y149.387 E222.32186
G1 X157.463 Y149.858 E222.34854
G1 X157.797 Y150.235 E222.36948
G1 X154.319 Y151.872 E222.52930
G1 X154.298 Y151.883 E222.53028
G1 X153.817 Y152.111 E222.55241
G1 X153.683 Y152.225 E222.55973
G1 X153.627 Y152.301 E222.56365
G1 X153.562 Y152.431 E222.56970
G1 X153.543 Y152.503 E222.57279
G1 X153.530 Y152.628 E222.57802
G1 X153.532 Y152.701 E222.58105
G1 X153.527 Y152.767 E222.58380
G1 X153.522 Y152.819 E222.58598
G1 X153.506 Y152.857 E222.58769
G1 X153.337 Y152.886 E222.59482
G1 X153.133 Y152.945 E222.60365
G1 X152.979 Y153.016 E222.61070
G1 X152.944 Y153.028 E222.61224
G1 X152.759 Y153.133 E222.62108
G1 X152.585 Y153.259 E222.63001
G1 X152.281 Y153.570 E222.64809
G1 X152.168 Y153.728 E222.65617
G1 X152.075 Y153.673 E222.66066
G1 X151.923 Y153.534 E222.66922
G1 X151.819 Y153.417 E222.67573
G1 X151.765 Y153.374 E222.67860
G1 X151.612 Y153.300 E222.68567
G1 X151.539 Y153.282 E222.68879
G1 X151.430 Y153.273 E222.69334
G1 X151.306 Y153.290 E222.69855
G1 X147.851 Y154.911 E222.85721
G1 X147.765 Y154.949 E222.86112
G1 X147.588 Y153.654 E222.91546
G1 X147.493 Y152.720 E222.95449
G1 X145.777 Y153.526 E223.03331
G1 X145.587 Y152.307 E223.08460
G1 X145.528 Y151.837 E223.10430
G1 X149.006 Y150.204 E223.26404
G1 X149.373 Y150.034 E223.28086
G1 X149.046 Y149.243 E223.31644
G1 X148.864 Y148.747 E223.33841
G1 X148.699 Y148.236 E223.36073
G1 F2400 E222.76073
G1 Z4.940
G0 F9000 X150.729 Y147.193
;TYPE:FILL
G1 Z4.440
G1 F2400 E223.36073
G1 F780 X151.131 Y147.595 E223.38437
G0 F9000 X151.775 Y148.744
G1 F780 X150.216 Y150.304 E223.47606
G0 F9000 X150.061 Y150.458
G1 F780 X148.137 Y152.382 E223.58919
G0 F9000 X147.924 Y151.460
G1 F780 X149.740 Y153.276 E223.69596
G1 F2400 E223.09596
G1 Z4.940
G0 F9000 X152.732 Y149.197
G1 Z4.440
G1 F2400 E223.69596
G1 F780 X154.552 Y151.016 E223.80294
G0 F9000 X154.793 Y150.904
;TYPE:SKIN
G1 F780 X154.257 Y150.722 E223.82883
G1 X154.071 Y151.242 E223.83751
G1 X153.684 Y151.209 E223.85365
G1 F2400 E223.25365
G1 Z4.940
G0 F9000 X154.524 Y149.928
G1 Z4.440
G1 F2400 E223.85365
G1 F780 X155.274 Y150.678 E223.89775
G0 F9000 X155.755 Y150.452
G1 F780 X154.799 Y149.495 E223.95399
G0 F9000 X154.085 Y148.782
G1 F780 X153.770 Y148.820 E223.96272
G1 X153.288 Y149.046 E223.97149
G1 X152.807 Y149.272 E223.98028
G1 X152.326 Y149.498 E223.98907
G1 X152.049 Y149.575 E224.00103
G0 F9000 X151.603 Y148.421
G1 F780 X150.488 Y147.306 E224.06659
G0 F9000 X150.155 Y147.680
G1 F780 X149.766 Y147.645 E224.07526
G1 X149.632 Y148.218 E224.09101
G1 X149.874 Y148.814 E224.11776
G1 F2400 E223.51776
G1 Z4.940
G0 F9000 X149.609 Y150.670
G1 Z4.440
G1 F2400 E224.11776
G1 F780 X149.514 Y150.928 E224.12631
G1 X148.887 Y151.008 E224.13482
G1 X148.976 Y151.450 E224.15357
G0 F9000 X148.953 Y152.135
G1 F780 X148.165 Y151.347 E224.19990
G0 F9000 X147.896 Y151.785
G1 F780 X147.548 Y151.791 E224.21240
G1 X147.067 Y152.017 E224.22486
G1 X146.585 Y152.242 E224.23738
G1 X146.265 Y152.275 E224.25075
G1 F2400 E223.65075
G1 Z4.940
G0 F9000 X148.096 Y151.985
G1 Z4.440
G1 F2400 E224.25075
G1 F780 X148.930 Y152.819 E224.29979
G0 F9000 X149.350 Y153.239
G1 F780 X149.665 Y153.201 E224.30852
G1 X150.146 Y152.975 E224.31718
G1 X150.635 Y152.756 E224.32591
G1 X150.943 Y152.711 E224.33886
G1 F2400 E223.73886
G1 Z4.940
G0 F9000 X149.018 Y153.614
G1 Z4.440
G1 F2400 E224.33886
G1 F780 X148.176 Y152.772 E224.38836
G0 F9000 X148.256 Y153.559
G1 F780 X148.536 Y153.840 E224.40485
G1 F2400 E223.80485
G1 Z4.940
G0 F9000 X154.417 Y148.407
G1 Z4.440
G1 F2400 E224.40485
G1 F780 X156.236 Y150.226 E224.51180
G1 F2400 E223.91180
G1 Z4.940
G0 F9000 X155.113 Y148.395
G1 Z4.440
G1 F2400 E224.51180
G1 F780 X155.139 Y148.068 E224.52438
G1 X155.727 Y147.949 E224.53690
G1 X156.209 Y147.723 E224.54938
G1 X156.556 Y147.717 E224.56381
;LAYER:17
M106 S178
G0 F9000 X156.708 Y147.923 Z4.640
;TYPE:WALL-INNER
G1 F780 X155.656 Y148.413 E224.61206
G1 X156.906 Y149.754 E224.68828
G1 X157.177 Y150.062 E224.70533
G1 X156.632 Y150.295 E224.72998
G1 X156.064 Y150.487 E224.75490
G1 X155.596 Y150.743 E224.77708
G1 X155.181 Y150.999 E224.79735
G1 X154.530 Y151.303 E224.82722
G1 X154.047 Y151.530 E224.84941
G1 X153.337 Y151.882 E224.88236
G1 X153.142 Y152.036 E224.89269
G1 X152.592 Y152.270 E224.91754
G1 X152.204 Y152.469 E224.93567
G1 X151.760 Y152.771 E224.95799
G1 X151.728 Y152.770 E224.95932
G1 X151.485 Y152.788 E224.96945
G1 X151.288 Y152.830 E224.97783
G1 X150.750 Y153.079 E225.00248
G1 X148.579 Y154.096 E225.10215
G1 X148.035 Y154.354 E225.12718
G1 X147.947 Y153.818 E225.14976
G1 X147.730 Y152.137 E225.22023
G1 X146.037 Y152.932 E225.29799
G1 X145.943 Y152.355 E225.32230
G1 X145.933 Y152.282 E225.32536
G1 X149.028 Y150.829 E225.46751
G1 X150.068 Y150.338 E225.51532
G1 X149.547 Y149.208 E225.56706
G1 X149.342 Y148.723 E225.58895
G1 X149.157 Y148.236 E225.61061
G1 X149.038 Y147.876 E225.62637
G1 X149.910 Y147.468 E225.66640
G1 X151.014 Y146.949 E225.71711
G1 X151.487 Y147.761 E225.75618
G1 X152.247 Y149.315 E225.82810
G1 X156.917 Y147.124 E226.04257
G1 X157.355 Y147.619 E226.07005
G1 X156.708 Y147.923 E226.09977
G0 F9000 X157.384 Y146.895
;TYPE:WALL-OUTER
G1 F780 X157.783 Y147.349 E226.12489
G1 X158.155 Y147.796 E226.14907
G1 X156.492 Y148.576 E226.22544
G1 X157.281 Y149.423 E226.27356
G1 X157.715 Y149.916 E226.30087
G1 X157.986 Y150.235 E226.31827
G1 X157.061 Y150.668 E226.36074
G1 X156.266 Y150.946 E226.39575
G1 X155.416 Y151.442 E226.43667
G1 X153.852 Y152.174 E226.50846
G1 X153.614 Y152.301 E226.51967
G1 X153.405 Y152.462 E226.53064
G1 X153.320 Y152.507 E226.53464
G1 X152.810 Y152.720 E226.55762
G1 X152.460 Y152.900 E226.57398
G1 X152.014 Y153.203 E226.59640
G1 X151.943 Y153.266 E226.60035
G1 X151.902 Y153.272 E226.60207
G1 X151.879 Y153.271 E226.60303
G1 X151.863 Y153.273 E226.60370
G1 X151.846 Y153.272 E226.60440
G1 X151.836 Y153.273 E226.60482
G1 X151.801 Y153.271 E226.60628
G1 X151.784 Y153.272 E226.60699
G1 X151.738 Y153.271 E226.60890
G1 X151.556 Y153.284 E226.61649
G1 X151.447 Y153.307 E226.62112
G1 X150.961 Y153.532 E226.64338
G1 X147.695 Y155.065 E226.79338
G1 X147.644 Y155.089 E226.79573
G1 X147.546 Y154.523 E226.81961
G1 X147.452 Y153.892 E226.84613
G1 X147.322 Y152.882 E226.88847
G1 X145.663 Y153.661 E226.96467
G1 X145.552 Y153.061 E226.99004
G1 X145.450 Y152.436 E227.01636
G1 X145.384 Y151.988 E227.03519
G1 X149.407 Y150.097 E227.22000
G1 X149.085 Y149.399 E227.25196
G1 X148.884 Y148.926 E227.27333
G1 X148.682 Y148.391 E227.29710
G1 X148.495 Y147.829 E227.32173
G1 X148.431 Y147.609 E227.33125
G1 X151.156 Y146.330 E227.45640
G1 X151.193 Y146.312 E227.45812
G1 X151.667 Y147.061 E227.49497
G1 X151.923 Y147.516 E227.51667
G1 X152.160 Y147.974 E227.53811
G1 X152.484 Y148.652 E227.56935
G1 X157.040 Y146.514 E227.77859
G1 X157.384 Y146.895 E227.79993
G1 F2400 E227.19993
G1 Z5.140
G0 F9000 X154.608 Y151.073
;TYPE:FILL
G1 Z4.640
G1 F2400 E227.79993
G1 F780 X152.789 Y149.253 E227.90691
G0 F9000 X151.772 Y148.747
G1 F780 X150.236 Y150.283 E227.99722
G0 F9000 X149.919 Y150.601
G1 F780 X147.961 Y152.558 E228.11231
G0 F9000 X147.977 Y151.513
G1 F780 X149.797 Y153.333 E228.21932
G1 F2400 E227.61932
G1 Z5.140
G0 F9000 X151.266 Y147.730
G1 Z4.640
G1 F2400 E228.21932
G1 F780 X150.784 Y147.249 E228.24763
G1 F2400 E227.64763
G1 Z5.140
G0 F9000 X152.121 Y149.459
;TYPE:SKIN
G1 Z4.640
G1 F2400 E228.24763
G1 F780 X152.384 Y149.549 E228.25875
G1 X153.710 Y148.930 E228.28309
G1 X154.584 Y148.410 E228.32537
G0 F9000 X154.333 Y149.369
G1 F780 X155.917 Y147.785 E228.41850
G0 F9000 X156.655 Y147.753
G1 F780 X156.964 Y147.444 E228.43667
G1 F2400 E227.83667
G1 Z5.140
G0 F9000 X155.695 Y148.713
G1 Z4.640
G1 F2400 E228.43667
G1 F780 X154.053 Y150.356 E228.53324
G0 F9000 X154.023 Y151.093
G1 F780 X156.036 Y149.080 E228.65160
G0 F9000 X156.378 Y149.445
G1 F780 X154.874 Y150.949 E228.74003
G0 F9000 X153.954 Y151.161
G1 F780 X153.522 Y151.593 E228.76543
G1 F2400 E228.16543
G1 Z5.140
G0 F9000 X151.106 Y152.595
G1 Z4.640
G1 F2400 E228.76543
G1 F780 X150.452 Y152.895 E228.77907
G1 X149.544 Y153.450 E228.82331
G0 F9000 X149.490 Y152.797
G1 F780 X148.212 Y154.075 E228.89846
G0 F9000 X148.083 Y153.497
G1 F780 X148.726 Y152.500 E228.93791
G1 X148.002 Y152.871 E228.97174
G0 F9000 X147.921 Y152.245
G1 F780 X148.696 Y151.470 E229.01730
G0 F9000 X148.846 Y151.320
G1 F780 X149.719 Y150.800 E229.04113
G1 X150.326 Y150.193 E229.06126
G1 X150.243 Y149.923 E229.07300
G1 F2400 E228.47300
G1 Z5.140
G0 F9000 X147.919 Y151.540
G1 Z4.640
G1 F2400 E229.07300
G1 F780 X146.956 Y152.149 E229.10777
G1 X146.160 Y152.592 E229.14565
G1 F2400 E228.54565
G1 Z5.140
G0 F9000 X156.312 Y150.218
G1 Z4.640
G1 F2400 E229.14565
G1 F780 X156.718 Y149.811 E229.16955
;LAYER:18
M106 S191
G0 F9000 X156.432 Y149.996 Z4.840
;TYPE:WALL-INNER
G1 F840 X156.080 Y150.037 E229.18428
G1 X155.755 Y150.161 E229.19874
G1 X155.483 Y150.348 E229.21247
G1 X155.321 Y150.506 E229.22187
G1 X155.138 Y150.754 E229.23469
G1 X154.960 Y151.134 E229.25213
G1 X154.895 Y151.209 E229.25626
G1 X152.652 Y152.267 E229.35937
G1 X152.084 Y152.535 E229.38548
G1 X151.584 Y152.773 E229.40850
G1 X150.906 Y153.088 E229.43958
G1 X150.096 Y153.468 E229.47678
G1 X149.159 Y153.906 E229.51978
G1 X148.200 Y154.358 E229.56386
G1 X147.905 Y154.498 E229.57743
G1 X147.559 Y152.301 E229.66990
G1 X145.922 Y153.070 E229.74509
G1 X145.806 Y152.424 E229.77238
G1 X148.744 Y151.046 E229.90730
G1 X149.387 Y150.743 E229.93685
G1 X150.134 Y150.376 E229.97145
G1 X149.507 Y149.132 E230.02937
G1 X149.084 Y148.162 E230.07337
G1 X149.013 Y147.970 E230.08188
G1 X149.799 Y147.603 E230.11794
G1 X150.759 Y147.151 E230.16206
G1 X151.102 Y146.990 E230.17781
G1 X151.578 Y147.902 E230.22058
G1 X152.232 Y149.403 E230.28865
G1 X153.576 Y148.775 E230.35033
G1 X157.110 Y147.115 E230.51265
G1 X157.533 Y147.618 E230.53998
G1 X155.891 Y148.389 E230.61540
G1 X157.166 Y149.822 E230.69514
G1 X157.364 Y150.056 E230.70788
G1 X157.176 Y150.130 E230.71628
G1 X157.146 Y150.132 E230.71753
G1 X157.125 Y150.129 E230.71842
G1 X156.963 Y150.073 E230.72554
G1 X156.630 Y150.009 E230.73964
G1 X156.432 Y149.996 E230.74789
G0 F9000 X156.200 Y150.526
;TYPE:WALL-OUTER
G1 F840 X155.989 Y150.607 E230.75729
G1 X155.801 Y150.736 E230.76677
G1 X155.699 Y150.835 E230.77268
G1 X155.562 Y151.021 E230.78228
G1 X155.448 Y151.251 E230.79295
G1 X155.399 Y151.390 E230.79908
G1 X155.227 Y151.589 E230.81002
G1 X155.113 Y151.666 E230.81573
G1 X152.300 Y152.986 E230.94492
G1 X151.969 Y153.146 E230.96021
G1 X149.372 Y154.359 E231.07937
G1 X148.413 Y154.811 E231.12345
G1 X147.541 Y155.220 E231.16349
G1 X147.447 Y154.784 E231.18204
G1 X147.340 Y154.159 E231.20840
G1 X147.167 Y153.038 E231.25556
G1 X145.554 Y153.796 E231.32965
G1 X145.356 Y152.758 E231.37359
G1 X145.260 Y152.202 E231.39705
G1 X145.250 Y152.132 E231.39999
G1 X149.170 Y150.292 E231.58002
G1 X149.460 Y150.150 E231.59345
G1 X149.060 Y149.357 E231.63037
G1 X148.842 Y148.880 E231.65218
G1 X148.623 Y148.355 E231.67583
G1 X148.411 Y147.784 E231.70115
G1 X148.387 Y147.713 E231.70426
G1 X151.299 Y146.344 E231.83804
G1 X151.787 Y147.201 E231.87904
G1 X152.025 Y147.679 E231.90124
G1 X152.242 Y148.150 E231.92280
G1 X152.489 Y148.731 E231.94905
G1 X157.240 Y146.503 E232.16722
G1 X158.143 Y147.569 E232.22530
G1 X158.326 Y147.798 E232.23749
G1 X156.710 Y148.557 E232.31171
G1 X157.535 Y149.484 E232.36331
G1 X157.967 Y149.997 E232.39119
G1 X158.158 Y150.233 E232.40381
G1 X157.438 Y150.573 E232.43692
G1 X157.262 Y150.625 E232.44455
G1 X157.133 Y150.634 E232.44992
G1 X157.008 Y150.618 E232.45516
G1 X156.699 Y150.525 E232.46858
G1 X156.445 Y150.498 E232.47920
G1 X156.200 Y150.526 E232.48945
G1 F2400 E231.88945
G1 Z5.340
G0 F9000 X154.660 Y151.124
;TYPE:FILL
G1 Z4.840
G1 F2400 E232.48945
G1 F840 X152.843 Y149.308 E232.59625
G0 F9000 X151.759 Y148.760
G1 F840 X150.267 Y150.252 E232.68398
G0 F9000 X149.773 Y150.746
G1 F840 X147.801 Y152.718 E232.79992
G0 F9000 X148.034 Y151.569
G1 F840 X149.852 Y153.387 E232.90681
G1 F2400 E232.30681
G1 Z5.340
G0 F9000 X151.316 Y147.781
G1 Z4.840
G1 F2400 E232.90681
G1 F840 X150.842 Y147.306 E232.93471
G1 F2400 E232.33471
G1 Z5.340
G0 F9000 X151.667 Y149.192
;TYPE:SKIN
G1 Z4.840
G1 F2400 E232.93471
G1 F840 X152.437 Y149.608 E232.97022
G1 X152.919 Y149.383 E232.97912
G1 X153.400 Y149.157 E232.98795
G1 X153.716 Y149.120 E233.00118
G0 F9000 X153.926 Y149.330
G1 F840 X155.102 Y150.506 E233.07032
G0 F9000 X155.456 Y150.153
G1 F840 X154.047 Y148.744 E233.15317
G0 F9000 X154.528 Y148.518
G1 F840 X155.919 Y149.909 E233.23495
G0 F9000 X156.546 Y149.828
G1 F840 X155.010 Y148.293 E233.32524
G0 F9000 X155.492 Y148.067
G1 F840 X155.839 Y148.061 E233.33779
G1 X156.321 Y147.835 E233.35032
G1 X156.801 Y147.609 E233.36280
G1 X157.150 Y147.604 E233.37731
G1 F2400 E232.77731
G1 Z5.340
G0 F9000 X153.819 Y149.929
G1 Z4.840
G1 F2400 E233.37731
G1 F840 X154.849 Y150.960 E233.43790
G0 F9000 X154.420 Y151.238
G1 F840 X153.795 Y150.967 E233.47455
G1 X153.700 Y151.578 E233.48303
G1 X153.360 Y151.592 E233.49718
G1 F2400 E232.89718
G1 Z5.340
G0 F9000 X151.057 Y152.825
G1 Z4.840
G1 F2400 E233.49718
G1 F840 X150.744 Y152.865 E233.50571
G1 X150.215 Y152.690 E233.52887
G0 F9000 X150.094 Y153.276
G1 F840 X149.107 Y152.289 E233.58691
G0 F9000 X148.474 Y152.363
G1 F840 X149.613 Y153.502 E233.65387
G0 F9000 X149.131 Y153.727
G1 F840 X147.742 Y152.338 E233.73554
G0 F9000 X147.526 Y152.122
G1 F840 X147.178 Y152.128 E233.74807
G1 X146.697 Y152.354 E233.76062
G1 X146.349 Y152.360 E233.77509
G1 F2400 E233.17509
G1 Z5.340
G0 F9000 X147.793 Y151.682
G1 Z4.840
G1 F2400 E233.77509
G1 F840 X148.454 Y151.989 E233.81473
G1 X148.515 Y151.344 E233.82442
G1 X149.071 Y151.192 E233.83319
G1 X149.550 Y150.964 E233.84193
G1 X150.028 Y150.735 E233.85083
G1 X150.348 Y150.702 E233.86421
G0 F9000 X150.829 Y150.475
G1 F840 X149.922 Y149.569 E233.91750
G1 F2400 E233.31750
G1 Z5.340
G0 F9000 X147.873 Y153.177
G1 Z4.840
G1 F2400 E233.91750
G1 F840 X148.650 Y153.953 E233.96316
G0 F9000 X148.168 Y154.178
G1 F840 X148.005 Y154.015 E233.97274
;LAYER:19
M106 S201
G0 F9000 X148.867 Y153.978 Z5.040
;TYPE:WALL-INNER
G1 F900 X148.198 Y154.435 E234.00643
G1 X147.794 Y154.630 E234.02508
G1 X147.684 Y154.055 E234.04942
G1 X147.586 Y153.477 E234.07379
G1 X147.409 Y152.455 E234.11691
G1 X145.996 Y153.117 E234.18179
G1 X145.814 Y153.202 E234.19014
G1 X145.689 Y152.562 E234.21725
G1 X150.238 Y150.426 E234.42619
G1 X149.601 Y149.281 E234.48066
G1 X149.358 Y148.809 E234.50273
G1 X149.134 Y148.334 E234.52456
G1 X149.014 Y148.052 E234.53731
G1 X149.892 Y147.642 E234.57759
G1 X150.370 Y147.416 E234.59958
G1 X151.163 Y147.044 E234.63599
G1 X151.530 Y147.805 E234.67112
G1 X151.738 Y148.294 E234.69321
G1 X152.205 Y149.500 E234.74698
G1 X157.289 Y147.114 E234.98047
G1 X157.704 Y147.620 E235.00767
G1 X157.245 Y147.836 E235.02876
G1 X156.100 Y148.372 E235.08133
G1 X157.091 Y149.517 E235.14428
G1 X157.423 Y149.914 E235.16580
G1 X157.064 Y149.704 E235.18309
G1 X156.725 Y149.584 E235.19804
G1 X156.412 Y149.523 E235.21130
G1 X156.204 Y149.512 E235.21996
G1 X155.870 Y149.547 E235.23392
G1 X155.542 Y149.669 E235.24847
G1 X155.331 Y149.804 E235.25889
G1 X155.114 Y149.992 E235.27082
G1 X154.907 Y150.268 E235.28517
G1 X154.750 Y150.586 E235.29991
G1 X154.618 Y151.060 E235.32037
G1 X154.565 Y151.452 E235.33681
G1 X152.880 Y152.243 E235.41420
G1 X151.811 Y152.745 E235.46330
G1 X150.342 Y153.435 E235.53078
G1 X149.938 Y153.625 E235.54934
G1 X149.095 Y153.869 E235.58582
G1 X148.867 Y153.978 E235.59633
G0 F9000 X149.273 Y154.338
;TYPE:WALL-OUTER
G1 F900 X149.109 Y154.417 E235.60390
G1 X148.457 Y154.865 E235.63679
G1 X147.990 Y155.090 E235.65834
G1 X147.432 Y155.354 E235.68400
G1 X147.309 Y154.758 E235.70931
G1 X147.193 Y154.148 E235.73512
G1 X147.093 Y153.561 E235.75988
G1 X147.028 Y153.186 E235.77570
G1 X145.455 Y153.924 E235.84794
G1 X145.280 Y153.089 E235.88341
G1 X145.159 Y152.452 E235.91036
G1 X145.127 Y152.273 E235.91792
G1 X149.541 Y150.201 E236.12065
G1 X149.152 Y149.503 E236.15387
G1 X148.917 Y149.045 E236.17527
G1 X148.669 Y148.520 E236.19941
G1 X148.426 Y147.946 E236.22533
G1 X148.371 Y147.803 E236.23170
G1 X149.214 Y147.407 E236.27042
G1 X149.679 Y147.189 E236.29177
G1 X151.380 Y146.389 E236.36992
G1 X151.768 Y147.131 E236.40473
G1 X151.990 Y147.609 E236.42665
G1 X152.195 Y148.090 E236.44838
G1 X152.478 Y148.820 E236.48093
G1 X157.426 Y146.497 E236.70819
G1 X157.913 Y147.080 E236.73977
G1 X158.357 Y147.635 E236.76932
G1 X158.489 Y147.805 E236.77827
G1 X156.911 Y148.545 E236.85073
G1 X157.466 Y149.186 E236.88598
G1 X157.789 Y149.572 E236.90691
G1 X158.127 Y149.989 E236.92923
G1 X158.324 Y150.239 E236.94246
G1 X157.687 Y150.539 E236.97173
G1 X157.646 Y150.552 E236.97352
G1 X157.586 Y150.560 E236.97604
G1 X157.493 Y150.551 E236.97992
G1 X157.353 Y150.452 E236.98705
G1 X156.852 Y150.159 E237.01118
G1 X156.593 Y150.067 E237.02261
G1 X156.351 Y150.020 E237.03286
G1 X156.217 Y150.013 E237.03843
G1 X155.985 Y150.038 E237.04814
G1 X155.766 Y150.119 E237.05784
G1 X155.631 Y150.205 E237.06450
G1 X155.482 Y150.335 E237.07272
G1 X155.335 Y150.531 E237.08291
G1 X155.219 Y150.765 E237.09376
G1 X155.109 Y151.161 E237.11085
G1 X155.064 Y151.489 E237.12462
G1 X155.065 Y151.503 E237.12520
G1 X155.045 Y151.708 E237.13376
G1 X154.998 Y151.774 E237.13713
G1 X154.922 Y151.836 E237.14121
G1 X153.087 Y152.698 E237.22550
G1 X150.113 Y154.094 E237.36209
G1 X149.273 Y154.338 E237.39845
G0 F9000 X149.909 Y153.444
;TYPE:FILL
G1 F900 X148.090 Y151.626 E237.50537
G0 F9000 X147.658 Y152.862
G1 F900 X149.605 Y150.914 E237.61988
G0 F9000 X150.316 Y150.204
G1 F900 X151.738 Y148.782 E237.70349
G0 F9000 X151.330 Y147.795
G1 F900 X150.898 Y147.362 E237.72892
G1 F2400 E237.12892
G1 Z5.540
G0 F9000 X152.901 Y149.366
G1 Z5.040
G1 F2400 E237.72892
G1 F900 X154.470 Y150.934 E237.82114
G0 F9000 X154.579 Y150.536
;TYPE:SKIN
G1 F900 X153.721 Y151.395 E237.87161
G0 F9000 X153.642 Y151.474
G1 F900 X153.350 Y151.766 E237.88878
G0 F9000 X153.623 Y150.785
G1 F900 X155.946 Y148.463 E238.02534
G0 F9000 X156.274 Y148.841
G1 F900 X156.078 Y149.391 E238.05981
G1 X156.602 Y149.220 E238.08272
G0 F9000 X156.345 Y148.063
G1 F900 X156.938 Y147.470 E238.11759
G0 F9000 X155.605 Y148.096
G1 F900 X153.568 Y150.133 E238.23736
G0 F9000 X153.597 Y149.397
G1 F900 X154.273 Y148.721 E238.27710
G0 F9000 X152.940 Y149.347
G1 F900 X152.279 Y149.654 E238.30153
G1 X151.592 Y149.634 E238.32461
G1 X151.641 Y148.878 E238.34181
G1 X151.640 Y148.526 E238.35645
G1 F2400 E237.75645
G1 Z5.540
G0 F9000 X150.448 Y149.717
G1 Z5.040
G1 F2400 E238.35645
G1 F900 X150.062 Y149.750 E238.37165
G1 X149.960 Y149.144 E238.38238
G1 X149.686 Y149.065 E238.39424
G1 F2400 E237.79424
G1 Z5.540
G0 F9000 X150.778 Y150.095
G1 Z5.040
G1 F2400 E238.39424
G1 F900 X150.357 Y150.516 E238.41399
G1 X149.392 Y151.126 E238.43886
G1 X148.414 Y151.751 E238.46357
G1 X147.309 Y152.503 E238.50502
