;-- START GCODE --
;Sliced for Type A Machines Series 1
;Sliced at: Mon 19-10-2020 19:59:59
;Basic settings: Layer height: 0.2 Walls: 1 Fill: 20
;Print Speed: 45 Support: 0
;Retraction Speed: 40 Retraction Distance: 0.6
;Print time: 1 hour 11 minutes
;Filament used: 3.391m 10.0g
;Settings based on: Type A Machines ProMatte
G21        ;metric values
G90        ;absolute positioning
G28     ;move to endstops
G29		;allows for auto-levelling
G1 Z15.0 F12000 ;move the platform down 15mm
G1 X150 Y5 F9000 ;center
M140 S50 ;Prep Heat Bed
M109 S205 ;Heat To temp
M190 S50 ;Heat Bed to temp
G1 X150 Y5 Z0.3 ;move the platform to purge extrusion
G92 E0 ;zero the extruded length
G1 F200 X250 E30 ;extrude 30mm of feed stock
G92 E0 ;zero the extruded length again
G1 X150 Y150  Z25 F12000 ;recenter and begin
G1 F9000

;Layer count: 345
;LAYER:-2
;RAFT
G0 F9000 X125.300 Y141.800 Z0.300
;TYPE:SUPPORT
G1 F1800 X131.300 Y141.800 E0.52385
G1 X131.300 Y140.600 E0.62862
G1 X173.400 Y140.600 E4.30428
G1 X173.400 Y141.800 E4.40905
G1 X179.400 Y141.800 E4.93289
G1 X179.400 Y155.600 E6.13774
G1 X166.500 Y155.600 E7.26401
G1 X166.500 Y155.000 E7.31640
G1 X164.800 Y155.000 E7.46482
G1 X164.800 Y164.600 E8.30298
G1 X139.900 Y164.600 E10.47694
G1 X139.900 Y155.000 E11.31510
G1 X138.200 Y155.000 E11.46352
G1 X138.200 Y155.600 E11.51591
G1 X125.300 Y155.600 E12.64218
G1 X125.300 Y141.800 E13.84703
G0 F9000 X127.500 Y141.695
G1 F1800 X127.500 Y155.705 E15.07021
G0 F9000 X130.500 Y155.705
G1 F1800 X130.500 Y141.695 E16.29339
G0 F9000 X133.500 Y140.495
G1 F1800 X133.500 Y155.705 E17.62134
G0 F9000 X136.500 Y155.705
G1 F1800 X136.500 Y140.495 E18.94930
G0 F9000 X139.500 Y140.495
G1 F1800 X139.500 Y155.105 E20.22486
G0 F9000 X142.500 Y164.705
G1 F1800 X142.500 Y140.495 E22.33859
G0 F9000 X145.500 Y140.495
G1 F1800 X145.500 Y164.705 E24.45231
G0 F9000 X148.500 Y164.705
G1 F1800 X148.500 Y140.495 E26.56603
G0 F9000 X151.500 Y140.495
G1 F1800 X151.500 Y164.705 E28.67976
G0 F9000 X154.500 Y164.705
G1 F1800 X154.500 Y140.495 E30.79348
G0 F9000 X157.500 Y140.495
G1 F1800 X157.500 Y164.705 E32.90720
G0 F9000 X160.500 Y164.705
G1 F1800 X160.500 Y140.495 E35.02093
G0 F9000 X163.500 Y140.495
G1 F1800 X163.500 Y164.705 E37.13465
G0 F9000 X166.500 Y155.705
G1 F1800 X166.500 Y140.495 E38.46260
G0 F9000 X169.500 Y140.495
G1 F1800 X169.500 Y155.705 E39.79055
G0 F9000 X172.500 Y155.705
G1 F1800 X172.500 Y140.495 E41.11851
G0 F9000 X175.500 Y141.695
G1 F1800 X175.500 Y155.705 E42.34169
G0 F9000 X178.500 Y155.705
G1 F1800 X178.500 Y141.695 E43.56487
;LAYER:-1
;RAFT
G0 F9000 X178.256 Y141.769 Z0.500
;TYPE:SUPPORT
G1 F1800 X179.429 Y142.943 E43.59247
G0 F9000 X179.429 Y143.508
G1 F1800 X177.690 Y141.769 E43.63337
G0 F9000 X177.125 Y141.769
G1 F1800 X179.429 Y144.074 E43.68757
G0 F9000 X179.429 Y144.640
G1 F1800 X176.559 Y141.769 E43.75508
G0 F9000 X175.993 Y141.769
G1 F1800 X179.429 Y145.205 E43.83589
G0 F9000 X179.429 Y145.771
G1 F1800 X175.428 Y141.769 E43.93000
G0 F9000 X174.862 Y141.769
G1 F1800 X179.429 Y146.337 E44.03742
G0 F9000 X179.429 Y146.902
G1 F1800 X174.296 Y141.769 E44.15814
G0 F9000 X173.731 Y141.769
G1 F1800 X179.429 Y147.468 E44.29216
G0 F9000 X179.429 Y148.034
G1 F1800 X171.965 Y140.569 E44.46771
G0 F9000 X171.399 Y140.569
G1 F1800 X179.429 Y148.599 E44.65657
G0 F9000 X179.429 Y149.165
G1 F1800 X170.834 Y140.569 E44.85872
G0 F9000 X170.268 Y140.569
G1 F1800 X179.429 Y149.731 E45.07418
G0 F9000 X179.429 Y150.296
G1 F1800 X169.702 Y140.569 E45.30295
G0 F9000 X169.137 Y140.569
G1 F1800 X179.429 Y150.862 E45.54501
G0 F9000 X179.429 Y151.428
G1 F1800 X168.571 Y140.569 E45.80039
G0 F9000 X168.005 Y140.569
G1 F1800 X179.429 Y151.994 E46.06907
G0 F9000 X179.429 Y152.559
G1 F1800 X167.440 Y140.569 E46.35105
G0 F9000 X166.874 Y140.569
G1 F1800 X179.429 Y153.125 E46.64633
G0 F9000 X179.429 Y153.691
G1 F1800 X166.308 Y140.569 E46.95493
G0 F9000 X165.743 Y140.569
G1 F1800 X179.429 Y154.256 E47.27682
G0 F9000 X179.429 Y154.822
G1 F1800 X165.177 Y140.569 E47.61201
G0 F9000 X164.611 Y140.569
G1 F1800 X179.429 Y155.388 E47.96052
G0 F9000 X179.105 Y155.629
G1 F1800 X164.045 Y140.569 E48.31471
G0 F9000 X163.480 Y140.569
G1 F1800 X178.540 Y155.629 E48.66890
G0 F9000 X177.974 Y155.629
G1 F1800 X162.914 Y140.569 E49.02309
G0 F9000 X162.348 Y140.569
G1 F1800 X177.408 Y155.629 E49.37727
G0 F9000 X176.843 Y155.629
G1 F1800 X161.783 Y140.569 E49.73146
G0 F9000 X161.217 Y140.569
G1 F1800 X176.277 Y155.629 E50.08565
G0 F9000 X175.711 Y155.629
G1 F1800 X160.651 Y140.569 E50.43984
G0 F9000 X160.086 Y140.569
G1 F1800 X175.146 Y155.629 E50.79403
G0 F9000 X174.580 Y155.629
G1 F1800 X159.520 Y140.569 E51.14821
G0 F9000 X158.954 Y140.569
G1 F1800 X174.014 Y155.629 E51.50240
G0 F9000 X173.449 Y155.629
G1 F1800 X158.389 Y140.569 E51.85659
G0 F9000 X157.823 Y140.569
G1 F1800 X172.883 Y155.629 E52.21078
G0 F9000 X172.317 Y155.629
G1 F1800 X157.257 Y140.569 E52.56497
G0 F9000 X156.692 Y140.569
G1 F1800 X171.751 Y155.629 E52.91914
G0 F9000 X171.186 Y155.629
G1 F1800 X156.126 Y140.569 E53.27333
G0 F9000 X155.560 Y140.569
G1 F1800 X170.620 Y155.629 E53.62752
G0 F9000 X170.054 Y155.629
G1 F1800 X154.994 Y140.569 E53.98171
G0 F9000 X154.429 Y140.569
G1 F1800 X169.489 Y155.629 E54.33590
G0 F9000 X168.923 Y155.629
G1 F1800 X153.863 Y140.569 E54.69008
G0 F9000 X153.297 Y140.569
G1 F1800 X168.357 Y155.629 E55.04427
G0 F9000 X167.792 Y155.629
G1 F1800 X152.732 Y140.569 E55.39846
G0 F9000 X152.166 Y140.569
G1 F1800 X167.226 Y155.629 E55.75265
G0 F9000 X166.660 Y155.629
G1 F1800 X166.469 Y155.438 E55.75714
G0 F9000 X166.060 Y155.029
G1 F1800 X151.600 Y140.569 E56.09722
G0 F9000 X151.035 Y140.569
G1 F1800 X165.494 Y155.029 E56.43728
G0 F9000 X164.929 Y155.029
G1 F1800 X150.469 Y140.569 E56.77736
G0 F9000 X149.903 Y140.569
G1 F1800 X164.829 Y155.495 E57.12840
G0 F9000 X164.829 Y156.061
G1 F1800 X149.338 Y140.569 E57.49273
G0 F9000 X148.772 Y140.569
G1 F1800 X164.829 Y156.626 E57.87037
G0 F9000 X164.829 Y157.192
G1 F1800 X148.206 Y140.569 E58.26132
G0 F9000 X147.641 Y140.569
G1 F1800 X164.829 Y157.758 E58.66556
G0 F9000 X164.829 Y158.324
G1 F1800 X147.075 Y140.569 E59.08312
G0 F9000 X146.509 Y140.569
G1 F1800 X164.829 Y158.889 E59.51398
G0 F9000 X164.829 Y159.455
G1 F1800 X145.944 Y140.569 E59.95814
G0 F9000 X145.378 Y140.569
G1 F1800 X164.829 Y160.021 E60.41561
G0 F9000 X164.829 Y160.586
G1 F1800 X144.812 Y140.569 E60.88638
G0 F9000 X144.246 Y140.569
G1 F1800 X164.829 Y161.152 E61.37046
G0 F9000 X164.829 Y161.718
G1 F1800 X143.681 Y140.569 E61.86784
G0 F9000 X143.115 Y140.569
G1 F1800 X164.829 Y162.283 E62.37852
G0 F9000 X164.829 Y162.849
G1 F1800 X142.549 Y140.569 E62.90251
G0 F9000 X141.984 Y140.569
G1 F1800 X164.829 Y163.415 E63.43980
G0 F9000 X164.829 Y163.980
G1 F1800 X141.418 Y140.569 E63.99039
G0 F9000 X140.852 Y140.569
G1 F1800 X164.829 Y164.546 E64.55429
G0 F9000 X164.346 Y164.629
G1 F1800 X140.287 Y140.569 E65.12014
G0 F9000 X139.721 Y140.569
G1 F1800 X163.780 Y164.629 E65.68598
G0 F9000 X163.215 Y164.629
G1 F1800 X139.155 Y140.569 E66.25183
G0 F9000 X138.590 Y140.569
G1 F1800 X162.649 Y164.629 E66.81768
G0 F9000 X162.083 Y164.629
G1 F1800 X138.024 Y140.569 E67.38352
G0 F9000 X137.458 Y140.569
G1 F1800 X161.518 Y164.629 E67.94937
G0 F9000 X160.952 Y164.629
G1 F1800 X136.893 Y140.569 E68.51522
G0 F9000 X136.327 Y140.569
G1 F1800 X160.386 Y164.629 E69.08106
G0 F9000 X159.820 Y164.629
G1 F1800 X135.761 Y140.569 E69.64690
G0 F9000 X135.195 Y140.569
G1 F1800 X159.255 Y164.629 E70.21275
G0 F9000 X158.689 Y164.629
G1 F1800 X134.630 Y140.569 E70.77860
G0 F9000 X134.064 Y140.569
G1 F1800 X158.123 Y164.629 E71.34444
G0 F9000 X157.558 Y164.629
G1 F1800 X133.498 Y140.569 E71.91029
G0 F9000 X132.933 Y140.569
G1 F1800 X156.992 Y164.629 E72.47614
G0 F9000 X156.426 Y164.629
G1 F1800 X132.367 Y140.569 E73.04198
G0 F9000 X131.801 Y140.569
G1 F1800 X155.861 Y164.629 E73.60783
G0 F9000 X155.295 Y164.629
G1 F1800 X131.269 Y140.603 E74.17289
G0 F9000 X131.269 Y141.168
G1 F1800 X154.729 Y164.629 E74.72464
G0 F9000 X154.164 Y164.629
G1 F1800 X131.269 Y141.734 E75.26310
G0 F9000 X130.738 Y141.769
G1 F1800 X153.598 Y164.629 E75.80073
G0 F9000 X153.032 Y164.629
G1 F1800 X130.172 Y141.769 E76.33836
G0 F9000 X129.607 Y141.769
G1 F1800 X152.467 Y164.629 E76.87599
G0 F9000 X151.901 Y164.629
G1 F1800 X129.041 Y141.769 E77.41363
G0 F9000 X128.475 Y141.769
G1 F1800 X151.335 Y164.629 E77.95126
G0 F9000 X150.770 Y164.629
G1 F1800 X127.909 Y141.769 E78.48890
G0 F9000 X127.344 Y141.769
G1 F1800 X150.204 Y164.629 E79.02654
G0 F9000 X149.638 Y164.629
G1 F1800 X126.778 Y141.769 E79.56417
G0 F9000 X126.212 Y141.769
G1 F1800 X139.472 Y155.028 E79.87601
G0 F9000 X139.869 Y155.426
G1 F1800 X149.072 Y164.629 E80.09245
G0 F9000 X148.507 Y164.629
G1 F1800 X139.869 Y155.991 E80.29560
G0 F9000 X139.869 Y156.557
G1 F1800 X147.941 Y164.629 E80.48544
G0 F9000 X147.375 Y164.629
G1 F1800 X139.869 Y157.123 E80.66197
G0 F9000 X139.869 Y157.689
G1 F1800 X146.810 Y164.629 E80.82520
G0 F9000 X146.244 Y164.629
G1 F1800 X139.869 Y158.254 E80.97513
G0 F9000 X139.869 Y158.820
G1 F1800 X145.678 Y164.629 E81.11175
G0 F9000 X145.113 Y164.629
G1 F1800 X139.869 Y159.386 E81.23507
G0 F9000 X139.869 Y159.951
G1 F1800 X144.547 Y164.629 E81.34509
G0 F9000 X143.981 Y164.629
G1 F1800 X139.869 Y160.517 E81.44180
G0 F9000 X139.869 Y161.083
G1 F1800 X143.416 Y164.629 E81.52521
G0 F9000 X142.850 Y164.629
G1 F1800 X139.869 Y161.648 E81.59532
G0 F9000 X139.869 Y162.214
G1 F1800 X142.284 Y164.629 E81.65211
G0 F9000 X141.719 Y164.629
G1 F1800 X139.869 Y162.780 E81.69561
G0 F9000 X139.869 Y163.345
G1 F1800 X141.153 Y164.629 E81.72581
G0 F9000 X140.587 Y164.629
G1 F1800 X139.869 Y163.911 E81.74269
G0 F9000 X139.869 Y164.477
G1 F1800 X140.021 Y164.629 E81.74627
G0 F9000 X137.810 Y155.629
G1 F1800 X125.269 Y143.088 E82.04121
G0 F9000 X125.269 Y142.523
G1 F1800 X138.230 Y155.483 E82.34603
G0 F9000 X138.341 Y155.028
G1 F1800 X125.269 Y141.957 E82.65345
G0 F9000 X125.647 Y141.769
G1 F1800 X138.906 Y155.028 E82.96528
G0 F9000 X137.244 Y155.629
G1 F1800 X125.269 Y143.654 E83.24691
G0 F9000 X125.269 Y144.220
G1 F1800 X136.678 Y155.629 E83.51523
G0 F9000 X136.113 Y155.629
G1 F1800 X125.269 Y144.785 E83.77027
G0 F9000 X125.269 Y145.351
G1 F1800 X135.547 Y155.629 E84.01199
G0 F9000 X134.981 Y155.629
G1 F1800 X125.269 Y145.917 E84.24040
G0 F9000 X125.269 Y146.482
G1 F1800 X134.416 Y155.629 E84.45553
G0 F9000 X133.850 Y155.629
G1 F1800 X125.269 Y147.048 E84.65734
G0 F9000 X125.269 Y147.614
G1 F1800 X133.284 Y155.629 E84.84584
G0 F9000 X132.718 Y155.629
G1 F1800 X125.269 Y148.179 E85.02104
G0 F9000 X125.269 Y148.745
G1 F1800 X132.153 Y155.629 E85.18294
G0 F9000 X131.587 Y155.629
G1 F1800 X125.269 Y149.311 E85.33153
G0 F9000 X125.269 Y149.876
G1 F1800 X131.021 Y155.629 E85.46682
G0 F9000 X130.456 Y155.629
G1 F1800 X125.269 Y150.442 E85.58881
G0 F9000 X125.269 Y151.008
G1 F1800 X129.890 Y155.629 E85.69749
G0 F9000 X129.324 Y155.629
G1 F1800 X125.269 Y151.573 E85.79287
G0 F9000 X125.269 Y152.139
G1 F1800 X128.759 Y155.629 E85.87495
G0 F9000 X128.193 Y155.629
G1 F1800 X125.269 Y152.705 E85.94372
G0 F9000 X125.269 Y153.271
G1 F1800 X127.627 Y155.629 E85.99917
G0 F9000 X127.062 Y155.629
G1 F1800 X125.269 Y153.836 E86.04134
G0 F9000 X125.269 Y154.402
G1 F1800 X126.496 Y155.629 E86.07020
G0 F9000 X125.930 Y155.629
G1 F1800 X125.269 Y154.968 E86.08574
G0 F9000 X125.269 Y155.533
G1 F1800 X125.365 Y155.629 E86.08800
G0 F9000 X172.531 Y140.569
G1 F1800 X173.429 Y141.468 E86.10913
G0 F9000 X173.429 Y140.903
G1 F1800 X173.096 Y140.569 E86.11698
G0 F9000 X178.822 Y141.769
G1 F1800 X179.429 Y142.377 E86.13126
G0 F9000 X179.429 Y141.811
G1 F1800 X179.388 Y141.769 E86.13224
;LAYER:-1
;RAFT
G0 F9000 X179.460 Y141.800 Z0.770
;TYPE:SUPPORT
G1 F1800 X125.239 Y141.800 E88.56683
G0 F9000 X125.239 Y142.200
G1 F1800 X179.460 Y142.200 E91.00141
G0 F9000 X179.460 Y142.600
G1 F1800 X125.239 Y142.600 E93.43600
G0 F9000 X125.239 Y143.000
G1 F1800 X179.460 Y143.000 E95.87059
G0 F9000 X179.460 Y143.400
G1 F1800 X125.239 Y143.400 E98.30518
G0 F9000 X125.239 Y143.800
G1 F1800 X179.460 Y143.800 E100.73976
G0 F9000 X179.460 Y144.200
G1 F1800 X125.239 Y144.200 E103.17435
G0 F9000 X125.239 Y144.600
G1 F1800 X179.460 Y144.600 E105.60894
G0 F9000 X179.460 Y145.000
G1 F1800 X125.239 Y145.000 E108.04352
G0 F9000 X125.239 Y145.400
G1 F1800 X179.460 Y145.400 E110.47811
G0 F9000 X179.460 Y145.800
G1 F1800 X125.239 Y145.800 E112.91270
G0 F9000 X125.239 Y146.200
G1 F1800 X179.460 Y146.200 E115.34728
G0 F9000 X179.460 Y146.600
G1 F1800 X125.239 Y146.600 E117.78187
G0 F9000 X125.239 Y147.000
G1 F1800 X179.460 Y147.000 E120.21646
G0 F9000 X179.460 Y147.400
G1 F1800 X125.239 Y147.400 E122.65105
G0 F9000 X125.239 Y147.800
G1 F1800 X179.460 Y147.800 E125.08563
G0 F9000 X179.460 Y148.200
G1 F1800 X125.239 Y148.200 E127.52022
G0 F9000 X125.239 Y148.600
G1 F1800 X179.460 Y148.600 E129.95481
G0 F9000 X179.460 Y149.000
G1 F1800 X125.239 Y149.000 E132.38939
G0 F9000 X125.239 Y149.400
G1 F1800 X179.460 Y149.400 E134.82398
G0 F9000 X179.460 Y149.800
G1 F1800 X125.239 Y149.800 E137.25857
G0 F9000 X125.239 Y150.200
G1 F1800 X179.460 Y150.200 E139.69315
G0 F9000 X179.460 Y150.600
G1 F1800 X125.239 Y150.600 E142.12774
G0 F9000 X125.239 Y151.000
G1 F1800 X179.460 Y151.000 E144.56233
G0 F9000 X179.460 Y151.400
G1 F1800 X125.239 Y151.400 E146.99692
G0 F9000 X125.239 Y151.800
G1 F1800 X179.460 Y151.800 E149.43150
G0 F9000 X179.460 Y152.200
G1 F1800 X125.239 Y152.200 E151.86609
G0 F9000 X125.239 Y152.600
G1 F1800 X179.460 Y152.600 E154.30068
G0 F9000 X179.460 Y153.000
G1 F1800 X125.239 Y153.000 E156.73526
G0 F9000 X125.239 Y153.400
G1 F1800 X179.460 Y153.400 E159.16985
G0 F9000 X179.460 Y153.800
G1 F1800 X125.239 Y153.800 E161.60444
G0 F9000 X125.239 Y154.200
G1 F1800 X179.460 Y154.200 E164.03902
G0 F9000 X179.460 Y154.600
G1 F1800 X125.239 Y154.600 E166.47361
G0 F9000 X125.239 Y155.000
G1 F1800 X179.460 Y155.000 E168.90820
G0 F9000 X179.460 Y155.400
G1 F1800 X166.440 Y155.400 E169.49281
G0 F9000 X164.860 Y155.400
G1 F1800 X139.840 Y155.400 E170.61624
G0 F9000 X139.840 Y155.800
G1 F1800 X164.860 Y155.800 E171.73967
G0 F9000 X164.860 Y156.200
G1 F1800 X139.840 Y156.200 E172.86309
G0 F9000 X139.840 Y156.600
G1 F1800 X164.860 Y156.600 E173.98652
G0 F9000 X164.860 Y157.000
G1 F1800 X139.840 Y157.000 E175.10995
G0 F9000 X139.840 Y157.400
G1 F1800 X164.860 Y157.400 E176.23338
G0 F9000 X164.860 Y157.800
G1 F1800 X139.840 Y157.800 E177.35681
G0 F9000 X139.840 Y158.200
G1 F1800 X164.860 Y158.200 E178.48023
G0 F9000 X164.860 Y158.600
G1 F1800 X139.840 Y158.600 E179.60366
G0 F9000 X139.840 Y159.000
G1 F1800 X164.860 Y159.000 E180.72709
G0 F9000 X164.860 Y159.400
G1 F1800 X139.840 Y159.400 E181.85052
G0 F9000 X139.840 Y159.800
G1 F1800 X164.860 Y159.800 E182.97394
G0 F9000 X173.460 Y141.400
G1 F1800 X131.240 Y141.400 E184.86967
G0 F9000 X131.240 Y141.000
G1 F1800 X173.460 Y141.000 E186.76540
G0 F9000 X173.460 Y140.600
G1 F1800 X131.240 Y140.600 E188.66113
G0 F9000 X125.239 Y155.400
G1 F1800 X138.260 Y155.400 E189.24578
G0 F9000 X139.840 Y160.200
G1 F1800 X164.860 Y160.200 E190.36921
G0 F9000 X164.860 Y160.600
G1 F1800 X139.840 Y160.600 E191.49264
G0 F9000 X139.840 Y161.000
G1 F1800 X164.860 Y161.000 E192.61607
G0 F9000 X164.860 Y161.400
G1 F1800 X139.840 Y161.400 E193.73950
G0 F9000 X139.840 Y161.800
G1 F1800 X164.860 Y161.800 E194.86292
G0 F9000 X164.860 Y162.200
G1 F1800 X139.840 Y162.200 E195.98635
G0 F9000 X139.840 Y162.600
G1 F1800 X164.860 Y162.600 E197.10978
G0 F9000 X164.860 Y163.000
G1 F1800 X139.840 Y163.000 E198.23321
G0 F9000 X139.840 Y163.400
G1 F1800 X164.860 Y163.400 E199.35663
G0 F9000 X164.860 Y163.800
G1 F1800 X139.840 Y163.800 E200.48006
G0 F9000 X139.840 Y164.200
G1 F1800 X164.860 Y164.200 E201.60349
G0 F9000 X164.860 Y164.600
G1 F1800 X139.840 Y164.600 E202.72692
;LAYER:-1
;RAFT
G0 F9000 X140.199 Y164.659 Z1.040
;TYPE:SUPPORT
G1 F1800 X140.199 Y140.539 E203.80993
G0 F9000 X140.599 Y140.539
G1 F1800 X140.599 Y164.659 E204.89295
G0 F9000 X140.999 Y164.659
G1 F1800 X140.999 Y140.539 E205.97597
G0 F9000 X141.399 Y140.539
G1 F1800 X141.399 Y164.659 E207.05898
G0 F9000 X141.799 Y164.659
G1 F1800 X141.799 Y140.539 E208.14200
G0 F9000 X142.199 Y140.539
G1 F1800 X142.199 Y164.659 E209.22502
G0 F9000 X142.599 Y164.659
G1 F1800 X142.599 Y140.539 E210.30803
G0 F9000 X142.999 Y140.539
G1 F1800 X142.999 Y164.659 E211.39105
G0 F9000 X143.399 Y164.659
G1 F1800 X143.399 Y140.539 E212.47406
G0 F9000 X143.799 Y140.539
G1 F1800 X143.799 Y164.659 E213.55708
G0 F9000 X144.199 Y164.659
G1 F1800 X144.199 Y140.539 E214.64010
G0 F9000 X144.599 Y140.539
G1 F1800 X144.599 Y164.659 E215.72311
G0 F9000 X144.999 Y164.659
G1 F1800 X144.999 Y140.539 E216.80613
G0 F9000 X145.399 Y140.539
G1 F1800 X145.399 Y164.659 E217.88915
G0 F9000 X145.799 Y164.659
G1 F1800 X145.799 Y140.539 E218.97216
G0 F9000 X146.199 Y140.539
G1 F1800 X146.199 Y164.659 E220.05518
G0 F9000 X146.599 Y164.659
G1 F1800 X146.599 Y140.539 E221.13820
G0 F9000 X146.999 Y140.539
G1 F1800 X146.999 Y164.659 E222.22121
G0 F9000 X147.399 Y164.659
G1 F1800 X147.399 Y140.539 E223.30423
G0 F9000 X147.799 Y140.539
G1 F1800 X147.799 Y164.659 E224.38725
G0 F9000 X148.199 Y164.659
G1 F1800 X148.199 Y140.539 E225.47026
G0 F9000 X148.599 Y140.539
G1 F1800 X148.599 Y164.659 E226.55328
G0 F9000 X148.999 Y164.659
G1 F1800 X148.999 Y140.539 E227.63630
G0 F9000 X149.399 Y140.539
G1 F1800 X149.399 Y164.659 E228.71931
G0 F9000 X149.799 Y164.659
G1 F1800 X149.799 Y140.539 E229.80233
G0 F9000 X150.199 Y140.539
G1 F1800 X150.199 Y164.659 E230.88535
G0 F9000 X150.599 Y164.659
G1 F1800 X150.599 Y140.539 E231.96836
G0 F9000 X150.999 Y140.539
G1 F1800 X150.999 Y164.659 E233.05138
G0 F9000 X151.399 Y164.659
G1 F1800 X151.399 Y140.539 E234.13439
G0 F9000 X151.799 Y140.539
G1 F1800 X151.799 Y164.659 E235.21741
G0 F9000 X152.199 Y164.659
G1 F1800 X152.199 Y140.539 E236.30043
G0 F9000 X152.599 Y140.539
G1 F1800 X152.599 Y164.659 E237.38344
G0 F9000 X152.999 Y164.659
G1 F1800 X152.999 Y140.539 E238.46646
G0 F9000 X153.399 Y140.539
G1 F1800 X153.399 Y164.659 E239.54948
G0 F9000 X153.799 Y164.659
G1 F1800 X153.799 Y140.539 E240.63249
G0 F9000 X154.199 Y140.539
G1 F1800 X154.199 Y164.659 E241.71551
G0 F9000 X154.599 Y164.659
G1 F1800 X154.599 Y140.539 E242.79853
G0 F9000 X154.999 Y140.539
G1 F1800 X154.999 Y164.659 E243.88154
G0 F9000 X155.399 Y164.659
G1 F1800 X155.399 Y140.539 E244.96456
G0 F9000 X155.799 Y140.539
G1 F1800 X155.799 Y164.659 E246.04758
G0 F9000 X156.199 Y164.659
G1 F1800 X156.199 Y140.539 E247.13059
G0 F9000 X156.599 Y140.539
G1 F1800 X156.599 Y164.659 E248.21361
G0 F9000 X156.999 Y164.659
G1 F1800 X156.999 Y140.539 E249.29663
G0 F9000 X157.399 Y140.539
G1 F1800 X157.399 Y164.659 E250.37964
G0 F9000 X157.799 Y164.659
G1 F1800 X157.799 Y140.539 E251.46266
G0 F9000 X158.199 Y140.539
G1 F1800 X158.199 Y164.659 E252.54568
G0 F9000 X158.599 Y164.659
G1 F1800 X158.599 Y140.539 E253.62869
G0 F9000 X158.999 Y140.539
G1 F1800 X158.999 Y164.659 E254.71171
G0 F9000 X159.399 Y164.659
G1 F1800 X159.399 Y140.539 E255.79473
G0 F9000 X159.799 Y140.539
G1 F1800 X159.799 Y164.659 E256.87774
G0 F9000 X160.199 Y164.659
G1 F1800 X160.199 Y140.539 E257.96076
G0 F9000 X160.599 Y140.539
G1 F1800 X160.599 Y164.659 E259.04377
G0 F9000 X160.999 Y164.659
G1 F1800 X160.999 Y140.539 E260.12679
G0 F9000 X161.399 Y140.539
G1 F1800 X161.399 Y164.659 E261.20981
G0 F9000 X161.799 Y164.659
G1 F1800 X161.799 Y140.539 E262.29282
G0 F9000 X162.199 Y140.539
G1 F1800 X162.199 Y164.659 E263.37584
G0 F9000 X162.599 Y164.659
G1 F1800 X162.599 Y140.539 E264.45886
G0 F9000 X162.999 Y140.539
G1 F1800 X162.999 Y164.659 E265.54187
G0 F9000 X163.399 Y164.659
G1 F1800 X163.399 Y140.539 E266.62489
G0 F9000 X163.799 Y140.539
G1 F1800 X163.799 Y164.659 E267.70791
G0 F9000 X164.199 Y164.659
G1 F1800 X164.199 Y140.539 E268.79092
G0 F9000 X164.599 Y140.539
G1 F1800 X164.599 Y164.659 E269.87394
G0 F9000 X166.599 Y155.659
G1 F1800 X166.599 Y140.539 E270.55285
G0 F9000 X166.999 Y140.539
G1 F1800 X166.999 Y155.659 E271.23175
G0 F9000 X167.399 Y155.659
G1 F1800 X167.399 Y140.539 E271.91066
G0 F9000 X167.799 Y140.539
G1 F1800 X167.799 Y155.659 E272.58956
G0 F9000 X168.199 Y155.659
G1 F1800 X168.199 Y140.539 E273.26847
G0 F9000 X168.599 Y140.539
G1 F1800 X168.599 Y155.659 E273.94738
G0 F9000 X168.999 Y155.659
G1 F1800 X168.999 Y140.539 E274.62628
G0 F9000 X169.399 Y140.539
G1 F1800 X169.399 Y155.659 E275.30519
G0 F9000 X169.799 Y155.659
G1 F1800 X169.799 Y140.539 E275.98409
G0 F9000 X170.199 Y140.539
G1 F1800 X170.199 Y155.659 E276.66300
G0 F9000 X170.599 Y155.659
G1 F1800 X170.599 Y140.539 E277.34190
G0 F9000 X170.999 Y140.539
G1 F1800 X170.999 Y155.659 E278.02081
G0 F9000 X171.399 Y155.659
G1 F1800 X171.399 Y140.539 E278.69972
G0 F9000 X171.799 Y140.539
G1 F1800 X171.799 Y155.659 E279.37862
G0 F9000 X172.199 Y155.659
G1 F1800 X172.199 Y140.539 E280.05753
G0 F9000 X172.599 Y140.539
G1 F1800 X172.599 Y155.659 E280.73643
G0 F9000 X172.999 Y155.659
G1 F1800 X172.999 Y140.539 E281.41534
G0 F9000 X173.399 Y140.539
G1 F1800 X173.399 Y155.659 E282.09425
G0 F9000 X173.799 Y155.659
G1 F1800 X173.799 Y141.739 E282.71927
G0 F9000 X174.199 Y141.739
G1 F1800 X174.199 Y155.659 E283.34429
G0 F9000 X174.599 Y155.659
G1 F1800 X174.599 Y141.739 E283.96932
G0 F9000 X174.999 Y141.739
G1 F1800 X174.999 Y155.659 E284.59434
G0 F9000 X175.399 Y155.659
G1 F1800 X175.399 Y141.739 E285.21937
G0 F9000 X175.799 Y141.739
G1 F1800 X175.799 Y155.659 E285.84439
G0 F9000 X176.199 Y155.659
G1 F1800 X176.199 Y141.739 E286.46942
G0 F9000 X176.599 Y141.739
G1 F1800 X176.599 Y155.659 E287.09444
G0 F9000 X176.999 Y155.659
G1 F1800 X176.999 Y141.739 E287.71947
G0 F9000 X177.399 Y141.739
G1 F1800 X177.399 Y155.659 E288.34449
G0 F9000 X177.799 Y155.659
G1 F1800 X177.799 Y141.739 E288.96951
G0 F9000 X178.199 Y141.739
G1 F1800 X178.199 Y155.659 E289.59454
G0 F9000 X178.599 Y155.659
G1 F1800 X178.599 Y141.739 E290.21956
G0 F9000 X178.999 Y141.739
G1 F1800 X178.999 Y155.659 E290.84459
G0 F9000 X179.399 Y155.659
G1 F1800 X179.399 Y141.739 E291.46961
G0 F9000 X166.199 Y140.539
G1 F1800 X166.199 Y155.059 E292.12158
G0 F9000 X165.799 Y155.059
G1 F1800 X165.799 Y140.539 E292.77354
G0 F9000 X165.399 Y140.539
G1 F1800 X165.399 Y155.059 E293.42551
G0 F9000 X164.999 Y155.059
G1 F1800 X164.999 Y140.539 E294.07747
G0 F9000 X139.799 Y140.539
G1 F1800 X139.799 Y155.059 E294.72944
G0 F9000 X139.399 Y155.059
G1 F1800 X139.399 Y140.539 E295.38140
G0 F9000 X138.999 Y140.539
G1 F1800 X138.999 Y155.059 E296.03337
G0 F9000 X138.599 Y155.059
G1 F1800 X138.599 Y140.539 E296.68533
G0 F9000 X138.199 Y140.539
G1 F1800 X138.199 Y155.659 E297.36424
G0 F9000 X137.799 Y155.659
G1 F1800 X137.799 Y140.539 E298.04315
G0 F9000 X137.399 Y140.539
G1 F1800 X137.399 Y155.659 E298.72205
G0 F9000 X136.999 Y155.659
G1 F1800 X136.999 Y140.539 E299.40096
G0 F9000 X136.599 Y140.539
G1 F1800 X136.599 Y155.659 E300.07986
G0 F9000 X136.199 Y155.659
G1 F1800 X136.199 Y140.539 E300.75877
G0 F9000 X135.799 Y140.539
G1 F1800 X135.799 Y155.659 E301.43768
G0 F9000 X135.399 Y155.659
G1 F1800 X135.399 Y140.539 E302.11658
G0 F9000 X134.999 Y140.539
G1 F1800 X134.999 Y155.659 E302.79549
G0 F9000 X134.599 Y155.659
G1 F1800 X134.599 Y140.539 E303.47439
G0 F9000 X134.199 Y140.539
G1 F1800 X134.199 Y155.659 E304.15330
G0 F9000 X133.799 Y155.659
G1 F1800 X133.799 Y140.539 E304.83220
G0 F9000 X133.399 Y140.539
G1 F1800 X133.399 Y155.659 E305.51111
G0 F9000 X132.999 Y155.659
G1 F1800 X132.999 Y140.539 E306.19002
G0 F9000 X132.599 Y140.539
G1 F1800 X132.599 Y155.659 E306.86892
G0 F9000 X132.199 Y155.659
G1 F1800 X132.199 Y140.539 E307.54783
G0 F9000 X131.799 Y140.539
G1 F1800 X131.799 Y155.659 E308.22673
G0 F9000 X131.399 Y155.659
G1 F1800 X131.399 Y140.539 E308.90564
G0 F9000 X130.999 Y141.739
G1 F1800 X130.999 Y155.659 E309.53066
G0 F9000 X130.599 Y155.659
G1 F1800 X130.599 Y141.739 E310.15569
G0 F9000 X130.199 Y141.739
G1 F1800 X130.199 Y155.659 E310.78071
G0 F9000 X129.799 Y155.659
G1 F1800 X129.799 Y141.739 E311.40574
G0 F9000 X129.399 Y141.739
G1 F1800 X129.399 Y155.659 E312.03076
G0 F9000 X128.999 Y155.659
G1 F1800 X128.999 Y141.739 E312.65579
G0 F9000 X128.599 Y141.739
G1 F1800 X128.599 Y155.659 E313.28081
G0 F9000 X128.199 Y155.659
G1 F1800 X128.199 Y141.739 E313.90584
G0 F9000 X127.799 Y141.739
G1 F1800 X127.799 Y155.659 E314.53086
G0 F9000 X127.399 Y155.659
G1 F1800 X127.399 Y141.739 E315.15588
G0 F9000 X126.999 Y141.739
G1 F1800 X126.999 Y155.659 E315.78091
G0 F9000 X126.599 Y155.659
G1 F1800 X126.599 Y141.739 E316.40593
G0 F9000 X126.199 Y141.739
G1 F1800 X126.199 Y155.659 E317.03096
G0 F9000 X125.799 Y155.659
G1 F1800 X125.799 Y141.739 E317.65598
G0 F9000 X125.399 Y141.739
G1 F1800 X125.399 Y155.659 E318.28101
;LAYER:0
M107
G1 F2400 E317.68101
G1 Z1.540
G0 F9000 X133.861 Y149.250 Z1.440
;TYPE:WALL-INNER
G1 Z1.440
G1 F2400 E318.28101
G1 F1800 X133.860 Y148.250 E318.32258
G1 X171.139 Y148.250 E319.87246
G1 X171.140 Y149.250 E319.91404
G1 X133.861 Y149.250 E321.46392
G0 F9000 X133.361 Y149.750
;TYPE:WALL-OUTER
G1 F1800 X133.360 Y147.750 E321.54707
G1 X171.639 Y147.750 E323.13852
G1 X171.640 Y149.750 E323.22168
G1 X133.361 Y149.750 E324.81313
G0 F9000 X134.578 Y149.074
;TYPE:SKIN
G1 F1800 X134.335 Y148.477 E324.84513
G1 X135.314 Y148.749 E324.88323
G1 X136.021 Y148.749 E324.92133
G1 X136.728 Y148.749 E324.95948
G1 X137.436 Y148.749 E324.99763
G1 X138.143 Y148.749 E325.03572
G1 X138.850 Y148.749 E325.07381
G1 X139.557 Y148.749 E325.11191
G1 X140.264 Y148.749 E325.15000
G1 X140.971 Y148.749 E325.18810
G1 X141.678 Y148.749 E325.22619
G1 X142.385 Y148.749 E325.26429
G1 X143.092 Y148.749 E325.30238
G1 X143.800 Y148.749 E325.34053
G1 X144.507 Y148.749 E325.37862
G1 X145.214 Y148.749 E325.41672
G1 X145.921 Y148.749 E325.45481
G1 X146.628 Y148.749 E325.49290
G1 X147.335 Y148.749 E325.53100
G1 X148.042 Y148.749 E325.56909
G1 X148.749 Y148.749 E325.60719
G1 X149.456 Y148.749 E325.64528
G1 X150.164 Y148.749 E325.68343
G1 X150.871 Y148.749 E325.72152
G1 X151.578 Y148.749 E325.75962
G1 X152.285 Y148.749 E325.79771
G1 X152.992 Y148.749 E325.83581
G1 X153.699 Y148.749 E325.87390
G1 X154.406 Y148.749 E325.91199
G1 X155.113 Y148.749 E325.95009
G1 X155.820 Y148.749 E325.98818
G1 X156.527 Y148.749 E326.02628
G1 X157.235 Y148.749 E326.06442
G1 X157.942 Y148.749 E326.10252
G1 X158.649 Y148.749 E326.14061
G1 X159.356 Y148.749 E326.17871
G1 X160.063 Y148.749 E326.21680
G1 X160.770 Y148.749 E326.25490
G1 X161.477 Y148.749 E326.29299
G1 X162.184 Y148.749 E326.33108
G1 X162.891 Y148.749 E326.36918
G1 X163.599 Y148.749 E326.40733
G1 X164.306 Y148.749 E326.44542
G1 X165.013 Y148.749 E326.48351
G1 X165.720 Y148.749 E326.52161
G1 X166.427 Y148.749 E326.55970
G1 X167.134 Y148.749 E326.59780
G1 X167.841 Y148.749 E326.63589
G1 X168.548 Y148.749 E326.67399
G1 X169.255 Y148.749 E326.71208
G1 X169.963 Y148.749 E326.75023
G1 X170.802 Y148.882 E326.78837
G1 X170.699 Y148.425 E326.80785
G1 F2400 E326.20785
G1 Z1.940
G0 F9000 X160.625 Y156.250
;TYPE:SUPPORT
G1 Z1.440
G1 F2400 E326.80785
G1 F1800 X144.075 Y156.250 E327.49592
G1 F2400 E326.89592
G1 Z1.940
G0 F9000 X156.250 Y160.425
G1 Z1.440
G1 F2400 E327.49592
G1 F1800 X156.250 Y151.298 E327.87537
;LAYER:1
M106 S10
G1 F2400 E327.27537
G1 Z1.940
G0 F9000 X171.769 Y149.250
;TYPE:WALL-INNER
G1 Z1.440
G1 F2400 E327.87537
G1 F1740 X133.231 Y149.250 E329.47760
G1 X133.231 Y148.250 E329.51917
G1 X171.769 Y148.250 E331.12139
G1 X171.769 Y149.250 E331.16297
G0 F9000 X172.269 Y149.750
;TYPE:WALL-OUTER
G1 F1740 X132.731 Y149.750 E332.80677
G1 X132.731 Y147.750 E332.88992
G1 X172.269 Y147.750 E334.53372
G1 X172.269 Y149.750 E334.61687
G1 F2400 E334.01687
G1 Z1.940
G0 F9000 X171.541 Y148.424
;TYPE:SKIN
G1 Z1.440
G1 F2400 E334.61687
G1 F1740 X170.862 Y148.749 E334.65511
G1 X170.155 Y148.749 E334.69332
G1 X169.447 Y148.749 E334.73153
G1 X168.740 Y148.749 E334.76968
G1 X168.033 Y148.749 E334.80784
G1 X167.326 Y148.749 E334.84599
G1 X166.619 Y148.749 E334.88414
G1 X165.912 Y148.749 E334.92236
G1 X165.205 Y148.749 E334.96057
G1 X164.498 Y148.749 E334.99878
G1 X163.791 Y148.749 E335.03699
G1 X163.083 Y148.749 E335.07520
G1 X162.376 Y148.749 E335.11335
G1 X161.669 Y148.749 E335.15150
G1 X160.962 Y148.749 E335.18966
G1 X160.255 Y148.749 E335.22781
G1 X159.548 Y148.749 E335.26596
G1 X158.841 Y148.749 E335.30417
G1 X158.134 Y148.749 E335.34239
G1 X157.427 Y148.749 E335.38060
G1 X156.720 Y148.749 E335.41881
G1 X156.012 Y148.749 E335.45702
G1 X155.305 Y148.749 E335.49517
G1 X154.598 Y148.749 E335.53332
G1 X153.891 Y148.749 E335.57147
G1 X153.184 Y148.749 E335.60963
G1 X152.477 Y148.749 E335.64784
G1 X151.770 Y148.749 E335.68605
G1 X151.063 Y148.749 E335.72426
G1 X150.356 Y148.749 E335.76247
G1 X149.648 Y148.749 E335.80068
G1 X148.941 Y148.749 E335.83883
G1 X148.234 Y148.749 E335.87699
G1 X147.527 Y148.749 E335.91514
G1 X146.820 Y148.749 E335.95329
G1 X146.113 Y148.749 E335.99145
G1 X145.406 Y148.749 E336.02966
G1 X144.699 Y148.749 E336.06787
G1 X143.992 Y148.749 E336.10608
G1 X143.285 Y148.749 E336.14429
G1 X142.577 Y148.749 E336.18250
G1 X141.870 Y148.749 E336.22065
G1 X141.163 Y148.749 E336.25881
G1 X140.456 Y148.749 E336.29696
G1 X139.749 Y148.749 E336.33511
G1 X139.042 Y148.749 E336.37332
G1 X138.335 Y148.749 E336.41154
G1 X137.628 Y148.749 E336.44975
G1 X136.921 Y148.749 E336.48796
G1 X136.213 Y148.749 E336.52617
G1 X135.506 Y148.749 E336.56432
G1 X134.799 Y148.749 E336.60247
G1 X134.092 Y148.749 E336.64062
G1 X133.414 Y149.075 E336.67190
G1 F2400 E336.07190
G1 Z1.940
G0 F9000 X156.250 Y152.048
;TYPE:SUPPORT
G1 Z1.440
G1 F2400 E336.67190
G1 F1740 X156.250 Y159.675 E336.98900
;LAYER:2
M106 S20
G1 F2400 E336.38900
G1 Z1.940
G0 F9000 X172.186 Y149.250 Z1.640
;TYPE:WALL-INNER
G1 Z1.640
G1 F2400 E336.98900
G1 F1740 X132.815 Y149.250 E338.62585
G1 X132.814 Y148.250 E338.66743
G1 X172.185 Y148.250 E340.30428
G1 X172.186 Y149.250 E340.34586
G0 F9000 X172.686 Y149.750
;TYPE:WALL-OUTER
G1 F1740 X132.315 Y149.750 E342.02429
G1 X132.314 Y147.750 E342.10744
G1 X172.685 Y147.750 E343.78587
G1 X172.686 Y149.750 E343.86902
G0 F9000 X172.010 Y149.029
;TYPE:SKIN
G1 F1740 X171.376 Y148.749 E343.90452
G1 X170.669 Y148.749 E343.94267
G1 X169.962 Y148.749 E343.98083
G1 X169.255 Y148.749 E344.01898
G1 X168.548 Y148.749 E344.05713
G1 X167.840 Y148.749 E344.09534
G1 X167.133 Y148.749 E344.13349
G1 X166.426 Y148.749 E344.17165
G1 X165.719 Y148.749 E344.20980
G1 X165.012 Y148.749 E344.24795
G1 X164.305 Y148.749 E344.28610
G1 X163.598 Y148.749 E344.32426
G1 X162.891 Y148.749 E344.36241
G1 X162.184 Y148.749 E344.40056
G1 X161.477 Y148.749 E344.43872
G1 X160.769 Y148.749 E344.47692
G1 X160.062 Y148.749 E344.51508
G1 X159.355 Y148.749 E344.55323
G1 X158.648 Y148.749 E344.59138
G1 X157.941 Y148.749 E344.62953
G1 X157.234 Y148.749 E344.66769
G1 X156.527 Y148.749 E344.70584
G1 X155.820 Y148.749 E344.74399
G1 X155.113 Y148.749 E344.78215
G1 X154.405 Y148.749 E344.82035
G1 X153.698 Y148.749 E344.85851
G1 X152.991 Y148.749 E344.89666
G1 X152.284 Y148.749 E344.93481
G1 X151.577 Y148.749 E344.97297
G1 X150.870 Y148.749 E345.01112
G1 X150.163 Y148.749 E345.04927
G1 X149.456 Y148.749 E345.08742
G1 X148.749 Y148.749 E345.12558
G1 X148.041 Y148.749 E345.16378
G1 X147.334 Y148.749 E345.20194
G1 X146.627 Y148.749 E345.24009
G1 X145.920 Y148.749 E345.27824
G1 X145.213 Y148.749 E345.31640
G1 X144.506 Y148.749 E345.35455
G1 X143.799 Y148.749 E345.39270
G1 X143.092 Y148.749 E345.43085
G1 X142.385 Y148.749 E345.46901
G1 X141.678 Y148.749 E345.50716
G1 X140.970 Y148.749 E345.54537
G1 X140.263 Y148.749 E345.58352
G1 X139.556 Y148.749 E345.62167
G1 X138.849 Y148.749 E345.65983
G1 X138.142 Y148.749 E345.69798
G1 X137.435 Y148.749 E345.73613
G1 X136.728 Y148.749 E345.77429
G1 X136.021 Y148.749 E345.81244
G1 X135.314 Y148.749 E345.85059
G1 X134.606 Y148.749 E345.88880
G1 X133.899 Y148.749 E345.92695
G1 X133.105 Y148.661 E345.96515
G1 X133.164 Y149.074 E345.98249
G1 F2400 E345.38249
G1 Z2.140
G0 F9000 X156.250 Y152.048
;TYPE:SUPPORT
G1 Z1.640
G1 F2400 E345.98249
G1 F1740 X156.250 Y159.675 E346.29958
;LAYER:3
M106 S30
G1 F2400 E345.69958
G1 Z2.140
G0 F9000 X172.509 Y149.250 Z1.840
;TYPE:WALL-INNER
G1 Z1.840
G1 F2400 E346.29958
G1 F1800 X132.491 Y149.250 E347.96334
G1 X132.491 Y148.250 E348.00491
G1 X172.509 Y148.250 E349.66867
G1 X172.509 Y149.250 E349.71025
G0 F9000 X173.010 Y149.750
;TYPE:WALL-OUTER
G1 F1800 X131.991 Y149.750 E351.41562
G1 X131.990 Y147.750 E351.49877
G1 X173.009 Y147.750 E353.20414
G1 X173.010 Y149.750 E353.28729
G1 F2400 E352.68729
G1 Z2.340
G0 F9000 X172.248 Y148.424
;TYPE:SKIN
G1 Z1.840
G1 F2400 E353.28729
G1 F1800 X171.569 Y148.749 E353.32553
G1 X170.862 Y148.749 E353.36375
G1 X170.155 Y148.749 E353.40196
G1 X169.447 Y148.749 E353.44016
G1 X168.740 Y148.749 E353.47832
G1 X168.033 Y148.749 E353.51647
G1 X167.326 Y148.749 E353.55462
G1 X166.619 Y148.749 E353.59278
G1 X165.912 Y148.749 E353.63099
G1 X165.205 Y148.749 E353.66920
G1 X164.498 Y148.749 E353.70741
G1 X163.791 Y148.749 E353.74562
G1 X163.083 Y148.749 E353.78383
G1 X162.376 Y148.749 E353.82198
G1 X161.669 Y148.749 E353.86014
G1 X160.962 Y148.749 E353.89829
G1 X160.255 Y148.749 E353.93644
G1 X159.548 Y148.749 E353.97459
G1 X158.841 Y148.749 E354.01281
G1 X158.134 Y148.749 E354.05102
G1 X157.427 Y148.749 E354.08923
G1 X156.720 Y148.749 E354.12744
G1 X156.012 Y148.749 E354.16565
G1 X155.305 Y148.749 E354.20380
G1 X154.598 Y148.749 E354.24195
G1 X153.891 Y148.749 E354.28011
G1 X153.184 Y148.749 E354.31826
G1 X152.477 Y148.749 E354.35647
G1 X151.770 Y148.749 E354.39463
G1 X151.063 Y148.749 E354.43278
G1 X150.356 Y148.749 E354.47093
G1 X149.649 Y148.749 E354.50908
G1 X148.942 Y148.749 E354.54724
G1 X148.235 Y148.749 E354.58539
G1 X147.527 Y148.749 E354.62360
G1 X146.820 Y148.749 E354.66175
G1 X146.113 Y148.749 E354.69990
G1 X145.406 Y148.749 E354.73806
G1 X144.699 Y148.749 E354.77621
G1 X143.992 Y148.749 E354.81436
G1 X143.285 Y148.749 E354.85251
G1 X142.578 Y148.749 E354.89067
G1 X141.871 Y148.749 E354.92882
G1 X141.163 Y148.749 E354.96703
G1 X140.456 Y148.749 E355.00518
G1 X139.749 Y148.749 E355.04333
G1 X139.042 Y148.749 E355.08149
G1 X138.335 Y148.749 E355.11964
G1 X137.628 Y148.749 E355.15779
G1 X136.921 Y148.749 E355.19595
G1 X136.214 Y148.749 E355.23410
G1 X135.507 Y148.749 E355.27225
G1 X134.799 Y148.749 E355.31046
G1 X134.092 Y148.749 E355.34861
G1 X133.385 Y148.749 E355.38676
G1 X132.707 Y149.074 E355.41802
G1 F2400 E354.81802
G1 Z2.340
G0 F9000 X156.250 Y152.048
;TYPE:SUPPORT
G1 Z1.840
G1 F2400 E355.41802
G1 F1800 X156.250 Y159.675 E355.73512
;LAYER:4
M106 S40
G1 F2400 E355.13512
G1 Z2.340
G0 F9000 X155.252 Y149.250 Z2.040
;TYPE:WALL-INNER
G1 Z2.040
G1 F2400 E355.73512
G1 F1740 X154.362 Y149.287 E355.77215
G1 X153.458 Y149.314 E355.80975
G1 X152.517 Y149.324 E355.84888
G1 X151.601 Y149.315 E355.88696
G1 X150.654 Y149.288 E355.92635
G1 X149.881 Y149.250 E355.95852
G1 X132.223 Y149.250 E356.69266
G1 X132.222 Y148.250 E356.73423
G1 X150.617 Y148.250 E357.49901
G1 X150.619 Y146.750 E357.56137
G1 X154.381 Y146.750 E357.71778
G1 X154.384 Y148.250 E357.78014
G1 X172.777 Y148.250 E358.54483
G1 X172.778 Y149.250 E358.58641
G1 X155.252 Y149.250 E359.31505
G0 F9000 X155.262 Y149.750
;TYPE:WALL-OUTER
G1 F1740 X154.375 Y149.786 E359.35196
G1 X153.457 Y149.815 E359.39015
G1 X153.442 Y149.814 E359.39077
G1 X152.517 Y149.824 E359.42923
G1 X151.587 Y149.815 E359.46790
G1 X150.645 Y149.788 E359.50708
G1 X149.869 Y149.750 E359.53938
G1 X131.723 Y149.750 E360.29380
G1 X131.722 Y147.750 E360.37695
G1 X150.118 Y147.750 E361.14177
G1 X150.118 Y146.250 E361.20413
G1 X154.881 Y146.250 E361.40215
G1 X154.882 Y147.750 E361.46452
G1 X173.277 Y147.750 E362.22929
G1 X173.278 Y149.750 E362.31244
G1 X155.262 Y149.750 E363.06146
G1 F2400 E362.46146
G1 Z2.540
G0 F9000 X152.682 Y149.147
;TYPE:FILL
G1 Z2.040
G1 F2400 E363.06146
G1 F1740 X150.792 Y147.257 E363.17259
G1 F2400 E362.57259
G1 Z2.540
G0 F9000 X151.386 Y149.133
G1 Z2.040
G1 F2400 E363.17259
G1 F1740 X153.595 Y146.924 E363.30247
G1 F2400 E362.70247
G1 Z2.540
G0 F9000 X158.516 Y149.075
G1 Z2.040
G1 F2400 E363.30247
G1 F1740 X159.098 Y148.425 E363.34063
G1 X159.681 Y149.075 E363.37693
G1 F2400 E362.77693
G1 Z2.540
G0 F9000 X145.538 Y149.074
G1 Z2.040
G1 F2400 E363.37693
G1 F1740 X144.956 Y148.424 E363.41501
G1 X144.374 Y149.075 E363.45132
G1 F2400 E362.85132
G1 Z2.540
G0 F9000 X138.467 Y149.074
G1 Z2.040
G1 F2400 E363.45132
G1 F1740 X137.885 Y148.424 E363.48941
G1 X137.303 Y149.075 E363.52571
G1 F2400 E362.92571
G1 Z2.540
G0 F9000 X165.587 Y149.075
G1 Z2.040
G1 F2400 E363.52571
G1 F1740 X166.169 Y148.425 E363.56387
G1 X166.752 Y149.075 E363.60017
G1 F2400 E363.00017
G1 Z2.540
G0 F9000 X170.398 Y148.831
;TYPE:SKIN
G1 Z2.040
G1 F2400 E363.60017
G1 F1740 X170.845 Y148.925 E363.61449
G1 X171.377 Y148.750 E363.63205
G1 X172.328 Y148.994 E363.67025
G1 X172.113 Y148.425 E363.69554
G1 F2400 E363.09554
G1 Z2.540
G0 F9000 X154.207 Y148.196
G1 Z2.040
G1 F2400 E363.69554
G1 F1740 X152.935 Y146.925 E363.77030
G0 F9000 X152.228 Y146.925
G1 F1740 X153.628 Y148.324 E363.85259
G0 F9000 X152.921 Y148.324
G1 F1740 X151.521 Y146.925 E363.93487
G0 F9000 X150.814 Y146.925
G1 F1740 X152.213 Y148.324 E364.01713
G0 F9000 X151.506 Y148.324
G1 F1740 X150.791 Y147.609 E364.05917
G1 F2400 E363.45917
G1 Z2.540
G0 F9000 X153.642 Y146.925
G1 Z2.040
G1 F2400 E364.05917
G1 F1740 X154.206 Y147.489 E364.09233
G1 F2400 E363.49233
G1 Z2.540
G0 F9000 X134.578 Y149.074
G1 Z2.040
G1 F2400 E364.09233
G1 F1740 X134.080 Y148.930 E364.10923
G1 X133.192 Y148.749 E364.14743
G1 X132.514 Y148.424 E364.17869
G1 F2400 E363.57869
G1 Z2.540
G0 F9000 X156.250 Y152.048
;TYPE:SUPPORT
G1 Z2.040
G1 F2400 E364.17869
G1 F1740 X156.250 Y159.675 E364.49578
;LAYER:5
M106 S51
G1 F2400 E363.89578
G1 Z2.540
G0 F9000 X155.297 Y149.331 Z2.240
;TYPE:WALL-INNER
G1 Z2.240
G1 F2400 E364.49578
G1 F1860 X154.369 Y149.377 E364.53441
G1 X153.443 Y149.404 E364.57293
G1 X152.537 Y149.414 E364.61060
G1 X151.632 Y149.406 E364.64822
G1 X150.694 Y149.379 E364.68724
G1 X149.759 Y149.334 E364.72616
G1 X148.794 Y149.269 E364.76637
G1 X148.211 Y149.250 E364.79062
G1 X131.996 Y149.250 E365.46476
G1 X131.995 Y148.250 E365.50633
G1 X149.301 Y148.250 E366.22583
G1 X149.305 Y147.234 E366.26807
G1 X149.305 Y146.750 E366.28820
G1 X155.695 Y146.750 E366.55386
G1 X155.696 Y148.250 E366.61623
G1 X173.004 Y148.250 E367.33581
G1 X173.005 Y149.250 E367.37738
G1 X156.482 Y149.250 E368.06433
G1 X155.297 Y149.331 E368.11371
G0 F9000 X155.322 Y149.831
;TYPE:WALL-OUTER
G1 F1860 X154.379 Y149.877 E368.15296
G1 X153.458 Y149.904 E368.19127
G1 X152.538 Y149.914 E368.22952
G1 X151.617 Y149.906 E368.26781
G1 X150.684 Y149.879 E368.30662
G1 X149.735 Y149.833 E368.34612
G1 X148.769 Y149.768 E368.38637
G1 X148.203 Y149.750 E368.40992
G1 X131.496 Y149.750 E369.10451
G1 X131.495 Y147.750 E369.18766
G1 X148.803 Y147.750 E369.90725
G1 X148.805 Y147.233 E369.92874
G1 X148.804 Y146.250 E369.96961
G1 X156.195 Y146.250 E370.27689
G1 X156.196 Y147.750 E370.33925
G1 X173.504 Y147.750 E371.05884
G1 X173.505 Y149.750 E371.14199
G1 X156.499 Y149.750 E371.84902
G1 X155.322 Y149.831 E371.89807
G1 F2400 E371.29807
G1 Z2.740
G0 F9000 X152.771 Y149.236
;TYPE:FILL
G1 Z2.240
G1 F2400 E371.89807
G1 F1860 X151.210 Y147.675 E371.98985
G1 F2400 E371.38985
G1 Z2.740
G0 F9000 X151.298 Y149.221
G1 Z2.240
G1 F2400 E371.98985
G1 F1860 X152.845 Y147.675 E372.08077
G1 F2400 E371.48077
G1 Z2.740
G0 F9000 X158.516 Y149.075
G1 Z2.240
G1 F2400 E372.08077
G1 F1860 X159.098 Y148.424 E372.11897
G1 X159.681 Y149.075 E372.15530
G1 F2400 E371.55530
G1 Z2.740
G0 F9000 X145.538 Y149.073
G1 Z2.240
G1 F2400 E372.15530
G1 F1860 X144.956 Y148.424 E372.19343
G1 X144.374 Y149.074 E372.22970
G1 F2400 E371.62970
G1 Z2.740
G0 F9000 X138.467 Y149.073
G1 Z2.240
G1 F2400 E372.22970
G1 F1860 X137.885 Y148.424 E372.26783
G1 X137.303 Y149.074 E372.30410
G1 F2400 E371.70410
G1 Z2.740
G0 F9000 X165.587 Y149.075
G1 Z2.240
G1 F2400 E372.30410
G1 F1860 X166.169 Y148.424 E372.34229
G1 X166.752 Y149.075 E372.37863
G1 F2400 E371.77863
G1 Z2.740
G0 F9000 X172.658 Y149.075
G1 Z2.240
G1 F2400 E372.37863
G1 F1860 X172.828 Y148.727 E372.38864
G1 X172.276 Y148.749 E372.41946
G1 X171.478 Y148.839 E372.45766
G1 X170.774 Y148.837 E372.48529
G1 X169.939 Y148.965 E372.51317
G1 X169.509 Y149.041 E372.53133
G1 F2400 E371.93133
G1 Z2.740
G0 F9000 X155.519 Y148.182
;TYPE:SKIN
G1 Z2.240
G1 F2400 E372.53133
G1 F1860 X155.376 Y148.325 E372.53974
G0 F9000 X154.669 Y148.325
G1 F1860 X155.518 Y147.476 E372.58965
G0 F9000 X155.363 Y146.924
G1 F1860 X153.962 Y148.325 E372.67203
G0 F9000 X153.255 Y148.325
G1 F1860 X154.656 Y146.924 E372.75440
G0 F9000 X153.949 Y146.924
G1 F1860 X152.548 Y148.325 E372.83677
G0 F9000 X151.841 Y148.325
G1 F1860 X153.242 Y146.924 E372.91915
G0 F9000 X152.534 Y146.924
G1 F1860 X151.134 Y148.325 E373.00149
G0 F9000 X150.427 Y148.325
G1 F1860 X151.827 Y146.924 E373.08384
G0 F9000 X151.120 Y146.924
G1 F1860 X149.719 Y148.325 E373.16621
G0 F9000 X149.476 Y147.861
G1 F1860 X150.413 Y146.924 E373.22130
G0 F9000 X149.706 Y146.924
G1 F1860 X149.478 Y147.153 E373.23474
G1 F2400 E372.63474
G1 Z2.740
G0 F9000 X135.118 Y148.784
G1 Z2.240
G1 F2400 E373.23474
G1 F1860 X134.697 Y148.851 E373.25179
G1 X134.016 Y148.825 E373.27797
G1 X133.359 Y148.775 E373.30717
G1 X132.438 Y148.988 E373.34230
G1 X132.651 Y148.423 E373.36741
G1 F2400 E372.76741
G1 Z2.740
G0 F9000 X156.250 Y152.048
;TYPE:SUPPORT
G1 Z2.240
G1 F2400 E373.36741
G1 F1860 X156.250 Y159.675 E373.68450
;LAYER:6
M106 S63
G1 F2400 E373.08450
G1 Z2.740
G0 F9000 X155.308 Y149.418 Z2.440
;TYPE:WALL-INNER
G1 Z2.440
G1 F2400 E373.68450
G1 F1920 X154.373 Y149.466 E373.72343
G1 X153.455 Y149.494 E373.76161
G1 X152.560 Y149.504 E373.79882
G1 X151.661 Y149.496 E373.83620
G1 X150.732 Y149.470 E373.87484
G1 X149.808 Y149.426 E373.91330
G1 X148.880 Y149.364 E373.95196
G1 X147.917 Y149.280 E373.99215
G1 X147.639 Y149.250 E374.00378
G1 X134.456 Y149.250 E374.55186
G1 X134.000 Y149.249 E374.57082
G1 X133.409 Y149.250 E374.59539
G1 X131.803 Y149.250 E374.66216
G1 X131.800 Y148.250 E374.70374
G1 X148.346 Y148.250 E375.39164
G1 X148.345 Y146.750 E375.45400
G1 X156.655 Y146.750 E375.79949
G1 X156.656 Y148.250 E375.86186
G1 X173.197 Y148.250 E376.54955
G1 X173.200 Y149.250 E376.59113
G1 X171.238 Y149.250 E376.67270
G1 X171.001 Y149.249 E376.68255
G1 X170.442 Y149.250 E376.70579
G1 X157.363 Y149.250 E377.24955
G1 X156.173 Y149.359 E377.29923
G1 X155.308 Y149.418 E377.33528
G0 F9000 X155.334 Y149.918
;TYPE:WALL-OUTER
G1 F1920 X154.383 Y149.966 E377.37487
G1 X153.470 Y149.994 E377.41284
G1 X152.560 Y150.004 E377.45068
G1 X151.647 Y149.996 E377.48864
G1 X150.723 Y149.970 E377.52707
G1 X149.784 Y149.925 E377.56615
G1 X148.837 Y149.862 E377.60561
G1 X147.862 Y149.777 E377.64630
G1 X147.612 Y149.750 E377.65676
G1 X131.304 Y149.750 E378.33476
G1 X131.299 Y147.750 E378.41791
G1 X147.845 Y147.750 E379.10582
G1 X147.844 Y146.250 E379.16818
G1 X157.155 Y146.250 E379.55529
G1 X157.156 Y147.750 E379.61765
G1 X173.696 Y147.750 E380.30530
G1 X173.701 Y149.750 E380.38845
G1 X171.236 Y149.750 E380.49094
G1 X171.000 Y149.749 E380.50075
G1 X157.389 Y149.750 E381.06663
G1 X156.218 Y149.857 E381.11551
G1 X155.334 Y149.918 E381.15235
G1 F2400 E380.55235
G1 Z2.940
G0 F9000 X152.860 Y149.325
;TYPE:FILL
G1 Z2.440
G1 F2400 E381.15235
G1 F1920 X151.210 Y147.675 E381.24937
G1 F2400 E380.64937
G1 Z2.940
G0 F9000 X151.211 Y149.308
G1 Z2.440
G1 F2400 E381.24937
G1 F1920 X152.845 Y147.675 E381.34541
G1 F2400 E380.74541
G1 Z2.940
G0 F9000 X158.516 Y149.075
G1 Z2.440
G1 F2400 E381.34541
G1 F1920 X159.098 Y148.425 E381.38357
G1 X159.681 Y149.075 E381.41987
G1 F2400 E380.81987
G1 Z2.940
G0 F9000 X145.538 Y149.074
G1 Z2.440
G1 F2400 E381.41987
G1 F1920 X144.956 Y148.424 E381.45796
G1 X144.374 Y149.074 E381.49423
G1 F2400 E380.89423
G1 Z2.940
G0 F9000 X138.467 Y149.074
G1 Z2.440
G1 F2400 E381.49423
G1 F1920 X137.885 Y148.424 E381.53232
G1 X137.303 Y149.074 E381.56859
G1 F2400 E380.96859
G1 Z2.940
G0 F9000 X165.587 Y149.075
G1 Z2.440
G1 F2400 E381.56859
G1 F1920 X166.169 Y148.425 E381.60675
G1 X166.752 Y149.075 E381.64306
G1 F2400 E381.04306
G1 Z2.940
G0 F9000 X172.658 Y149.075
G1 Z2.440
G1 F2400 E381.64306
G1 F1920 X173.022 Y148.669 E381.66446
G1 X172.791 Y148.749 E381.67641
G1 X172.084 Y148.749 E381.71450
G1 X171.376 Y148.749 E381.75271
G1 X170.398 Y148.478 E381.79094
G1 X170.287 Y149.074 E381.82280
G1 X169.595 Y148.735 E381.85483
G1 F2400 E381.25483
G1 Z2.940
G0 F9000 X156.456 Y148.324
;TYPE:SKIN
G1 Z2.440
G1 F2400 E381.85483
G1 F1920 X155.057 Y146.925 E381.93709
G0 F9000 X154.350 Y146.925
G1 F1920 X155.749 Y148.324 E382.01934
G0 F9000 X155.042 Y148.324
G1 F1920 X153.642 Y146.925 E382.10163
G0 F9000 X152.935 Y146.925
G1 F1920 X154.335 Y148.324 E382.18391
G0 F9000 X153.628 Y148.324
G1 F1920 X152.228 Y146.925 E382.26620
G0 F9000 X151.521 Y146.925
G1 F1920 X152.921 Y148.324 E382.34848
G0 F9000 X152.213 Y148.324
G1 F1920 X150.814 Y146.925 E382.43074
G0 F9000 X150.107 Y146.925
G1 F1920 X151.506 Y148.324 E382.51300
G0 F9000 X150.799 Y148.324
G1 F1920 X149.400 Y146.925 E382.59525
G0 F9000 X148.693 Y146.925
G1 F1920 X150.092 Y148.324 E382.67751
G0 F9000 X149.385 Y148.324
G1 F1920 X148.519 Y147.458 E382.72843
G0 F9000 X148.519 Y148.165
G1 F1920 X148.678 Y148.324 E382.73777
G1 F2400 E382.13777
G1 Z2.940
G0 F9000 X155.764 Y146.925
G1 Z2.440
G1 F2400 E382.73777
G1 F1920 X156.480 Y147.641 E382.77987
G1 F2400 E382.17987
G1 Z2.940
G0 F9000 X135.285 Y149.074
G1 Z2.440
G1 F2400 E382.77987
G1 F1920 X134.622 Y148.765 E382.81618
G1 X133.602 Y148.451 E382.85434
G1 X133.517 Y149.074 E382.88927
G1 X132.244 Y148.508 E382.92738
G1 X132.457 Y149.074 E382.95252
G1 F2400 E382.35252
G1 Z2.940
G0 F9000 X156.250 Y152.048
;TYPE:SUPPORT
G1 Z2.440
G1 F2400 E382.95252
G1 F1920 X156.250 Y159.675 E383.26961
;LAYER:7
M106 S73
G1 F2400 E382.66961
G1 Z2.940
G0 F9000 X155.322 Y149.506 Z2.640
;TYPE:WALL-INNER
G1 Z2.640
G1 F2400 E383.26961
G1 F2040 X154.377 Y149.555 E383.30896
G1 X153.468 Y149.583 E383.34677
G1 X152.580 Y149.594 E383.38369
G1 X151.691 Y149.586 E383.42065
G1 X150.770 Y149.561 E383.45895
G1 X149.855 Y149.518 E383.49704
G1 X148.939 Y149.457 E383.53520
G1 X147.964 Y149.372 E383.57589
G1 X146.963 Y149.266 E383.61774
G1 X146.386 Y149.250 E383.64174
G1 X135.139 Y149.250 E384.10934
G1 X134.864 Y149.163 E384.12133
G1 X134.570 Y149.098 E384.13385
G1 X134.109 Y149.049 E384.15312
G1 X134.082 Y149.051 E384.15425
G1 X133.971 Y149.048 E384.15886
G1 X133.297 Y149.122 E384.18705
G1 X132.871 Y149.250 E384.20555
G1 X131.629 Y149.250 E384.25718
G1 X131.628 Y148.250 E384.29876
G1 X147.544 Y148.250 E384.96047
G1 X147.543 Y146.750 E385.02283
G1 X157.457 Y146.750 E385.43501
G1 X157.458 Y148.250 E385.49737
G1 X173.371 Y148.250 E386.15896
G1 X173.372 Y149.250 E386.20053
G1 X172.138 Y149.250 E386.25184
G1 X171.863 Y149.163 E386.26383
G1 X171.569 Y149.098 E386.27635
G1 X171.108 Y149.049 E386.29562
G1 X171.081 Y149.051 E386.29674
G1 X170.971 Y149.048 E386.30132
G1 X170.296 Y149.122 E386.32955
G1 X169.870 Y149.250 E386.34804
G1 X158.216 Y149.250 E386.83256
G1 X157.074 Y149.369 E386.88030
G1 X156.197 Y149.446 E386.91690
G1 X155.322 Y149.506 E386.95336
G0 F9000 X155.348 Y150.006
;TYPE:WALL-OUTER
G1 F2040 X154.387 Y150.055 E386.99337
G1 X153.483 Y150.083 E387.03097
G1 X152.581 Y150.094 E387.06847
G1 X151.678 Y150.086 E387.10602
G1 X150.762 Y150.061 E387.14411
G1 X149.832 Y150.017 E387.18282
G1 X148.896 Y149.955 E387.22182
G1 X147.911 Y149.869 E387.26293
G1 X146.930 Y149.765 E387.30394
G1 X146.379 Y149.750 E387.32686
G1 X135.060 Y149.750 E387.79745
G1 X134.735 Y149.646 E387.81164
G1 X134.244 Y149.560 E387.83236
G1 X134.109 Y149.550 E387.83799
G1 X134.091 Y149.552 E387.83874
G1 X133.990 Y149.549 E387.84294
G1 X133.397 Y149.614 E387.86774
G1 X132.945 Y149.750 E387.88737
G1 X131.129 Y149.750 E387.96287
G1 X131.128 Y147.750 E388.04602
G1 X147.043 Y147.750 E388.70769
G1 X147.042 Y146.250 E388.77005
G1 X157.957 Y146.250 E389.22384
G1 X157.958 Y147.750 E389.28621
G1 X173.871 Y147.750 E389.94779
G1 X173.872 Y149.750 E390.03094
G1 X172.059 Y149.750 E390.10632
G1 X171.734 Y149.646 E390.12051
G1 X171.243 Y149.560 E390.14123
G1 X171.108 Y149.550 E390.14686
G1 X171.090 Y149.552 E390.14761
G1 X170.990 Y149.549 E390.15177
G1 X170.396 Y149.614 E390.17661
G1 X169.944 Y149.750 E390.19624
G1 X158.242 Y149.750 E390.68275
G1 X157.126 Y149.866 E390.72940
G1 X156.217 Y149.946 E390.76734
G1 X155.348 Y150.006 E390.80355
G1 F2400 E390.20355
G1 Z3.140
G0 F9000 X152.949 Y149.413
;TYPE:FILL
G1 Z2.640
G1 F2400 E390.80355
G1 F2040 X151.210 Y147.675 E390.90577
G1 F2400 E390.30577
G1 Z3.140
G0 F9000 X152.845 Y147.675
G1 Z2.640
G1 F2400 E390.90577
G1 F2040 X151.124 Y149.396 E391.00696
G1 F2400 E390.40696
G1 Z3.140
G0 F9000 X145.538 Y149.074
G1 Z2.640
G1 F2400 E391.00696
G1 F2040 X144.956 Y148.424 E391.04512
G1 X144.374 Y149.074 E391.08139
G1 F2400 E390.48139
G1 Z3.140
G0 F9000 X158.516 Y149.075
G1 Z2.640
G1 F2400 E391.08139
G1 F2040 X159.098 Y148.425 E391.11955
G1 X159.681 Y149.075 E391.15585
G1 F2400 E390.55585
G1 Z3.140
G0 F9000 X165.587 Y149.075
G1 Z2.640
G1 F2400 E391.15585
G1 F2040 X166.169 Y148.425 E391.19401
G1 X166.752 Y149.075 E391.23031
G1 F2400 E390.63031
G1 Z3.140
G0 F9000 X172.658 Y149.075
G1 Z2.640
G1 F2400 E391.23031
G1 F2040 X173.195 Y148.538 E391.26188
G1 F2400 E390.66188
G1 Z3.140
G0 F9000 X138.467 Y149.074
G1 Z2.640
G1 F2400 E391.26188
G1 F2040 X137.885 Y148.424 E391.30004
G1 X137.303 Y149.074 E391.33632
G1 F2400 E390.73632
G1 Z3.140
G0 F9000 X135.811 Y148.798
;TYPE:SKIN
G1 Z2.640
G1 F2400 E391.33632
G1 F2040 X135.451 Y148.804 E391.35248
G1 X134.841 Y148.708 E391.37929
G1 X134.183 Y148.659 E391.40688
G1 X133.465 Y148.669 E391.43572
G1 X132.636 Y148.791 E391.47390
G1 X131.901 Y148.818 E391.50711
G1 X131.943 Y148.424 E391.52359
G1 F2400 E390.92359
G1 Z3.140
G0 F9000 X147.718 Y148.205
G1 Z2.640
G1 F2400 E391.52359
G1 F2040 X148.999 Y146.924 E391.59890
G0 F9000 X149.706 Y146.924
G1 F2040 X148.306 Y148.324 E391.68122
G0 F9000 X149.013 Y148.324
G1 F2040 X150.413 Y146.924 E391.76353
G0 F9000 X151.120 Y146.924
G1 F2040 X149.720 Y148.324 E391.84585
G0 F9000 X150.427 Y148.324
G1 F2040 X151.827 Y146.924 E391.92816
G0 F9000 X152.534 Y146.924
G1 F2040 X151.134 Y148.324 E392.01048
G0 F9000 X151.841 Y148.324
G1 F2040 X153.242 Y146.924 E392.09282
G0 F9000 X153.949 Y146.924
G1 F2040 X152.549 Y148.324 E392.17514
G0 F9000 X153.256 Y148.324
G1 F2040 X154.656 Y146.924 E392.25745
G0 F9000 X155.363 Y146.924
G1 F2040 X153.963 Y148.324 E392.33977
G0 F9000 X154.670 Y148.324
G1 F2040 X156.070 Y146.924 E392.42208
G0 F9000 X156.777 Y146.924
G1 F2040 X155.377 Y148.324 E392.50439
G0 F9000 X156.084 Y148.324
G1 F2040 X157.281 Y147.128 E392.57474
G0 F9000 X157.281 Y147.834
G1 F2040 X156.791 Y148.324 E392.60355
G1 F2400 E392.00355
G1 Z3.140
G0 F9000 X148.292 Y146.924
G1 Z2.640
G1 F2400 E392.60355
G1 F2040 X147.718 Y147.498 E392.63730
G1 F2400 E392.03730
G1 Z3.140
G0 F9000 X169.476 Y149.075
G1 Z2.640
G1 F2400 E392.63730
G1 F2040 X170.220 Y148.684 E392.67553
G1 X170.961 Y148.650 E392.70600
G1 X171.630 Y148.688 E392.73241
G1 X172.259 Y148.766 E392.76145
G1 X173.074 Y148.658 E392.79966
G1 X173.012 Y149.075 E392.81719
G1 F2400 E392.21719
G1 Z3.140
G0 F9000 X156.250 Y152.048
;TYPE:SUPPORT
G1 Z2.640
G1 F2400 E392.81719
G1 F2040 X156.250 Y159.675 E393.13428
;LAYER:8
M106 S84
G1 F2400 E392.53428
G1 Z3.140
G0 F9000 X155.334 Y149.594 Z2.840
;TYPE:WALL-INNER
G1 Z2.840
G1 F2400 E393.13428
G1 F2040 X154.382 Y149.645 E393.17392
G1 X153.481 Y149.673 E393.21140
G1 X152.601 Y149.683 E393.24799
G1 X151.722 Y149.677 E393.28453
G1 X150.810 Y149.652 E393.32246
G1 X149.903 Y149.610 E393.36021
G1 X148.997 Y149.550 E393.39796
G1 X148.014 Y149.465 E393.43898
G1 X147.044 Y149.363 E393.47953
G1 X146.152 Y149.250 E393.51691
G1 X135.579 Y149.250 E393.95649
G1 X135.212 Y149.082 E393.97327
G1 X134.556 Y148.898 E394.00159
G1 X134.267 Y148.860 E394.01371
G1 X133.980 Y148.847 E394.02566
G1 X133.429 Y148.901 E394.04868
G1 X132.788 Y149.082 E394.07637
G1 X132.424 Y149.250 E394.09303
G1 X131.478 Y149.250 E394.13236
G1 X131.478 Y148.250 E394.17394
G1 X146.857 Y148.250 E394.81332
G1 X146.857 Y146.750 E394.87569
G1 X158.143 Y146.750 E395.34490
G1 X158.143 Y147.253 E395.36582
G1 X158.147 Y148.250 E395.40727
G1 X173.522 Y148.250 E396.04649
G1 X173.522 Y149.250 E396.08806
G1 X172.578 Y149.250 E396.12731
G1 X172.211 Y149.082 E396.14409
G1 X171.555 Y148.898 E396.17241
G1 X171.266 Y148.860 E396.18453
G1 X170.981 Y148.847 E396.19639
G1 X170.428 Y148.901 E396.21949
G1 X169.787 Y149.082 E396.24719
G1 X169.423 Y149.250 E396.26385
G1 X158.848 Y149.250 E396.70351
G1 X157.973 Y149.360 E396.74018
G1 X157.053 Y149.458 E396.77864
G1 X156.149 Y149.538 E396.81637
G1 X155.334 Y149.594 E396.85034
G0 F9000 X155.361 Y150.094
;TYPE:WALL-OUTER
G1 F2040 X154.392 Y150.145 E396.89068
G1 X153.496 Y150.173 E396.92795
G1 X152.603 Y150.183 E396.96508
G1 X151.708 Y150.177 E397.00229
G1 X150.801 Y150.152 E397.04001
G1 X149.880 Y150.109 E397.07834
G1 X148.954 Y150.048 E397.11692
G1 X147.962 Y149.962 E397.15832
G1 X146.992 Y149.860 E397.19887
G1 X146.121 Y149.750 E397.23537
G1 X135.469 Y149.750 E397.67823
G1 X135.039 Y149.553 E397.69789
G1 X134.455 Y149.389 E397.72311
G1 X133.993 Y149.348 E397.74240
G1 X133.522 Y149.394 E397.76207
G1 X132.961 Y149.553 E397.78631
G1 X132.533 Y149.750 E397.80590
G1 X130.978 Y149.750 E397.87055
G1 X130.978 Y147.750 E397.95370
G1 X146.357 Y147.750 E398.59309
G1 X146.357 Y146.250 E398.65545
G1 X158.643 Y146.250 E399.16624
G1 X158.643 Y147.252 E399.20790
G1 X158.645 Y147.750 E399.22861
G1 X174.022 Y147.750 E399.86791
G1 X174.022 Y149.750 E399.95106
G1 X172.468 Y149.750 E400.01566
G1 X172.038 Y149.553 E400.03533
G1 X171.454 Y149.389 E400.06055
G1 X170.994 Y149.348 E400.07975
G1 X170.521 Y149.394 E400.09951
G1 X169.960 Y149.553 E400.12375
G1 X169.532 Y149.750 E400.14334
G1 X158.879 Y149.750 E400.58624
G1 X158.026 Y149.857 E400.62198
G1 X157.106 Y149.955 E400.66044
G1 X156.195 Y150.036 E400.69847
G1 X155.361 Y150.094 E400.73323
G1 F2400 E400.13323
G1 Z3.340
G0 F9000 X153.037 Y149.502
;TYPE:FILL
G1 Z2.840
G1 F2400 E400.73323
G1 F2040 X150.460 Y146.924 E400.88477
G1 F2400 E400.28477
G1 Z3.340
G0 F9000 X151.036 Y149.483
G1 Z2.840
G1 F2400 E400.88477
G1 F2040 X153.595 Y146.924 E401.03523
G1 F2400 E400.43523
G1 Z3.340
G0 F9000 X157.531 Y146.924
G1 Z2.840
G1 F2400 E401.03523
G1 F2040 X157.969 Y147.362 E401.06099
G1 F2400 E400.46099
G1 Z3.340
G0 F9000 X159.031 Y148.425
G1 Z2.840
G1 F2400 E401.06099
G1 F2040 X159.423 Y148.750 E401.09918
G1 X158.470 Y149.121 E401.14169
G1 F2400 E400.54169
G1 Z3.340
G0 F9000 X145.538 Y149.074
G1 Z2.840
G1 F2400 E401.14169
G1 F2040 X144.957 Y148.423 E401.17986
G1 X144.374 Y149.074 E401.21619
G1 F2400 E400.61619
G1 Z3.340
G0 F9000 X138.467 Y149.074
G1 Z2.840
G1 F2400 E401.21619
G1 F2040 X137.885 Y148.423 E401.25438
G1 X137.303 Y149.074 E401.29069
G1 F2400 E400.69069
G1 Z3.340
G0 F9000 X165.587 Y149.075
G1 Z2.840
G1 F2400 E401.29069
G1 F2040 X166.169 Y148.425 E401.32885
G1 X166.752 Y149.075 E401.36515
G1 F2400 E400.76515
G1 Z3.340
G0 F9000 X172.658 Y149.075
G1 Z2.840
G1 F2400 E401.36515
G1 F2040 X173.240 Y148.425 E401.40331
G1 X173.346 Y148.774 E401.41341
G1 X172.791 Y148.749 E401.44431
G1 X171.932 Y148.598 E401.48239
G1 X171.176 Y148.549 E401.50267
G1 X170.507 Y148.587 E401.51721
G1 X169.878 Y148.665 E401.53624
G1 X169.164 Y148.658 E401.55921
G1 X169.227 Y149.075 E401.57675
G1 F2400 E400.97675
G1 Z3.340
G0 F9000 X157.969 Y147.716
;TYPE:SKIN
G1 Z2.840
G1 F2400 E401.57675
G1 F2040 X157.177 Y146.924 E401.62331
G0 F9000 X156.470 Y146.924
G1 F2040 X157.870 Y148.324 E401.70563
G0 F9000 X157.163 Y148.324
G1 F2040 X155.763 Y146.924 E401.78794
G0 F9000 X155.056 Y146.924
G1 F2040 X156.456 Y148.324 E401.87026
G0 F9000 X155.749 Y148.324
G1 F2040 X154.349 Y146.924 E401.95257
G0 F9000 X154.306 Y147.588
G1 F2040 X155.042 Y148.324 E401.99585
G0 F9000 X155.188 Y149.177
G1 F2040 X155.657 Y149.293 E402.00959
G1 X156.084 Y149.367 E402.02760
G0 F9000 X154.752 Y149.449
G1 F2040 X154.289 Y149.339 E402.04216
G1 X153.604 Y149.362 E402.05698
G1 X152.909 Y149.374 E402.07201
G1 X152.203 Y149.375 E402.08710
G1 X151.486 Y149.364 E402.10242
G1 X150.756 Y149.342 E402.11803
G1 X150.016 Y149.309 E402.13386
G1 X149.274 Y149.274 E402.14862
G1 X148.821 Y149.174 E402.16791
G0 F9000 X148.677 Y148.324
G1 F2040 X147.278 Y146.924 E402.25019
G0 F9000 X147.030 Y147.384
G1 F2040 X147.970 Y148.324 E402.30546
G0 F9000 X147.263 Y148.324
G1 F2040 X147.030 Y148.091 E402.31916
G1 F2400 E401.71916
G1 Z3.340
G0 F9000 X147.985 Y146.924
G1 Z2.840
G1 F2400 E402.31916
G1 F2040 X149.384 Y148.324 E402.40144
G0 F9000 X150.091 Y148.324
G1 F2040 X148.692 Y146.924 E402.48373
G0 F9000 X149.399 Y146.924
G1 F2040 X150.691 Y148.216 E402.55969
G0 F9000 X150.692 Y147.510
G1 F2040 X150.106 Y146.924 E402.59415
G1 F2400 E401.99415
G1 Z3.340
G0 F9000 X157.884 Y146.924
G1 Z2.840
G1 F2400 E402.59415
G1 F2040 X157.967 Y147.007 E402.59903
G0 F9000 X135.992 Y149.074
G1 F2040 X135.206 Y148.641 E402.63716
G1 X134.409 Y148.551 E402.66270
G1 X133.720 Y148.569 E402.67766
G1 X133.082 Y148.639 E402.69479
G1 X132.474 Y148.737 E402.72009
G1 X131.729 Y148.700 E402.75693
G1 X131.750 Y149.074 E402.77250
G1 F2400 E402.17250
G1 Z3.340
G0 F9000 X156.250 Y152.048
;TYPE:SUPPORT
G1 Z2.840
G1 F2400 E402.77250
G1 F2040 X156.250 Y159.675 E403.08960
;LAYER:9
M106 S94
G1 F2400 E402.48960
G1 Z3.340
G0 F9000 X155.347 Y149.682 Z3.040
;TYPE:WALL-INNER
G1 Z3.040
G1 F2400 E403.08960
G1 F1860 X154.385 Y149.734 E403.12965
G1 X153.493 Y149.762 E403.16675
G1 X152.616 Y149.773 E403.20322
G1 X152.501 Y149.774 E403.20800
G1 X151.751 Y149.767 E403.23918
G1 X150.849 Y149.743 E403.27670
G1 X149.952 Y149.702 E403.31403
G1 X149.053 Y149.643 E403.35148
G1 X148.065 Y149.558 E403.39271
G1 X147.098 Y149.456 E403.43314
G1 X146.151 Y149.337 E403.47282
G1 X145.551 Y149.250 E403.49803
G1 X135.895 Y149.250 E403.89948
G1 X135.550 Y149.054 E403.91597
G1 X135.125 Y148.865 E403.93531
G1 X134.528 Y148.696 E403.96111
G1 X133.992 Y148.647 E403.98348
G1 X133.511 Y148.689 E404.00356
G1 X133.123 Y148.782 E404.02014
G1 X132.725 Y148.926 E404.03774
G1 X132.168 Y149.206 E404.06366
G1 X132.095 Y149.250 E404.06720
G1 X131.347 Y149.250 E404.09830
G1 X131.346 Y148.250 E404.13988
G1 X146.247 Y148.250 E404.75939
G1 X146.247 Y146.750 E404.82175
G1 X149.753 Y146.750 E404.96751
G1 X150.680 Y146.774 E405.00607
G1 X151.625 Y146.794 E405.04536
G1 X151.643 Y146.792 E405.04612
G1 X152.500 Y146.799 E405.08175
G1 X153.408 Y146.793 E405.11950
G1 X154.320 Y146.775 E405.15742
G1 X155.105 Y146.750 E405.19008
G1 X158.753 Y146.750 E405.34174
G1 X158.755 Y148.250 E405.40411
G1 X173.653 Y148.250 E406.02349
G1 X173.654 Y149.250 E406.06507
G1 X172.895 Y149.250 E406.09662
G1 X172.550 Y149.054 E406.11312
G1 X172.124 Y148.865 E406.13250
G1 X171.527 Y148.696 E406.15829
G1 X170.992 Y148.647 E406.18063
G1 X170.510 Y148.689 E406.20074
G1 X170.122 Y148.782 E406.21733
G1 X169.724 Y148.926 E406.23493
G1 X169.167 Y149.206 E406.26085
G1 X169.094 Y149.250 E406.26439
G1 X159.449 Y149.250 E406.66538
G1 X158.860 Y149.335 E406.69012
G1 X157.933 Y149.452 E406.72897
G1 X157.032 Y149.548 E406.76664
G1 X156.138 Y149.628 E406.80396
G1 X155.347 Y149.682 E406.83692
G0 F9000 X155.374 Y150.182
;TYPE:WALL-OUTER
G1 F1860 X154.395 Y150.234 E406.87768
G1 X153.509 Y150.262 E406.91453
G1 X152.622 Y150.273 E406.95141
G1 X152.500 Y150.274 E406.95649
G1 X151.738 Y150.267 E406.98817
G1 X150.841 Y150.243 E407.02547
G1 X149.929 Y150.201 E407.06343
G1 X149.011 Y150.141 E407.10168
G1 X148.012 Y150.055 E407.14336
G1 X147.045 Y149.953 E407.18379
G1 X146.088 Y149.833 E407.22389
G1 X145.515 Y149.750 E407.24796
G1 X135.763 Y149.750 E407.65340
G1 X135.325 Y149.501 E407.67435
G1 X134.955 Y149.336 E407.69119
G1 X134.423 Y149.186 E407.71417
G1 X133.997 Y149.148 E407.73195
G1 X133.591 Y149.184 E407.74890
G1 X133.267 Y149.261 E407.76275
G1 X132.923 Y149.386 E407.77796
G1 X132.410 Y149.644 E407.80184
G1 X132.235 Y149.750 E407.81034
G1 X130.847 Y149.750 E407.86805
G1 X130.846 Y147.750 E407.95120
G1 X145.747 Y147.750 E408.57071
G1 X145.746 Y146.250 E408.63307
G1 X149.766 Y146.250 E408.80020
G1 X150.692 Y146.274 E408.83872
G1 X151.610 Y146.293 E408.87689
G1 X151.622 Y146.292 E408.87739
G1 X152.500 Y146.299 E408.91390
G1 X153.401 Y146.293 E408.95136
G1 X154.307 Y146.275 E408.98903
G1 X155.089 Y146.250 E409.02156
G1 X159.253 Y146.250 E409.19468
G1 X159.254 Y147.750 E409.25704
G1 X174.153 Y147.750 E409.87647
G1 X174.154 Y149.750 E409.95962
G1 X172.763 Y149.750 E410.01745
G1 X172.325 Y149.501 E410.03840
G1 X171.954 Y149.336 E410.05528
G1 X171.422 Y149.186 E410.07826
G1 X170.997 Y149.148 E410.09600
G1 X170.590 Y149.184 E410.11299
G1 X170.266 Y149.261 E410.12683
G1 X169.922 Y149.386 E410.14205
G1 X169.409 Y149.644 E410.16592
G1 X169.234 Y149.750 E410.17443
G1 X159.485 Y149.750 E410.57974
G1 X158.923 Y149.831 E410.60335
G1 X157.986 Y149.949 E410.64261
G1 X157.085 Y150.045 E410.68029
G1 X156.183 Y150.126 E410.71794
G1 X155.374 Y150.182 E410.75165
G1 F2400 E410.15165
G1 Z3.540
G0 F9000 X153.126 Y149.591
;TYPE:FILL
G1 Z3.040
G1 F2400 E410.75165
G1 F1860 X150.477 Y146.941 E410.90743
G1 F2400 E410.30743
G1 Z3.540
G0 F9000 X150.949 Y149.570
G1 Z3.040
G1 F2400 E410.90743
G1 F1860 X153.560 Y146.959 E411.06095
G1 F2400 E410.46095
G1 Z3.540
G0 F9000 X157.532 Y146.925
G1 Z3.040
G1 F2400 E411.06095
G1 F1860 X158.579 Y147.972 E411.12251
G0 F9000 X159.031 Y148.425
G1 F1860 X159.681 Y149.075 E411.16073
G0 F9000 X159.166 Y148.424
G1 F1860 X158.371 Y149.220 E411.20750
G1 F2400 E410.60750
G1 Z3.540
G0 F9000 X146.525 Y146.924
G1 Z3.040
G1 F2400 E411.20750
G1 F1860 X146.422 Y147.027 E411.21355
G0 F9000 X145.025 Y148.423
G1 F1860 X144.631 Y148.749 E411.25182
G1 X145.538 Y149.073 E411.29187
G1 F2400 E410.69187
G1 Z3.540
G0 F9000 X138.467 Y149.073
G1 Z3.040
G1 F2400 E411.29187
G1 F1860 X137.885 Y148.423 E411.33003
G1 X137.303 Y149.074 E411.36633
G1 F2400 E410.76633
G1 Z3.540
G0 F9000 X165.587 Y149.075
G1 Z3.040
G1 F2400 E411.36633
G1 F1860 X166.169 Y148.424 E411.40452
G1 X166.752 Y149.075 E411.44086
G1 F2400 E410.84086
G1 Z3.540
G0 F9000 X172.760 Y148.973
G1 Z3.040
G1 F2400 E411.44086
G1 F1860 X173.241 Y148.424 E411.47314
G1 X173.478 Y148.729 E411.48920
G1 F2400 E410.88920
G1 Z3.540
G0 F9000 X158.578 Y147.952
;TYPE:SKIN
G1 Z3.040
G1 F2400 E411.48920
G1 F1860 X158.205 Y148.324 E411.51110
G0 F9000 X157.498 Y148.324
G1 F1860 X158.577 Y147.246 E411.57452
G0 F9000 X158.191 Y146.924
G1 F1860 X156.791 Y148.324 E411.65683
G0 F9000 X156.084 Y148.324
G1 F1860 X157.484 Y146.924 E411.73914
G0 F9000 X156.777 Y146.924
G1 F1860 X155.620 Y148.081 E411.80717
G0 F9000 X155.620 Y147.375
G1 F1860 X156.070 Y146.924 E411.83366
G1 F2400 E411.23366
G1 Z3.540
G0 F9000 X155.902 Y149.213
G1 Z3.040
G1 F2400 E411.83366
G1 F1860 X155.387 Y149.375 E411.84978
G1 X154.640 Y149.415 E411.86557
G1 X153.904 Y149.443 E411.88125
G1 X153.180 Y149.460 E411.89691
G1 X152.468 Y149.466 E411.91230
G1 X151.765 Y149.461 E411.92744
G1 X151.075 Y149.443 E411.94219
G1 X150.394 Y149.417 E411.95681
G1 X149.722 Y149.383 E411.97136
G1 X149.059 Y149.339 E411.98550
G1 X148.390 Y149.301 E411.99910
G1 X147.967 Y149.371 E412.01692
G0 F9000 X148.306 Y148.324
G1 F1860 X149.377 Y147.253 E412.07989
G0 F9000 X148.999 Y146.924
G1 F1860 X147.599 Y148.324 E412.16221
G0 F9000 X146.892 Y148.324
G1 F1860 X148.292 Y146.924 E412.24452
G0 F9000 X147.585 Y146.924
G1 F1860 X146.422 Y148.087 E412.31290
G0 F9000 X146.422 Y147.380
G1 F1860 X146.878 Y146.924 E412.33971
G1 F2400 E411.73971
G1 Z3.540
G0 F9000 X149.013 Y148.324
G1 Z3.040
G1 F2400 E412.33971
G1 F1860 X149.376 Y147.962 E412.36103
G1 F2400 E411.76103
G1 Z3.540
G0 F9000 X156.393 Y149.430
G1 Z3.040
G1 F2400 E412.36103
G1 F1860 X156.910 Y149.266 E412.37600
G1 X157.355 Y149.175 E412.39489
G1 F2400 E411.79489
G1 Z3.540
G0 F9000 X156.250 Y152.048
;TYPE:SUPPORT
G1 Z3.040
G1 F2400 E412.39489
G1 F1860 X156.250 Y159.675 E412.71198
;LAYER:10
M106 S104
G1 F2400 E412.11198
G1 Z3.540
G0 F9000 X155.360 Y149.770 Z3.240
;TYPE:WALL-INNER
G1 Z3.240
G1 F2400 E412.71198
G1 F1920 X154.389 Y149.823 E412.75241
G1 X153.505 Y149.852 E412.78918
G1 X152.638 Y149.863 E412.82523
G1 X152.501 Y149.864 E412.83093
G1 X151.781 Y149.858 E412.86086
G1 X150.888 Y149.834 E412.89800
G1 X149.999 Y149.794 E412.93500
G1 X149.111 Y149.736 E412.97200
G1 X148.115 Y149.651 E413.01356
G1 X147.152 Y149.549 E413.05382
G1 X146.221 Y149.432 E413.09283
G1 X145.258 Y149.294 E413.13327
G1 X144.990 Y149.250 E413.14456
G1 X136.146 Y149.250 E413.51226
G1 X135.843 Y149.049 E413.52737
G1 X135.297 Y148.755 E413.55315
G1 X134.703 Y148.539 E413.57943
G1 X134.247 Y148.459 E413.59868
G1 X133.983 Y148.448 E413.60966
G1 X133.530 Y148.487 E413.62857
G1 X132.951 Y148.651 E413.65359
G1 X132.395 Y148.912 E413.67912
G1 X131.849 Y149.248 E413.70578
G1 X131.232 Y149.250 E413.73143
G1 X131.231 Y148.250 E413.77300
G1 X145.677 Y148.250 E414.37360
G1 X145.676 Y146.750 E414.43596
G1 X148.639 Y146.750 E414.55915
G1 X149.785 Y146.805 E414.60685
G1 X150.719 Y146.835 E414.64570
G1 X150.738 Y146.834 E414.64649
G1 X151.601 Y146.852 E414.68238
G1 X152.500 Y146.858 E414.71976
G1 X153.399 Y146.852 E414.75713
G1 X154.303 Y146.835 E414.79472
G1 X155.214 Y146.805 E414.83262
G1 X156.110 Y146.765 E414.86991
G1 X156.928 Y146.750 E414.90392
G1 X159.324 Y146.750 E415.00354
G1 X159.325 Y148.250 E415.06590
G1 X173.768 Y148.250 E415.66637
G1 X173.769 Y149.250 E415.70794
G1 X173.145 Y149.250 E415.73389
G1 X172.842 Y149.049 E415.74900
G1 X172.296 Y148.755 E415.77478
G1 X171.702 Y148.539 E415.80106
G1 X171.246 Y148.459 E415.82031
G1 X170.983 Y148.448 E415.83125
G1 X170.529 Y148.487 E415.85020
G1 X169.950 Y148.651 E415.87522
G1 X169.394 Y148.912 E415.90075
G1 X168.848 Y149.248 E415.92741
G1 X160.011 Y149.250 E416.29481
G1 X159.753 Y149.291 E416.30567
G1 X158.800 Y149.429 E416.34570
G1 X157.895 Y149.544 E416.38363
G1 X157.012 Y149.638 E416.42055
G1 X156.127 Y149.717 E416.45749
G1 X155.360 Y149.770 E416.48945
G0 F9000 X155.387 Y150.270
;TYPE:WALL-OUTER
G1 F1920 X154.400 Y150.323 E416.53055
G1 X153.522 Y150.352 E416.56707
G1 X152.644 Y150.363 E416.60358
G1 X152.500 Y150.364 E416.60956
G1 X151.768 Y150.358 E416.64000
G1 X150.879 Y150.334 E416.67697
G1 X149.976 Y150.293 E416.71455
G1 X149.069 Y150.234 E416.75234
G1 X148.062 Y150.148 E416.79436
G1 X147.099 Y150.046 E416.83462
G1 X146.158 Y149.928 E416.87405
G1 X145.177 Y149.788 E416.91525
G1 X144.949 Y149.750 E416.92486
G1 X135.995 Y149.750 E417.29712
G1 X135.586 Y149.478 E417.31754
G1 X135.092 Y149.212 E417.34087
G1 X134.573 Y149.024 E417.36382
G1 X134.193 Y148.957 E417.37986
G1 X133.994 Y148.949 E417.38814
G1 X133.621 Y148.981 E417.40371
G1 X133.126 Y149.121 E417.42509
G1 X132.633 Y149.353 E417.44774
G1 X132.123 Y149.667 E417.47264
G1 X132.004 Y149.750 E417.47868
G1 X130.732 Y149.750 E417.53156
G1 X130.731 Y147.750 E417.61471
G1 X145.176 Y147.750 E418.21526
G1 X145.175 Y146.250 E418.27763
G1 X148.642 Y146.250 E418.42177
G1 X149.805 Y146.306 E418.47018
G1 X150.717 Y146.335 E418.50811
G1 X150.745 Y146.334 E418.50928
G1 X151.608 Y146.352 E418.54516
G1 X152.500 Y146.358 E418.58225
G1 X153.392 Y146.352 E418.61934
G1 X154.290 Y146.335 E418.65668
G1 X155.195 Y146.306 E418.69432
G1 X156.107 Y146.265 E418.73228
G1 X156.919 Y146.250 E418.76604
G1 X159.824 Y146.250 E418.88682
G1 X159.825 Y147.750 E418.94918
G1 X174.268 Y147.750 E419.54965
G1 X174.269 Y149.750 E419.63280
G1 X172.994 Y149.750 E419.68581
G1 X172.585 Y149.478 E419.70623
G1 X172.091 Y149.212 E419.72956
G1 X171.572 Y149.024 E419.75251
G1 X171.192 Y148.957 E419.76855
G1 X170.994 Y148.949 E419.77679
G1 X170.620 Y148.981 E419.79239
G1 X170.125 Y149.121 E419.81378
G1 X169.632 Y149.353 E419.83643
G1 X169.122 Y149.667 E419.86133
G1 X169.003 Y149.750 E419.86736
G1 X160.051 Y149.750 E420.23954
G1 X158.863 Y149.925 E420.28947
G1 X157.948 Y150.041 E420.32781
G1 X157.065 Y150.135 E420.36473
G1 X156.172 Y150.215 E420.40201
G1 X155.387 Y150.270 E420.43472
G1 F2400 E419.83472
G1 Z3.740
G0 F9000 X153.215 Y149.679
;TYPE:FILL
G1 Z3.240
G1 F2400 E420.43472
G1 F1920 X150.539 Y147.003 E420.59206
G1 F2400 E419.99206
G1 Z3.740
G0 F9000 X150.862 Y149.657
G1 Z3.240
G1 F2400 E420.59206
G1 F1920 X153.495 Y147.024 E420.74687
G1 F2400 E420.14687
G1 Z3.740
G0 F9000 X157.532 Y146.925
G1 Z3.240
G1 F2400 E420.74687
G1 F1920 X159.724 Y149.117 E420.87575
G0 F9000 X159.166 Y148.424
G1 F1920 X158.271 Y149.319 E420.92838
G1 F2400 E420.32838
G1 Z3.740
G0 F9000 X146.525 Y146.924
G1 Z3.240
G1 F2400 E420.92838
G1 F1920 X145.851 Y147.597 E420.96798
G0 F9000 X145.024 Y148.424
G1 F1920 X144.374 Y149.074 E421.00619
G0 F9000 X144.889 Y148.424
G1 F1920 X145.635 Y149.170 E421.05006
G1 F2400 E420.45006
G1 Z3.740
G0 F9000 X138.467 Y149.074
G1 Z3.240
G1 F2400 E421.05006
G1 F1920 X137.885 Y148.424 E421.08822
G1 X137.303 Y149.074 E421.12449
G1 F2400 E420.52449
G1 Z3.740
G0 F9000 X165.588 Y149.073
G1 Z3.240
G1 F2400 E421.12449
G1 F1920 X166.169 Y148.424 E421.16259
G1 X166.750 Y149.072 E421.19877
G1 F2400 E420.59877
G1 Z3.740
G0 F9000 X172.868 Y148.865
G1 Z3.240
G1 F2400 E421.19877
G1 F1920 X173.240 Y148.425 E421.22459
G1 X173.593 Y148.844 E421.24737
G1 F2400 E420.64737
G1 Z3.740
G0 F9000 X159.149 Y148.189
;TYPE:SKIN
G1 Z3.240
G1 F2400 E421.24737
G1 F1920 X157.885 Y146.925 E421.32169
G0 F9000 X157.178 Y146.925
G1 F1920 X158.577 Y148.324 E421.40395
G0 F9000 X157.870 Y148.324
G1 F1920 X156.578 Y147.032 E421.47991
G0 F9000 X156.579 Y147.740
G1 F1920 X157.237 Y148.751 E421.51421
G1 X157.775 Y149.289 E421.52744
G1 X158.171 Y149.332 E421.54400
G0 F9000 X156.897 Y149.472
G1 F1920 X156.455 Y149.384 E421.55771
G1 X155.799 Y149.436 E421.57156
G1 X155.135 Y149.478 E421.58550
G1 X154.463 Y149.513 E421.59971
G1 X153.780 Y149.537 E421.61437
G1 X153.087 Y149.551 E421.62924
G1 X152.385 Y149.557 E421.64413
G1 X151.669 Y149.548 E421.65955
G1 X150.943 Y149.528 E421.67513
G1 X150.205 Y149.498 E421.69097
G1 X149.455 Y149.455 E421.70696
G1 X148.689 Y149.397 E421.72306
G1 X147.911 Y149.325 E421.73930
G1 X147.133 Y149.254 E421.75398
G1 X146.632 Y148.753 E421.76282
G1 X145.850 Y147.618 E421.82012
G0 F9000 X145.864 Y146.924
G1 F1920 X147.264 Y148.324 E421.90244
G0 F9000 X147.971 Y148.324
G1 F1920 X146.571 Y146.924 E421.98475
G0 F9000 X147.278 Y146.924
G1 F1920 X148.420 Y148.066 E422.05190
G0 F9000 X148.420 Y147.359
G1 F1920 X147.985 Y146.924 E422.07748
G1 F2400 E421.47748
G1 Z3.740
G0 F9000 X158.592 Y146.925
G1 Z3.240
G1 F2400 E422.07748
G1 F1920 X159.149 Y147.481 E422.11020
G1 F2400 E421.51020
G1 Z3.740
G0 F9000 X156.250 Y152.048
;TYPE:SUPPORT
G1 Z3.240
G1 F2400 E422.11020
G1 F1920 X156.250 Y159.675 E422.42729
;LAYER:11
M106 S114
G1 F2400 E421.82729
G1 Z3.740
G0 F9000 X133.213 Y148.390 Z3.440
;TYPE:WALL-INNER
G1 Z3.440
G1 F2400 E422.42729
G1 F1920 X132.845 Y148.514 E422.44343
G1 X132.314 Y148.796 E422.46843
G1 X131.861 Y149.093 E422.49095
G1 X131.651 Y149.250 E422.50185
G1 X131.130 Y149.250 E422.52351
G1 X131.130 Y148.250 E422.56509
G1 X133.213 Y148.250 E422.65169
G1 X133.213 Y148.390 E422.65751
G0 F9000 X133.562 Y148.800
;TYPE:WALL-OUTER
G1 F1920 X133.044 Y148.975 E422.68024
G1 X132.569 Y149.227 E422.70260
G1 X132.126 Y149.522 E422.72472
G1 X131.820 Y149.750 E422.74059
G1 X130.630 Y149.750 E422.79006
G1 X130.630 Y147.750 E422.87321
G1 X133.713 Y147.750 E423.00139
G1 X133.713 Y148.772 E423.04388
G1 X133.562 Y148.800 E423.05026
G1 F2400 E422.45026
G1 Z3.940
G0 F9000 X131.396 Y149.074
;TYPE:FILL
G1 Z3.440
G1 F2400 E423.05026
G1 F1920 X131.304 Y148.982 E423.05567
G0 F9000 X135.194 Y148.531
;TYPE:WALL-INNER
G1 F1920 X134.788 Y148.374 E423.07377
G1 X134.787 Y148.250 E423.07893
G1 X145.162 Y148.250 E423.51027
G1 X145.162 Y146.750 E423.57263
G1 X147.686 Y146.750 E423.67757
G1 X148.899 Y146.824 E423.72809
G1 X149.812 Y146.865 E423.76609
G1 X150.715 Y146.894 E423.80365
G1 X151.619 Y146.912 E423.84124
G1 X151.677 Y146.911 E423.84365
G1 X152.499 Y146.917 E423.87783
G1 X153.391 Y146.912 E423.91492
G1 X154.285 Y146.894 E423.95209
G1 X155.188 Y146.865 E423.98965
G1 X156.100 Y146.824 E424.02761
G1 X157.008 Y146.772 E424.06542
G1 X157.813 Y146.750 E424.09890
G1 X159.838 Y146.750 E424.18309
G1 X159.841 Y148.250 E424.24545
G1 X170.212 Y148.250 E424.67663
G1 X170.213 Y148.390 E424.68245
G1 X169.844 Y148.514 E424.69863
G1 X169.313 Y148.796 E424.72363
G1 X168.860 Y149.093 E424.74615
G1 X168.650 Y149.250 E424.75705
G1 X160.528 Y149.250 E425.09473
G1 X159.686 Y149.387 E425.13019
G1 X158.744 Y149.523 E425.16976
G1 X157.855 Y149.635 E425.20701
G1 X156.990 Y149.728 E425.24318
G1 X156.115 Y149.807 E425.27971
G1 X155.373 Y149.858 E425.31063
G1 X154.394 Y149.913 E425.35140
G1 X153.518 Y149.942 E425.38784
G1 X152.659 Y149.953 E425.42355
G1 X152.502 Y149.954 E425.43008
G1 X151.810 Y149.948 E425.45885
G1 X150.926 Y149.926 E425.49562
G1 X150.048 Y149.886 E425.53216
G1 X149.165 Y149.829 E425.56894
G1 X148.165 Y149.744 E425.61067
G1 X147.205 Y149.642 E425.65081
G1 X146.290 Y149.528 E425.68914
G1 X145.340 Y149.391 E425.72905
G1 X144.472 Y149.250 E425.76561
G1 X136.346 Y149.250 E426.10345
G1 X135.566 Y148.724 E426.14256
G1 X135.194 Y148.531 E426.15998
G0 F9000 X134.988 Y148.988
;TYPE:WALL-OUTER
G1 F1920 X134.608 Y148.841 E426.17692
G1 X134.288 Y148.772 E426.19053
G1 X134.287 Y147.750 E426.23302
G1 X144.662 Y147.750 E426.66437
G1 X144.661 Y146.250 E426.72673
G1 X147.701 Y146.250 E426.85312
G1 X148.926 Y146.325 E426.90414
G1 X149.831 Y146.366 E426.94181
G1 X150.728 Y146.394 E426.97912
G1 X151.619 Y146.412 E427.01617
G1 X151.671 Y146.411 E427.01833
G1 X152.500 Y146.417 E427.05280
G1 X153.384 Y146.412 E427.08955
G1 X154.272 Y146.394 E427.12648
G1 X155.169 Y146.366 E427.16379
G1 X156.074 Y146.325 E427.20145
G1 X156.991 Y146.272 E427.23964
G1 X157.800 Y146.250 E427.27329
G1 X160.338 Y146.250 E427.37880
G1 X160.339 Y147.750 E427.44117
G1 X170.712 Y147.750 E427.87243
G1 X170.713 Y148.772 E427.91492
G1 X170.561 Y148.800 E427.92134
G1 X170.043 Y148.975 E427.94407
G1 X169.568 Y149.227 E427.96643
G1 X169.125 Y149.522 E427.98856
G1 X168.819 Y149.750 E428.00442
G1 X160.568 Y149.750 E428.34746
G1 X159.759 Y149.881 E428.38153
G1 X158.807 Y150.019 E428.42152
G1 X157.908 Y150.132 E428.45919
G1 X157.043 Y150.225 E428.49536
G1 X156.160 Y150.305 E428.53222
G1 X155.401 Y150.358 E428.56386
G1 X154.405 Y150.413 E428.60533
G1 X153.535 Y150.442 E428.64152
G1 X152.665 Y150.453 E428.67769
G1 X152.501 Y150.454 E428.68451
G1 X151.797 Y150.448 E428.71378
G1 X150.918 Y150.426 E428.75034
G1 X150.025 Y150.385 E428.78750
G1 X149.128 Y150.327 E428.82487
G1 X148.112 Y150.241 E428.86727
G1 X147.152 Y150.139 E428.90740
G1 X146.228 Y150.024 E428.94611
G1 X145.267 Y149.886 E428.98648
G1 X144.432 Y149.750 E429.02165
G1 X136.181 Y149.750 E429.36469
G1 X135.809 Y149.474 E429.38394
G1 X135.315 Y149.157 E429.40835
G1 X134.988 Y148.988 E429.42365
G1 F2400 E428.82365
G1 Z3.940
G0 F9000 X137.303 Y149.074
;TYPE:FILL
G1 Z3.440
G1 F2400 E429.42365
G1 F1920 X137.885 Y148.423 E429.46184
G1 X138.467 Y149.073 E429.49812
G1 F2400 E428.89812
G1 Z3.940
G0 F9000 X144.374 Y149.074
G1 Z3.440
G1 F2400 E429.49812
G1 F1920 X145.025 Y148.423 E429.53639
G0 F9000 X144.889 Y148.424
G1 F1920 X145.734 Y149.270 E429.58611
G0 F9000 X145.337 Y148.112
G1 F1920 X146.524 Y146.924 E429.65593
G1 F2400 E429.05593
G1 Z3.940
G0 F9000 X150.601 Y147.065
G1 Z3.440
G1 F2400 E429.65593
G1 F1920 X153.304 Y149.768 E429.81485
G1 F2400 E429.21485
G1 Z3.940
G0 F9000 X150.776 Y149.744
G1 Z3.440
G1 F2400 E429.81485
G1 F1920 X153.435 Y147.085 E429.97119
G1 F2400 E429.37119
G1 Z3.940
G0 F9000 X157.539 Y146.933
G1 Z3.440
G1 F2400 E429.97119
G1 F1920 X159.797 Y149.191 E430.10395
G0 F9000 X159.664 Y147.927
G1 F1920 X158.173 Y149.418 E430.19162
G1 F2400 E429.59162
G1 Z3.940
G0 F9000 X165.587 Y149.075
G1 Z3.440
G1 F2400 E430.19162
G1 F1920 X166.169 Y148.425 E430.22978
G1 X166.752 Y149.075 E430.26608
G1 F2400 E429.66608
G1 Z3.940
G0 F9000 X159.662 Y147.575
;TYPE:SKIN
G1 Z3.440
G1 F2400 E430.26608
G1 F1920 X158.912 Y148.325 E430.31018
G0 F9000 X158.205 Y148.325
G1 F1920 X159.606 Y146.924 E430.39255
G0 F9000 X158.898 Y146.924
G1 F1920 X157.498 Y148.325 E430.47489
G0 F9000 X157.382 Y147.734
G1 F1920 X158.191 Y146.924 E430.52249
G0 F9000 X157.474 Y146.934
G1 F1920 X157.382 Y147.027 E430.52793
G1 F2400 E429.92793
G1 Z3.940
G0 F9000 X157.257 Y149.273
G1 Z3.440
G1 F2400 E430.52793
G1 F1920 X156.726 Y149.449 E430.54439
G1 X155.956 Y149.513 E430.56071
G1 X155.199 Y149.563 E430.57680
G1 X154.452 Y149.602 E430.59272
G1 X153.718 Y149.629 E430.60848
G1 X152.998 Y149.643 E430.62393
G1 X152.287 Y149.646 E430.63930
G1 X151.589 Y149.637 E430.65439
G1 X150.901 Y149.618 E430.66927
G1 X150.223 Y149.589 E430.68383
G1 X149.555 Y149.550 E430.69813
G1 X148.895 Y149.502 E430.71216
G1 X148.244 Y149.446 E430.72596
G1 X147.602 Y149.381 E430.73937
G1 X146.955 Y149.322 E430.75266
G1 X146.541 Y149.382 E430.77005
G0 F9000 X146.892 Y148.324
G1 F1920 X147.617 Y147.599 E430.81268
G0 F9000 X147.585 Y146.924
G1 F1920 X146.185 Y148.324 E430.89500
G0 F9000 X145.478 Y148.324
G1 F1920 X146.878 Y146.924 E430.97731
G0 F9000 X146.171 Y146.924
G1 F1920 X145.337 Y147.758 E431.02635
G0 F9000 X145.337 Y147.051
G1 F1920 X145.464 Y146.924 E431.03381
G1 F2400 E430.43381
G1 Z3.940
G0 F9000 X157.770 Y149.467
G1 Z3.440
G1 F2400 E431.03381
G1 F1920 X158.311 Y149.279 E431.05001
G1 X158.770 Y149.174 E431.06958
G1 F2400 E430.46958
G1 Z3.940
G0 F9000 X171.787 Y148.374
;TYPE:WALL-INNER
G1 Z3.440
G1 F2400 E431.06958
G1 F1920 X171.787 Y148.250 E431.07474
G1 X173.870 Y148.250 E431.16134
G1 X173.870 Y149.250 E431.20291
G1 X173.345 Y149.250 E431.22474
G1 X172.565 Y148.724 E431.26385
G1 X172.193 Y148.531 E431.28128
G1 X171.787 Y148.374 E431.29937
G0 F9000 X171.607 Y148.841
;TYPE:WALL-OUTER
G1 F1920 X171.287 Y148.772 E431.31298
G1 X171.287 Y147.750 E431.35547
G1 X174.370 Y147.750 E431.48365
G1 X174.370 Y149.750 E431.56680
G1 X173.180 Y149.750 E431.61627
G1 X172.808 Y149.474 E431.63553
G1 X172.314 Y149.157 E431.65994
G1 X171.987 Y148.988 E431.67524
G1 X171.607 Y148.841 E431.69218
G0 F9000 X172.955 Y148.778
;TYPE:FILL
G1 F1920 X173.241 Y148.424 E431.71295
G1 X173.694 Y148.945 E431.74166
G1 F2400 E431.14166
G1 Z3.940
G0 F9000 X156.250 Y152.048
;TYPE:SUPPORT
G1 Z3.440
G1 F2400 E431.74166
G1 F1920 X156.250 Y159.675 E432.05875
;LAYER:12
M106 S127
G1 F2400 E431.45875
G1 Z3.940
G0 F9000 X132.450 Y148.561 Z3.640
;TYPE:WALL-INNER
G1 Z3.640
G1 F2400 E432.05875
G1 F1860 X131.868 Y148.954 E432.08795
G1 X131.491 Y149.250 E432.10788
G1 X131.043 Y149.250 E432.12650
G1 X131.042 Y148.250 E432.16808
G1 X132.450 Y148.250 E432.22661
G1 X132.450 Y148.561 E432.23954
G0 F9000 X132.610 Y149.045
;TYPE:WALL-OUTER
G1 F1860 X132.166 Y149.356 E432.26208
G1 X131.703 Y149.719 E432.28654
G1 X131.666 Y149.750 E432.28855
G1 X130.543 Y149.750 E432.33524
G1 X130.542 Y147.750 E432.41839
G1 X132.950 Y147.750 E432.51850
G1 X132.951 Y148.854 E432.56440
G1 X132.610 Y149.045 E432.58065
G0 F9000 X131.396 Y149.074
;TYPE:FILL
G1 F1860 X131.217 Y148.895 E432.59117
G1 F2400 E431.99117
G1 Z4.140
G0 F9000 X135.786 Y148.706
;TYPE:WALL-INNER
G1 Z3.640
G1 F2400 E432.59117
G1 F1860 X135.550 Y148.565 E432.60260
G1 X135.550 Y148.250 E432.61570
G1 X144.681 Y148.250 E432.99532
G1 X144.680 Y146.750 E433.05768
G1 X146.907 Y146.750 E433.15027
G1 X148.041 Y146.833 E433.19754
G1 X148.066 Y146.833 E433.19858
G1 X148.935 Y146.884 E433.23478
G1 X149.839 Y146.924 E433.27240
G1 X150.731 Y146.954 E433.30950
G1 X151.626 Y146.971 E433.34672
G1 X151.699 Y146.970 E433.34975
G1 X152.499 Y146.976 E433.38301
G1 X153.381 Y146.971 E433.41968
G1 X154.269 Y146.954 E433.45661
G1 X155.161 Y146.924 E433.49372
G1 X156.064 Y146.884 E433.53130
G1 X156.980 Y146.831 E433.56944
G1 X157.885 Y146.768 E433.60716
G1 X158.661 Y146.750 E433.63943
G1 X160.320 Y146.750 E433.70840
G1 X160.321 Y148.250 E433.77077
G1 X169.450 Y148.250 E434.15031
G1 X169.450 Y148.561 E434.16324
G1 X168.867 Y148.954 E434.19247
G1 X168.490 Y149.250 E434.21239
G1 X161.001 Y149.250 E434.52375
G1 X159.603 Y149.485 E434.58269
G1 X158.687 Y149.617 E434.62116
G1 X157.815 Y149.726 E434.65770
G1 X156.969 Y149.818 E434.69308
G1 X156.104 Y149.896 E434.72919
G1 X155.387 Y149.946 E434.75907
G1 X154.398 Y150.002 E434.80025
G1 X153.531 Y150.031 E434.83632
G1 X152.680 Y150.043 E434.87170
G1 X152.503 Y150.044 E434.87906
G1 X151.839 Y150.038 E434.90667
G1 X150.964 Y150.017 E434.94306
G1 X150.096 Y149.978 E434.97918
G1 X149.226 Y149.922 E435.01543
G1 X148.216 Y149.837 E435.05757
G1 X147.258 Y149.736 E435.09762
G1 X146.361 Y149.623 E435.13520
G1 X145.437 Y149.491 E435.17401
G1 X144.429 Y149.328 E435.21646
G1 X144.000 Y149.250 E435.23459
G1 X136.509 Y149.250 E435.54603
G1 X135.786 Y148.706 E435.58365
G0 F9000 X135.511 Y149.124
;TYPE:WALL-OUTER
G1 F1860 X135.050 Y148.849 E435.60596
G1 X135.049 Y147.750 E435.65165
G1 X144.180 Y147.750 E436.03128
G1 X144.179 Y146.250 E436.09364
G1 X146.931 Y146.250 E436.20806
G1 X148.059 Y146.333 E436.25508
G1 X148.078 Y146.333 E436.25587
G1 X148.961 Y146.385 E436.29264
G1 X149.858 Y146.425 E436.32997
G1 X150.744 Y146.454 E436.36683
G1 X151.627 Y146.471 E436.40355
G1 X151.696 Y146.470 E436.40642
G1 X152.500 Y146.476 E436.43984
G1 X153.375 Y146.471 E436.47622
G1 X154.256 Y146.454 E436.51286
G1 X155.142 Y146.425 E436.54971
G1 X156.039 Y146.385 E436.58704
G1 X156.948 Y146.332 E436.62490
G1 X157.863 Y146.268 E436.66303
G1 X158.650 Y146.250 E436.69576
G1 X160.820 Y146.250 E436.78598
G1 X160.821 Y147.750 E436.84834
G1 X169.950 Y147.750 E437.22788
G1 X169.951 Y148.854 E437.27378
G1 X169.609 Y149.045 E437.29007
G1 X169.165 Y149.356 E437.31260
G1 X168.702 Y149.719 E437.33706
G1 X168.665 Y149.750 E437.33907
G1 X161.046 Y149.750 E437.65583
G1 X159.685 Y149.978 E437.71320
G1 X158.749 Y150.113 E437.75252
G1 X157.869 Y150.223 E437.78939
G1 X157.023 Y150.315 E437.82477
G1 X156.149 Y150.394 E437.86126
G1 X155.415 Y150.446 E437.89185
G1 X154.409 Y150.502 E437.93374
G1 X153.548 Y150.531 E437.96955
G1 X152.687 Y150.543 E438.00535
G1 X152.501 Y150.544 E438.01309
G1 X151.827 Y150.538 E438.04111
G1 X150.957 Y150.517 E438.07729
G1 X150.073 Y150.477 E438.11408
G1 X149.186 Y150.420 E438.15103
G1 X148.163 Y150.334 E438.19372
G1 X147.205 Y150.233 E438.23377
G1 X146.298 Y150.119 E438.27177
G1 X145.357 Y149.985 E438.31129
G1 X144.335 Y149.819 E438.35433
G1 X143.955 Y149.750 E438.37039
G1 X136.334 Y149.750 E438.68724
G1 X135.939 Y149.433 E438.70829
G1 X135.511 Y149.124 E438.73024
G1 F2400 E438.13024
G1 Z4.140
G0 F9000 X137.303 Y149.074
;TYPE:FILL
G1 Z3.640
G1 F2400 E438.73024
G1 F1860 X137.885 Y148.423 E438.76843
G1 X138.467 Y149.074 E438.80474
G1 F2400 E438.20474
G1 Z4.140
G0 F9000 X144.319 Y149.129
G1 Z3.640
G1 F2400 E438.80474
G1 F1860 X146.525 Y146.924 E438.93441
G1 F2400 E438.33441
G1 Z4.140
G0 F9000 X144.855 Y148.390
G1 Z3.640
G1 F2400 E438.93441
G1 F1860 X145.835 Y149.370 E438.99203
G1 F2400 E438.39203
G1 Z4.140
G0 F9000 X150.690 Y149.829
G1 Z3.640
G1 F2400 E438.99203
G1 F1860 X153.374 Y147.145 E439.14984
G1 F2400 E438.54984
G1 Z4.140
G0 F9000 X153.392 Y149.857
G1 Z3.640
G1 F2400 E439.14984
G1 F1860 X150.661 Y147.126 E439.31041
G1 F2400 E438.71041
G1 Z4.140
G0 F9000 X157.570 Y146.963
G1 Z3.640
G1 F2400 E439.31041
G1 F1860 X159.868 Y149.261 E439.44553
G1 F2400 E438.84553
G1 Z4.140
G0 F9000 X158.075 Y149.516
G1 Z3.640
G1 F2400 E439.44553
G1 F1860 X160.144 Y147.447 E439.56718
G1 F2400 E438.96718
G1 Z4.140
G0 F9000 X165.587 Y149.075
G1 Z3.640
G1 F2400 E439.56718
G1 F1860 X166.169 Y148.425 E439.60534
G1 X166.752 Y149.074 E439.64161
G1 F2400 E439.04161
G1 Z4.140
G0 F9000 X160.144 Y147.770
;TYPE:SKIN
G1 Z3.640
G1 F2400 E439.64161
G1 F1860 X159.299 Y146.925 E439.69129
G0 F9000 X158.594 Y146.926
G1 F1860 X159.992 Y148.324 E439.77349
G0 F9000 X159.284 Y148.324
G1 F1860 X158.067 Y147.107 E439.84504
G0 F9000 X158.069 Y147.816
G1 F1860 X158.655 Y148.756 E439.87488
G1 X159.187 Y149.288 E439.88739
G1 X159.564 Y149.311 E439.90310
G0 F9000 X158.324 Y149.485
G1 F1860 X157.900 Y149.414 E439.91582
G1 X157.262 Y149.484 E439.92895
G1 X156.618 Y149.547 E439.94235
G1 X155.966 Y149.602 E439.95595
G1 X155.302 Y149.646 E439.96995
G1 X154.634 Y149.684 E439.98408
G1 X153.954 Y149.711 E439.99862
G1 X153.264 Y149.729 E440.01332
G1 X152.564 Y149.736 E440.02828
G1 X151.852 Y149.730 E440.04367
G1 X151.129 Y149.715 E440.05918
G1 X150.395 Y149.688 E440.07494
G1 X149.646 Y149.646 E440.09097
G1 X148.882 Y149.589 E440.10709
G1 X148.105 Y149.519 E440.12331
G1 X147.317 Y149.438 E440.13964
G1 X146.512 Y149.340 E440.15603
G1 X145.992 Y149.174 E440.17872
G0 F9000 X145.849 Y148.324
G1 F1860 X144.855 Y147.329 E440.23719
G0 F9000 X145.157 Y146.924
G1 F1860 X146.556 Y148.324 E440.31948
G0 F9000 X146.932 Y147.993
G1 F1860 X145.864 Y146.924 E440.38230
G0 F9000 X146.571 Y146.925
G1 F1860 X146.931 Y147.285 E440.40347
G1 F2400 E439.80347
G1 Z4.140
G0 F9000 X145.142 Y148.324
G1 Z3.640
G1 F2400 E440.40347
G1 F1860 X144.855 Y148.037 E440.42034
G0 F9000 X160.006 Y146.925
G1 F1860 X160.144 Y147.063 E440.42846
G1 F2400 E439.82846
G1 Z4.140
G0 F9000 X172.550 Y148.565
;TYPE:WALL-INNER
G1 Z3.640
G1 F2400 E440.42846
G1 F1860 X172.550 Y148.250 E440.44155
G1 X173.957 Y148.250 E440.50005
G1 X173.958 Y149.250 E440.54162
G1 X173.508 Y149.250 E440.56033
G1 X173.241 Y149.036 E440.57456
G1 X172.786 Y148.706 E440.59793
G1 X172.550 Y148.565 E440.60936
G0 F9000 X172.511 Y149.124
;TYPE:WALL-OUTER
G1 F1860 X172.050 Y148.849 E440.63167
G1 X172.049 Y147.750 E440.67737
G1 X174.457 Y147.750 E440.77748
G1 X174.458 Y149.750 E440.86063
G1 X173.333 Y149.750 E440.90740
G1 X172.938 Y149.433 E440.92846
G1 X172.511 Y149.124 E440.95037
G0 F9000 X173.050 Y148.682
;TYPE:FILL
G1 F1860 X173.241 Y148.424 E440.96553
G1 X173.782 Y149.034 E440.99943
G1 F2400 E440.39943
G1 Z4.140
G0 F9000 X156.250 Y152.048
;TYPE:SUPPORT
G1 Z3.640
G1 F2400 E440.99943
G1 F1860 X156.250 Y159.675 E441.31652
;LAYER:13
M106 S137
G1 F2400 E440.71652
G1 Z4.140
G0 F9000 X131.999 Y148.723 Z3.840
;TYPE:WALL-INNER
G1 Z3.840
G1 F2400 E441.31652
G1 F1800 X131.480 Y149.143 E441.34428
G1 X131.356 Y149.250 E441.35109
G1 X130.969 Y149.250 E441.36718
G1 X130.968 Y148.250 E441.40876
G1 X132.154 Y148.250 E441.45806
G1 X132.154 Y148.613 E441.47316
G1 X131.999 Y148.723 E441.48106
G0 F9000 X132.301 Y149.122
;TYPE:WALL-OUTER
G1 F1800 X131.801 Y149.526 E441.50778
G1 X131.542 Y149.750 E441.52202
G1 X130.469 Y149.750 E441.56663
G1 X130.468 Y147.750 E441.64978
G1 X132.654 Y147.750 E441.74066
G1 X132.654 Y148.871 E441.78727
G1 X132.301 Y149.122 E441.80528
G0 F9000 X131.347 Y149.024
;TYPE:FILL
G1 F1800 X131.142 Y148.820 E441.81730
G1 F2400 E441.21730
G1 Z4.340
G0 F9000 X135.863 Y148.619
;TYPE:WALL-INNER
G1 Z3.840
G1 F2400 E441.81730
G1 F1800 X135.847 Y148.608 E441.81811
G1 X135.847 Y148.250 E441.83299
G1 X144.226 Y148.250 E442.18135
G1 X144.226 Y146.750 E442.24371
G1 X146.225 Y146.750 E442.32682
G1 X147.139 Y146.827 E442.36496
G1 X148.064 Y146.891 E442.40350
G1 X148.971 Y146.944 E442.44128
G1 X149.865 Y146.984 E442.47848
G1 X150.750 Y147.013 E442.51530
G1 X151.634 Y147.030 E442.55206
G1 X151.724 Y147.029 E442.55580
G1 X152.499 Y147.035 E442.58802
G1 X153.373 Y147.030 E442.62436
G1 X154.250 Y147.013 E442.66083
G1 X155.135 Y146.984 E442.69764
G1 X156.029 Y146.944 E442.73484
G1 X156.936 Y146.891 E442.77262
G1 X157.861 Y146.827 E442.81117
G1 X158.769 Y146.751 E442.84905
G1 X159.473 Y146.750 E442.87832
G1 X160.774 Y146.750 E442.93241
G1 X160.778 Y148.250 E442.99477
G1 X169.153 Y148.250 E443.34296
G1 X169.153 Y148.613 E443.35805
G1 X168.998 Y148.723 E443.36596
G1 X168.479 Y149.143 E443.39371
G1 X168.355 Y149.250 E443.40052
G1 X161.460 Y149.250 E443.68718
G1 X160.520 Y149.419 E443.72689
G1 X159.531 Y149.581 E443.76856
G1 X158.629 Y149.711 E443.80645
G1 X157.778 Y149.818 E443.84210
G1 X156.949 Y149.907 E443.87677
G1 X156.091 Y149.985 E443.91259
G1 X155.398 Y150.034 E443.94147
G1 X154.399 Y150.092 E443.98307
G1 X153.544 Y150.121 E444.01864
G1 X152.701 Y150.133 E444.05369
G1 X152.502 Y150.134 E444.06197
G1 X151.870 Y150.129 E444.08824
G1 X151.003 Y150.108 E444.12430
G1 X150.144 Y150.070 E444.16005
G1 X149.280 Y150.015 E444.19604
G1 X148.258 Y149.930 E444.23868
G1 X147.310 Y149.829 E444.27831
G1 X146.429 Y149.719 E444.31523
G1 X145.527 Y149.590 E444.35311
G1 X144.535 Y149.429 E444.39489
G1 X143.540 Y149.250 E444.43692
G1 X136.643 Y149.250 E444.72366
G1 X135.863 Y148.619 E444.76538
G0 F9000 X135.566 Y149.022
;TYPE:WALL-OUTER
G1 F1800 X135.347 Y148.870 E444.77646
G1 X135.347 Y147.750 E444.82302
G1 X143.726 Y147.750 E445.17138
G1 X143.725 Y146.250 E445.23374
G1 X146.242 Y146.250 E445.33839
G1 X147.177 Y146.328 E445.37740
G1 X148.096 Y146.392 E445.41570
G1 X148.997 Y146.445 E445.45322
G1 X149.884 Y146.485 E445.49014
G1 X150.763 Y146.513 E445.52670
G1 X151.636 Y146.530 E445.56300
G1 X151.722 Y146.529 E445.56658
G1 X152.500 Y146.535 E445.59892
G1 X153.366 Y146.530 E445.63493
G1 X154.237 Y146.513 E445.67115
G1 X155.116 Y146.485 E445.70771
G1 X156.003 Y146.445 E445.74462
G1 X156.904 Y146.392 E445.78215
G1 X157.823 Y146.328 E445.82045
G1 X158.751 Y146.251 E445.85916
G1 X161.274 Y146.250 E445.96406
G1 X161.275 Y147.750 E446.02642
G1 X169.653 Y147.750 E446.37474
G1 X169.653 Y148.871 E446.42134
G1 X169.300 Y149.122 E446.43935
G1 X168.800 Y149.526 E446.46608
G1 X168.541 Y149.750 E446.48031
G1 X161.505 Y149.750 E446.77284
G1 X160.601 Y149.912 E446.81102
G1 X159.613 Y150.074 E446.85264
G1 X158.692 Y150.207 E446.89133
G1 X157.831 Y150.315 E446.92741
G1 X157.002 Y150.404 E446.96207
G1 X156.136 Y150.483 E446.99822
G1 X155.427 Y150.534 E447.02778
G1 X154.413 Y150.592 E447.07000
G1 X153.561 Y150.621 E447.10545
G1 X152.708 Y150.633 E447.14091
G1 X152.501 Y150.634 E447.14952
G1 X151.858 Y150.629 E447.17625
G1 X150.996 Y150.608 E447.21210
G1 X150.122 Y150.569 E447.24847
G1 X149.244 Y150.513 E447.28505
G1 X148.208 Y150.427 E447.32827
G1 X147.258 Y150.326 E447.36799
G1 X146.367 Y150.215 E447.40532
G1 X145.447 Y150.084 E447.44396
G1 X144.442 Y149.920 E447.48629
G1 X143.495 Y149.750 E447.52629
G1 X136.459 Y149.750 E447.81882
G1 X136.014 Y149.371 E447.84312
G1 X135.566 Y149.022 E447.86673
G1 F2400 E447.26673
G1 Z4.340
G0 F9000 X137.303 Y149.074
;TYPE:FILL
G1 Z3.840
G1 F2400 E447.86673
G1 F1800 X137.885 Y148.424 E447.90489
G1 X138.467 Y149.074 E447.94116
G1 F2400 E447.34116
G1 Z4.340
G0 F9000 X144.249 Y149.199
G1 Z3.840
G1 F2400 E447.94116
G1 F1800 X146.501 Y146.948 E448.07354
G1 F2400 E447.47354
G1 Z4.340
G0 F9000 X144.401 Y147.936
G1 Z3.840
G1 F2400 E448.07354
G1 F1800 X145.935 Y149.471 E448.16376
G1 F2400 E447.56376
G1 Z4.340
G0 F9000 X150.605 Y149.915
G1 Z3.840
G1 F2400 E448.16376
G1 F1800 X153.314 Y147.205 E448.32307
G1 F2400 E447.72307
G1 Z4.340
G0 F9000 X150.722 Y147.187
G1 Z3.840
G1 F2400 E448.32307
G1 F1800 X153.481 Y149.946 E448.48529
G1 F2400 E447.88529
G1 Z4.340
G0 F9000 X157.974 Y149.617
G1 Z3.840
G1 F2400 E448.48529
G1 F1800 X160.599 Y146.991 E448.63966
G1 F2400 E448.03966
G1 Z4.340
G0 F9000 X165.587 Y149.075
G1 Z3.840
G1 F2400 E448.63966
G1 F1800 X166.169 Y148.425 E448.67782
G1 X166.752 Y149.074 E448.71409
G1 F2400 E448.11409
G1 Z4.340
G0 F9000 X159.942 Y149.336
G1 Z3.840
G1 F2400 E448.71409
G1 F1800 X157.624 Y147.017 E448.85041
G0 F9000 X158.678 Y147.145
;TYPE:SKIN
G1 F1800 X158.898 Y146.925 E448.86334
G0 F9000 X159.605 Y146.925
G1 F1800 X158.679 Y147.851 E448.91779
G0 F9000 X158.912 Y148.325
G1 F1800 X160.312 Y146.925 E449.00010
G0 F9000 X160.600 Y147.344
G1 F1800 X159.619 Y148.325 E449.05778
G0 F9000 X159.477 Y149.174
G1 F1800 X158.930 Y149.367 E449.07404
G1 X158.116 Y149.474 E449.09049
G1 X157.317 Y149.566 E449.10687
G1 X156.534 Y149.642 E449.12316
G1 X155.764 Y149.705 E449.13941
G1 X155.010 Y149.752 E449.15543
G1 X154.265 Y149.789 E449.17150
G1 X153.534 Y149.813 E449.18731
G1 X152.816 Y149.824 E449.20277
G1 X152.108 Y149.825 E449.21808
G1 X151.414 Y149.812 E449.23308
G1 X150.728 Y149.790 E449.24792
G1 X150.053 Y149.759 E449.26248
G1 X149.388 Y149.717 E449.27666
G1 X148.732 Y149.665 E449.29050
G1 X148.082 Y149.608 E449.30434
G1 X147.443 Y149.540 E449.31770
G1 X146.810 Y149.466 E449.33079
G1 X146.184 Y149.385 E449.34359
G1 X145.552 Y149.310 E449.35603
G1 X145.157 Y149.352 E449.37254
G0 F9000 X145.478 Y148.324
G1 F1800 X146.321 Y147.481 E449.42211
G0 F9000 X146.171 Y146.924
G1 F1800 X144.771 Y148.324 E449.50442
G0 F9000 X144.401 Y147.987
G1 F1800 X145.464 Y146.924 E449.56692
G0 F9000 X144.757 Y146.924
G1 F1800 X144.401 Y147.280 E449.58785
G1 F2400 E448.98785
G1 Z4.340
G0 F9000 X146.185 Y148.324
G1 Z3.840
G1 F2400 E449.58785
G1 F1800 X146.321 Y148.188 E449.59585
G0 F9000 X160.326 Y148.325
G1 F1800 X160.601 Y148.050 E449.61202
G1 F2400 E449.01202
G1 Z4.340
G0 F9000 X172.862 Y148.619
;TYPE:WALL-INNER
G1 Z3.840
G1 F2400 E449.61202
G1 F1800 X172.846 Y148.608 E449.61283
G1 X172.846 Y148.250 E449.62771
G1 X174.031 Y148.250 E449.67698
G1 X174.032 Y149.250 E449.71855
G1 X173.642 Y149.250 E449.73477
G1 X172.862 Y148.619 E449.77648
G0 F9000 X172.565 Y149.022
;TYPE:WALL-OUTER
G1 F1800 X172.346 Y148.870 E449.78756
G1 X172.346 Y147.750 E449.83413
G1 X174.531 Y147.750 E449.92497
G1 X174.532 Y149.750 E450.00812
G1 X173.458 Y149.750 E450.05277
G1 X173.013 Y149.371 E450.07707
G1 X172.565 Y149.022 E450.10068
G0 F9000 X173.125 Y148.608
;TYPE:FILL
G1 F1800 X173.240 Y148.425 E450.11141
G1 X173.823 Y149.075 E450.14771
G1 F2400 E449.54771
G1 Z4.340
G0 F9000 X156.250 Y152.048
;TYPE:SUPPORT
G1 Z3.840
G1 F2400 E450.14771
G1 F1800 X156.250 Y159.675 E450.46481
;LAYER:14
M106 S147
G1 F2400 E449.86481
G1 Z4.340
G0 F9000 X131.955 Y148.641 Z4.040
;TYPE:WALL-INNER
G1 Z4.040
G1 F2400 E450.46481
G1 F1800 X131.392 Y149.119 E450.49551
G1 X131.247 Y149.250 E450.50363
G1 X130.906 Y149.250 E450.51781
G1 X130.905 Y148.250 E450.55939
G1 X131.954 Y148.250 E450.60300
G1 X131.955 Y148.641 E450.61926
G0 F9000 X131.723 Y149.494
;TYPE:WALL-OUTER
G1 F1800 X131.439 Y149.750 E450.63515
G1 X130.406 Y149.750 E450.67810
G1 X130.405 Y147.750 E450.76125
G1 X132.454 Y147.750 E450.84644
G1 X132.455 Y148.880 E450.89342
G1 X131.723 Y149.494 E450.93314
G0 F9000 X131.293 Y148.971
;TYPE:FILL
G1 F1800 X131.080 Y148.758 E450.94566
G1 F2400 E450.34566
G1 Z4.540
G0 F9000 X136.103 Y148.684
;TYPE:WALL-INNER
G1 Z4.040
G1 F2400 E450.94566
G1 F1800 X136.047 Y148.639 E450.94865
G1 X136.046 Y148.250 E450.96482
G1 X143.803 Y148.250 E451.28732
G1 X143.802 Y146.750 E451.34968
G1 X145.623 Y146.750 E451.42539
G1 X146.254 Y146.809 E451.45174
G1 X147.192 Y146.888 E451.49088
G1 X148.108 Y146.952 E451.52905
G1 X149.006 Y147.004 E451.56645
G1 X149.891 Y147.044 E451.60328
G1 X150.767 Y147.072 E451.63972
G1 X151.635 Y147.089 E451.67581
G1 X152.500 Y147.094 E451.71178
G1 X153.365 Y147.089 E451.74774
G1 X154.233 Y147.072 E451.78383
G1 X155.109 Y147.044 E451.82027
G1 X155.994 Y147.004 E451.85710
G1 X156.892 Y146.952 E451.89450
G1 X157.807 Y146.888 E451.93263
G1 X158.746 Y146.810 E451.97181
G1 X159.377 Y146.750 E451.99816
G1 X161.198 Y146.750 E452.07387
G1 X161.199 Y148.250 E452.13623
G1 X168.953 Y148.250 E452.45860
G1 X168.954 Y148.641 E452.47486
G1 X168.391 Y149.119 E452.50557
G1 X168.246 Y149.250 E452.51369
G1 X161.875 Y149.250 E452.77857
G1 X160.424 Y149.520 E452.83993
G1 X159.468 Y149.675 E452.88019
G1 X158.571 Y149.804 E452.91787
G1 X157.738 Y149.909 E452.95277
G1 X156.928 Y149.997 E452.98665
G1 X156.079 Y150.075 E453.02209
G1 X155.412 Y150.122 E453.04989
G1 X154.404 Y150.181 E453.09187
G1 X153.556 Y150.210 E453.12715
G1 X152.722 Y150.223 E453.16183
G1 X152.503 Y150.224 E453.17093
G1 X151.899 Y150.219 E453.19604
G1 X151.042 Y150.199 E453.23168
G1 X150.192 Y150.162 E453.26706
G1 X149.337 Y150.108 E453.30267
G1 X148.316 Y150.023 E453.34527
G1 X147.364 Y149.922 E453.38507
G1 X146.499 Y149.814 E453.42131
G1 X145.609 Y149.687 E453.45869
G1 X144.643 Y149.531 E453.49937
G1 X143.597 Y149.343 E453.54356
G1 X143.125 Y149.250 E453.56356
G1 X136.754 Y149.250 E453.82843
G1 X136.103 Y148.684 E453.86430
G0 F9000 X135.784 Y149.069
;TYPE:WALL-OUTER
G1 F1800 X135.547 Y148.880 E453.87690
G1 X135.546 Y147.750 E453.92388
G1 X143.302 Y147.750 E454.24634
G1 X143.301 Y146.250 E454.30870
G1 X145.649 Y146.250 E454.40632
G1 X146.298 Y146.311 E454.43342
G1 X147.231 Y146.389 E454.47234
G1 X148.140 Y146.453 E454.51023
G1 X149.032 Y146.505 E454.54738
G1 X149.910 Y146.545 E454.58392
G1 X150.780 Y146.572 E454.62011
G1 X151.642 Y146.589 E454.65595
G1 X152.500 Y146.594 E454.69162
G1 X153.358 Y146.589 E454.72729
G1 X154.220 Y146.572 E454.76314
G1 X155.090 Y146.545 E454.79933
G1 X155.968 Y146.505 E454.83587
G1 X156.860 Y146.453 E454.87302
G1 X157.769 Y146.389 E454.91090
G1 X158.701 Y146.312 E454.94978
G1 X159.352 Y146.250 E454.97697
G1 X161.698 Y146.250 E455.07451
G1 X161.699 Y147.750 E455.13687
G1 X169.453 Y147.750 E455.45924
G1 X169.454 Y148.880 E455.50622
G1 X168.722 Y149.494 E455.54594
G1 X168.438 Y149.750 E455.56184
G1 X161.924 Y149.750 E455.83266
G1 X160.517 Y150.011 E455.89215
G1 X159.541 Y150.169 E455.93326
G1 X158.634 Y150.300 E455.97136
G1 X157.792 Y150.406 E456.00664
G1 X156.982 Y150.494 E456.04052
G1 X156.125 Y150.573 E456.07630
G1 X155.441 Y150.622 E456.10481
G1 X154.417 Y150.681 E456.14745
G1 X153.573 Y150.710 E456.18256
G1 X152.729 Y150.723 E456.21766
G1 X152.501 Y150.724 E456.22713
G1 X151.888 Y150.719 E456.25262
G1 X151.036 Y150.699 E456.28805
G1 X150.170 Y150.661 E456.32409
G1 X149.302 Y150.606 E456.36025
G1 X148.263 Y150.520 E456.40360
G1 X147.311 Y150.419 E456.44340
G1 X146.437 Y150.310 E456.48002
G1 X145.538 Y150.182 E456.51777
G1 X144.550 Y150.022 E456.55938
G1 X143.496 Y149.833 E456.60390
G1 X143.076 Y149.750 E456.62170
G1 X136.563 Y149.750 E456.89248
G1 X135.784 Y149.069 E456.93550
G1 F2400 E456.33550
G1 Z4.540
G0 F9000 X137.303 Y149.074
;TYPE:FILL
G1 Z4.040
G1 F2400 E456.93550
G1 F1800 X137.885 Y148.423 E456.97369
G1 X138.467 Y149.074 E457.00999
G1 F2400 E456.40999
G1 Z4.540
G0 F9000 X144.179 Y149.269
G1 Z4.040
G1 F2400 E457.00999
G1 F1800 X146.451 Y146.997 E457.14358
G1 F2400 E456.54358
G1 Z4.540
G0 F9000 X143.976 Y147.512
G1 Z4.040
G1 F2400 E457.14358
G1 F1800 X146.035 Y149.570 E457.26461
G1 F2400 E456.66461
G1 Z4.540
G0 F9000 X150.518 Y150.001
G1 Z4.040
G1 F2400 E457.26461
G1 F1800 X153.256 Y147.264 E457.42556
G1 F2400 E456.82556
G1 Z4.540
G0 F9000 X150.783 Y147.247
G1 Z4.040
G1 F2400 E457.42556
G1 F1800 X153.569 Y150.033 E457.58937
G1 F2400 E456.98937
G1 Z4.540
G0 F9000 X157.877 Y149.714
G1 Z4.040
G1 F2400 E457.58937
G1 F1800 X160.665 Y146.925 E457.75332
G1 F2400 E457.15332
G1 Z4.540
G0 F9000 X160.015 Y149.408
G1 Z4.040
G1 F2400 E457.75332
G1 F1800 X157.677 Y147.071 E457.89076
G1 F2400 E457.29076
G1 Z4.540
G0 F9000 X165.587 Y149.075
G1 Z4.040
G1 F2400 E457.89076
G1 F1800 X166.169 Y148.425 E457.92892
G1 X166.752 Y149.074 E457.96519
G1 F2400 E457.36519
G1 Z4.540
G0 F9000 X161.023 Y147.941
;TYPE:SKIN
G1 Z4.040
G1 F2400 E457.96519
G1 F1800 X160.006 Y146.925 E458.02496
G0 F9000 X159.306 Y146.932
G1 F1800 X160.699 Y148.324 E458.10683
G0 F9000 X160.135 Y149.175
G1 F1800 X160.319 Y149.359 E458.11765
G1 F2400 E457.51765
G1 Z4.540
G0 F9000 X161.023 Y147.234
G1 Z4.040
G1 F2400 E458.11765
G1 F1800 X160.714 Y146.925 E458.13582
G0 F9000 X159.992 Y148.324
G1 F1800 X159.248 Y147.580 E458.17956
G1 F2400 E457.57956
G1 Z4.540
G0 F9000 X159.504 Y149.251
G1 Z4.040
G1 F2400 E458.17956
G1 F1800 X159.403 Y149.504 E458.19170
G1 X158.681 Y149.489 E458.20395
G1 X158.054 Y149.569 E458.21662
G1 X157.420 Y149.642 E458.22951
G1 X156.780 Y149.708 E458.24267
G1 X156.130 Y149.766 E458.25618
G1 X155.470 Y149.813 E458.27016
G1 X154.802 Y149.853 E458.28435
G1 X154.127 Y149.885 E458.29868
G1 X153.441 Y149.905 E458.31328
G1 X152.744 Y149.916 E458.32824
G1 X152.035 Y149.913 E458.34357
G1 X151.314 Y149.900 E458.35904
G1 X150.581 Y149.874 E458.37477
G1 X149.835 Y149.834 E458.39061
G1 X149.074 Y149.780 E458.40666
G1 X148.300 Y149.714 E458.42287
G1 X147.513 Y149.634 E458.43925
G1 X146.711 Y149.539 E458.45564
G1 X145.894 Y149.430 E458.47202
G1 X145.058 Y149.301 E458.48862
G1 X144.506 Y148.749 E458.50030
G1 X143.977 Y147.866 E458.54310
G0 F9000 X143.976 Y147.158
G1 F1800 X145.142 Y148.324 E458.61165
G0 F9000 X145.751 Y148.226
G1 F1800 X144.449 Y146.924 E458.68821
G0 F9000 X145.157 Y146.924
G1 F1800 X145.751 Y147.519 E458.72316
G1 F2400 E458.12316
G1 Z4.540
G0 F9000 X173.102 Y148.684
;TYPE:WALL-INNER
G1 Z4.040
G1 F2400 E458.72316
G1 F1800 X173.046 Y148.639 E458.72615
G1 X173.045 Y148.250 E458.74232
G1 X174.094 Y148.250 E458.78593
G1 X174.095 Y149.250 E458.82751
G1 X173.753 Y149.250 E458.84173
G1 X173.102 Y148.684 E458.87759
G0 F9000 X172.783 Y149.069
;TYPE:WALL-OUTER
G1 F1800 X172.546 Y148.880 E458.89019
G1 X172.545 Y147.750 E458.93717
G1 X174.594 Y147.750 E459.02236
G1 X174.595 Y149.750 E459.10551
G1 X173.562 Y149.750 E459.14846
G1 X172.783 Y149.069 E459.19148
G0 F9000 X173.220 Y148.512
